%
(1001)
(MACHINE)
(  VENDOR AUTODESK)
(  MODEL GENERIC 3-AXIS)
(  DESCRIPTION THIS MACHINE HAS XY AXIS ON THE TABLE AND Z AXIS ON THE HEAD)
(T1  D=3. CR=0. - ZMIN=-2. - FLAT END MILL)
N10 G90 G94 G17 G91.1
N15 G21
(WHEN USING FUSION 360 FOR PERSONAL USE, THE FEEDRATE OF)
(RAPID MOVES IS REDUCED TO MATCH THE FEEDRATE OF CUTTING)
(MOVES, WHICH CAN INCREASE MACHINING TIME. UNRESTRICTED RAPID)
(MOVES ARE AVAILABLE WITH A FUSION 360 SUBSCRIPTION.)
N20 G28 G91 Z0.
N25 G90
(2D ADAPTIVE2)
N30 T1 M6
N35 S5000 M3
N40 G54
N45 M8
N50 G0 X3.499 Y28.502
N55 G43 Z16. H1
N60 G1 Z3.55 F1000.
N65 G3 X5.663 Y28.858 Z3.459 I0.967 J0.876 F333.33
N70 X4.446 Y30.68 Z3.368 I-1.196 J0.519
N75 X3.291 Y28.822 Z3.277 I0.021 J-1.302
N80 X5.458 Y28.537 Z3.186 I1.175 J0.556
N85 X4.823 Y30.626 Z3.095 I-0.991 J0.84
N90 X3.185 Y29.187 Z3.004 I-0.355 J-1.247
N95 X5.17 Y28.29 Z2.913 I1.281 J0.191
N100 X5.167 Y30.465 Z2.822 I-0.703 J1.086
N105 X3.189 Y29.565 Z2.731 I-0.698 J-1.087
N110 X4.824 Y28.138 Z2.64 I1.277 J-0.187
N115 X5.448 Y30.213 Z2.549 I-0.357 J1.239
N120 X3.303 Y29.925 Z2.458 I-0.98 J-0.835
N125 X4.45 Y28.093 Z2.367 I1.164 J-0.547
N130 X5.643 Y29.892 Z2.276 I0.017 J1.284
N135 X3.515 Y30.236 Z2.185 I-1.175 J-0.514
N140 X4.08 Y28.157 Z2.094 I0.952 J-0.857
N145 X5.737 Y29.529 Z2.003 I0.387 J1.22
N150 X3.806 Y30.47 Z1.912 I-1.269 J-0.151
N155 X3.746 Y28.326 Z1.821 I0.661 J-1.092
N160 X5.722 Y29.155 Z1.73 I0.721 J1.052
N165 X4.152 Y30.61 Z1.639 I-1.254 J0.222
N170 X3.476 Y28.583 Z1.548 I0.315 J-1.232
N175 X5.599 Y28.804 Z1.457 I0.99 J0.795
N180 X4.522 Y30.644 Z1.366 I-1.132 J0.573
N185 X3.293 Y28.905 Z1.275 I-0.054 J-1.266
N190 X5.381 Y28.504 Z1.184 I1.174 J0.473
N195 X4.885 Y30.57 Z1.093 I-0.914 J0.873
N200 X3.211 Y29.266 Z1.002 I-0.417 J-1.191
N205 X5.087 Y28.281 Z0.911 I1.256 J0.112
N210 X5.209 Y30.394 Z0.82 I-0.62 J1.096
N215 X3.237 Y29.634 Z0.73 I-0.741 J-1.016
N220 X4.742 Y28.153 Z0.639 I1.23 J-0.255
N225 X5.468 Y30.133 Z0.548 I-0.275 J1.224
N230 X3.368 Y29.976 Z0.457 I-1. J-0.755
N235 X4.376 Y28.131 Z0.366 I1.099 J-0.598
N240 X5.639 Y29.809 Z0.275 I0.091 J1.246
N245 X3.592 Y30.266 Z0.184 I-1.171 J-0.431
N250 X4.021 Y28.215 Z0.093 I0.875 J-0.887
N255 X5.709 Y29.451 Z0.002 I0.446 J1.162
N260 X3.888 Y30.477 Z-0.089 I-1.241 J-0.074
N265 X3.706 Y28.398 Z-0.18 I0.579 J-1.098
N270 X5.672 Y29.089 Z-0.271 I0.76 J0.979
N275 X4.232 Y30.593 Z-0.362 I-1.204 J0.288
N280 X3.459 Y28.663 Z-0.453 I0.235 J-1.214
N285 X5.533 Y28.755 Z-0.544 I1.007 J0.715
N290 X4.594 Y30.604 Z-0.635 I-1.066 J0.622
N295 X3.3 Y28.987 Z-0.726 I-0.126 J-1.226
N300 X5.304 Y28.477 Z-0.817 I1.167 J0.391
N305 X4.941 Y30.51 Z-0.908 I-0.837 J0.9
N310 X3.241 Y29.342 Z-0.999 I-0.473 J-1.132
N315 X5.005 Y28.277 Z-1.09 I1.225 J0.036
N320 X5.246 Y30.321 Z-1.181 I-0.538 J1.099
N325 X3.288 Y29.697 Z-1.272 I-0.778 J-0.943
N330 X4.663 Y28.173 Z-1.363 I1.179 J-0.319
N335 X5.482 Y30.052 Z-1.454 I-0.196 J1.203
N340 X3.435 Y30.022 Z-1.545 I-1.014 J-0.675
N345 X4.307 Y28.173 Z-1.636 I1.032 J-0.644
N350 X5.629 Y29.729 Z-1.727 I0.16 J1.204
N355 X3.669 Y30.29 Z-1.818 I-1.161 J-0.351
N360 X3.967 Y28.275 Z-1.909 I0.798 J-0.911
N365 X5.676 Y29.377 Z-2. I0.5 J1.102
N370 X3.257 I-1.21 J0.
N375 X5.676 I1.21 J0.
N380 G1 X5.698 Y30.001 F1000.
N385 G3 X5.476 Y30.672 I-0.617 J0.168
N390 G1 X5.309 Y30.775
N395 X5.12 Y30.828
N400 X4.75 Y30.876
N405 X4.608 Y30.878
N410 X3.899
N415 G3 X2.59 Y29.833 I0.031 J-1.38
N420 X3.019 Y28.007 I1.683 J-0.568
N425 G1 X3.219 Y27.912
N430 X3.435 Y27.878
N435 X4.75
N440 X4.892 Y27.882
N445 X5.317 Y27.957
N450 X5.36 Y27.964
N455 X5.39 Y27.97
N460 X5.421 Y27.977
N465 X5.483 Y27.994
N470 X5.542 Y28.016
N475 X5.599 Y28.044
N480 G3 X5.705 Y28.455 Z-1.8 I-0.152 J0.258
N485 X5.344 Y28.584 I-0.259 J-0.152
N490 G1 X5.245 Y28.549
N495 G3 X5.051 Y28.224 I0.102 J-0.282
N500 X5.39 Y27.97 Z-2. I0.297 J0.042
N505 G1 X5.459 Y27.982
N510 X5.494 Y27.992
N515 X5.53 Y28.006
N520 X5.601 Y28.045
N525 X5.648 Y28.072
N530 X5.7 Y28.102
N535 G3 X6.36 Y28.906 I-0.908 J1.418
N540 X6.454 Y29.259 I-0.616 J0.354
N545 X6.144 Y29.548 Z-1.8 I-0.3 J-0.01
N550 X5.911 Y29.424 I0.01 J-0.3
N555 G1 X5.906 Y29.417
N560 X5.31 Y28.535
N565 G3 X5.294 Y28.226 I0.249 J-0.168
N570 X5.7 Y28.102 Z-2. I0.265 J0.141
N575 G1 X5.893 Y28.214
N580 G3 X6.295 Y28.681 I-1.24 J1.473
N585 G1 X6.434 Y29.065
N590 G3 X6.448 Y29.632 I-1.833 J0.329
N595 X6.268 Y30.129 I-3.358 J-0.936
N600 X5.887 Y30.55 I-1.74 J-1.192
N605 G1 X5.545 Y30.742
N610 G3 X5.175 Y30.821 I-0.397 J-0.965
N615 G1 X5.12 Y30.828
N620 G3 X4.878 Y30.751 I-0.039 J-0.297
N625 G1 X4.823 Y30.711
N630 X4.76 Y30.685
N635 X4.692 Y30.673
N640 X4.647 Y30.671
N645 X4.634 Y30.67
N650 X4.575 Y30.672
N655 X4.518 Y30.686
N660 X4.464 Y30.712
N665 G3 X3.899 Y30.878 I-0.607 J-1.02
N670 G1 X3.048
N675 G3 X1.975 Y30.173 I0.049 J-1.245
N680 X1.895 Y28.164 I1.82 J-1.078
N685 G1 X2.056 Y28.012
N690 X2.252 Y27.912
N695 X2.468 Y27.878
N700 X3.435
N705 G3 X3.725 Y28.188 Z-1.8 I-0.01 J0.3
N710 G1 X3.721 Y28.225
N715 X3.684 Y28.458
N720 X3.387 Y30.298
N725 X3.343 Y30.568
N730 X3.334 Y30.625 Z-1.825
N735 G3 X3.048 Y30.878 Z-2. I-0.296 J-0.048
N740 G1 X2.261
N745 G3 X1.266 Y30.29 I0.058 J-1.237
N750 X0.899 Y28.378 I1.817 J-1.339
N755 X1.572 Y27.877 I0.674 J0.204
N760 G1 X2.468 Y27.878
N765 G3 X2.758 Y28.188 Z-1.8 I-0.01 J0.3
N770 G1 X2.757 Y28.203
N775 X2.735 Y28.46
N780 X2.577 Y30.295
N785 X2.553 Y30.568
N790 X2.55 Y30.603 Z-1.815
N795 G3 X2.261 Y30.878 Z-2. I-0.299 J-0.026
N800 G1 X1.489
N805 G3 X0.472 Y30.316 I0.051 J-1.295
N810 X0.015 Y28.408 I1.727 J-1.422
N815 X0.697 Y27.877 I0.687 J0.179
N820 G1 X1.572 Y27.878
N825 G3 X1.861 Y28.188 Z-1.8 I-0.01 J0.3
N830 G1 X1.852 Y28.461
N835 X1.788 Y30.294
N840 X1.779 Y30.567
N845 X1.778 Y30.588 Z-1.809
N850 G3 X1.489 Y30.878 Z-2. I-0.3 J-0.01
N855 G1 X0.638
N860 G3 X-0.169 Y30.53 I0.035 J-1.193
N865 X-0.855 Y28.411 I1.502 J-1.657
N870 X-0.172 Y27.877 I0.688 J0.175
N875 G1 X0.697 Y27.878
N880 G3 X0.987 Y28.185 Z-1.801 I-0.01 J0.3
N885 G1 X0.986 Y28.188 Z-1.8
N890 X0.98 Y28.461
N895 X0.935 Y30.294
N900 X0.928 Y30.567
N905 X0.927 Y30.585 Z-1.807
N910 G3 X0.638 Y30.878 Z-2. I-0.3 J-0.007
N915 G1 X-0.149
N920 G3 X-1.296 Y30.224 I0.048 J-1.419
N925 X-1.713 Y28.383 I1.719 J-1.357
N930 X-1.038 Y27.877 I0.678 J0.202
N935 G1 X-0.172 Y27.878
N940 G3 X0.118 Y28.174 Z-1.806 I-0.01 J0.3
N945 G1 Y28.188 Z-1.8
N950 X0.12 Y28.461
N955 X0.138 Y30.294
N960 X0.141 Y30.567
N965 Y30.575 Z-1.803
N970 G3 X-0.149 Y30.878 Z-2. I-0.3 J0.003
N975 G1 X-1.063
N980 G3 X-2.091 Y30.312 I0.081 J-1.363
N985 X-2.587 Y28.42 I1.671 J-1.449
N990 X-1.901 Y27.877 I0.691 J0.168
N995 G1 X-1.038 Y27.878
N1000 G3 X-0.749 Y28.18 Z-1.803 I-0.01 J0.3
N1005 G1 Y28.188 Z-1.8
N1010 X-0.752 Y28.461
N1015 X-0.771 Y30.294
N1020 X-0.774 Y30.567
N1025 Y30.581 Z-1.806
N1030 G3 X-1.063 Y30.878 Z-2. I-0.3 J-0.003
N1035 G1 X-1.914
N1040 G3 X-2.95 Y30.316 I0.072 J-1.369
N1045 X-3.452 Y28.426 I1.668 J-1.455
N1050 X-2.766 Y27.877 I0.691 J0.161
N1055 G1 X-1.901 Y27.878
N1060 G3 X-1.612 Y28.179 Z-1.804 I-0.01 J0.3
N1065 G1 Y28.188 Z-1.8
N1070 X-1.613 Y28.461
N1075 X-1.623 Y30.294
N1080 X-1.625 Y30.567
N1085 Y30.579 Z-1.805
N1090 G3 X-1.914 Y30.878 Z-2. I-0.3 J-0.002
N1095 G1 X-2.765
N1100 G3 X-3.907 Y30.194 I0.085 J-1.437
N1105 X-4.304 Y28.371 I1.731 J-1.332
N1110 X-3.632 Y27.877 I0.675 J0.214
N1115 G1 X-2.766 Y27.878
N1120 G3 X-2.476 Y28.177 Z-1.804 I-0.01 J0.3
N1125 G1 Y28.188 Z-1.8
N1130 Y28.461
N1135 X-2.475 Y30.294
N1140 Y30.567
N1145 Y30.578 Z-1.804
N1150 G3 X-2.765 Y30.878 Z-2. I-0.3 J0.
N1155 G1 X-3.616
N1160 G3 X-4.761 Y30.205 I0.072 J-1.436
N1165 X-5.17 Y28.378 I1.726 J-1.345
N1170 X-4.496 Y27.877 I0.678 J0.209
N1175 G1 X-3.632 Y27.878
N1180 G3 X-3.343 Y28.175 Z-1.805 I-0.01 J0.3
N1185 G1 Y28.188 Z-1.8
N1190 X-3.341 Y28.461
N1195 X-3.328 Y30.294
N1200 X-3.326 Y30.567
N1205 Y30.576 Z-1.803
N1210 G3 X-3.616 Y30.878 Z-2. I-0.3 J0.002
N1215 G1 X-4.466
N1220 G3 X-5.617 Y30.215 I0.061 J-1.436
N1225 X-6.079 Y28.647 I1.739 J-1.364
N1230 G1 X-6.02 Y28.438
N1235 X-5.901 Y28.257
N1240 X-5.732 Y28.121
N1245 G3 X-5.327 Y28.245 Z-1.8 I0.141 J0.265
N1250 G1 X-5.324 Y28.25
N1255 X-5.203 Y28.489
N1260 X-4.274 Y30.314
N1265 X-4.209 Y30.442
N1270 X-4.186 Y30.503
N1275 X-4.177 Y30.567
N1280 G3 X-4.466 Y30.878 Z-2. I-0.3 J0.01
N1285 X-5.546 Y30.747 I-0.062 J-4.028
N1290 G1 X-5.884 Y30.547
N1295 G3 X-6.285 Y30.092 I1.026 J-1.309
N1300 X-6.452 Y29.62 I4.059 J-1.702
N1305 X-6.447 Y29.098 I4.442 J-0.22
N1310 G1 X-6.434 Y29.065
N1315 X-6.294 Y28.681
N1320 G3 X-5.888 Y28.205 I1.788 J1.114
N1325 X-5.46 Y27.98 I1.315 J1.984
N1330 G1 X-4.892 Y27.882
N1335 X-4.75 Y27.878
N1340 X-4.496
N1345 G3 X-4.206 Y28.177 I-0.01 J0.3
N1350 X-4.366 Y28.442 I-0.3 J0.
N1355 G1 X-4.424 Y28.474 Z-1.992
N1360 X-4.48 Y28.503 Z-1.97
N1365 X-4.531 Y28.53 Z-1.935
N1370 X-4.573 Y28.552 Z-1.887
N1375 X-4.604 Y28.569 Z-1.83
N1380 X-4.624 Y28.58 Z-1.767
N1385 X-4.63 Y28.583 Z-1.7
N1390 Z16.
N1395 M9
N1400 G28 G91 Z0.
N1405 G90
N1410 M30
%
