%
(1001)
(MACHINE)
(  VENDOR AUTODESK)
(  MODEL GENERIC 3-AXIS)
(  DESCRIPTION THIS MACHINE HAS XY AXIS ON THE TABLE AND Z AXIS ON THE HEAD)
(T2  D=4. CR=0. - ZMIN=-3. - FLAT END MILL)
N10 G90 G94 G17 G91.1
N15 G21
(WHEN USING FUSION 360 FOR PERSONAL USE, THE FEEDRATE OF)
(RAPID MOVES IS REDUCED TO MATCH THE FEEDRATE OF CUTTING)
(MOVES, WHICH CAN INCREASE MACHINING TIME. UNRESTRICTED RAPID)
(MOVES ARE AVAILABLE WITH A FUSION 360 SUBSCRIPTION.)
N20 G28 G91 Z0.
N25 G90
(2D ADAPTIVE2)
N30 T2 M6
N35 S12000 M3
N40 G54
N45 M8
N50 G0 X3.894 Y28.813
N55 G43 Z15. H2
N60 G1 Z0.51 F200.
N65 G3 X5.342 Y29.004 Z0.449 I0.662 J0.565 F50.
N70 X4.576 Y30.246 Z0.389 I-0.785 J0.373
N75 X3.757 Y29.041 Z0.328 I-0.019 J-0.868
N80 X5.19 Y28.786 Z0.268 I0.799 J0.337
N85 X4.837 Y30.196 Z0.207 I-0.633 J0.591
N90 X3.696 Y29.299 Z0.147 I-0.28 J-0.818
N95 X4.98 Y28.625 Z0.086 I0.86 J0.079
N100 X5.069 Y30.07 Z0.026 I-0.423 J0.752
N105 X3.715 Y29.562 Z-0.035 I-0.512 J-0.693
N110 X4.731 Y28.536 Z-0.095 I0.841 J-0.184
N115 X5.252 Y29.881 Z-0.156 I-0.175 J0.841
N120 X3.813 Y29.806 Z-0.216 I-0.695 J-0.503
N125 X4.469 Y28.525 Z-0.277 I0.743 J-0.428
N130 X5.369 Y29.646 Z-0.337 I0.087 J0.852
N135 X3.98 Y30.009 Z-0.398 I-0.812 J-0.268
N140 X4.216 Y28.595 Z-0.458 I0.576 J-0.631
N145 X5.409 Y29.387 Z-0.519 I0.339 J0.783
N150 X4.199 Y30.151 Z-0.579 I-0.852 J-0.01
N155 X3.997 Y28.737 Z-0.64 I0.357 J-0.772
N160 X5.369 Y29.13 Z-0.7 I0.558 J0.641
N165 X4.45 Y30.219 Z-0.761 I-0.812 J0.247
N170 X3.832 Y28.937 Z-0.821 I0.106 J-0.841
N175 X5.253 Y28.898 Z-0.882 I0.723 J0.44
N180 X4.709 Y30.209 Z-0.942 I-0.697 J0.479
N185 X3.736 Y29.178 Z-1.003 I-0.153 J-0.831
N190 X5.073 Y28.712 Z-1.063 I0.82 J0.2
N195 X4.952 Y30.121 Z-1.124 I-0.517 J0.665
N200 X3.717 Y29.435 Z-1.184 I-0.395 J-0.743
N205 X4.847 Y28.589 Z-1.245 I0.838 J-0.057
N210 X5.156 Y29.964 Z-1.306 I-0.29 J0.788
N215 X3.777 Y29.685 Z-1.366 I-0.599 J-0.586
N220 X4.594 Y28.542 Z-1.427 I0.779 J-0.307
N225 X5.303 Y29.754 Z-1.487 I-0.038 J0.835
N230 X3.909 Y29.904 Z-1.548 I-0.746 J-0.376
N235 X4.34 Y28.572 Z-1.608 I0.647 J-0.526
N240 X5.378 Y29.51 Z-1.669 I0.215 J0.805
N245 X4.1 Y30.073 Z-1.729 I-0.821 J-0.132
N250 X4.109 Y28.678 Z-1.79 I0.456 J-0.695
N255 X5.377 Y29.255 Z-1.85 I0.447 J0.699
N260 X4.333 Y30.175 Z-1.911 I-0.82 J0.122
N265 X3.921 Y28.848 Z-1.971 I0.224 J-0.797
N270 X5.298 Y29.014 Z-2.032 I0.635 J0.529
N275 X4.585 Y30.202 Z-2.092 I-0.742 J0.363
N280 X3.793 Y29.067 Z-2.153 I-0.028 J-0.824
N285 X5.151 Y28.809 Z-2.213 I0.763 J0.311
N290 X4.832 Y30.152 Z-2.274 I-0.595 J0.568
N295 X3.738 Y29.312 Z-2.334 I-0.275 J-0.774
N300 X4.95 Y28.658 Z-2.395 I0.818 J0.065
N305 X5.051 Y30.03 Z-2.455 I-0.393 J0.719
N310 X3.76 Y29.562 Z-2.516 I-0.494 J-0.652
N315 X4.713 Y28.576 Z-2.576 I0.796 J-0.184
N320 X5.223 Y29.848 Z-2.637 I-0.157 J0.801
N325 X3.856 Y29.793 Z-2.697 I-0.666 J-0.47
N330 X4.464 Y28.569 Z-2.758 I0.7 J-0.415
N335 X5.331 Y29.623 Z-2.818 I0.092 J0.808
N340 X4.016 Y29.983 Z-2.879 I-0.774 J-0.246
N345 X4.225 Y28.638 Z-2.939 I0.54 J-0.605
N350 X5.366 Y29.377 Z-3. I0.331 J0.739
N355 X3.746 I-0.81 J0.
N360 X5.366 I0.81 J0.
N365 G1 X5.367 Y29.539 F200.
N370 X5.375 Y29.746
N375 X5.323 Y29.946
N380 X5.215 Y30.122
N385 X5.062 Y30.26
N390 X4.875 Y30.347
N395 X4.671 Y30.378
N400 X4.076
N405 G3 X3.448 Y30.128 I0.001 J-0.917
N410 X3.08 Y29.455 I0.793 J-0.872
N415 G1 X3.076 Y29.187
N420 X3.149 Y28.93
N425 X3.292 Y28.704
N430 X3.494 Y28.528
N435 X3.737 Y28.416
N440 X4.002 Y28.378
N445 X4.795
N450 X5.035 Y28.387
N455 X5.155 Y28.402
N460 X5.225 Y28.413
N465 X5.275 Y28.426
N470 X5.395 Y28.47
N475 X5.455 Y28.495
N480 X5.516 Y28.533
N485 X5.635 Y28.618
N490 X5.676 Y28.653
N495 X5.755 Y28.737
N500 X5.786 Y28.773
N505 X5.865 Y28.893
N510 X5.874 Y28.909
N515 X5.921 Y29.013
N520 X5.96 Y29.133
N525 X5.981 Y29.252
N530 X5.989 Y29.312
N535 Y29.372
N540 X5.985 Y29.492
N545 G3 X5.871 Y29.852 I-1.036 J-0.129
N550 G1 X5.793 Y29.972
N555 G3 X5.455 Y30.258 I-0.846 J-0.657
N560 G1 X5.395 Y30.286
N565 X5.275 Y30.33
N570 X5.269 Y30.331
N575 X5.155 Y30.353
N580 X5.035 Y30.368
N585 X4.795 Y30.377
N590 X4.671 Y30.378
N595 X4.607 Y30.37
N600 X4.545 Y30.353
N605 X4.474 Y30.334
N610 X4.401 Y30.33
N615 X4.329 Y30.341
N620 G3 X4.076 Y30.378 I-0.295 J-1.15
N625 G1 X3.357
N630 G3 X2.841 Y30.18 I0.052 J-0.908
N635 X2.473 Y29.716 I0.724 J-0.952
N640 G1 X2.433 Y29.623
N645 X2.426 Y29.601
N650 X2.381 Y29.354
N655 X2.403 Y29.104
N660 X2.491 Y28.869
N665 X2.638 Y28.666
N670 X2.834 Y28.51
N675 X3.065 Y28.411
N680 X3.313 Y28.378
N685 X4.002
N690 G3 X4.388 Y28.776 Z-2.805 I-0.014 J0.4
N695 G1 Y28.777 Z-2.804
N700 Y28.784 Z-2.802
N705 X4.387 Y28.791 Z-2.8
N710 X4.381 Y28.852
N715 X4.365 Y28.911
N720 X4.34 Y28.967
N725 X3.855 Y29.87
N730 X3.795 Y29.981
N735 X3.695 Y30.167 Z-2.867
N740 G3 X3.357 Y30.378 Z-3. I-0.352 J-0.189
N745 G1 X2.691
N750 G3 X2.216 Y30.223 I0.027 J-0.892
N755 X1.786 Y29.717 I0.65 J-0.988
N760 G1 X1.743 Y29.616
N765 X1.738 Y29.601
N770 X1.693 Y29.354
N775 X1.715 Y29.104
N780 X1.803 Y28.869
N785 X1.95 Y28.666
N790 X2.146 Y28.51
N795 X2.377 Y28.411
N800 X2.625 Y28.378
N805 X3.313
N810 G3 X3.699 Y28.776 Z-2.805 I-0.014 J0.4
N815 G1 Y28.777 Z-2.804
N820 Y28.784 Z-2.802
N825 Y28.791 Z-2.8
N830 X3.693 Y28.85
N835 X3.678 Y28.907
N840 X3.654 Y28.961
N845 X3.185 Y29.868
N850 X3.127 Y29.98
N855 X3.033 Y30.162 Z-2.865
N860 G3 X2.691 Y30.378 Z-3. I-0.355 J-0.184
N865 G1 X2.038
N870 G3 X1.46 Y30.174 I0.003 J-0.93
N875 X1.056 Y29.615 I0.746 J-0.966
N880 G1 X1.051 Y29.601
N885 X1.006 Y29.354
N890 X1.028 Y29.104
N895 X1.116 Y28.869
N900 X1.263 Y28.666
N905 X1.459 Y28.51
N910 X1.689 Y28.411
N915 X1.938 Y28.378
N920 X2.625
N925 G3 X3.011 Y28.776 Z-2.805 I-0.014 J0.4
N930 G1 Y28.777 Z-2.804
N935 Y28.784 Z-2.802
N940 Y28.791 Z-2.8
N945 X3.005 Y28.847
N950 X2.992 Y28.901
N955 X2.971 Y28.953
N960 X2.525 Y29.864
N965 X2.469 Y29.978
N970 X2.383 Y30.153 Z-2.862
N975 G3 X2.038 Y30.378 Z-3. I-0.359 J-0.176
N980 G1 X1.319
N985 G3 X0.841 Y30.223 I0.025 J-0.894
N990 X0.411 Y29.717 I0.65 J-0.988
N995 G1 X0.368 Y29.616
N1000 X0.363 Y29.601
N1005 X0.318 Y29.354
N1010 X0.34 Y29.104
N1015 X0.428 Y28.869
N1020 X0.575 Y28.666
N1025 X0.771 Y28.51
N1030 X1.002 Y28.411
N1035 X1.25 Y28.378
N1040 X1.938
N1045 G3 X2.324 Y28.776 Z-2.805 I-0.014 J0.4
N1050 G1 Y28.777 Z-2.804
N1055 Y28.784 Z-2.802
N1060 Y28.791 Z-2.8
N1065 X2.317 Y28.849
N1070 X2.303 Y28.906
N1075 X2.279 Y28.961
N1080 X1.812 Y29.867
N1085 X1.754 Y29.98
N1090 X1.66 Y30.161 Z-2.865
N1095 G3 X1.319 Y30.378 Z-3. I-0.356 J-0.183
N1100 G1 X0.653
N1105 G3 X0.085 Y30.174 I0.011 J-0.925
N1110 X-0.319 Y29.615 I0.746 J-0.965
N1115 G1 X-0.325 Y29.601
N1120 X-0.37 Y29.354
N1125 X-0.348 Y29.104
N1130 X-0.26 Y28.869
N1135 X-0.112 Y28.666
N1140 X0.084 Y28.51
N1145 X0.314 Y28.411
N1150 X0.563 Y28.378
N1155 X1.25
N1160 G3 X1.636 Y28.776 Z-2.805 I-0.014 J0.4
N1165 G1 Y28.777 Z-2.804
N1170 Y28.784 Z-2.802
N1175 Y28.791 Z-2.8
N1180 X1.63 Y28.847
N1185 X1.616 Y28.903
N1190 X1.594 Y28.955
N1195 X1.142 Y29.865
N1200 X1.086 Y29.978
N1205 X0.998 Y30.156 Z-2.863
N1210 G3 X0.653 Y30.378 Z-3. I-0.358 J-0.178
N1215 G1 X-0.066
N1220 G3 X-0.535 Y30.223 I0.034 J-0.892
N1225 X-0.965 Y29.717 I0.65 J-0.988
N1230 G1 X-1.008 Y29.616
N1235 X-1.013 Y29.601
N1240 X-1.058 Y29.354
N1245 X-1.036 Y29.104
N1250 X-0.948 Y28.869
N1255 X-0.801 Y28.666
N1260 X-0.605 Y28.51
N1265 X-0.374 Y28.411
N1270 X-0.125 Y28.378
N1275 X0.563
N1280 G3 X0.949 Y28.776 Z-2.805 I-0.014 J0.4
N1285 G1 Y28.777 Z-2.804
N1290 Y28.784 Z-2.802
N1295 X0.948 Y28.791 Z-2.8
N1300 X0.942 Y28.85
N1305 X0.927 Y28.908
N1310 X0.903 Y28.963
N1315 X0.429 Y29.868
N1320 X0.37 Y29.98
N1325 X0.274 Y30.163 Z-2.866
N1330 G3 X-0.066 Y30.378 Z-3. I-0.354 J-0.186
N1335 G1 X-0.719
N1340 G3 X-1.29 Y30.174 I0.008 J-0.927
N1345 X-1.695 Y29.615 I0.746 J-0.965
N1350 G1 X-1.7 Y29.601
N1355 X-1.745 Y29.354
N1360 X-1.723 Y29.104
N1365 X-1.635 Y28.869
N1370 X-1.488 Y28.666
N1375 X-1.292 Y28.51
N1380 X-1.061 Y28.411
N1385 X-0.813 Y28.378
N1390 X-0.125
N1395 G3 X0.261 Y28.776 Z-2.805 I-0.014 J0.4
N1400 G1 Y28.777 Z-2.804
N1405 X0.26 Y28.784 Z-2.802
N1410 Y28.791 Z-2.8
N1415 X0.254 Y28.847
N1420 X0.241 Y28.902
N1425 X0.219 Y28.955
N1430 X-0.231 Y29.865
N1435 X-0.287 Y29.978
N1440 X-0.375 Y30.155 Z-2.863
N1445 G3 X-0.719 Y30.378 Z-3. I-0.359 J-0.177
N1450 G1 X-1.439
N1455 G3 X-1.91 Y30.223 I0.031 J-0.892
N1460 X-2.34 Y29.717 I0.65 J-0.988
N1465 G1 X-2.383 Y29.616
N1470 X-2.388 Y29.601
N1475 X-2.433 Y29.354
N1480 X-2.411 Y29.104
N1485 X-2.323 Y28.869
N1490 X-2.176 Y28.666
N1495 X-1.98 Y28.51
N1500 X-1.749 Y28.411
N1505 X-1.501 Y28.378
N1510 X-0.813
N1515 G3 X-0.427 Y28.776 Z-2.805 I-0.014 J0.4
N1520 G1 Y28.777 Z-2.804
N1525 Y28.784 Z-2.802
N1530 Y28.791 Z-2.8
N1535 X-0.433 Y28.85
N1540 X-0.449 Y28.908
N1545 X-0.472 Y28.962
N1550 X-0.944 Y29.868
N1555 X-1.003 Y29.98
N1560 X-1.098 Y30.163 Z-2.866
N1565 G3 X-1.439 Y30.378 Z-3. I-0.355 J-0.185
N1570 G1 X-2.104
N1575 G3 X-2.665 Y30.175 I0.016 J-0.923
N1580 X-3.07 Y29.615 I0.745 J-0.965
N1585 G1 X-3.076 Y29.601
N1590 X-3.121 Y29.354
N1595 X-3.099 Y29.104
N1600 X-3.011 Y28.869
N1605 X-2.863 Y28.666
N1610 X-2.667 Y28.51
N1615 X-2.437 Y28.411
N1620 X-2.188 Y28.378
N1625 X-1.501
N1630 G3 X-1.115 Y28.776 Z-2.805 I-0.014 J0.4
N1635 G1 Y28.777 Z-2.804
N1640 Y28.784 Z-2.802
N1645 Y28.791 Z-2.8
N1650 X-1.121 Y28.848
N1655 X-1.135 Y28.904
N1660 X-1.157 Y28.957
N1665 X-1.614 Y29.866
N1670 X-1.671 Y29.979
N1675 X-1.761 Y30.157 Z-2.864
N1680 G3 X-2.104 Y30.378 Z-3. I-0.357 J-0.18
N1685 G1 X-2.823
N1690 G3 X-3.286 Y30.224 I0.04 J-0.891
N1695 X-3.716 Y29.717 I0.65 J-0.989
N1700 G1 X-3.759 Y29.616
N1705 X-3.764 Y29.601
N1710 X-3.809 Y29.354
N1715 X-3.787 Y29.104
N1720 X-3.699 Y28.869
N1725 X-3.552 Y28.666
N1730 X-3.356 Y28.51
N1735 X-3.125 Y28.411
N1740 X-2.877 Y28.378
N1745 X-2.188
N1750 G3 X-1.802 Y28.776 Z-2.805 I-0.014 J0.4
N1755 G1 Y28.777 Z-2.804
N1760 Y28.784 Z-2.802
N1765 X-1.803 Y28.791 Z-2.8
N1770 X-1.809 Y28.851
N1775 X-1.825 Y28.909
N1780 X-1.849 Y28.964
N1785 X-2.327 Y29.869
N1790 X-2.386 Y29.981
N1795 X-2.484 Y30.165 Z-2.866
N1800 G3 X-2.823 Y30.378 Z-3. I-0.354 J-0.187
N1805 G1 X-3.477
N1810 G3 X-4.041 Y30.174 I0.013 J-0.924
N1815 X-4.446 Y29.615 I0.745 J-0.965
N1820 G1 X-4.451 Y29.601
N1825 X-4.497 Y29.354
N1830 X-4.474 Y29.104
N1835 X-4.386 Y28.869
N1840 X-4.239 Y28.666
N1845 X-4.043 Y28.51
N1850 X-3.813 Y28.411
N1855 X-3.564 Y28.378
N1860 X-2.877
N1865 G3 X-2.491 Y28.776 Z-2.805 I-0.014 J0.4
N1870 G1 Y28.777 Z-2.804
N1875 Y28.784 Z-2.802
N1880 Y28.791 Z-2.8
N1885 X-2.497 Y28.848
N1890 X-2.511 Y28.903
N1895 X-2.533 Y28.956
N1900 X-2.987 Y29.866
N1905 X-3.044 Y29.979
N1910 X-3.133 Y30.157 Z-2.863
N1915 G3 X-3.477 Y30.378 Z-3. I-0.358 J-0.179
N1920 G1 X-4.196
N1925 G3 X-4.661 Y30.223 I0.037 J-0.891
N1930 X-5.092 Y29.717 I0.65 J-0.988
N1935 G1 X-5.135 Y29.616
N1940 X-5.14 Y29.601
N1945 X-5.185 Y29.354
N1950 X-5.162 Y29.104
N1955 X-5.075 Y28.869
N1960 X-4.927 Y28.666
N1965 X-4.731 Y28.51
N1970 X-4.501 Y28.411
N1975 X-4.252 Y28.378
N1980 X-3.564
N1985 G3 X-3.178 Y28.776 Z-2.805 I-0.014 J0.4
N1990 G1 Y28.777 Z-2.804
N1995 Y28.784 Z-2.802
N2000 Y28.791 Z-2.8
N2005 X-3.185 Y28.851
N2010 X-3.2 Y28.909
N2015 X-3.224 Y28.964
N2020 X-3.701 Y29.869
N2025 X-3.759 Y29.98
N2030 X-3.856 Y30.164 Z-2.866
N2035 G3 X-4.196 Y30.378 Z-3. I-0.354 J-0.186
N2040 G1 X-4.795 Y30.377
N2045 X-4.915 Y30.373
N2050 G3 X-5.385 Y30.197 I0.074 J-0.912
N2055 X-5.811 Y29.64 I0.703 J-0.979
N2060 G1 X-5.865 Y29.406
N2065 X-5.857 Y29.166
N2070 X-5.789 Y28.936
N2075 X-5.664 Y28.731
N2080 X-5.491 Y28.565
N2085 X-5.281 Y28.448
N2090 X-5.049 Y28.389
N2095 G3 X-4.616 Y28.753 Z-2.8 I0.034 J0.399
N2100 G1 X-4.605 Y28.879
N2105 X-4.522 Y29.849
N2110 X-4.515 Y29.939
N2115 X-4.513 Y29.975
N2120 G3 X-4.915 Y30.373 Z-3. I-0.4 J-0.002
N2125 X-5.275 Y30.33 I0.009 J-1.599
N2130 G1 X-5.395 Y30.286
N2135 X-5.455 Y30.259
N2140 G3 X-5.793 Y29.972 I0.524 J-0.961
N2145 G1 X-5.871 Y29.852
N2150 G3 X-5.985 Y29.492 I0.917 J-0.488
N2155 G1 X-5.989 Y29.372
N2160 Y29.312
N2165 X-5.981 Y29.252
N2170 X-5.96 Y29.133
N2175 X-5.921 Y29.013
N2180 X-5.874 Y28.909
N2185 X-5.865 Y28.893
N2190 X-5.786 Y28.773
N2195 X-5.755 Y28.737
N2200 X-5.676 Y28.653
N2205 X-5.635 Y28.618
N2210 X-5.515 Y28.533
N2215 X-5.455 Y28.495
N2220 X-5.395 Y28.47
N2225 X-5.275 Y28.426
N2230 X-5.225 Y28.413
N2235 X-5.155 Y28.402
N2240 X-5.035 Y28.387
N2245 X-4.795 Y28.378
N2250 X-4.252
N2255 G3 X-3.902 Y28.943 I-0.014 J0.4
N2260 G1 X-3.935 Y29.014 Z-2.992
N2265 X-3.966 Y29.082 Z-2.97
N2270 X-3.994 Y29.145 Z-2.933
N2275 X-4.02 Y29.201 Z-2.883
N2280 X-4.04 Y29.246 Z-2.822
N2285 X-4.056 Y29.279 Z-2.753
N2290 X-4.065 Y29.3 Z-2.678
N2295 X-4.068 Y29.307 Z-2.6
N2300 Z15.
N2305 M9
N2310 G28 G91 Z0.
N2315 G90
N2320 M30
%
