(G-CODE GENERATED BY FLATCAM v8.994 - www.flatcam.org - Version Date: 2020/11/7)

(Name: als holder-F_Cu.gbr_ncc_cnc)
(Type: G-code from Geometry)
(Units: MM)

(Created on Monday, 28 March 2022 at 22:02)

(This preprocessor is the default preprocessor used by FlatCAM.)
(It is made to work with MACH3 compatible motion controllers.)

(TOOL DIAMETER: 1.5 mm)
(Feedrate_XY: 60.0 mm/min)
(Feedrate_Z: 40.0 mm/min)
(Feedrate rapids 1500.0 mm/min)

(Z_Cut: -0.0 mm)
(Z_Move: 2.0 mm)
(Z Start: None mm)
(Z End: 15.0 mm)
(X,Y End: None mm)
(Steps per circle: 64)
(Preprocessor Geometry: default)

(X range:    0.7577 ...   14.4823  mm)
(Y range:   -9.4023 ...    0.2850  mm)

(Spindle Speed: 3600.0 RPM)
G21
G90
G94

G01 F60.00

M5
G00 Z15.0000
G00 X0.0000 Y0.0000
T2
M6    
(MSG, Change to Tool Dia = 1.5000)
M0
G00 Z15.0000

M03 S3600.0
G01 F60.00
G00 X3.7176 Y-1.0154
G01 F40.00
G01 Z-0.0000
G01 F60.00
G01 X5.9238 Y-0.5591
G01 X5.6174 Y-1.4790
G01 X5.6103 Y-1.5038
G01 X5.6012 Y-1.5395
G01 X5.5939 Y-1.5755
G01 X5.5897 Y-1.6010
G01 X5.5851 Y-1.6375
G01 X5.5829 Y-1.6632
G01 X5.5810 Y-1.6999
G01 X5.5807 Y-1.7183
G01 X5.5817 Y-1.7625
G01 X5.5828 Y-1.7809
G01 X5.5863 Y-1.8175
G01 X5.5896 Y-1.8431
G01 X5.5924 Y-1.8612
G01 X5.5958 Y-1.8794
G01 X5.6011 Y-1.9046
G01 X5.6053 Y-1.9225
G01 X5.6151 Y-1.9580
G01 X5.6288 Y-2.0000
G01 X5.6352 Y-2.0172
G01 X5.6492 Y-2.0513
G01 X5.6597 Y-2.0748
G01 X5.6678 Y-2.0913
G01 X5.6762 Y-2.1077
G01 X5.6887 Y-2.1303
G01 X5.7075 Y-2.1619
G01 X5.7175 Y-2.1774
G01 X5.7428 Y-2.2135
G01 X5.7539 Y-2.2282
G01 X5.7772 Y-2.2567
G01 X5.7942 Y-2.2762
G01 X5.8067 Y-2.2897
G01 X5.8195 Y-2.3029
G01 X5.8379 Y-2.3209
G01 X5.8651 Y-2.3457
G01 X5.8792 Y-2.3575
G01 X5.9140 Y-2.3848
G01 X5.9440 Y-2.4061
G01 X5.9656 Y-2.4201
G01 X5.9971 Y-2.4391
G01 X6.0132 Y-2.4481
G01 X6.0361 Y-2.4599
G01 X6.0694 Y-2.4757
G01 X6.1033 Y-2.4899
G01 X6.1274 Y-2.4990
G01 X6.1448 Y-2.5051
G01 X6.1800 Y-2.5159
G01 X6.2049 Y-2.5226
G01 X6.2408 Y-2.5307
G01 X6.2661 Y-2.5354
G01 X6.3025 Y-2.5409
G01 X6.3391 Y-2.5446
G01 X6.3649 Y-2.5464
G01 X6.3833 Y-2.5471
G01 X6.4201 Y-2.5472
G01 X6.4458 Y-2.5464
G01 X6.4642 Y-2.5453
G01 X6.4825 Y-2.5438
G01 X6.5082 Y-2.5410
G01 X6.5446 Y-2.5356
G01 X6.5627 Y-2.5323
G01 X6.6058 Y-2.5228
G01 X6.6413 Y-2.5130
G01 X6.6659 Y-2.5052
G01 X6.7006 Y-2.4929
G01 X6.7177 Y-2.4861
G01 X6.7390 Y-2.4770
G01 X6.7604 Y-2.4861
G01 X6.7948 Y-2.4993
G01 X6.8368 Y-2.5130
G01 X6.8723 Y-2.5228
G01 X6.9154 Y-2.5323
G01 X6.9517 Y-2.5385
G01 X6.9956 Y-2.5438
G01 X7.0323 Y-2.5464
G01 X7.0580 Y-2.5472
G01 X7.0948 Y-2.5471
G01 X7.1132 Y-2.5464
G01 X7.1389 Y-2.5446
G01 X7.1756 Y-2.5409
G01 X7.1938 Y-2.5384
G01 X7.2192 Y-2.5342
G01 X7.2391 Y-2.5304
G01 X7.2629 Y-2.5349
G01 X7.3066 Y-2.5414
G01 X7.3432 Y-2.5450
G01 X7.3873 Y-2.5472
G01 X7.9003 Y-2.5472
G01 X7.9444 Y-2.5450
G01 X7.9811 Y-2.5414
G01 X7.9993 Y-2.5389
G01 X8.0248 Y-2.5349
G01 X8.0429 Y-2.5316
G01 X8.0609 Y-2.5278
G01 X8.0962 Y-2.5190
G01 X8.1153 Y-2.5240
G01 X8.1349 Y-2.5285
G01 X8.1546 Y-2.5325
G01 X8.1823 Y-2.5373
G01 X8.2022 Y-2.5403
G01 X8.2222 Y-2.5427
G01 X8.2422 Y-2.5446
G01 X8.2622 Y-2.5459
G01 X8.2904 Y-2.5471
G01 X8.3105 Y-2.5474
G01 X8.5486 Y-2.5474
G01 X8.5833 Y-2.5466
G01 X8.6076 Y-2.5453
G01 X8.6250 Y-2.5439
G01 X8.6595 Y-2.5399
G01 X8.6836 Y-2.5363
G01 X8.7178 Y-2.5299
G01 X8.7415 Y-2.5245
G01 X8.7751 Y-2.5157
G01 X8.8083 Y-2.5054
G01 X8.8313 Y-2.4974
G01 X8.8476 Y-2.4913
G01 X8.8797 Y-2.4780
G01 X8.9019 Y-2.4679
G01 X9.0128 Y-2.4127
G01 X9.0306 Y-2.4035
G01 X9.0552 Y-2.3898
G01 X9.0726 Y-2.3796
G01 X9.0896 Y-2.3690
G01 X9.1064 Y-2.3579
G01 X9.1229 Y-2.3463
G01 X9.1456 Y-2.3297
G01 X9.1614 Y-2.3172
G01 X9.1769 Y-2.3044
G01 X9.1920 Y-2.2912
G01 X9.2128 Y-2.2722
G01 X9.2272 Y-2.2582
G01 X9.2748 Y-2.2105
G01 X9.2888 Y-2.1961
G01 X9.3025 Y-2.1813
G01 X9.3211 Y-2.1602
G01 X9.3339 Y-2.1447
G01 X9.3463 Y-2.1289
G01 X9.3583 Y-2.1127
G01 X9.3745 Y-2.0898
G01 X9.3856 Y-2.0730
G01 X9.3963 Y-2.0559
G01 X9.4064 Y-2.0386
G01 X9.4201 Y-2.0140
G01 X9.4294 Y-1.9961
G01 X9.4770 Y-1.9009
G01 X9.4918 Y-1.8694
G01 X9.5015 Y-1.8471
G01 X9.5080 Y-1.8310
G01 X9.5198 Y-1.7983
G01 X9.5274 Y-1.7751
G01 X9.5324 Y-1.7585
G01 X9.5411 Y-1.7248
G01 X9.5465 Y-1.7011
G01 X9.5529 Y-1.6669
G01 X9.5556 Y-1.6497
G01 X9.5587 Y-1.6256
G01 X9.5605 Y-1.6083
G01 X9.5630 Y-1.5736
G01 X9.5639 Y-1.5493
G01 X9.5639 Y-1.4193
G01 X9.5619 Y-1.3776
G01 X9.5605 Y-1.3603
G01 X9.5565 Y-1.3257
G01 X9.5529 Y-1.3017
G01 X9.5465 Y-1.2675
G01 X9.5411 Y-1.2437
G01 X9.5324 Y-1.2101
G01 X9.5220 Y-1.1769
G01 X9.5141 Y-1.1539
G01 X9.5015 Y-1.1215
G01 X9.4937 Y-1.1034
G01 X9.4997 Y-1.0895
G01 X9.5092 Y-1.0655
G01 X9.5217 Y-1.0309
G01 X9.5325 Y-0.9957
G01 X9.5392 Y-0.9708
G01 X9.5474 Y-0.9349
G01 X9.5521 Y-0.9096
G01 X9.5576 Y-0.8732
G01 X9.5597 Y-0.8549
G01 X9.5619 Y-0.8292
G01 X9.5638 Y-0.7925
G01 X9.5639 Y-0.7557
G01 X9.5631 Y-0.7299
G01 X9.5605 Y-0.6932
G01 X9.5552 Y-0.6493
G01 X9.5490 Y-0.6130
G01 X9.5441 Y-0.5900
G01 X11.5345 Y-1.0096
G01 X11.5128 Y-1.0201
G01 X11.4803 Y-1.0374
G01 X11.4488 Y-1.0564
G01 X11.4333 Y-1.0664
G01 X11.4032 Y-1.0876
G01 X11.3742 Y-1.1102
G01 X11.3601 Y-1.1221
G01 X11.3328 Y-1.1468
G01 X11.3068 Y-1.1728
G01 X11.2943 Y-1.1863
G01 X11.2702 Y-1.2142
G01 X11.2587 Y-1.2286
G01 X11.2476 Y-1.2432
G01 X11.2264 Y-1.2733
G01 X11.2067 Y-1.3044
G01 X11.1886 Y-1.3365
G01 X11.1801 Y-1.3528
G01 X11.1643 Y-1.3861
G01 X11.1571 Y-1.4030
G01 X11.1438 Y-1.4373
G01 X11.1323 Y-1.4723
G01 X11.1225 Y-1.5078
G01 X11.1182 Y-1.5257
G01 X11.1110 Y-1.5618
G01 X11.1056 Y-1.5982
G01 X11.1020 Y-1.6348
G01 X11.1009 Y-1.6532
G01 X11.1000 Y-1.6900
G01 X11.1000 Y-1.8439
G01 X11.0749 Y-1.8636
G01 X11.0608 Y-1.8754
G01 X11.0379 Y-1.8959
G01 X11.0112 Y-1.9212
G01 X9.3775 Y-3.5549
G01 X9.2391 Y-3.5549
G01 X9.2053 Y-3.5429
G01 X9.1700 Y-3.5322
G01 X9.1343 Y-3.5232
G01 X9.0982 Y-3.5160
G01 X9.0800 Y-3.5131
G01 X9.0435 Y-3.5086
G01 X9.0068 Y-3.5059
G01 X8.9700 Y-3.5050
G01 X7.9282 Y-3.5052
G01 X7.8948 Y-3.5067
G01 X7.8781 Y-3.5080
G01 X7.8048 Y-3.5162
G01 X7.7692 Y-3.5220
G01 X7.7516 Y-3.5255
G01 X7.7165 Y-3.5337
G01 X7.6952 Y-3.5397
G01 X7.6700 Y-3.5322
G01 X7.6522 Y-3.5275
G01 X7.6343 Y-3.5232
G01 X7.5982 Y-3.5160
G01 X7.5800 Y-3.5131
G01 X7.5435 Y-3.5086
G01 X7.5252 Y-3.5070
G01 X7.4884 Y-3.5052
G01 X6.2516 Y-3.5052
G01 X6.2148 Y-3.5070
G01 X6.1965 Y-3.5086
G01 X6.1600 Y-3.5131
G01 X6.1237 Y-3.5194
G01 X6.0878 Y-3.5275
G01 X6.0700 Y-3.5322
G01 X6.0347 Y-3.5429
G01 X6.0009 Y-3.5549
G01 X5.4425 Y-3.5549
G01 X4.2388 Y-2.3512
G01 X4.2121 Y-2.3259
G01 X4.1892 Y-2.3054
G01 X4.1608 Y-2.2821
G01 X4.1400 Y-2.2664
G01 X4.1400 Y-1.6900
G01 X4.1391 Y-1.6532
G01 X4.1364 Y-1.6165
G01 X4.1344 Y-1.5982
G01 X4.1290 Y-1.5618
G01 X4.1256 Y-1.5437
G01 X4.1175 Y-1.5078
G01 X4.1128 Y-1.4900
G01 X4.1021 Y-1.4547
G01 X4.0897 Y-1.4201
G01 X4.0757 Y-1.3861
G01 X4.0599 Y-1.3528
G01 X4.0426 Y-1.3203
G01 X4.0236 Y-1.2888
G01 X4.0032 Y-1.2581
G01 X3.9813 Y-1.2286
G01 X3.9579 Y-1.2001
G01 X3.9332 Y-1.1728
G01 X3.9072 Y-1.1468
G01 X3.8799 Y-1.1221
G01 X3.8514 Y-1.0987
G01 X3.8219 Y-1.0768
G01 X3.7912 Y-1.0564
G01 X3.7597 Y-1.0374
G01 X3.7435 Y-1.0286
G01 X3.7176 Y-1.0154
G00 Z2.0000
G00 X4.1400 Y-2.1526
G01 F40.00
G01 Z-0.0000
G01 F60.00
G01 X4.2012 Y-2.1083
G01 X4.3348 Y-2.0167
G01 X4.4706 Y-1.9283
G01 X4.6085 Y-1.8434
G01 X4.7484 Y-1.7618
G01 X4.8904 Y-1.6837
G01 X5.0341 Y-1.6091
G01 X5.1797 Y-1.5381
G01 X5.3270 Y-1.4706
G01 X5.4759 Y-1.4068
G01 X5.6263 Y-1.3466
G01 X5.6663 Y-1.3318
G00 Z2.0000
G00 X6.0531 Y-2.4682
G01 F40.00
G01 Z-0.0000
G01 F60.00
G01 X5.9351 Y-2.5154
G01 X5.8133 Y-2.5676
G01 X5.6928 Y-2.6228
G01 X5.5737 Y-2.6810
G01 X5.4560 Y-2.7420
G01 X5.3399 Y-2.8059
G01 X5.2254 Y-2.8726
G01 X5.1126 Y-2.9422
G01 X5.0015 Y-3.0144
G01 X4.9425 Y-3.0549
G01 X6.7200 Y-3.5050
G01 X6.7824 Y-3.4852
G01 X6.8814 Y-3.4565
G01 X6.9811 Y-3.4303
G01 X7.0813 Y-3.4064
G01 X7.1822 Y-3.3851
G01 X7.2835 Y-3.3662
G01 X7.3853 Y-3.3498
G01 X7.4874 Y-3.3360
G01 X7.5899 Y-3.3246
G01 X7.6926 Y-3.3158
G01 X7.7955 Y-3.3094
G01 X7.8985 Y-3.3056
G01 X8.0016 Y-3.3044
G01 X8.1046 Y-3.3056
G01 X8.2077 Y-3.3094
G01 X8.3105 Y-3.3158
G01 X8.4132 Y-3.3246
G01 X8.5157 Y-3.3360
G01 X8.6178 Y-3.3498
G01 X8.7196 Y-3.3662
G01 X8.8210 Y-3.3851
G01 X8.9218 Y-3.4064
G01 X9.0221 Y-3.4303
G01 X9.1218 Y-3.4565
G01 X9.2208 Y-3.4852
G01 X9.3190 Y-3.5164
G01 X9.3913 Y-3.5412
G01 X10.3099 Y-2.6226
G01 X10.1899 Y-2.5676
G01 X10.0681 Y-2.5154
G01 X9.9450 Y-2.4662
G01 X9.8208 Y-2.4200
G01 X9.6955 Y-2.3769
G01 X9.5691 Y-2.3369
G01 X9.4418 Y-2.3000
G01 X9.3137 Y-2.2662
G01 X9.2373 Y-2.2481
G00 Z2.0000
G00 X9.5042 Y-1.0782
G01 F40.00
G01 Z-0.0000
G01 F60.00
G01 X9.6052 Y-1.1022
G01 X9.7619 Y-1.1435
G01 X9.9175 Y-1.1886
G01 X10.0719 Y-1.2375
G01 X10.2250 Y-1.2902
G01 X10.3769 Y-1.3466
G01 X10.5273 Y-1.4068
G01 X10.6762 Y-1.4706
G01 X10.8234 Y-1.5381
G01 X10.9690 Y-1.6091
G01 X11.1002 Y-1.6771
G00 Z2.0000
G00 X10.8683 Y-6.6206
G01 F40.00
G01 Z-0.0000
G01 F60.00
G01 X10.8724 Y-6.6335
G01 X10.8929 Y-6.7042
G01 X10.9117 Y-6.7754
G01 X10.9287 Y-6.8471
G01 X10.9439 Y-6.9191
G01 X10.9574 Y-6.9915
G01 X10.9691 Y-7.0642
G01 X10.9790 Y-7.1371
G01 X10.9871 Y-7.2103
G01 X10.9934 Y-7.2837
G01 X10.9980 Y-7.3572
G01 X11.0007 Y-7.4308
G01 X11.0016 Y-7.5044
G01 X11.0007 Y-7.5780
G01 X10.9980 Y-7.6516
G01 X10.9934 Y-7.7251
G01 X10.9871 Y-7.7984
G01 X10.9790 Y-7.8716
G01 X10.9691 Y-7.9446
G01 X10.9574 Y-8.0173
G01 X10.9439 Y-8.0897
G01 X10.9287 Y-8.1617
G01 X10.9117 Y-8.2333
G01 X10.8929 Y-8.3045
G01 X10.8724 Y-8.3752
G01 X10.8502 Y-8.4454
G01 X10.8262 Y-8.5151
G01 X10.8006 Y-8.5841
G01 X10.7732 Y-8.6524
G01 X10.7442 Y-8.7200
G01 X9.3290 Y-8.7200
G01 X9.3353 Y-8.7132
G01 X9.3645 Y-8.6801
G01 X9.3930 Y-8.6463
G01 X9.4206 Y-8.6118
G01 X9.4473 Y-8.5766
G01 X9.4732 Y-8.5408
G01 X9.4982 Y-8.5044
G01 X9.5223 Y-8.4674
G01 X9.5455 Y-8.4298
G01 X9.5677 Y-8.3916
G01 X9.5890 Y-8.3529
G01 X9.6094 Y-8.3137
G01 X9.6288 Y-8.2740
G01 X9.6471 Y-8.2338
G01 X9.6646 Y-8.1932
G01 X9.6810 Y-8.1522
G01 X9.6964 Y-8.1108
G01 X9.7107 Y-8.0690
G01 X9.7241 Y-8.0269
G01 X9.7364 Y-7.9845
G01 X9.7476 Y-7.9417
G01 X9.7578 Y-7.8988
G01 X9.7670 Y-7.8555
G01 X9.7751 Y-7.8121
G01 X9.7821 Y-7.7685
G01 X9.7880 Y-7.7247
G01 X9.7929 Y-7.6808
G01 X9.7967 Y-7.6368
G01 X9.7994 Y-7.5927
G01 X9.8010 Y-7.5486
G01 X9.8016 Y-7.5044
G01 X9.8010 Y-7.4602
G01 X9.7994 Y-7.4161
G01 X9.7967 Y-7.3720
G01 X9.7929 Y-7.3280
G01 X9.7880 Y-7.2840
G01 X9.7821 Y-7.2403
G01 X9.7751 Y-7.1966
G01 X9.7670 Y-7.1532
G01 X9.7578 Y-7.1100
G01 X9.7476 Y-7.0670
G01 X9.7364 Y-7.0243
G01 X9.7241 Y-6.9819
G01 X9.7107 Y-6.9398
G01 X9.6964 Y-6.8980
G01 X9.6810 Y-6.8566
G01 X9.6646 Y-6.8156
G01 X9.6471 Y-6.7749
G01 X9.6288 Y-6.7348
G01 X9.6094 Y-6.6951
G01 X9.5890 Y-6.6559
G01 X9.5677 Y-6.6172
G01 X9.5607 Y-6.6051
G01 X8.6016 Y-7.5044
G01 X8.6008 Y-7.5338
G01 X8.5987 Y-7.5632
G01 X8.5951 Y-7.5924
G01 X8.5900 Y-7.6214
G01 X8.5836 Y-7.6502
G01 X8.5757 Y-7.6786
G01 X8.5665 Y-7.7065
G01 X8.5559 Y-7.7340
G01 X8.5440 Y-7.7609
G01 X8.5307 Y-7.7872
G01 X8.5162 Y-7.8128
G01 X8.5005 Y-7.8377
G01 X8.4835 Y-7.8618
G01 X8.4746 Y-7.8735
G01 X8.4559 Y-7.8963
G01 X8.4361 Y-7.9181
G01 X8.4258 Y-7.9286
G01 X8.4045 Y-7.9490
G01 X8.3822 Y-7.9682
G01 X8.3707 Y-7.9774
G01 X8.3590 Y-7.9863
G01 X8.3349 Y-8.0033
G01 X8.3100 Y-8.0190
G01 X8.2973 Y-8.0264
G01 X8.2713 Y-8.0403
G01 X8.2581 Y-8.0468
G01 X8.2447 Y-8.0529
G01 X8.2175 Y-8.0642
G01 X8.1898 Y-8.0741
G01 X8.1757 Y-8.0785
G01 X8.1616 Y-8.0826
G01 X8.1330 Y-8.0898
G01 X8.1041 Y-8.0955
G01 X8.0750 Y-8.0999
G01 X8.0457 Y-8.1028
G01 X8.0310 Y-8.1037
G01 X8.0016 Y-8.1044
G01 X7.9721 Y-8.1037
G01 X7.9574 Y-8.1028
G01 X7.9281 Y-8.0999
G01 X7.8990 Y-8.0955
G01 X7.8845 Y-8.0929
G01 X7.8558 Y-8.0864
G01 X7.8415 Y-8.0826
G01 X7.8134 Y-8.0741
G01 X7.7856 Y-8.0642
G01 X7.7584 Y-8.0529
G01 X7.7450 Y-8.0468
G01 X7.7318 Y-8.0403
G01 X7.7187 Y-8.0335
G01 X7.6931 Y-8.0190
G01 X7.6806 Y-8.0113
G01 X7.6561 Y-7.9949
G01 X7.6442 Y-7.9863
G01 X7.6209 Y-7.9682
G01 X7.5986 Y-7.9490
G01 X7.5773 Y-7.9286
G01 X7.5670 Y-7.9181
G01 X7.5472 Y-7.8963
G01 X7.5286 Y-7.8735
G01 X7.5110 Y-7.8499
G01 X7.5027 Y-7.8377
G01 X7.4869 Y-7.8128
G01 X7.4724 Y-7.7872
G01 X7.4592 Y-7.7609
G01 X7.4472 Y-7.7340
G01 X7.4418 Y-7.7203
G01 X7.4319 Y-7.6926
G01 X7.4233 Y-7.6644
G01 X7.4196 Y-7.6502
G01 X7.4131 Y-7.6214
G01 X7.4081 Y-7.5924
G01 X7.4045 Y-7.5632
G01 X7.4023 Y-7.5338
G01 X7.4016 Y-7.5044
G01 X7.4018 Y-7.4897
G01 X7.4032 Y-7.4602
G01 X7.4061 Y-7.4309
G01 X7.4081 Y-7.4163
G01 X7.4131 Y-7.3873
G01 X7.4196 Y-7.3586
G01 X7.4274 Y-7.3302
G01 X7.4319 Y-7.3162
G01 X7.4418 Y-7.2884
G01 X7.4530 Y-7.2612
G01 X7.4656 Y-7.2346
G01 X7.4724 Y-7.2215
G01 X7.4869 Y-7.1959
G01 X7.5027 Y-7.1710
G01 X7.5196 Y-7.1470
G01 X7.5286 Y-7.1352
G01 X7.5472 Y-7.1125
G01 X7.5670 Y-7.0907
G01 X7.5878 Y-7.0698
G01 X7.6097 Y-7.0501
G01 X7.6324 Y-7.0314
G01 X7.6442 Y-7.0225
G01 X7.6682 Y-7.0055
G01 X7.6806 Y-6.9975
G01 X7.7058 Y-6.9823
G01 X7.7187 Y-6.9752
G01 X7.7450 Y-6.9620
G01 X7.7584 Y-6.9559
G01 X7.7720 Y-6.9501
G01 X7.7994 Y-6.9395
G01 X7.8274 Y-6.9302
G01 X7.8558 Y-6.9224
G01 X7.8701 Y-6.9190
G01 X7.8845 Y-6.9159
G01 X7.9135 Y-6.9109
G01 X7.9281 Y-6.9089
G01 X7.9574 Y-6.9060
G01 X7.9721 Y-6.9051
G01 X8.0016 Y-6.9044
G01 X8.0163 Y-6.9046
G01 X8.0457 Y-6.9060
G01 X8.0750 Y-6.9089
G01 X8.0896 Y-6.9109
G01 X8.1186 Y-6.9159
G01 X8.1474 Y-6.9224
G01 X8.1757 Y-6.9302
G01 X8.1898 Y-6.9347
G01 X8.2175 Y-6.9446
G01 X8.2312 Y-6.9501
G01 X8.2447 Y-6.9559
G01 X8.2713 Y-6.9684
G01 X8.2844 Y-6.9752
G01 X8.3100 Y-6.9897
G01 X8.3349 Y-7.0055
G01 X8.3590 Y-7.0225
G01 X8.3707 Y-7.0314
G01 X8.3822 Y-7.0406
G01 X8.4045 Y-7.0598
G01 X8.4258 Y-7.0801
G01 X8.4361 Y-7.0907
G01 X8.4559 Y-7.1125
G01 X8.4654 Y-7.1237
G01 X8.4835 Y-7.1470
G01 X8.4921 Y-7.1589
G01 X8.5005 Y-7.1710
G01 X8.5162 Y-7.1959
G01 X8.5307 Y-7.2215
G01 X8.5375 Y-7.2346
G01 X8.5501 Y-7.2612
G01 X8.5559 Y-7.2748
G01 X8.5665 Y-7.3022
G01 X8.5713 Y-7.3162
G01 X8.5798 Y-7.3444
G01 X8.5836 Y-7.3586
G01 X8.5900 Y-7.3873
G01 X8.5927 Y-7.4018
G01 X8.5971 Y-7.4309
G01 X8.5987 Y-7.4456
G01 X8.6008 Y-7.4749
G01 X8.6016 Y-7.5044
G01 X6.6742 Y-8.7200
G01 X6.6679 Y-8.7132
G01 X6.6386 Y-8.6801
G01 X6.6102 Y-8.6463
G01 X6.5825 Y-8.6118
G01 X6.5558 Y-8.5766
G01 X6.5299 Y-8.5408
G01 X6.5049 Y-8.5044
G01 X6.4808 Y-8.4674
G01 X6.4577 Y-8.4298
G01 X6.4354 Y-8.3916
G01 X6.4141 Y-8.3529
G01 X6.3938 Y-8.3137
G01 X6.3744 Y-8.2740
G01 X6.3560 Y-8.2338
G01 X6.3386 Y-8.1932
G01 X6.3222 Y-8.1522
G01 X6.3068 Y-8.1108
G01 X6.2924 Y-8.0690
G01 X6.2791 Y-8.0269
G01 X6.2668 Y-7.9845
G01 X6.2555 Y-7.9417
G01 X6.2453 Y-7.8988
G01 X6.2362 Y-7.8555
G01 X6.2281 Y-7.8121
G01 X6.2211 Y-7.7685
G01 X6.2151 Y-7.7247
G01 X6.2102 Y-7.6808
G01 X6.2064 Y-7.6368
G01 X6.2037 Y-7.5927
G01 X6.2021 Y-7.5486
G01 X6.2016 Y-7.5044
G01 X6.2021 Y-7.4602
G01 X6.2037 Y-7.4161
G01 X6.2064 Y-7.3720
G01 X6.2102 Y-7.3280
G01 X6.2151 Y-7.2840
G01 X6.2211 Y-7.2403
G01 X6.2281 Y-7.1966
G01 X6.2362 Y-7.1532
G01 X6.2453 Y-7.1100
G01 X6.2555 Y-7.0670
G01 X6.2668 Y-7.0243
G01 X6.2791 Y-6.9819
G01 X6.2924 Y-6.9398
G01 X6.3068 Y-6.8980
G01 X6.3222 Y-6.8566
G01 X6.3386 Y-6.8156
G01 X6.3560 Y-6.7749
G01 X6.3744 Y-6.7348
G01 X6.3938 Y-6.6951
G01 X6.4141 Y-6.6559
G01 X6.4146 Y-6.6550
G01 X5.0035 Y-7.4041
G01 X5.0025 Y-7.4308
G01 X5.0016 Y-7.5044
G01 X5.0025 Y-7.5780
G01 X5.0052 Y-7.6516
G01 X5.0097 Y-7.7251
G01 X5.0160 Y-7.7984
G01 X5.0241 Y-7.8716
G01 X5.0340 Y-7.9446
G01 X5.0457 Y-8.0173
G01 X5.0592 Y-8.0897
G01 X5.0745 Y-8.1617
G01 X5.0915 Y-8.2333
G01 X5.1102 Y-8.3045
G01 X5.1308 Y-8.3752
G01 X5.1530 Y-8.4454
G01 X5.1769 Y-8.5151
G01 X5.2026 Y-8.5841
G01 X5.2299 Y-8.6524
G01 X5.2589 Y-8.7200
G01 X4.0971 Y-8.7200
G01 X4.1077 Y-8.6877
G01 X4.1128 Y-8.6700
G01 X4.1218 Y-8.6343
G01 X4.1290 Y-8.5982
G01 X4.1344 Y-8.5618
G01 X4.1364 Y-8.5435
G01 X4.1391 Y-8.5068
G01 X4.1398 Y-8.4884
G01 X4.1400 Y-8.2661
G01 X4.1556 Y-8.2516
G01 X4.1688 Y-8.2388
G01 X5.8025 Y-6.6051
G01 X6.0009 Y-6.6051
G01 X6.0347 Y-6.6171
G01 X6.0700 Y-6.6278
G01 X6.1057 Y-6.6368
G01 X6.1418 Y-6.6440
G01 X6.1782 Y-6.6494
G01 X6.2148 Y-6.6530
G01 X6.2516 Y-6.6548
G01 X6.2700 Y-6.6550
G01 X7.2950 Y-6.6550
G01 X7.3282 Y-6.6543
G01 X7.3614 Y-6.6521
G01 X7.4164 Y-6.6461
G01 X7.4520 Y-6.6413
G01 X7.4873 Y-6.6348
G01 X7.5223 Y-6.6266
G01 X7.5568 Y-6.6167
G01 X7.5908 Y-6.6052
G01 X7.6198 Y-6.5939
G01 X7.6474 Y-6.6047
G01 X7.6828 Y-6.6166
G01 X7.7188 Y-6.6269
G01 X7.7552 Y-6.6353
G01 X7.7920 Y-6.6419
G01 X7.8105 Y-6.6445
G01 X7.8403 Y-6.6476
G01 X7.8532 Y-6.6494
G01 X7.8898 Y-6.6530
G01 X7.9266 Y-6.6548
G01 X8.9700 Y-6.6550
G01 X9.0068 Y-6.6541
G01 X9.0252 Y-6.6530
G01 X9.0618 Y-6.6494
G01 X9.0800 Y-6.6469
G01 X9.1163 Y-6.6406
G01 X9.1522 Y-6.6325
G01 X9.1700 Y-6.6278
G01 X9.2053 Y-6.6171
G01 X9.2391 Y-6.6051
G01 X10.4833 Y-6.6051
G01 X10.5213 Y-6.6144
G01 X10.5393 Y-6.6182
G01 X10.5756 Y-6.6245
G01 X10.6059 Y-6.6288
G01 X10.6426 Y-6.6324
G01 X10.6732 Y-6.6342
G01 X10.7100 Y-6.6351
G01 X10.7284 Y-6.6348
G01 X10.7774 Y-6.6324
G01 X10.8141 Y-6.6288
G01 X10.8323 Y-6.6263
G01 X10.8626 Y-6.6216
G01 X10.8807 Y-6.6182
G01 X10.9166 Y-6.6102
G01 X10.9463 Y-6.6025
G01 X10.9816 Y-6.5918
G01 X10.9990 Y-6.5858
G01 X11.0278 Y-6.5753
G01 X11.0449 Y-6.5685
G01 X11.0785 Y-6.5535
G01 X11.1062 Y-6.5402
G01 X11.1225 Y-6.5317
G01 X11.1428 Y-6.5204
G01 X11.1323 Y-6.5523
G01 X11.1225 Y-6.5878
G01 X11.1182 Y-6.6057
G01 X11.1110 Y-6.6418
G01 X11.1081 Y-6.6600
G01 X11.1036 Y-6.6965
G01 X11.1020 Y-6.7148
G01 X11.1002 Y-6.7516
G01 X11.1000 Y-8.4700
G01 X11.1009 Y-8.5068
G01 X11.1036 Y-8.5435
G01 X11.1056 Y-8.5618
G01 X11.1110 Y-8.5982
G01 X11.1182 Y-8.6343
G01 X11.1225 Y-8.6522
G01 X11.1323 Y-8.6877
G01 X11.1429 Y-8.7200
G01 X4.0971 Y-8.7200
G00 Z2.0000
M05
G00 Z2.0000
G00 Z15.00


