(G-CODE GENERATED BY FLATCAM v8.994 - www.flatcam.org - Version Date: 2020/11/7)

(Name: als holder-F_Cu.gbr_ncc_0.1353_cnc)
(Type: G-code from Geometry)
(Units: MM)

(Created on Monday, 28 March 2022 at 22:02)

(This preprocessor is the default preprocessor used by FlatCAM.)
(It is made to work with MACH3 compatible motion controllers.)

(TOOL DIAMETER: 0.1353 mm)
(Feedrate_XY: 120.0 mm/min)
(Feedrate_Z: 59.0 mm/min)
(Feedrate rapids 1500.0 mm/min)

(Z_Cut: -0.1001 mm)
(Z_Move: 2.0 mm)
(Z Start: None mm)
(Z End: 15.0 mm)
(X,Y End: None mm)
(Steps per circle: 64)
(Preprocessor Geometry: default)

(X range:    0.7577 ...   14.4823  mm)
(Y range:   -9.4023 ...    0.2850  mm)

(Spindle Speed: 3600.0 RPM)
G21
G90
G94

G01 F120.00

M5
G00 Z15.0000
G00 X0.0000 Y0.0000
T1
M6    
(MSG, Change to Tool Dia = 0.1353)
M0
G00 Z15.0000

M03 S3600.0
G01 F120.00
G00 X0.8478 Y-0.9121
G01 F59.00
G01 Z-0.1001
G01 F120.00
G01 X0.8436 Y-0.9252
G01 X0.7577 Y-1.2218
G00 Z2.0000
G00 X0.9693 Y-0.8870
G01 F59.00
G01 Z-0.1001
G01 F120.00
G01 X0.9472 Y-0.9566
G01 X0.8536 Y-1.2794
G01 X0.7680 Y-1.6044
G01 X0.7577 Y-1.6479
G01 X0.7577 Y-2.1359
G01 X0.7959 Y-1.9550
G01 X0.8730 Y-1.6307
G01 X0.9580 Y-1.3083
G01 X1.0508 Y-0.9881
G01 X1.0908 Y-0.8618
G00 Z2.0000
G00 X1.2123 Y-0.8367
G01 F59.00
G01 Z-0.1001
G01 F120.00
G01 X1.1544 Y-1.0195
G01 X1.0623 Y-1.3371
G01 X0.9780 Y-1.6570
G01 X0.9016 Y-1.9787
G01 X0.8331 Y-2.3023
G01 X0.7725 Y-2.6275
G01 X0.7577 Y-2.7199
G01 X0.7577 Y-3.5226
G01 X0.7829 Y-3.2950
G01 X0.8270 Y-2.9699
G01 X0.8792 Y-2.6460
G01 X0.9392 Y-2.3234
G01 X1.0072 Y-2.0025
G01 X1.0830 Y-1.6833
G01 X1.1666 Y-1.3660
G01 X1.2580 Y-1.0509
G01 X1.3338 Y-0.8116
G00 Z2.0000
G00 X1.4553 Y-0.7865
G01 F59.00
G01 Z-0.1001
G01 F120.00
G01 X1.3615 Y-1.0823
G01 X1.2709 Y-1.3949
G01 X1.1880 Y-1.7096
G01 X1.1128 Y-2.0262
G01 X1.0454 Y-2.3445
G01 X0.9858 Y-2.6645
G01 X0.9341 Y-2.9858
G01 X0.8903 Y-3.3082
G01 X0.8544 Y-3.6317
G01 X0.8265 Y-3.9559
G01 X0.8066 Y-4.2807
G01 X0.7946 Y-4.6059
G01 X0.7906 Y-4.9313
G01 X0.7946 Y-5.2567
G01 X0.8066 Y-5.5819
G01 X0.8265 Y-5.9068
G01 X0.8544 Y-6.2310
G01 X0.8903 Y-6.5544
G01 X0.9341 Y-6.8769
G01 X0.9858 Y-7.1982
G01 X1.0454 Y-7.5181
G01 X1.1128 Y-7.8365
G01 X1.1880 Y-8.1531
G01 X1.2709 Y-8.4678
G01 X1.3615 Y-8.7803
G01 X1.4598 Y-9.0906
G01 X1.5657 Y-9.3983
G01 X1.5672 Y-9.4023
G01 X1.4526 Y-9.4023
G01 X1.3570 Y-9.1245
G01 X1.2580 Y-8.8118
G01 X1.1666 Y-8.4966
G01 X1.0830 Y-8.1794
G01 X1.0072 Y-7.8602
G01 X0.9392 Y-7.5392
G01 X0.8792 Y-7.2167
G01 X0.8270 Y-6.8928
G01 X0.7829 Y-6.5677
G01 X0.7577 Y-6.3401
G01 X0.7577 Y-7.1428
G01 X0.7725 Y-7.2352
G01 X0.8331 Y-7.5603
G01 X0.9016 Y-7.8839
G01 X0.9780 Y-8.2057
G01 X1.0623 Y-8.5255
G01 X1.1544 Y-8.8432
G01 X1.2543 Y-9.1585
G01 X1.3382 Y-9.4023
G01 X1.2237 Y-9.4023
G01 X1.1515 Y-9.1924
G01 X1.0508 Y-8.8746
G01 X0.9580 Y-8.5544
G01 X0.8730 Y-8.2320
G01 X0.7959 Y-7.9076
G01 X0.7577 Y-7.7267
G01 X0.7577 Y-8.2148
G01 X0.7680 Y-8.2583
G01 X0.8536 Y-8.5833
G01 X0.9472 Y-8.9060
G01 X1.0487 Y-9.2264
G01 X1.1093 Y-9.4023
G01 X0.9948 Y-9.4023
G01 X0.9459 Y-9.2603
G01 X0.8436 Y-8.9374
G01 X0.7577 Y-8.6409
G01 X0.7577 Y-9.0243
G01 X0.8432 Y-9.2943
G01 X0.8803 Y-9.4023
G01 X0.7659 Y-9.4023
G01 X0.7577 Y-9.3784
G01 X0.7577 Y-9.4023
G01 X0.7577 Y-0.9307
G01 X3.1385 Y-0.4384
G01 X3.1174 Y-0.4601
G01 X3.1003 Y-0.4804
G01 X3.0816 Y-0.5015
G01 X3.0745 Y-0.5111
G01 X3.0659 Y-0.5216
G01 X3.0509 Y-0.5435
G01 X3.0343 Y-0.5663
G01 X3.0282 Y-0.5766
G01 X3.0206 Y-0.5879
G01 X3.0078 Y-0.6111
G01 X2.9936 Y-0.6354
G01 X2.9885 Y-0.6462
G01 X2.9821 Y-0.6583
G01 X2.9716 Y-0.6826
G01 X2.9598 Y-0.7082
G01 X2.9558 Y-0.7195
G01 X2.9506 Y-0.7321
G01 X2.9426 Y-0.7573
G01 X2.9334 Y-0.7840
G01 X2.9305 Y-0.7956
G01 X2.9266 Y-0.8086
G01 X2.9210 Y-0.8346
G01 X2.9142 Y-0.8636
G01 X2.9127 Y-0.8738
G01 X2.9101 Y-0.8871
G01 X2.9071 Y-0.9135
G01 X2.9035 Y-0.9398
G01 X2.9027 Y-0.9534
G01 X2.9016 Y-0.9636
G01 X2.9011 Y-0.9934
G01 X2.9000 Y-1.0199
G01 X2.9006 Y-1.0335
G01 X2.9005 Y-1.0455
G01 X2.9028 Y-1.0736
G01 X2.9044 Y-1.1000
G01 X2.9063 Y-1.1135
G01 X2.9074 Y-1.1254
G01 X2.9125 Y-1.1532
G01 X2.9166 Y-1.1794
G01 X2.9198 Y-1.1926
G01 X2.9221 Y-1.2043
G01 X2.9298 Y-1.2314
G01 X2.9365 Y-1.2571
G01 X2.9410 Y-1.2699
G01 X2.9444 Y-1.2814
G01 X2.9548 Y-1.3076
G01 X2.9640 Y-1.3325
G01 X2.9697 Y-1.3448
G01 X2.9742 Y-1.3559
G01 X2.9871 Y-1.3809
G01 X2.9987 Y-1.4048
G01 X3.0056 Y-1.4165
G01 X3.0112 Y-1.4271
G01 X3.0265 Y-1.4508
G01 X3.0403 Y-1.4734
G01 X3.0483 Y-1.4844
G01 X3.0549 Y-1.4944
G01 X3.0725 Y-1.5164
G01 X3.0885 Y-1.5376
G01 X3.0975 Y-1.5477
G01 X3.1051 Y-1.5570
G01 X3.1247 Y-1.5772
G01 X3.1438 Y-1.5979
G01 X3.1527 Y-1.6059
G01 X3.1611 Y-1.6144
G01 X3.1704 Y-1.6224
G01 X1.6883 Y-1.6224
G01 X1.6801 Y-1.6231
G01 X1.6704 Y-1.6253
G01 X1.6626 Y-1.6282
G01 X1.6538 Y-1.6328
G01 X1.6471 Y-1.6377
G01 X1.6399 Y-1.6446
G01 X1.6347 Y-1.6510
G01 X1.6296 Y-1.6596
G01 X1.6263 Y-1.6672
G01 X1.6244 Y-1.6736
G01 X1.6229 Y-1.6817
G01 X1.6224 Y-1.6900
G01 X1.6224 Y-3.3917
G01 X1.6231 Y-3.3999
G01 X1.6253 Y-3.4096
G01 X1.6288 Y-3.4189
G01 X1.6338 Y-3.4276
G01 X1.6399 Y-3.4354
G01 X1.6471 Y-3.4423
G01 X1.6538 Y-3.4472
G01 X1.6626 Y-3.4518
G01 X1.6688 Y-3.4542
G01 X1.6768 Y-3.4564
G01 X1.6834 Y-3.4573
G01 X1.6900 Y-3.4576
G01 X3.3900 Y-3.4576
G01 X3.3999 Y-3.4569
G01 X3.4096 Y-3.4547
G01 X3.4204 Y-3.4504
G01 X3.4290 Y-3.4453
G01 X3.4366 Y-3.4390
G01 X3.4443 Y-3.4303
G01 X3.4497 Y-3.4219
G01 X3.4537 Y-3.4128
G01 X3.4564 Y-3.4032
G01 X3.4573 Y-3.3966
G01 X3.4576 Y-3.3900
G01 X3.4576 Y-3.1627
G01 X3.5402 Y-3.1627
G01 X4.9449 Y-4.5674
G01 X4.9577 Y-4.5790
G01 X4.9702 Y-4.5883
G01 X4.9757 Y-4.5920
G01 X4.9892 Y-4.6000
G01 X5.0063 Y-4.6080
G01 X5.0209 Y-4.6134
G01 X5.0273 Y-4.6153
G01 X5.0440 Y-4.6193
G01 X5.0611 Y-4.6218
G01 X5.0800 Y-4.6227
G01 X6.2047 Y-4.6227
G01 X6.2082 Y-4.6324
G01 X6.2138 Y-4.6426
G01 X6.2199 Y-4.6504
G01 X6.2284 Y-4.6583
G01 X6.2367 Y-4.6639
G01 X6.2472 Y-4.6687
G01 X6.2568 Y-4.6714
G01 X6.2683 Y-4.6726
G01 X7.4700 Y-4.6726
G01 X7.4783 Y-4.6721
G01 X7.4896 Y-4.6697
G01 X7.4989 Y-4.6662
G01 X7.5076 Y-4.6612
G01 X7.5166 Y-4.6540
G01 X7.5233 Y-4.6466
G01 X7.5297 Y-4.6369
G01 X7.5337 Y-4.6278
G01 X7.5367 Y-4.6166
G01 X7.5376 Y-4.6050
G01 X7.5376 Y-4.3416
G01 X7.6094 Y-4.3528
G01 X7.6874 Y-4.3573
G01 X7.7175 Y-4.3562
G01 X7.7037 Y-4.4162
G01 X7.7025 Y-4.4245
G01 X7.7024 Y-4.4329
G01 X7.7031 Y-4.4397
G01 X7.7040 Y-4.4446
G01 X7.7216 Y-4.5222
G01 X7.7242 Y-4.5302
G01 X7.7277 Y-4.5378
G01 X7.7303 Y-4.5422
G01 X7.7342 Y-4.5477
G01 X7.7826 Y-4.6086
G01 X7.7871 Y-4.6137
G01 X7.7933 Y-4.6194
G01 X7.7987 Y-4.6233
G01 X7.8046 Y-4.6267
G01 X7.8761 Y-4.6614
G01 X7.8823 Y-4.6640
G01 X7.8904 Y-4.6664
G01 X7.8954 Y-4.6674
G01 X7.9021 Y-4.6681
G01 X7.9209 Y-4.6682
G01 X7.9270 Y-4.6702
G01 X7.9334 Y-4.6717
G01 X7.9450 Y-4.6726
G01 X8.9733 Y-4.6726
G01 X8.9832 Y-4.6714
G01 X8.9943 Y-4.6681
G01 X9.0048 Y-4.6630
G01 X9.0129 Y-4.6573
G01 X9.0201 Y-4.6504
G01 X9.0272 Y-4.6412
G01 X9.0318 Y-4.6324
G01 X9.0353 Y-4.6227
G01 X9.7433 Y-4.6226
G01 X9.7589 Y-4.6218
G01 X9.7743 Y-4.6196
G01 X9.7808 Y-4.6183
G01 X9.7975 Y-4.6139
G01 X9.8137 Y-4.6080
G01 X9.8279 Y-4.6015
G01 X9.8337 Y-4.5983
G01 X9.8484 Y-4.5893
G01 X9.8623 Y-4.5790
G01 X9.8763 Y-4.5663
G01 X11.7098 Y-2.7327
G01 X11.7824 Y-2.7327
G01 X11.7825 Y-3.3950
G01 X11.7840 Y-3.4048
G01 X11.7869 Y-3.4143
G01 X11.7911 Y-3.4233
G01 X11.7957 Y-3.4303
G01 X11.8022 Y-3.4378
G01 X11.8097 Y-3.4443
G01 X11.8181 Y-3.4497
G01 X11.8272 Y-3.4537
G01 X11.8384 Y-3.4567
G01 X11.8500 Y-3.4576
G01 X13.5517 Y-3.4576
G01 X13.5599 Y-3.4569
G01 X13.5680 Y-3.4552
G01 X13.5759 Y-3.4525
G01 X13.5819 Y-3.4497
G01 X13.5876 Y-3.4462
G01 X13.5942 Y-3.4412
G01 X13.5990 Y-3.4366
G01 X13.6043 Y-3.4303
G01 X13.6097 Y-3.4219
G01 X13.6142 Y-3.4112
G01 X13.6167 Y-3.4016
G01 X13.6176 Y-3.3900
G01 X13.6176 Y-1.6900
G01 X13.6173 Y-1.6834
G01 X13.6160 Y-1.6752
G01 X13.6137 Y-1.6672
G01 X13.6104 Y-1.6596
G01 X13.6062 Y-1.6524
G01 X13.6001 Y-1.6446
G01 X13.5942 Y-1.6388
G01 X13.5862 Y-1.6328
G01 X13.5789 Y-1.6288
G01 X13.5696 Y-1.6253
G01 X13.5599 Y-1.6231
G01 X13.5517 Y-1.6224
G01 X12.0750 Y-1.6224
G01 X12.0910 Y-1.6087
G01 X12.1455 Y-1.5530
G01 X12.1964 Y-1.4897
G01 X12.2416 Y-1.4202
G01 X12.2782 Y-1.3495
G01 X12.3088 Y-1.2724
G01 X12.3311 Y-1.1942
G01 X12.3455 Y-1.1143
G01 X12.3518 Y-1.0333
G01 X12.3501 Y-0.9520
G01 X12.3404 Y-0.8713
G01 X12.3227 Y-0.7920
G01 X12.2972 Y-0.7149
G01 X12.2642 Y-0.6406
G01 X12.2239 Y-0.5700
G01 X12.1769 Y-0.5038
G01 X12.1258 Y-0.4450
G01 X12.1154 Y-0.4347
G01 X14.4823 Y-0.9337
G01 X14.4823 Y-9.4023
G01 X11.5925 Y-9.4023
G01 X11.6078 Y-9.3925
G01 X11.6675 Y-9.3471
G01 X11.6727 Y-9.3427
G01 X11.7300 Y-9.2891
G01 X11.7839 Y-9.2276
G01 X11.8296 Y-9.1638
G01 X11.8332 Y-9.1581
G01 X11.8721 Y-9.0900
G01 X11.9048 Y-9.0168
G01 X11.9301 Y-8.9408
G01 X11.9319 Y-8.9343
G01 X11.9489 Y-8.8577
G01 X11.9586 Y-8.7765
G01 X11.9602 Y-8.6980
G01 X11.9600 Y-8.6913
G01 X11.9536 Y-8.6131
G01 X11.9398 Y-8.5376
G01 X13.5517 Y-8.5376
G01 X13.5583 Y-8.5371
G01 X13.5664 Y-8.5356
G01 X13.5728 Y-8.5337
G01 X13.5804 Y-8.5304
G01 X13.5862 Y-8.5272
G01 X13.5929 Y-8.5223
G01 X13.5990 Y-8.5166
G01 X13.6043 Y-8.5103
G01 X13.6097 Y-8.5019
G01 X13.6142 Y-8.4912
G01 X13.6167 Y-8.4816
G01 X13.6176 Y-8.4700
G01 X13.6176 Y-6.7683
G01 X13.6167 Y-6.7584
G01 X13.6147 Y-6.7504
G01 X13.6118 Y-6.7426
G01 X13.6080 Y-6.7352
G01 X13.6033 Y-6.7284
G01 X13.5966 Y-6.7210
G01 X13.5890 Y-6.7147
G01 X13.5819 Y-6.7103
G01 X13.5743 Y-6.7069
G01 X13.5664 Y-6.7044
G01 X13.5583 Y-6.7029
G01 X13.5500 Y-6.7024
G01 X11.9397 Y-6.7024
G01 X11.9528 Y-6.6321
G01 X11.9596 Y-6.5562
G01 X11.9598 Y-6.5497
G01 X11.9591 Y-6.4735
G01 X11.9511 Y-6.3978
G01 X11.9501 Y-6.3913
G01 X11.9346 Y-6.3167
G01 X11.9122 Y-6.2440
G01 X11.9099 Y-6.2378
G01 X11.8804 Y-6.1676
G01 X11.8443 Y-6.1005
G01 X11.8409 Y-6.0949
G01 X11.7983 Y-6.0318
G01 X11.7500 Y-5.9729
G01 X11.7455 Y-5.9681
G01 X11.6928 Y-5.9155
G01 X11.6328 Y-5.8660
G01 X11.6275 Y-5.8620
G01 X11.5642 Y-5.8197
G01 X11.4971 Y-5.7836
G01 X11.4912 Y-5.7808
G01 X11.4209 Y-5.7515
G01 X11.3433 Y-5.7278
G01 X11.2671 Y-5.7123
G01 X11.1914 Y-5.7043
G01 X11.1848 Y-5.7040
G01 X11.1103 Y-5.7035
G01 X11.0279 Y-5.7109
G01 X10.9515 Y-5.7255
G01 X10.9017 Y-5.7400
G01 X10.8990 Y-5.7224
G01 X10.8953 Y-5.7073
G01 X10.8934 Y-5.7009
G01 X10.8867 Y-5.6832
G01 X10.8800 Y-5.6692
G01 X10.8702 Y-5.6529
G01 X10.8590 Y-5.6377
G01 X10.8486 Y-5.6261
G01 X10.8139 Y-5.5914
G01 X10.8023 Y-5.5810
G01 X10.7857 Y-5.5689
G01 X10.7708 Y-5.5600
G01 X10.7537 Y-5.5520
G01 X10.7359 Y-5.5456
G01 X10.7176 Y-5.5410
G01 X10.6989 Y-5.5382
G01 X10.6800 Y-5.5373
G01 X9.0353 Y-5.5373
G01 X9.0318 Y-5.5276
G01 X9.0272 Y-5.5188
G01 X9.0212 Y-5.5108
G01 X9.0129 Y-5.5027
G01 X9.0033 Y-5.4961
G01 X8.9943 Y-5.4919
G01 X8.9832 Y-5.4886
G01 X8.9733 Y-5.4874
G01 X7.9400 Y-5.4875
G01 X7.9302 Y-5.4890
G01 X7.9211 Y-5.4917
G01 X7.8996 Y-5.4920
G01 X7.8929 Y-5.4930
G01 X7.8848 Y-5.4952
G01 X7.8769 Y-5.4984
G01 X7.8068 Y-5.5321
G01 X7.8009 Y-5.5353
G01 X7.7926 Y-5.5412
G01 X7.7854 Y-5.5482
G01 X7.7336 Y-5.6129
G01 X7.7298 Y-5.6185
G01 X7.7265 Y-5.6244
G01 X7.7245 Y-5.6290
G01 X7.7224 Y-5.6354
G01 X7.7041 Y-5.7145
G01 X7.7029 Y-5.7212
G01 X7.7024 Y-5.7296
G01 X7.7031 Y-5.7397
G01 X7.7125 Y-5.7819
G01 X7.6984 Y-5.7800
G01 X7.6210 Y-5.7762
G01 X7.5435 Y-5.7798
G01 X7.5275 Y-5.7819
G01 X7.5369 Y-5.7409
G01 X7.5376 Y-5.7307
G01 X7.5371 Y-5.7216
G01 X7.5360 Y-5.7150
G01 X7.5178 Y-5.6358
G01 X7.5157 Y-5.6294
G01 X7.5129 Y-5.6233
G01 X7.5095 Y-5.6174
G01 X7.5056 Y-5.6120
G01 X7.4549 Y-5.5485
G01 X7.4514 Y-5.5448
G01 X7.4464 Y-5.5404
G01 X7.4380 Y-5.5347
G01 X7.3635 Y-5.4985
G01 X7.3557 Y-5.4953
G01 X7.3492 Y-5.4935
G01 X7.3425 Y-5.4923
G01 X7.3358 Y-5.4918
G01 X7.3190 Y-5.4918
G01 X7.3130 Y-5.4898
G01 X7.3066 Y-5.4883
G01 X7.2950 Y-5.4874
G01 X6.2667 Y-5.4874
G01 X6.2568 Y-5.4886
G01 X6.2457 Y-5.4919
G01 X6.2367 Y-5.4961
G01 X6.2271 Y-5.5027
G01 X6.2188 Y-5.5108
G01 X6.2128 Y-5.5188
G01 X6.2082 Y-5.5276
G01 X6.2047 Y-5.5373
G01 X5.4383 Y-5.5373
G01 X5.4178 Y-5.5386
G01 X5.4024 Y-5.5410
G01 X5.3873 Y-5.5447
G01 X5.3678 Y-5.5513
G01 X5.3506 Y-5.5593
G01 X5.3357 Y-5.5680
G01 X5.3302 Y-5.5717
G01 X5.3177 Y-5.5810
G01 X5.3037 Y-5.5937
G01 X3.4702 Y-7.4273
G01 X3.4576 Y-7.4273
G01 X3.4575 Y-6.7650
G01 X3.4560 Y-6.7552
G01 X3.4537 Y-6.7472
G01 X3.4497 Y-6.7381
G01 X3.4443 Y-6.7297
G01 X3.4378 Y-6.7222
G01 X3.4303 Y-6.7157
G01 X3.4219 Y-6.7103
G01 X3.4143 Y-6.7069
G01 X3.4080 Y-6.7048
G01 X3.4016 Y-6.7033
G01 X3.3900 Y-6.7024
G01 X1.6900 Y-6.7024
G01 X1.6801 Y-6.7031
G01 X1.6720 Y-6.7048
G01 X1.6626 Y-6.7082
G01 X1.6552 Y-6.7120
G01 X1.6484 Y-6.7167
G01 X1.6410 Y-6.7234
G01 X1.6357 Y-6.7297
G01 X1.6311 Y-6.7367
G01 X1.6275 Y-6.7441
G01 X1.6244 Y-6.7536
G01 X1.6229 Y-6.7617
G01 X1.6224 Y-6.7700
G01 X1.6224 Y-8.4700
G01 X1.6231 Y-8.4799
G01 X1.6258 Y-8.4912
G01 X1.6303 Y-8.5019
G01 X1.6357 Y-8.5103
G01 X1.6410 Y-8.5166
G01 X1.6458 Y-8.5212
G01 X1.6524 Y-8.5262
G01 X1.6581 Y-8.5297
G01 X1.6657 Y-8.5331
G01 X1.6720 Y-8.5352
G01 X1.6801 Y-8.5369
G01 X1.6883 Y-8.5376
G01 X3.3002 Y-8.5376
G01 X3.2986 Y-8.5465
G01 X3.2948 Y-8.5621
G01 X3.2910 Y-8.5875
G01 X3.2867 Y-8.6114
G01 X3.2853 Y-8.6264
G01 X3.2832 Y-8.6415
G01 X3.2819 Y-8.6680
G01 X3.2799 Y-8.6930
G01 X3.2800 Y-8.7072
G01 X3.2794 Y-8.7183
G01 X3.2808 Y-8.7490
G01 X3.2815 Y-8.7782
G01 X3.2827 Y-8.7882
G01 X3.2835 Y-8.8018
G01 X3.2877 Y-8.8298
G01 X3.2908 Y-8.8560
G01 X3.2934 Y-8.8685
G01 X3.2955 Y-8.8811
G01 X3.3025 Y-8.9094
G01 X3.3085 Y-8.9359
G01 X3.3120 Y-8.9473
G01 X3.3146 Y-8.9574
G01 X3.3252 Y-8.9872
G01 X3.3340 Y-9.0137
G01 X3.3384 Y-9.0239
G01 X3.3417 Y-9.0329
G01 X3.3555 Y-9.0624
G01 X3.3672 Y-9.0885
G01 X3.3760 Y-9.1054
G01 X3.3932 Y-9.1343
G01 X3.4077 Y-9.1596
G01 X3.4191 Y-9.1770
G01 X3.4377 Y-9.2021
G01 X3.4550 Y-9.2263
G01 X3.4650 Y-9.2387
G01 X3.5089 Y-9.2879
G01 X3.5189 Y-9.2982
G01 X3.5686 Y-9.3439
G01 X3.5797 Y-9.3531
G01 X3.6322 Y-9.3925
G01 X3.6468 Y-9.4023
G01 X0.7577 Y-9.4023
G01 X1.6827 Y-9.4023
G01 X1.6676 Y-9.3618
G01 X1.5626 Y-9.0566
G01 X1.4651 Y-8.7489
G01 X1.3752 Y-8.4389
G01 X1.2930 Y-8.1268
G01 X1.2184 Y-7.8128
G01 X1.1515 Y-7.4970
G01 X1.0925 Y-7.1797
G01 X1.0412 Y-6.8610
G01 X0.9977 Y-6.5412
G01 X0.9622 Y-6.2204
G01 X0.9345 Y-5.8988
G01 X0.9147 Y-5.5766
G01 X0.9028 Y-5.2541
G01 X0.8988 Y-4.9313
G01 X0.9028 Y-4.6086
G01 X0.9147 Y-4.2860
G01 X0.9345 Y-3.9639
G01 X0.9622 Y-3.6423
G01 X0.9977 Y-3.3215
G01 X1.0412 Y-3.0017
G01 X1.0925 Y-2.6830
G01 X1.1515 Y-2.3657
G01 X1.2184 Y-2.0499
G01 X1.2930 Y-1.7359
G01 X1.3752 Y-1.4237
G01 X1.4651 Y-1.1137
G01 X1.5626 Y-0.8061
G01 X1.5781 Y-0.7611
G00 Z2.0000
G00 X1.7013 Y-0.7356
G01 F59.00
G01 Z-0.1001
G01 F120.00
G01 X1.6654 Y-0.8400
G01 X1.5687 Y-1.1452
G01 X1.4795 Y-1.4526
G01 X1.3980 Y-1.7622
G01 X1.3240 Y-2.0736
G01 X1.2577 Y-2.3868
G01 X1.1991 Y-2.7015
G01 X1.1482 Y-3.0175
G01 X1.1052 Y-3.3347
G01 X1.0699 Y-3.6529
G01 X1.0424 Y-3.9718
G01 X1.0228 Y-4.2913
G01 X1.0110 Y-4.6112
G01 X1.0071 Y-4.9313
G01 X1.0110 Y-5.2514
G01 X1.0228 Y-5.5713
G01 X1.0424 Y-5.8908
G01 X1.0699 Y-6.2098
G01 X1.1052 Y-6.5279
G01 X1.1482 Y-6.8451
G01 X1.1991 Y-7.1612
G01 X1.2577 Y-7.4759
G01 X1.3240 Y-7.7890
G01 X1.3980 Y-8.1005
G01 X1.4795 Y-8.4100
G01 X1.5687 Y-8.7175
G01 X1.6654 Y-9.0227
G01 X1.7695 Y-9.3254
G01 X1.7981 Y-9.4023
G01 X1.9136 Y-9.4023
G01 X1.8714 Y-9.2889
G01 X1.7682 Y-8.9887
G01 X1.6723 Y-8.6861
G01 X1.5839 Y-8.3812
G01 X1.5030 Y-8.0742
G01 X1.4296 Y-7.7653
G01 X1.3639 Y-7.4548
G01 X1.3057 Y-7.1427
G01 X1.2553 Y-6.8292
G01 X1.2126 Y-6.5147
G01 X1.1776 Y-6.1991
G01 X1.1504 Y-5.8829
G01 X1.1309 Y-5.5660
G01 X1.1192 Y-5.2488
G01 X1.1153 Y-4.9313
G01 X1.1192 Y-4.6139
G01 X1.1309 Y-4.2967
G01 X1.1504 Y-3.9798
G01 X1.1776 Y-3.6635
G01 X1.2126 Y-3.3480
G01 X1.2553 Y-3.0334
G01 X1.3057 Y-2.7200
G01 X1.3639 Y-2.4079
G01 X1.4296 Y-2.0973
G01 X1.5030 Y-1.7885
G01 X1.5839 Y-1.4815
G01 X1.6723 Y-1.1766
G01 X1.7682 Y-0.8740
G01 X1.8245 Y-0.7101
G00 Z2.0000
G00 X1.9478 Y-0.6846
G01 F59.00
G01 Z-0.1001
G01 F120.00
G01 X1.8709 Y-0.9079
G01 X1.7759 Y-1.2080
G01 X1.6882 Y-1.5104
G01 X1.6563 Y-1.6313
G00 Z2.0000
G00 X1.7706 Y-1.6224
G01 F59.00
G01 Z-0.1001
G01 F120.00
G01 X1.7925 Y-1.5392
G01 X1.8794 Y-1.2394
G01 X1.9737 Y-0.9419
G01 X2.0710 Y-0.6591
G00 Z2.0000
G00 X2.1957 Y-0.6333
G01 F59.00
G01 Z-0.1001
G01 F120.00
G01 X2.1772 Y-0.6832
G01 X2.0765 Y-0.9758
G01 X1.9830 Y-1.2709
G01 X1.8968 Y-1.5681
G01 X1.8825 Y-1.6224
G01 X1.9944 Y-1.6224
G01 X2.0011 Y-1.5970
G01 X2.0866 Y-1.3023
G01 X2.1793 Y-1.0098
G01 X2.2791 Y-0.7196
G01 X2.3208 Y-0.6075
G00 Z2.0000
G00 X2.4458 Y-0.5816
G01 F59.00
G01 Z-0.1001
G01 F120.00
G01 X2.3810 Y-0.7561
G01 X2.2820 Y-1.0437
G01 X2.1902 Y-1.3337
G01 X2.1065 Y-1.6224
G00 Z2.0000
G00 X2.2192 Y-1.6224
G01 F59.00
G01 Z-0.1001
G01 F120.00
G01 X2.2938 Y-1.3651
G01 X2.3848 Y-1.0777
G01 X2.4829 Y-0.7926
G01 X2.5709 Y-0.5557
G00 Z2.0000
G00 X2.6966 Y-0.5298
G01 F59.00
G01 Z-0.1001
G01 F120.00
G01 X2.6889 Y-0.5489
G01 X2.5848 Y-0.8290
G01 X2.4876 Y-1.1116
G01 X2.3973 Y-1.3965
G01 X2.3319 Y-1.6224
G00 Z2.0000
G00 X2.4445 Y-1.6224
G01 F59.00
G01 Z-0.1001
G01 F120.00
G01 X2.5009 Y-1.4280
G01 X2.5904 Y-1.1456
G01 X2.6867 Y-0.8655
G01 X2.7899 Y-0.5878
G01 X2.8237 Y-0.5035
G00 Z2.0000
G00 X2.9507 Y-0.4772
G01 F59.00
G01 Z-0.1001
G01 F120.00
G01 X2.8909 Y-0.6268
G01 X2.7886 Y-0.9020
G01 X2.6931 Y-1.1795
G01 X2.6045 Y-1.4594
G01 X2.5572 Y-1.6224
G00 Z2.0000
G00 X2.6699 Y-1.6224
G01 F59.00
G01 Z-0.1001
G01 F120.00
G01 X2.7081 Y-1.4908
G01 X2.7959 Y-1.2135
G01 X2.8906 Y-0.9384
G01 X2.9104 Y-0.8849
G00 Z2.0000
G00 X2.9189 Y-1.1889
G01 F59.00
G01 Z-0.1001
G01 F120.00
G01 X2.8987 Y-1.2474
G01 X2.8117 Y-1.5222
G01 X2.7826 Y-1.6224
G00 Z2.0000
G00 X2.8953 Y-1.6224
G01 F59.00
G01 Z-0.1001
G01 F120.00
G01 X2.9152 Y-1.5536
G01 X2.9765 Y-1.3604
G00 Z2.0000
G00 X3.0499 Y-1.4868
G01 F59.00
G01 Z-0.1001
G01 F120.00
G01 X3.0188 Y-1.5851
G01 X3.0080 Y-1.6224
G01 X3.1207 Y-1.6224
G01 X3.1322 Y-1.5854
G00 Z2.0000
G00 X3.0267 Y-0.5787
G01 F59.00
G01 Z-0.1001
G01 F120.00
G01 X3.0778 Y-0.4509
G00 Z2.0000
G00 X1.6224 Y-1.7601
G01 F59.00
G01 Z-0.1001
G01 F120.00
G01 X1.6080 Y-1.8148
G01 X1.5352 Y-2.1210
G01 X1.4700 Y-2.4290
G01 X1.4124 Y-2.7385
G01 X1.3624 Y-3.0493
G01 X1.3200 Y-3.3612
G01 X1.2853 Y-3.6741
G01 X1.2583 Y-3.9878
G01 X1.2390 Y-4.3020
G01 X1.2274 Y-4.6166
G01 X1.2236 Y-4.9313
G01 X1.2274 Y-5.2461
G01 X1.2390 Y-5.5607
G01 X1.2583 Y-5.8749
G01 X1.2853 Y-6.1885
G01 X1.3200 Y-6.5014
G01 X1.3624 Y-6.8134
G01 X1.4124 Y-7.1242
G01 X1.4700 Y-7.4336
G01 X1.5352 Y-7.7416
G01 X1.6080 Y-8.0479
G01 X1.6224 Y-8.1025
G00 Z2.0000
G00 X1.7419 Y-8.5376
G01 F59.00
G01 Z-0.1001
G01 F120.00
G01 X1.7759 Y-8.6546
G01 X1.8709 Y-8.9547
G01 X1.9733 Y-9.2524
G01 X2.0291 Y-9.4023
G01 X2.1445 Y-9.4023
G01 X2.0753 Y-9.2160
G01 X1.9737 Y-8.9208
G01 X1.8794 Y-8.6232
G01 X1.8546 Y-8.5376
G01 X1.9673 Y-8.5376
G01 X1.9830 Y-8.5918
G01 X2.0765 Y-8.8868
G01 X2.1772 Y-9.1795
G01 X2.2600 Y-9.4023
G01 X2.3755 Y-9.4023
G01 X2.2791 Y-9.1430
G01 X2.1793 Y-8.8529
G01 X2.0866 Y-8.5604
G01 X2.0800 Y-8.5376
G00 Z2.0000
G00 X2.1929 Y-8.5376
G01 F59.00
G01 Z-0.1001
G01 F120.00
G01 X2.2820 Y-8.8189
G01 X2.3810 Y-9.1066
G01 X2.4870 Y-9.3917
G01 X2.4912 Y-9.4023
G01 X2.6078 Y-9.4023
G01 X2.5880 Y-9.3527
G01 X2.4829 Y-9.0701
G01 X2.3848 Y-8.7850
G01 X2.3065 Y-8.5376
G00 Z2.0000
G00 X2.4200 Y-8.5376
G01 F59.00
G01 Z-0.1001
G01 F120.00
G01 X2.4876 Y-8.7510
G01 X2.5848 Y-9.0336
G01 X2.6889 Y-9.3138
G01 X2.7244 Y-9.4023
G01 X2.8409 Y-9.4023
G01 X2.7899 Y-9.2748
G01 X2.6867 Y-8.9972
G01 X2.5904 Y-8.7171
G01 X2.5335 Y-8.5376
G00 Z2.0000
G00 X2.6471 Y-8.5376
G01 F59.00
G01 Z-0.1001
G01 F120.00
G01 X2.6931 Y-8.6831
G01 X2.7886 Y-8.9607
G01 X2.8909 Y-9.2359
G01 X2.9575 Y-9.4023
G01 X3.0741 Y-9.4023
G01 X2.9919 Y-9.1969
G01 X2.8906 Y-8.9242
G01 X2.7959 Y-8.6492
G01 X2.7606 Y-8.5376
G00 Z2.0000
G00 X2.8741 Y-8.5376
G01 F59.00
G01 Z-0.1001
G01 F120.00
G01 X2.8987 Y-8.6152
G01 X2.9925 Y-8.8878
G01 X3.0929 Y-9.1580
G01 X3.1906 Y-9.4023
G01 X3.3077 Y-9.4023
G01 X3.2999 Y-9.3842
G01 X3.1939 Y-9.1190
G01 X3.0944 Y-8.8513
G01 X3.0015 Y-8.5813
G01 X2.9877 Y-8.5376
G01 X3.1012 Y-8.5376
G01 X3.1963 Y-8.8148
G01 X3.2949 Y-9.0800
G01 X3.3999 Y-9.3427
G01 X3.4255 Y-9.4023
G01 X3.5432 Y-9.4023
G01 X3.4999 Y-9.3013
G01 X3.4828 Y-9.2584
G00 Z2.0000
G00 X3.2795 Y-8.7241
G01 F59.00
G01 Z-0.1001
G01 F120.00
G01 X3.2154 Y-8.5376
G00 Z2.0000
G00 X3.4576 Y-7.8172
G01 F59.00
G01 Z-0.1001
G01 F120.00
G01 X3.4576 Y-7.8127
G01 X3.4605 Y-7.8127
G01 X3.4576 Y-7.8172
G00 Z2.0000
G00 X3.4629 Y-7.4273
G01 F59.00
G01 Z-0.1001
G01 F120.00
G01 X3.4576 Y-7.4051
G01 X3.5542 Y-7.3433
G01 X3.5418 Y-7.2910
G01 X3.4871 Y-7.0324
G01 X3.4576 Y-6.8745
G00 Z2.0000
G00 X3.4294 Y-6.7150
G01 F59.00
G01 Z-0.1001
G01 F120.00
G01 X3.3967 Y-6.5116
G01 X3.3611 Y-6.2497
G01 X3.3332 Y-5.9976
G00 Z2.0000
G00 X3.4397 Y-5.9759
G01 F59.00
G01 Z-0.1001
G01 F120.00
G01 X3.4685 Y-6.2364
G01 X3.5038 Y-6.4957
G01 X3.5453 Y-6.7541
G01 X3.5932 Y-7.0113
G01 X3.6444 Y-7.2531
G00 Z2.0000
G00 X3.7357 Y-7.1618
G01 F59.00
G01 Z-0.1001
G01 F120.00
G01 X3.6994 Y-6.9902
G01 X3.6520 Y-6.7356
G01 X3.6108 Y-6.4798
G01 X3.5760 Y-6.2232
G01 X3.5474 Y-5.9657
G01 X3.5252 Y-5.7077
G01 X3.5093 Y-5.4492
G01 X3.5028 Y-5.2727
G01 X3.6111 Y-5.2727
G01 X3.6174 Y-5.4438
G01 X3.6331 Y-5.6997
G01 X3.6551 Y-5.9551
G01 X3.6834 Y-6.2099
G01 X3.7179 Y-6.4640
G01 X3.7586 Y-6.7171
G01 X3.8055 Y-6.9691
G01 X3.8270 Y-7.0705
G00 Z2.0000
G00 X3.9183 Y-6.9792
G01 F59.00
G01 Z-0.1001
G01 F120.00
G01 X3.9117 Y-6.9480
G01 X3.8653 Y-6.6985
G01 X3.8250 Y-6.4481
G01 X3.7908 Y-6.1967
G01 X3.7629 Y-5.9445
G01 X3.7411 Y-5.6918
G01 X3.7255 Y-5.4385
G01 X3.7194 Y-5.2727
G01 X3.8277 Y-5.2727
G01 X3.8336 Y-5.4332
G01 X3.8490 Y-5.6838
G01 X3.8706 Y-5.9339
G01 X3.8982 Y-6.1834
G01 X3.9320 Y-6.4322
G01 X3.9719 Y-6.6800
G01 X4.0104 Y-6.8870
G00 Z2.0000
G00 X4.1033 Y-6.7942
G01 F59.00
G01 Z-0.1001
G01 F120.00
G01 X4.0786 Y-6.6615
G01 X4.0391 Y-6.4163
G01 X4.0057 Y-6.1702
G01 X3.9783 Y-5.9233
G01 X3.9570 Y-5.6758
G01 X3.9418 Y-5.4279
G01 X3.9360 Y-5.2727
G01 X4.0443 Y-5.2727
G01 X4.0499 Y-5.4226
G01 X4.0649 Y-5.6679
G01 X4.0860 Y-5.9127
G01 X4.1131 Y-6.1569
G01 X4.1462 Y-6.4004
G01 X4.1852 Y-6.6430
G01 X4.1961 Y-6.7014
G00 Z2.0000
G00 X4.2892 Y-6.6082
G01 F59.00
G01 Z-0.1001
G01 F120.00
G01 X4.2532 Y-6.3845
G01 X4.2205 Y-6.1437
G01 X4.1937 Y-5.9021
G01 X4.1729 Y-5.6599
G01 X4.1580 Y-5.4173
G01 X4.1526 Y-5.2727
G01 X4.2609 Y-5.2727
G01 X4.2661 Y-5.4120
G01 X4.2808 Y-5.6519
G01 X4.3014 Y-5.8915
G01 X4.3279 Y-6.1304
G01 X4.3603 Y-6.3687
G01 X4.3837 Y-6.5138
G00 Z2.0000
G00 X4.4781 Y-6.4194
G01 F59.00
G01 Z-0.1001
G01 F120.00
G01 X4.4674 Y-6.3528
G01 X4.4354 Y-6.1172
G01 X4.4092 Y-5.8809
G01 X4.3888 Y-5.6440
G01 X4.3742 Y-5.4067
G01 X4.3693 Y-5.2727
G01 X4.4776 Y-5.2727
G01 X4.4823 Y-5.4014
G01 X4.4967 Y-5.6360
G01 X4.5169 Y-5.8703
G01 X4.5428 Y-6.1039
G01 X4.5728 Y-6.3247
G00 Z2.0000
G00 X4.6689 Y-6.2285
G01 F59.00
G01 Z-0.1001
G01 F120.00
G01 X4.6502 Y-6.0907
G01 X4.6246 Y-5.8596
G01 X4.6047 Y-5.6281
G01 X4.5904 Y-5.3960
G01 X4.5859 Y-5.2727
G01 X4.6942 Y-5.2727
G01 X4.6985 Y-5.3907
G01 X4.7126 Y-5.6201
G01 X4.7323 Y-5.8490
G01 X4.7577 Y-6.0774
G01 X4.7651 Y-6.1324
G01 X4.8619 Y-6.0356
G01 X4.8400 Y-5.8384
G01 X4.8206 Y-5.6121
G01 X4.8066 Y-5.3854
G01 X4.8025 Y-5.2727
G01 X4.9108 Y-5.2727
G01 X4.9147 Y-5.3801
G01 X4.9285 Y-5.6042
G01 X4.9478 Y-5.8278
G01 X4.9599 Y-5.9375
G00 Z2.0000
G00 X5.0580 Y-5.8395
G01 F59.00
G01 Z-0.1001
G01 F120.00
G01 X5.0555 Y-5.8172
G01 X5.0364 Y-5.5962
G01 X5.0228 Y-5.3748
G01 X5.0191 Y-5.2727
G01 X5.1274 Y-5.2727
G01 X5.1310 Y-5.3695
G01 X5.1444 Y-5.5882
G01 X5.1575 Y-5.7400
G01 X5.2575 Y-5.6400
G01 X5.2523 Y-5.5803
G01 X5.2391 Y-5.3642
G01 X5.2357 Y-5.2727
G01 X5.3440 Y-5.2727
G01 X5.3472 Y-5.3589
G01 X5.3592 Y-5.5552
G00 Z2.0000
G00 X5.4666 Y-5.5373
G01 F59.00
G01 Z-0.1001
G01 F120.00
G01 X5.4553 Y-5.3536
G01 X5.4523 Y-5.2727
G01 X5.5606 Y-5.2727
G01 X5.5634 Y-5.3482
G01 X5.5750 Y-5.5373
G01 X5.6834 Y-5.5373
G01 X5.6715 Y-5.3429
G01 X5.6689 Y-5.2727
G01 X5.7772 Y-5.2727
G01 X5.7796 Y-5.3376
G01 X5.7919 Y-5.5373
G01 X5.9004 Y-5.5373
G01 X5.8877 Y-5.3323
G01 X5.8855 Y-5.2727
G01 X5.9938 Y-5.2727
G01 X5.9958 Y-5.3270
G01 X6.0080 Y-5.5245
G01 X6.0091 Y-5.5373
G01 X6.1177 Y-5.5373
G01 X6.1159 Y-5.5166
G01 X6.1039 Y-5.3217
G01 X6.1021 Y-5.2727
G01 X6.2110 Y-5.2881
G01 X6.2121 Y-5.3164
G01 X6.2237 Y-5.5057
G00 Z2.0000
G00 X6.3310 Y-5.4874
G01 F59.00
G01 Z-0.1001
G01 F120.00
G01 X6.3209 Y-5.3226
G00 Z2.0000
G00 X6.4293 Y-5.3226
G01 F59.00
G01 Z-0.1001
G01 F120.00
G01 X6.4394 Y-5.4874
G01 X6.5479 Y-5.4874
G01 X6.5377 Y-5.3226
G00 Z2.0000
G00 X6.6462 Y-5.3226
G01 F59.00
G01 Z-0.1001
G01 F120.00
G01 X6.6566 Y-5.4874
G00 Z2.0000
G00 X6.7652 Y-5.4874
G01 F59.00
G01 Z-0.1001
G01 F120.00
G01 X6.7636 Y-5.4688
G01 X6.7546 Y-5.3226
G00 Z2.0000
G00 X6.8631 Y-5.3226
G01 F59.00
G01 Z-0.1001
G01 F120.00
G01 X6.8715 Y-5.4608
G01 X6.8738 Y-5.4874
G00 Z2.0000
G00 X6.9825 Y-5.4874
G01 F59.00
G01 Z-0.1001
G01 F120.00
G01 X6.9795 Y-5.4529
G01 X6.9715 Y-5.3226
G00 Z2.0000
G00 X7.0799 Y-5.3226
G01 F59.00
G01 Z-0.1001
G01 F120.00
G01 X7.0874 Y-5.4449
G01 X7.0911 Y-5.4874
G00 Z2.0000
G00 X7.1997 Y-5.4874
G01 F59.00
G01 Z-0.1001
G01 F120.00
G01 X7.1954 Y-5.4370
G01 X7.1884 Y-5.3226
G00 Z2.0000
G00 X7.2968 Y-5.3226
G01 F59.00
G01 Z-0.1001
G01 F120.00
G01 X7.3033 Y-5.4290
G01 X7.3085 Y-5.4887
G00 Z2.0000
G00 X7.4203 Y-5.5259
G01 F59.00
G01 Z-0.1001
G01 F120.00
G01 X7.4113 Y-5.4210
G01 X7.4034 Y-5.2923
G00 Z2.0000
G00 X7.5073 Y-5.1960
G01 F59.00
G01 Z-0.1001
G01 F120.00
G01 X7.5094 Y-5.2526
G01 X7.5192 Y-5.4131
G01 X7.5330 Y-5.5732
G01 X7.5507 Y-5.7329
G01 X7.5570 Y-5.7791
G00 Z2.0000
G00 X7.6661 Y-5.7784
G01 F59.00
G01 Z-0.1001
G01 F120.00
G01 X7.6582 Y-5.7197
G01 X7.6407 Y-5.5626
G01 X7.6272 Y-5.4051
G01 X7.6175 Y-5.2473
G01 X7.6117 Y-5.0894
G01 X7.6097 Y-4.9313
G01 X7.6117 Y-4.7733
G01 X7.6175 Y-4.6153
G01 X7.6272 Y-4.4576
G01 X7.6361 Y-4.3543
G00 Z2.0000
G00 X7.7304 Y-4.5424
G01 F59.00
G01 Z-0.1001
G01 F120.00
G01 X7.7256 Y-4.6206
G01 X7.7199 Y-4.7759
G01 X7.7180 Y-4.9313
G01 X7.7188 Y-5.0004
G01 X7.7041 Y-5.0645
G01 X7.7031 Y-5.0695
G01 X7.7025 Y-5.0745
G01 X7.7024 Y-5.0813
G01 X7.7029 Y-5.0880
G01 X7.7037 Y-5.0930
G01 X7.7216 Y-5.1722
G01 X7.7236 Y-5.1786
G01 X7.7262 Y-5.1848
G01 X7.7294 Y-5.1908
G01 X7.7332 Y-5.1963
G01 X7.7837 Y-5.2599
G01 X7.7882 Y-5.2649
G01 X7.7933 Y-5.2694
G01 X7.7987 Y-5.2733
G01 X7.8046 Y-5.2767
G01 X7.8777 Y-5.3121
G01 X7.8839 Y-5.3146
G01 X7.8904 Y-5.3164
G01 X7.8954 Y-5.3174
G01 X7.9021 Y-5.3181
G01 X7.9209 Y-5.3182
G01 X7.9270 Y-5.3202
G01 X7.9334 Y-5.3217
G01 X7.9450 Y-5.3226
G01 X8.9733 Y-5.3226
G01 X8.9832 Y-5.3214
G01 X8.9943 Y-5.3181
G01 X9.0048 Y-5.3130
G01 X9.0129 Y-5.3073
G01 X9.0201 Y-5.3004
G01 X9.0272 Y-5.2912
G01 X9.0318 Y-5.2824
G01 X9.0353 Y-5.2727
G01 X11.7824 Y-5.2727
G01 X11.7825 Y-5.9350
G01 X11.7840 Y-5.9448
G01 X11.7869 Y-5.9543
G01 X11.7903 Y-5.9619
G01 X11.7957 Y-5.9703
G01 X11.8022 Y-5.9778
G01 X11.8097 Y-5.9843
G01 X11.8181 Y-5.9897
G01 X11.8272 Y-5.9937
G01 X11.8384 Y-5.9967
G01 X11.8500 Y-5.9976
G01 X13.5517 Y-5.9976
G01 X13.5632 Y-5.9964
G01 X13.5743 Y-5.9931
G01 X13.5848 Y-5.9880
G01 X13.5942 Y-5.9812
G01 X13.6023 Y-5.9729
G01 X13.6062 Y-5.9676
G01 X13.6097 Y-5.9619
G01 X13.6142 Y-5.9512
G01 X13.6169 Y-5.9399
G01 X13.6176 Y-5.9300
G01 X13.6176 Y-4.2283
G01 X13.6171 Y-4.2217
G01 X13.6160 Y-4.2152
G01 X13.6125 Y-4.2041
G01 X13.6072 Y-4.1938
G01 X13.6001 Y-4.1846
G01 X13.5916 Y-4.1767
G01 X13.5819 Y-4.1703
G01 X13.5712 Y-4.1658
G01 X13.5599 Y-4.1631
G01 X13.5500 Y-4.1624
G01 X11.8500 Y-4.1624
G01 X11.8434 Y-4.1627
G01 X11.8368 Y-4.1636
G01 X11.8304 Y-4.1653
G01 X11.8241 Y-4.1675
G01 X11.8152 Y-4.1720
G01 X11.8071 Y-4.1777
G01 X11.7999 Y-4.1846
G01 X11.7947 Y-4.1910
G01 X11.7903 Y-4.1981
G01 X11.7863 Y-4.2072
G01 X11.7836 Y-4.2168
G01 X11.7824 Y-4.2267
G01 X11.7824 Y-4.8873
G01 X9.0353 Y-4.8873
G01 X9.0318 Y-4.8776
G01 X9.0272 Y-4.8688
G01 X9.0212 Y-4.8608
G01 X9.0129 Y-4.8527
G01 X9.0033 Y-4.8461
G01 X8.9943 Y-4.8419
G01 X8.9832 Y-4.8386
G01 X8.9733 Y-4.8374
G01 X7.9417 Y-4.8374
G01 X7.9318 Y-4.8386
G01 X7.9211 Y-4.8417
G01 X7.9046 Y-4.8417
G01 X7.8962 Y-4.8424
G01 X7.8896 Y-4.8438
G01 X7.8832 Y-4.8458
G01 X7.8769 Y-4.8484
G01 X7.8053 Y-4.8828
G01 X7.7966 Y-4.8881
G01 X7.7889 Y-4.8946
G01 X7.7832 Y-4.9008
G01 X7.7346 Y-4.9616
G01 X7.7307 Y-4.9671
G01 X7.7273 Y-4.9729
G01 X7.7245 Y-4.9790
G01 X7.7219 Y-4.9870
G01 X7.7041 Y-5.0645
G00 Z2.0000
G00 X7.7232 Y-5.1776
G01 F59.00
G01 Z-0.1001
G01 F120.00
G01 X7.7256 Y-5.2420
G01 X7.7351 Y-5.3971
G01 X7.7485 Y-5.5520
G01 X7.7526 Y-5.5891
G00 Z2.0000
G00 X7.8534 Y-5.5097
G01 F59.00
G01 Z-0.1001
G01 F120.00
G01 X7.8431 Y-5.3892
G01 X7.8371 Y-5.2925
G00 Z2.0000
G00 X7.9474 Y-5.3226
G01 F59.00
G01 Z-0.1001
G01 F120.00
G01 X7.9510 Y-5.3812
G01 X7.9601 Y-5.4874
G00 Z2.0000
G00 X8.0688 Y-5.4874
G01 F59.00
G01 Z-0.1001
G01 F120.00
G01 X8.0590 Y-5.3733
G01 X8.0558 Y-5.3226
G01 X8.1643 Y-5.3226
G01 X8.1669 Y-5.3653
G01 X8.1774 Y-5.4874
G00 Z2.0000
G00 X8.2860 Y-5.4874
G01 F59.00
G01 Z-0.1001
G01 F120.00
G01 X8.2749 Y-5.3573
G01 X8.2727 Y-5.3226
G00 Z2.0000
G00 X8.3812 Y-5.3226
G01 F59.00
G01 Z-0.1001
G01 F120.00
G01 X8.3828 Y-5.3494
G01 X8.3947 Y-5.4874
G00 Z2.0000
G00 X8.5036 Y-5.4874
G01 F59.00
G01 Z-0.1001
G01 F120.00
G01 X8.4907 Y-5.3414
G01 X8.4896 Y-5.3226
G00 Z2.0000
G00 X8.5980 Y-5.3226
G01 F59.00
G01 Z-0.1001
G01 F120.00
G01 X8.6102 Y-5.4671
G01 X8.6124 Y-5.4874
G00 Z2.0000
G00 X8.7213 Y-5.4874
G01 F59.00
G01 Z-0.1001
G01 F120.00
G01 X8.7179 Y-5.4565
G01 X8.7065 Y-5.3226
G01 X8.8150 Y-5.3226
G01 X8.8256 Y-5.4459
G01 X8.8302 Y-5.4874
G00 Z2.0000
G00 X8.9391 Y-5.4874
G01 F59.00
G01 Z-0.1001
G01 F120.00
G01 X8.9334 Y-5.4353
G01 X8.9237 Y-5.3226
G00 Z2.0000
G00 X9.0296 Y-5.2870
G01 F59.00
G01 Z-0.1001
G01 F120.00
G01 X9.0305 Y-5.3016
G01 X9.0411 Y-5.4247
G01 X9.0536 Y-5.5373
G01 X9.1625 Y-5.5373
G01 X9.1488 Y-5.4141
G01 X9.1384 Y-5.2936
G01 X9.1371 Y-5.2727
G01 X9.2456 Y-5.2727
G01 X9.2464 Y-5.2857
G01 X9.2565 Y-5.4034
G01 X9.2695 Y-5.5209
G01 X9.2718 Y-5.5373
G01 X9.3810 Y-5.5373
G01 X9.3770 Y-5.5077
G01 X9.3642 Y-5.3928
G01 X9.3540 Y-5.2727
G01 X9.4625 Y-5.2727
G01 X9.4720 Y-5.3822
G01 X9.4844 Y-5.4944
G01 X9.4902 Y-5.5373
G01 X9.5994 Y-5.5373
G01 X9.5918 Y-5.4812
G01 X9.5797 Y-5.3716
G01 X9.5712 Y-5.2727
G01 X9.6798 Y-5.2727
G01 X9.6874 Y-5.3610
G01 X9.6992 Y-5.4679
G01 X9.7087 Y-5.5373
G01 X9.8179 Y-5.5373
G01 X9.8067 Y-5.4547
G01 X9.7951 Y-5.3504
G01 X9.7884 Y-5.2727
G01 X9.8970 Y-5.2727
G01 X9.9028 Y-5.3398
G01 X9.9141 Y-5.4414
G01 X9.9271 Y-5.5373
G01 X10.0366 Y-5.5373
G01 X10.0215 Y-5.4282
G01 X10.0105 Y-5.3292
G01 X10.0057 Y-5.2727
G01 X10.1143 Y-5.2727
G01 X10.1183 Y-5.3186
G01 X10.1290 Y-5.4149
G01 X10.1420 Y-5.5110
G01 X10.1462 Y-5.5373
G01 X10.2559 Y-5.5373
G01 X10.2491 Y-5.4951
G01 X10.2364 Y-5.4017
G01 X10.2260 Y-5.3080
G01 X10.2229 Y-5.2727
G01 X10.3316 Y-5.2727
G01 X10.3337 Y-5.2974
G01 X10.3438 Y-5.3884
G01 X10.3561 Y-5.4793
G01 X10.3655 Y-5.5373
G01 X10.4751 Y-5.5373
G01 X10.4632 Y-5.4634
G01 X10.4512 Y-5.3752
G01 X10.4414 Y-5.2867
G01 X10.4402 Y-5.2727
G01 X10.5488 Y-5.2727
G01 X10.5587 Y-5.3619
G01 X10.5703 Y-5.4475
G01 X10.5848 Y-5.5373
G00 Z2.0000
G00 X10.6951 Y-5.5379
G01 F59.00
G01 Z-0.1001
G01 F120.00
G01 X10.6906 Y-5.5142
G01 X10.6773 Y-5.4316
G01 X10.6661 Y-5.3487
G01 X10.6577 Y-5.2727
G01 X10.7666 Y-5.2727
G01 X10.7735 Y-5.3354
G01 X10.7844 Y-5.4157
G01 X10.7973 Y-5.4957
G01 X10.8121 Y-5.5754
G01 X10.8159 Y-5.5934
G00 Z2.0000
G00 X10.9571 Y-5.7243
G01 F59.00
G01 Z-0.1001
G01 F120.00
G01 X10.9526 Y-5.7072
G01 X10.9345 Y-5.6309
G01 X10.9183 Y-5.5543
G01 X10.9039 Y-5.4772
G01 X10.8915 Y-5.3999
G01 X10.8809 Y-5.3222
G01 X10.8754 Y-5.2727
G01 X10.9843 Y-5.2727
G01 X10.9884 Y-5.3089
G01 X10.9985 Y-5.3840
G01 X11.0106 Y-5.4587
G01 X11.0244 Y-5.5332
G01 X11.0401 Y-5.6072
G01 X11.0576 Y-5.6809
G01 X11.0646 Y-5.7074
G00 Z2.0000
G00 X11.1756 Y-5.7039
G01 F59.00
G01 Z-0.1001
G01 F120.00
G01 X11.1626 Y-5.6546
G01 X11.1457 Y-5.5835
G01 X11.1306 Y-5.5120
G01 X11.1172 Y-5.4402
G01 X11.1056 Y-5.3681
G01 X11.0958 Y-5.2957
G01 X11.0932 Y-5.2727
G01 X11.2021 Y-5.2727
G01 X11.2127 Y-5.3522
G01 X11.2239 Y-5.4217
G01 X11.2368 Y-5.4909
G01 X11.2513 Y-5.5598
G01 X11.2676 Y-5.6283
G01 X11.2855 Y-5.6964
G01 X11.2916 Y-5.7172
G00 Z2.0000
G00 X11.4141 Y-5.7494
G01 F59.00
G01 Z-0.1001
G01 F120.00
G01 X11.4087 Y-5.7325
G01 X11.3899 Y-5.6675
G01 X11.3726 Y-5.6020
G01 X11.3569 Y-5.5361
G01 X11.3429 Y-5.4698
G01 X11.3305 Y-5.4032
G01 X11.3198 Y-5.3363
G01 X11.3111 Y-5.2727
G01 X11.4203 Y-5.2727
G01 X11.4268 Y-5.3204
G01 X11.4372 Y-5.3847
G01 X11.4491 Y-5.4487
G01 X11.4626 Y-5.5124
G01 X11.4776 Y-5.5757
G01 X11.4942 Y-5.6386
G01 X11.5123 Y-5.7011
G01 X11.5320 Y-5.7632
G01 X11.5485 Y-5.8112
G00 Z2.0000
G00 X11.7134 Y-5.9360
G01 F59.00
G01 Z-0.1001
G01 F120.00
G01 X11.7000 Y-5.9047
G01 X11.6768 Y-5.8468
G01 X11.6551 Y-5.7883
G01 X11.6347 Y-5.7292
G01 X11.6159 Y-5.6697
G01 X11.5985 Y-5.6098
G01 X11.5826 Y-5.5494
G01 X11.5682 Y-5.4886
G01 X11.5552 Y-5.4276
G01 X11.5438 Y-5.3662
G01 X11.5339 Y-5.3046
G01 X11.5296 Y-5.2727
G01 X11.6388 Y-5.2727
G01 X11.6410 Y-5.2887
G01 X11.6505 Y-5.3477
G01 X11.6614 Y-5.4065
G01 X11.6738 Y-5.4649
G01 X11.6876 Y-5.5231
G01 X11.7028 Y-5.5809
G01 X11.7195 Y-5.6383
G01 X11.7375 Y-5.6953
G01 X11.7570 Y-5.7518
G01 X11.7778 Y-5.8078
G01 X11.7824 Y-5.8192
G00 Z2.0000
G00 X11.8607 Y-5.9976
G01 F59.00
G01 Z-0.1001
G01 F120.00
G01 X11.8746 Y-6.0263
G01 X11.9022 Y-6.0794
G01 X11.9310 Y-6.1317
G01 X11.9611 Y-6.1834
G01 X11.9924 Y-6.2343
G01 X12.0250 Y-6.2844
G01 X12.0589 Y-6.3337
G01 X12.0939 Y-6.3821
G01 X12.1301 Y-6.4297
G01 X12.1674 Y-6.4763
G01 X12.2059 Y-6.5221
G01 X12.2455 Y-6.5668
G01 X12.2862 Y-6.6106
G01 X12.3279 Y-6.6534
G01 X12.3784 Y-6.7024
G01 X12.2244 Y-6.7024
G01 X12.2078 Y-6.6853
G01 X12.1653 Y-6.6395
G01 X12.1239 Y-6.5928
G01 X12.0837 Y-6.5450
G01 X12.0447 Y-6.4963
G01 X12.0069 Y-6.4466
G01 X11.9704 Y-6.3960
G01 X11.9428 Y-6.3557
G00 Z2.0000
G00 X11.9590 Y-6.5624
G01 F59.00
G01 Z-0.1001
G01 F120.00
G01 X12.0001 Y-6.6137
G01 X12.0420 Y-6.6635
G01 X12.0764 Y-6.7024
G00 Z2.0000
G00 X12.5405 Y-6.7024
G01 F59.00
G01 Z-0.1001
G01 F120.00
G01 X12.5300 Y-6.6935
G01 X12.4872 Y-6.6556
G01 X12.4453 Y-6.6168
G01 X12.4044 Y-6.5769
G01 X12.3646 Y-6.5360
G01 X12.3257 Y-6.4942
G01 X12.2879 Y-6.4514
G01 X12.2511 Y-6.4077
G01 X12.2154 Y-6.3631
G01 X12.1808 Y-6.3176
G01 X12.1473 Y-6.2713
G01 X12.1150 Y-6.2242
G01 X12.0839 Y-6.1764
G01 X12.0539 Y-6.1277
G01 X12.0252 Y-6.0784
G01 X11.9976 Y-6.0283
G01 X11.9817 Y-5.9976
G00 Z2.0000
G00 X12.1043 Y-5.9976
G01 F59.00
G01 Z-0.1001
G01 F120.00
G01 X12.1193 Y-6.0250
G01 X12.1468 Y-6.0721
G01 X12.1753 Y-6.1184
G01 X12.2050 Y-6.1641
G01 X12.2358 Y-6.2090
G01 X12.2677 Y-6.2531
G01 X12.3007 Y-6.2965
G01 X12.3348 Y-6.3390
G01 X12.3698 Y-6.3807
G01 X12.4059 Y-6.4215
G01 X12.4430 Y-6.4614
G01 X12.4810 Y-6.5003
G01 X12.5200 Y-6.5384
G01 X12.5599 Y-6.5754
G01 X12.6007 Y-6.6115
G01 X12.6423 Y-6.6466
G01 X12.6849 Y-6.6806
G01 X12.7134 Y-6.7024
G00 Z2.0000
G00 X12.9020 Y-6.7024
G01 F59.00
G01 Z-0.1001
G01 F120.00
G01 X12.8774 Y-6.6863
G01 X12.8347 Y-6.6570
G01 X12.7927 Y-6.6266
G01 X12.7514 Y-6.5953
G01 X12.7110 Y-6.5629
G01 X12.6714 Y-6.5296
G01 X12.6326 Y-6.4952
G01 X12.5946 Y-6.4600
G01 X12.5575 Y-6.4238
G01 X12.5213 Y-6.3867
G01 X12.4861 Y-6.3488
G01 X12.4518 Y-6.3100
G01 X12.4184 Y-6.2703
G01 X12.3861 Y-6.2299
G01 X12.3547 Y-6.1887
G01 X12.3243 Y-6.1467
G01 X12.2950 Y-6.1040
G01 X12.2668 Y-6.0605
G01 X12.2396 Y-6.0164
G01 X12.2287 Y-5.9976
G00 Z2.0000
G00 X12.3552 Y-5.9976
G01 F59.00
G01 Z-0.1001
G01 F120.00
G01 X12.3850 Y-6.0438
G01 X12.4128 Y-6.0844
G01 X12.4416 Y-6.1242
G01 X12.4714 Y-6.1633
G01 X12.5021 Y-6.2017
G01 X12.5337 Y-6.2393
G01 X12.5663 Y-6.2761
G01 X12.5997 Y-6.3121
G01 X12.6341 Y-6.3473
G01 X12.6692 Y-6.3816
G01 X12.7052 Y-6.4150
G01 X12.7421 Y-6.4476
G01 X12.7797 Y-6.4792
G01 X12.8180 Y-6.5099
G01 X12.8571 Y-6.5397
G01 X12.8970 Y-6.5685
G01 X12.9375 Y-6.5963
G01 X12.9787 Y-6.6231
G01 X13.0205 Y-6.6489
G01 X13.0630 Y-6.6736
G01 X13.1157 Y-6.7024
G00 Z2.0000
G00 X13.3784 Y-6.7024
G01 F59.00
G01 Z-0.1001
G01 F120.00
G01 X13.3251 Y-6.6813
G01 X13.2824 Y-6.6630
G01 X13.2401 Y-6.6437
G01 X13.1983 Y-6.6233
G01 X13.1571 Y-6.6019
G01 X13.1164 Y-6.5794
G01 X13.0762 Y-6.5560
G01 X13.0366 Y-6.5317
G01 X12.9976 Y-6.5063
G01 X12.9593 Y-6.4800
G01 X12.9216 Y-6.4528
G01 X12.8846 Y-6.4246
G01 X12.8483 Y-6.3956
G01 X12.8128 Y-6.3656
G01 X12.7779 Y-6.3348
G01 X12.7439 Y-6.3032
G01 X12.7106 Y-6.2707
G01 X12.6781 Y-6.2375
G01 X12.6465 Y-6.2034
G01 X12.6157 Y-6.1686
G01 X12.5858 Y-6.1330
G01 X12.5567 Y-6.0967
G01 X12.5286 Y-6.0597
G01 X12.5013 Y-6.0220
G01 X12.4846 Y-5.9976
G00 Z2.0000
G00 X12.6173 Y-5.9976
G01 F59.00
G01 Z-0.1001
G01 F120.00
G01 X12.6420 Y-6.0301
G01 X12.6694 Y-6.0643
G01 X12.6977 Y-6.0979
G01 X12.7267 Y-6.1307
G01 X12.7565 Y-6.1628
G01 X12.7871 Y-6.1942
G01 X12.8185 Y-6.2248
G01 X12.8506 Y-6.2546
G01 X12.8835 Y-6.2837
G01 X12.9170 Y-6.3119
G01 X12.9512 Y-6.3393
G01 X12.9861 Y-6.3658
G01 X13.0216 Y-6.3915
G01 X13.0578 Y-6.4163
G01 X13.0945 Y-6.4402
G01 X13.1318 Y-6.4632
G01 X13.1697 Y-6.4853
G01 X13.2081 Y-6.5064
G01 X13.2470 Y-6.5266
G01 X13.2864 Y-6.5458
G01 X13.3263 Y-6.5641
G01 X13.3665 Y-6.5813
G01 X13.4072 Y-6.5976
G01 X13.4483 Y-6.6129
G01 X13.4898 Y-6.6271
G01 X13.5316 Y-6.6404
G01 X13.5737 Y-6.6526
G01 X13.6160 Y-6.6638
G01 X13.6587 Y-6.6739
G01 X13.7016 Y-6.6830
G01 X13.7447 Y-6.6910
G01 X13.7879 Y-6.6980
G01 X13.8314 Y-6.7039
G01 X13.8749 Y-6.7087
G01 X13.9186 Y-6.7125
G01 X13.9624 Y-6.7151
G01 X14.0062 Y-6.7168
G01 X14.0500 Y-6.7173
G01 X14.0938 Y-6.7168
G01 X14.1376 Y-6.7151
G01 X14.1814 Y-6.7125
G01 X14.2251 Y-6.7087
G01 X14.2686 Y-6.7039
G01 X14.3121 Y-6.6980
G01 X14.3553 Y-6.6910
G01 X14.3984 Y-6.6830
G01 X14.4413 Y-6.6739
G01 X14.4823 Y-6.6641
G01 X14.4823 Y-6.7754
G01 X14.4650 Y-6.7795
G01 X14.4195 Y-6.7891
G01 X14.3738 Y-6.7976
G01 X14.3279 Y-6.8050
G01 X14.2819 Y-6.8113
G01 X14.2357 Y-6.8164
G01 X14.1893 Y-6.8204
G01 X14.1429 Y-6.8232
G01 X14.0965 Y-6.8250
G01 X14.0500 Y-6.8255
G01 X14.0035 Y-6.8250
G01 X13.9571 Y-6.8232
G01 X13.9107 Y-6.8204
G01 X13.8643 Y-6.8164
G01 X13.8181 Y-6.8113
G01 X13.7721 Y-6.8050
G01 X13.7262 Y-6.7976
G01 X13.6805 Y-6.7891
G01 X13.6350 Y-6.7795
G01 X13.6176 Y-6.7754
G00 Z2.0000
G00 X13.6176 Y-6.8865
G01 F59.00
G01 Z-0.1001
G01 F120.00
G01 X13.6593 Y-6.8953
G01 X13.7077 Y-6.9043
G01 X13.7562 Y-6.9121
G01 X13.8049 Y-6.9187
G01 X13.8537 Y-6.9241
G01 X13.9027 Y-6.9283
G01 X13.9517 Y-6.9314
G01 X14.0009 Y-6.9332
G01 X14.0500 Y-6.9338
G01 X14.0991 Y-6.9332
G01 X14.1483 Y-6.9314
G01 X14.1973 Y-6.9283
G01 X14.2463 Y-6.9241
G01 X14.2951 Y-6.9187
G01 X14.3438 Y-6.9121
G01 X14.3923 Y-6.9043
G01 X14.4407 Y-6.8953
G01 X14.4823 Y-6.8865
G01 X14.4823 Y-6.9971
G01 X14.4618 Y-7.0015
G01 X14.4108 Y-7.0109
G01 X14.3597 Y-7.0192
G01 X14.3084 Y-7.0261
G01 X14.2569 Y-7.0318
G01 X14.2053 Y-7.0363
G01 X14.1536 Y-7.0395
G01 X14.1018 Y-7.0414
G01 X14.0500 Y-7.0420
G01 X13.9982 Y-7.0414
G01 X13.9464 Y-7.0395
G01 X13.8947 Y-7.0363
G01 X13.8431 Y-7.0318
G01 X13.7916 Y-7.0261
G01 X13.7403 Y-7.0192
G01 X13.6892 Y-7.0109
G01 X13.6382 Y-7.0015
G01 X13.6176 Y-6.9971
G00 Z2.0000
G00 X13.6176 Y-7.1077
G01 F59.00
G01 Z-0.1001
G01 F120.00
G01 X13.6706 Y-7.1176
G01 X13.7244 Y-7.1262
G01 X13.7784 Y-7.1336
G01 X13.8325 Y-7.1396
G01 X13.8868 Y-7.1442
G01 X13.9411 Y-7.1476
G01 X13.9955 Y-7.1496
G01 X14.0500 Y-7.1502
G01 X14.1045 Y-7.1496
G01 X14.1589 Y-7.1476
G01 X14.2132 Y-7.1442
G01 X14.2675 Y-7.1396
G01 X14.3216 Y-7.1336
G01 X14.3756 Y-7.1262
G01 X14.4294 Y-7.1176
G01 X14.4823 Y-7.1077
G01 X14.4823 Y-7.2178
G01 X14.4479 Y-7.2242
G01 X14.3915 Y-7.2333
G01 X14.3349 Y-7.2410
G01 X14.2781 Y-7.2473
G01 X14.2212 Y-7.2522
G01 X14.1642 Y-7.2557
G01 X14.1071 Y-7.2578
G01 X14.0500 Y-7.2585
G01 X13.9929 Y-7.2578
G01 X13.9358 Y-7.2557
G01 X13.8788 Y-7.2522
G01 X13.8219 Y-7.2473
G01 X13.7651 Y-7.2410
G01 X13.7085 Y-7.2333
G01 X13.6521 Y-7.2242
G01 X13.6176 Y-7.2178
G00 Z2.0000
G00 X13.6176 Y-7.3279
G01 F59.00
G01 Z-0.1001
G01 F120.00
G01 X13.6336 Y-7.3309
G01 X13.6927 Y-7.3404
G01 X13.7519 Y-7.3484
G01 X13.8113 Y-7.3550
G01 X13.8708 Y-7.3601
G01 X13.9305 Y-7.3638
G01 X13.9902 Y-7.3660
G01 X14.0500 Y-7.3667
G01 X14.1098 Y-7.3660
G01 X14.1695 Y-7.3638
G01 X14.2292 Y-7.3601
G01 X14.2887 Y-7.3550
G01 X14.3481 Y-7.3484
G01 X14.4073 Y-7.3404
G01 X14.4664 Y-7.3309
G01 X14.4823 Y-7.3279
G01 X14.4823 Y-7.4379
G01 X14.4232 Y-7.4474
G01 X14.3614 Y-7.4558
G01 X14.2993 Y-7.4627
G01 X14.2371 Y-7.4681
G01 X14.1748 Y-7.4719
G01 X14.1124 Y-7.4742
G01 X14.0500 Y-7.4750
G01 X13.9876 Y-7.4742
G01 X13.9252 Y-7.4719
G01 X13.8629 Y-7.4681
G01 X13.8007 Y-7.4627
G01 X13.7386 Y-7.4558
G01 X13.6768 Y-7.4474
G01 X13.6176 Y-7.4379
G00 Z2.0000
G00 X13.6176 Y-7.5475
G01 F59.00
G01 Z-0.1001
G01 F120.00
G01 X13.6609 Y-7.5545
G01 X13.7254 Y-7.5633
G01 X13.7901 Y-7.5704
G01 X13.8549 Y-7.5760
G01 X13.9199 Y-7.5800
G01 X13.9849 Y-7.5824
G01 X14.0500 Y-7.5832
G01 X14.1151 Y-7.5824
G01 X14.1801 Y-7.5800
G01 X14.2451 Y-7.5760
G01 X14.3099 Y-7.5704
G01 X14.3746 Y-7.5633
G01 X14.4391 Y-7.5545
G01 X14.4823 Y-7.5475
G01 X14.4823 Y-7.6572
G01 X14.4550 Y-7.6616
G01 X14.3879 Y-7.6707
G01 X14.3205 Y-7.6782
G01 X14.2530 Y-7.6840
G01 X14.1854 Y-7.6881
G01 X14.1177 Y-7.6906
G01 X14.0500 Y-7.6914
G01 X13.9823 Y-7.6906
G01 X13.9146 Y-7.6881
G01 X13.8470 Y-7.6840
G01 X13.7795 Y-7.6782
G01 X13.7121 Y-7.6707
G01 X13.6450 Y-7.6616
G01 X13.6176 Y-7.6572
G00 Z2.0000
G00 X13.6176 Y-7.7668
G01 F59.00
G01 Z-0.1001
G01 F120.00
G01 X13.6989 Y-7.7781
G01 X13.7689 Y-7.7859
G01 X13.8390 Y-7.7919
G01 X13.9093 Y-7.7962
G01 X13.9796 Y-7.7988
G01 X14.0500 Y-7.7997
G01 X14.1204 Y-7.7988
G01 X14.1907 Y-7.7962
G01 X14.2610 Y-7.7919
G01 X14.3311 Y-7.7859
G01 X14.4011 Y-7.7781
G01 X14.4823 Y-7.7668
G01 X14.4823 Y-7.8763
G01 X14.4144 Y-7.8855
G01 X14.3418 Y-7.8936
G01 X14.2690 Y-7.8999
G01 X14.1961 Y-7.9043
G01 X14.1230 Y-7.9070
G01 X14.0500 Y-7.9079
G01 X13.9770 Y-7.9070
G01 X13.9039 Y-7.9043
G01 X13.8310 Y-7.8999
G01 X13.7582 Y-7.8936
G01 X13.6856 Y-7.8855
G01 X13.6176 Y-7.8763
G00 Z2.0000
G00 X13.6176 Y-7.9855
G01 F59.00
G01 Z-0.1001
G01 F120.00
G01 X13.6724 Y-7.9930
G01 X13.7476 Y-8.0013
G01 X13.8231 Y-8.0078
G01 X13.8986 Y-8.0125
G01 X13.9743 Y-8.0152
G01 X14.0500 Y-8.0162
G01 X14.1257 Y-8.0152
G01 X14.2014 Y-8.0125
G01 X14.2769 Y-8.0078
G01 X14.3524 Y-8.0013
G01 X14.4276 Y-7.9930
G01 X14.4823 Y-7.9855
G01 X14.4823 Y-8.0948
G01 X14.4409 Y-8.1004
G01 X14.3630 Y-8.1090
G01 X14.2849 Y-8.1158
G01 X14.2067 Y-8.1206
G01 X14.1284 Y-8.1234
G01 X14.0500 Y-8.1244
G01 X13.9716 Y-8.1234
G01 X13.8933 Y-8.1206
G01 X13.8151 Y-8.1158
G01 X13.7370 Y-8.1090
G01 X13.6591 Y-8.1004
G01 X13.6176 Y-8.0948
G00 Z2.0000
G00 X13.6176 Y-8.2040
G01 F59.00
G01 Z-0.1001
G01 F120.00
G01 X13.6459 Y-8.2078
G01 X13.7264 Y-8.2168
G01 X13.8071 Y-8.2237
G01 X13.8880 Y-8.2287
G01 X13.9690 Y-8.2317
G01 X14.0500 Y-8.2326
G01 X14.1310 Y-8.2317
G01 X14.2120 Y-8.2287
G01 X14.2929 Y-8.2237
G01 X14.3736 Y-8.2168
G01 X14.4541 Y-8.2078
G01 X14.4823 Y-8.2040
G01 X14.4823 Y-8.3132
G01 X14.4674 Y-8.3152
G01 X14.3842 Y-8.3245
G01 X14.3008 Y-8.3317
G01 X14.2173 Y-8.3368
G01 X14.1337 Y-8.3399
G01 X14.0500 Y-8.3409
G01 X13.9663 Y-8.3399
G01 X13.8827 Y-8.3368
G01 X13.7992 Y-8.3317
G01 X13.7158 Y-8.3245
G01 X13.6326 Y-8.3152
G01 X13.6176 Y-8.3132
G01 X13.6176 Y-8.4224
G01 X13.7052 Y-8.4322
G01 X13.7912 Y-8.4396
G01 X13.8774 Y-8.4449
G01 X13.9637 Y-8.4481
G01 X14.0500 Y-8.4491
G01 X14.1363 Y-8.4481
G01 X14.2226 Y-8.4449
G01 X14.3088 Y-8.4396
G01 X14.3948 Y-8.4322
G01 X14.4823 Y-8.4224
G01 X14.4823 Y-8.5314
G01 X14.4054 Y-8.5399
G01 X14.3167 Y-8.5475
G01 X14.2279 Y-8.5530
G01 X14.1390 Y-8.5563
G01 X14.0500 Y-8.5574
G01 X13.9610 Y-8.5563
G01 X13.8721 Y-8.5530
G01 X13.7833 Y-8.5475
G01 X13.6946 Y-8.5399
G01 X13.6061 Y-8.5301
G01 X13.5859 Y-8.5273
G00 Z2.0000
G00 X13.0818 Y-8.5376
G01 F59.00
G01 Z-0.1001
G01 F120.00
G01 X13.1426 Y-8.5537
G01 X13.2318 Y-8.5749
G01 X13.3215 Y-8.5939
G01 X13.4116 Y-8.6106
G01 X13.5021 Y-8.6252
G01 X13.5929 Y-8.6375
G01 X13.6840 Y-8.6476
G01 X13.7753 Y-8.6555
G01 X13.8668 Y-8.6611
G01 X13.9584 Y-8.6645
G01 X14.0500 Y-8.6656
G01 X14.1416 Y-8.6645
G01 X14.2332 Y-8.6611
G01 X14.3247 Y-8.6555
G01 X14.4160 Y-8.6476
G01 X14.4823 Y-8.6403
G01 X14.4823 Y-8.7492
G01 X14.4266 Y-8.7553
G01 X14.3327 Y-8.7634
G01 X14.2385 Y-8.7692
G01 X14.1443 Y-8.7727
G01 X14.0500 Y-8.7738
G01 X13.9557 Y-8.7727
G01 X13.8615 Y-8.7692
G01 X13.7673 Y-8.7634
G01 X13.6734 Y-8.7553
G01 X13.5796 Y-8.7450
G01 X13.4862 Y-8.7323
G01 X13.3931 Y-8.7173
G01 X13.3004 Y-8.7000
G01 X13.2081 Y-8.6805
G01 X13.1163 Y-8.6587
G01 X13.0252 Y-8.6347
G01 X12.9346 Y-8.6084
G01 X12.8447 Y-8.5799
G01 X12.7555 Y-8.5492
G01 X12.7243 Y-8.5376
G01 X12.4370 Y-8.5376
G01 X12.4490 Y-8.5432
G01 X12.5381 Y-8.5814
G01 X12.6281 Y-8.6174
G01 X12.7190 Y-8.6511
G01 X12.8107 Y-8.6827
G01 X12.9032 Y-8.7120
G01 X12.9963 Y-8.7390
G01 X13.0900 Y-8.7637
G01 X13.1844 Y-8.7861
G01 X13.2792 Y-8.8062
G01 X13.3746 Y-8.8239
G01 X13.4703 Y-8.8393
G01 X13.5664 Y-8.8524
G01 X13.6628 Y-8.8631
G01 X13.7594 Y-8.8714
G01 X13.8561 Y-8.8773
G01 X13.9530 Y-8.8809
G01 X14.0500 Y-8.8821
G01 X14.1470 Y-8.8809
G01 X14.2439 Y-8.8773
G01 X14.3406 Y-8.8714
G01 X14.4372 Y-8.8631
G01 X14.4823 Y-8.8581
G01 X14.4823 Y-8.9670
G01 X14.4479 Y-8.9708
G01 X14.3486 Y-8.9793
G01 X14.2492 Y-8.9854
G01 X14.1496 Y-8.9891
G01 X14.0500 Y-8.9903
G01 X13.9504 Y-8.9891
G01 X13.8508 Y-8.9854
G01 X13.7514 Y-8.9793
G01 X13.6521 Y-8.9708
G01 X13.5531 Y-8.9598
G01 X13.4544 Y-8.9464
G01 X13.3561 Y-8.9306
G01 X13.2581 Y-8.9123
G01 X13.1607 Y-8.8917
G01 X13.0637 Y-8.8687
G01 X12.9674 Y-8.8433
G01 X12.8717 Y-8.8156
G01 X12.7768 Y-8.7855
G01 X12.6826 Y-8.7531
G01 X12.5892 Y-8.7183
G01 X12.4967 Y-8.6814
G01 X12.4051 Y-8.6421
G01 X12.3146 Y-8.6006
G01 X12.2250 Y-8.5569
G01 X12.1879 Y-8.5376
G00 Z2.0000
G00 X11.9624 Y-8.5376
G01 F59.00
G01 Z-0.1001
G01 F120.00
G01 X11.9960 Y-8.5572
G01 X12.0856 Y-8.6065
G01 X12.1764 Y-8.6536
G01 X12.2683 Y-8.6985
G01 X12.3613 Y-8.7411
G01 X12.4553 Y-8.7814
G01 X12.5502 Y-8.8193
G01 X12.6461 Y-8.8550
G01 X12.7428 Y-8.8882
G01 X12.8403 Y-8.9191
G01 X12.9385 Y-8.9476
G01 X13.0374 Y-8.9737
G01 X13.1370 Y-8.9973
G01 X13.2370 Y-9.0185
G01 X13.3376 Y-9.0372
G01 X13.4385 Y-9.0535
G01 X13.5399 Y-9.0672
G01 X13.6415 Y-9.0785
G01 X13.7434 Y-9.0873
G01 X13.8455 Y-9.0935
G01 X13.9477 Y-9.0973
G01 X14.0500 Y-9.0986
G01 X14.1523 Y-9.0973
G01 X14.2545 Y-9.0935
G01 X14.3566 Y-9.0873
G01 X14.4585 Y-9.0785
G01 X14.4823 Y-9.0759
G01 X14.4823 Y-9.1847
G01 X14.4691 Y-9.1862
G01 X14.3645 Y-9.1952
G01 X14.2598 Y-9.2017
G01 X14.1549 Y-9.2055
G01 X14.0500 Y-9.2068
G01 X13.9451 Y-9.2055
G01 X13.8402 Y-9.2017
G01 X13.7355 Y-9.1952
G01 X13.6309 Y-9.1862
G01 X13.5266 Y-9.1747
G01 X13.4227 Y-9.1605
G01 X13.3191 Y-9.1439
G01 X13.2159 Y-9.1247
G01 X13.1132 Y-9.1029
G01 X13.0111 Y-9.0787
G01 X12.9097 Y-9.0519
G01 X12.8089 Y-9.0227
G01 X12.7089 Y-8.9910
G01 X12.6096 Y-8.9569
G01 X12.5113 Y-8.9203
G01 X12.4138 Y-8.8814
G01 X12.3174 Y-8.8400
G01 X12.2220 Y-8.7963
G01 X12.1277 Y-8.7503
G01 X12.0346 Y-8.7020
G01 X11.9574 Y-8.6595
G00 Z2.0000
G00 X11.9579 Y-8.7833
G01 F59.00
G01 Z-0.1001
G01 F120.00
G01 X11.9835 Y-8.7974
G01 X12.0790 Y-8.8470
G01 X12.1757 Y-8.8942
G01 X12.2735 Y-8.9390
G01 X12.3724 Y-8.9814
G01 X12.4723 Y-9.0213
G01 X12.5732 Y-9.0588
G01 X12.6749 Y-9.0938
G01 X12.7775 Y-9.1263
G01 X12.8808 Y-9.1563
G01 X12.9848 Y-9.1837
G01 X13.0895 Y-9.2085
G01 X13.1948 Y-9.2308
G01 X13.3006 Y-9.2505
G01 X13.4068 Y-9.2676
G01 X13.5134 Y-9.2821
G01 X13.6203 Y-9.2939
G01 X13.7275 Y-9.3032
G01 X13.8349 Y-9.3098
G01 X13.9424 Y-9.3137
G01 X14.0500 Y-9.3150
G01 X14.1576 Y-9.3137
G01 X14.2651 Y-9.3098
G01 X14.3725 Y-9.3032
G01 X14.4823 Y-9.2936
G01 X14.4823 Y-9.4023
G00 Z2.0000
G00 X13.6177 Y-9.4023
G01 F59.00
G01 Z-0.1001
G01 F120.00
G01 X13.5001 Y-9.3895
G01 X13.3909 Y-9.3747
G01 X13.2820 Y-9.3572
G01 X13.1737 Y-9.3370
G01 X13.0658 Y-9.3141
G01 X12.9585 Y-9.2887
G01 X12.8519 Y-9.2606
G01 X12.7461 Y-9.2299
G01 X12.6410 Y-9.1966
G01 X12.5367 Y-9.1607
G01 X12.4334 Y-9.1223
G01 X12.3310 Y-9.0814
G01 X12.2297 Y-9.0379
G01 X12.1294 Y-8.9920
G01 X12.0304 Y-8.9437
G01 X11.9402 Y-8.8969
G00 Z2.0000
G00 X11.9096 Y-9.0029
G01 F59.00
G01 Z-0.1001
G01 F120.00
G01 X11.9817 Y-9.0403
G01 X12.0832 Y-9.0899
G01 X12.1858 Y-9.1369
G01 X12.2896 Y-9.1814
G01 X12.3944 Y-9.2233
G01 X12.5002 Y-9.2626
G01 X12.6070 Y-9.2993
G01 X12.7146 Y-9.3334
G01 X12.8231 Y-9.3649
G01 X12.9322 Y-9.3937
G01 X12.9688 Y-9.4023
G00 Z2.0000
G00 X12.5738 Y-9.4023
G01 F59.00
G01 Z-0.1001
G01 F120.00
G01 X12.4638 Y-9.3645
G01 X12.3555 Y-9.3243
G01 X12.2482 Y-9.2814
G01 X12.1419 Y-9.2358
G01 X12.0369 Y-9.1877
G01 X11.9330 Y-9.1370
G01 X11.8654 Y-9.1019
G00 Z2.0000
G00 X11.8080 Y-9.1941
G01 F59.00
G01 Z-0.1001
G01 F120.00
G01 X11.8844 Y-9.2337
G01 X11.9906 Y-9.2856
G01 X12.0981 Y-9.3348
G01 X12.2067 Y-9.3814
G01 X12.2592 Y-9.4023
G00 Z2.0000
G00 X11.9857 Y-9.4023
G01 F59.00
G01 Z-0.1001
G01 F120.00
G01 X11.9443 Y-9.3834
G01 X11.8357 Y-9.3304
G01 X11.7383 Y-9.2798
G00 Z2.0000
G00 X11.6540 Y-9.3573
G01 F59.00
G01 Z-0.1001
G01 F120.00
G01 X11.6774 Y-9.3702
G01 X11.7394 Y-9.4023
G00 Z2.0000
G00 X12.7548 Y-5.9976
G01 F59.00
G01 Z-0.1001
G01 F120.00
G01 X12.7796 Y-6.0272
G01 X12.8069 Y-6.0580
G01 X12.8349 Y-6.0882
G01 X12.8637 Y-6.1177
G01 X12.8931 Y-6.1464
G01 X12.9233 Y-6.1744
G01 X12.9542 Y-6.2017
G01 X12.9857 Y-6.2282
G01 X13.0178 Y-6.2540
G01 X13.0506 Y-6.2789
G01 X13.0840 Y-6.3030
G01 X13.1179 Y-6.3263
G01 X13.1524 Y-6.3488
G01 X13.1875 Y-6.3704
G01 X13.2231 Y-6.3911
G01 X13.2591 Y-6.4109
G01 X13.2957 Y-6.4299
G01 X13.3327 Y-6.4480
G01 X13.3701 Y-6.4651
G01 X13.4080 Y-6.4813
G01 X13.4462 Y-6.4966
G01 X13.4848 Y-6.5110
G01 X13.5237 Y-6.5244
G01 X13.5630 Y-6.5368
G01 X13.6025 Y-6.5483
G01 X13.6423 Y-6.5588
G01 X13.6824 Y-6.5683
G01 X13.7227 Y-6.5768
G01 X13.7632 Y-6.5843
G01 X13.8038 Y-6.5909
G01 X13.8446 Y-6.5964
G01 X13.8856 Y-6.6010
G01 X13.9266 Y-6.6045
G01 X13.9677 Y-6.6070
G01 X14.0088 Y-6.6085
G01 X14.0500 Y-6.6090
G01 X14.0912 Y-6.6085
G01 X14.1323 Y-6.6070
G01 X14.1734 Y-6.6045
G01 X14.2144 Y-6.6010
G01 X14.2554 Y-6.5964
G01 X14.2962 Y-6.5909
G01 X14.3368 Y-6.5843
G01 X14.3773 Y-6.5768
G01 X14.4176 Y-6.5683
G01 X14.4577 Y-6.5588
G01 X14.4823 Y-6.5523
G01 X14.4823 Y-6.4400
G01 X14.4686 Y-6.4440
G01 X14.4314 Y-6.4538
G01 X14.3939 Y-6.4627
G01 X14.3562 Y-6.4707
G01 X14.3183 Y-6.4777
G01 X14.2803 Y-6.4838
G01 X14.2421 Y-6.4890
G01 X14.2038 Y-6.4933
G01 X14.1655 Y-6.4966
G01 X14.1270 Y-6.4989
G01 X14.0885 Y-6.5003
G01 X14.0500 Y-6.5008
G01 X14.0115 Y-6.5003
G01 X13.9730 Y-6.4989
G01 X13.9345 Y-6.4966
G01 X13.8962 Y-6.4933
G01 X13.8579 Y-6.4890
G01 X13.8197 Y-6.4838
G01 X13.7817 Y-6.4777
G01 X13.7438 Y-6.4707
G01 X13.7061 Y-6.4627
G01 X13.6686 Y-6.4538
G01 X13.6314 Y-6.4440
G01 X13.5944 Y-6.4332
G01 X13.5577 Y-6.4216
G01 X13.5213 Y-6.4091
G01 X13.4852 Y-6.3956
G01 X13.4494 Y-6.3813
G01 X13.4140 Y-6.3662
G01 X13.3790 Y-6.3501
G01 X13.3443 Y-6.3332
G01 X13.3102 Y-6.3155
G01 X13.2764 Y-6.2969
G01 X13.2431 Y-6.2775
G01 X13.2103 Y-6.2573
G01 X13.1780 Y-6.2363
G01 X13.1463 Y-6.2145
G01 X13.1151 Y-6.1919
G01 X13.0844 Y-6.1686
G01 X13.0543 Y-6.1446
G01 X13.0249 Y-6.1198
G01 X12.9960 Y-6.0942
G01 X12.9678 Y-6.0680
G01 X12.9402 Y-6.0411
G01 X12.9133 Y-6.0135
G01 X12.8985 Y-5.9976
G00 Z2.0000
G00 X13.0511 Y-5.9976
G01 F59.00
G01 Z-0.1001
G01 F120.00
G01 X13.0687 Y-6.0140
G01 X13.0956 Y-6.0378
G01 X13.1230 Y-6.0609
G01 X13.1510 Y-6.0833
G01 X13.1795 Y-6.1050
G01 X13.2086 Y-6.1260
G01 X13.2382 Y-6.1463
G01 X13.2682 Y-6.1659
G01 X13.2988 Y-6.1847
G01 X13.3298 Y-6.2027
G01 X13.3612 Y-6.2200
G01 X13.3930 Y-6.2365
G01 X13.4252 Y-6.2523
G01 X13.4578 Y-6.2672
G01 X13.4908 Y-6.2813
G01 X13.5241 Y-6.2947
G01 X13.5577 Y-6.3072
G01 X13.5916 Y-6.3188
G01 X13.6258 Y-6.3296
G01 X13.6603 Y-6.3396
G01 X13.6949 Y-6.3488
G01 X13.7298 Y-6.3571
G01 X13.7649 Y-6.3645
G01 X13.8002 Y-6.3711
G01 X13.8356 Y-6.3768
G01 X13.8711 Y-6.3816
G01 X13.9068 Y-6.3855
G01 X13.9425 Y-6.3886
G01 X13.9783 Y-6.3908
G01 X14.0141 Y-6.3921
G01 X14.0500 Y-6.3926
G01 X14.0859 Y-6.3921
G01 X14.1217 Y-6.3908
G01 X14.1575 Y-6.3886
G01 X14.1932 Y-6.3855
G01 X14.2289 Y-6.3816
G01 X14.2644 Y-6.3768
G01 X14.2998 Y-6.3711
G01 X14.3351 Y-6.3645
G01 X14.3702 Y-6.3571
G01 X14.4051 Y-6.3488
G01 X14.4397 Y-6.3396
G01 X14.4823 Y-6.3271
G01 X14.4823 Y-6.2133
G01 X14.4428 Y-6.2261
G01 X14.4109 Y-6.2353
G01 X14.3788 Y-6.2438
G01 X14.3464 Y-6.2515
G01 X14.3140 Y-6.2583
G01 X14.2813 Y-6.2644
G01 X14.2485 Y-6.2697
G01 X14.2156 Y-6.2742
G01 X14.1826 Y-6.2778
G01 X14.1495 Y-6.2807
G01 X14.1164 Y-6.2827
G01 X14.0832 Y-6.2839
G01 X14.0500 Y-6.2843
G01 X14.0168 Y-6.2839
G01 X13.9836 Y-6.2827
G01 X13.9505 Y-6.2807
G01 X13.9174 Y-6.2778
G01 X13.8844 Y-6.2742
G01 X13.8515 Y-6.2697
G01 X13.8187 Y-6.2644
G01 X13.7860 Y-6.2583
G01 X13.7536 Y-6.2515
G01 X13.7212 Y-6.2438
G01 X13.6891 Y-6.2353
G01 X13.6572 Y-6.2261
G01 X13.6256 Y-6.2160
G01 X13.5942 Y-6.2052
G01 X13.5631 Y-6.1937
G01 X13.5322 Y-6.1813
G01 X13.5017 Y-6.1683
G01 X13.4715 Y-6.1544
G01 X13.4417 Y-6.1399
G01 X13.4122 Y-6.1246
G01 X13.3831 Y-6.1086
G01 X13.3544 Y-6.0918
G01 X13.3261 Y-6.0744
G01 X13.2983 Y-6.0563
G01 X13.2709 Y-6.0375
G01 X13.2440 Y-6.0181
G01 X13.2172 Y-5.9976
G00 Z2.0000
G00 X13.4079 Y-5.9976
G01 F59.00
G01 Z-0.1001
G01 F120.00
G01 X13.4365 Y-6.0144
G01 X13.4632 Y-6.0291
G01 X13.4903 Y-6.0432
G01 X13.5178 Y-6.0566
G01 X13.5456 Y-6.0693
G01 X13.5737 Y-6.0813
G01 X13.6020 Y-6.0927
G01 X13.6307 Y-6.1033
G01 X13.6595 Y-6.1133
G01 X13.6887 Y-6.1225
G01 X13.7180 Y-6.1310
G01 X13.7475 Y-6.1388
G01 X13.7773 Y-6.1458
G01 X13.8072 Y-6.1522
G01 X13.8372 Y-6.1578
G01 X13.8674 Y-6.1626
G01 X13.8976 Y-6.1667
G01 X13.9280 Y-6.1701
G01 X13.9584 Y-6.1727
G01 X13.9889 Y-6.1746
G01 X14.0195 Y-6.1757
G01 X14.0500 Y-6.1761
G01 X14.0805 Y-6.1757
G01 X14.1111 Y-6.1746
G01 X14.1416 Y-6.1727
G01 X14.1720 Y-6.1701
G01 X14.2024 Y-6.1667
G01 X14.2326 Y-6.1626
G01 X14.2628 Y-6.1578
G01 X14.2928 Y-6.1522
G01 X14.3227 Y-6.1458
G01 X14.3525 Y-6.1388
G01 X14.3820 Y-6.1310
G01 X14.4113 Y-6.1225
G01 X14.4405 Y-6.1133
G01 X14.4823 Y-6.0985
G01 X14.4823 Y-5.9824
G01 X14.4590 Y-5.9917
G01 X14.4329 Y-6.0014
G01 X14.4065 Y-6.0105
G01 X14.3799 Y-6.0189
G01 X14.3531 Y-6.0267
G01 X14.3262 Y-6.0338
G01 X14.2990 Y-6.0402
G01 X14.2717 Y-6.0460
G01 X14.2443 Y-6.0511
G01 X14.2168 Y-6.0555
G01 X14.1891 Y-6.0593
G01 X14.1614 Y-6.0624
G01 X14.1336 Y-6.0648
G01 X14.1058 Y-6.0665
G01 X14.0779 Y-6.0675
G01 X14.0500 Y-6.0678
G01 X14.0221 Y-6.0675
G01 X13.9942 Y-6.0665
G01 X13.9664 Y-6.0648
G01 X13.9386 Y-6.0624
G01 X13.9109 Y-6.0593
G01 X13.8832 Y-6.0555
G01 X13.8557 Y-6.0511
G01 X13.8283 Y-6.0460
G01 X13.8010 Y-6.0402
G01 X13.7738 Y-6.0338
G01 X13.7469 Y-6.0267
G01 X13.7201 Y-6.0189
G01 X13.6935 Y-6.0105
G01 X13.6671 Y-6.0014
G01 X13.6410 Y-5.9917
G01 X13.6004 Y-5.9751
G00 Z2.0000
G00 X13.6176 Y-5.8642
G01 F59.00
G01 Z-0.1001
G01 F120.00
G01 X13.6333 Y-5.8714
G01 X13.6565 Y-5.8813
G01 X13.6799 Y-5.8907
G01 X13.7036 Y-5.8995
G01 X13.7274 Y-5.9077
G01 X13.7515 Y-5.9153
G01 X13.7757 Y-5.9224
G01 X13.8001 Y-5.9288
G01 X13.8247 Y-5.9346
G01 X13.8494 Y-5.9399
G01 X13.8742 Y-5.9445
G01 X13.8991 Y-5.9485
G01 X13.9241 Y-5.9519
G01 X13.9492 Y-5.9547
G01 X13.9744 Y-5.9568
G01 X13.9995 Y-5.9584
G01 X14.0248 Y-5.9593
G01 X14.0500 Y-5.9596
G01 X14.0752 Y-5.9593
G01 X14.1005 Y-5.9584
G01 X14.1256 Y-5.9568
G01 X14.1508 Y-5.9547
G01 X14.1759 Y-5.9519
G01 X14.2009 Y-5.9485
G01 X14.2258 Y-5.9445
G01 X14.2506 Y-5.9399
G01 X14.2753 Y-5.9346
G01 X14.2999 Y-5.9288
G01 X14.3243 Y-5.9224
G01 X14.3485 Y-5.9153
G01 X14.3726 Y-5.9077
G01 X14.3964 Y-5.8995
G01 X14.4201 Y-5.8907
G01 X14.4435 Y-5.8813
G01 X14.4667 Y-5.8714
G01 X14.4823 Y-5.8642
G01 X14.4823 Y-5.7434
G01 X14.4637 Y-5.7531
G01 X14.4434 Y-5.7630
G01 X14.4228 Y-5.7724
G01 X14.4021 Y-5.7813
G01 X14.3811 Y-5.7897
G01 X14.3600 Y-5.7976
G01 X14.3386 Y-5.8049
G01 X14.3171 Y-5.8118
G01 X14.2954 Y-5.8180
G01 X14.2736 Y-5.8238
G01 X14.2516 Y-5.8290
G01 X14.2295 Y-5.8337
G01 X14.2073 Y-5.8378
G01 X14.1850 Y-5.8414
G01 X14.1626 Y-5.8445
G01 X14.1402 Y-5.8469
G01 X14.1177 Y-5.8489
G01 X14.0951 Y-5.8503
G01 X14.0726 Y-5.8511
G01 X14.0500 Y-5.8514
G01 X14.0274 Y-5.8511
G01 X14.0049 Y-5.8503
G01 X13.9823 Y-5.8489
G01 X13.9598 Y-5.8469
G01 X13.9374 Y-5.8445
G01 X13.9150 Y-5.8414
G01 X13.8927 Y-5.8378
G01 X13.8705 Y-5.8337
G01 X13.8484 Y-5.8290
G01 X13.8264 Y-5.8238
G01 X13.8046 Y-5.8180
G01 X13.7829 Y-5.8118
G01 X13.7614 Y-5.8049
G01 X13.7400 Y-5.7976
G01 X13.7189 Y-5.7897
G01 X13.6979 Y-5.7813
G01 X13.6772 Y-5.7724
G01 X13.6566 Y-5.7630
G01 X13.6363 Y-5.7531
G01 X13.6176 Y-5.7434
G01 X13.6176 Y-5.6184
G01 X13.6499 Y-5.6377
G01 X13.6850 Y-5.6564
G01 X13.7210 Y-5.6735
G01 X13.7578 Y-5.6887
G01 X13.7954 Y-5.7022
G01 X13.8335 Y-5.7137
G01 X13.8721 Y-5.7234
G01 X13.8916 Y-5.7275
G01 X13.9309 Y-5.7343
G01 X13.9704 Y-5.7392
G01 X13.9903 Y-5.7409
G01 X14.0301 Y-5.7429
G01 X14.0699 Y-5.7429
G01 X14.1097 Y-5.7409
G01 X14.1494 Y-5.7370
G01 X14.1691 Y-5.7343
G01 X14.2084 Y-5.7275
G01 X14.2473 Y-5.7188
G01 X14.2857 Y-5.7082
G01 X14.3235 Y-5.6957
G01 X14.3607 Y-5.6813
G01 X14.3971 Y-5.6652
G01 X14.4327 Y-5.6473
G01 X14.4501 Y-5.6377
G01 X14.4823 Y-5.6184
G01 X14.4823 Y-5.4864
G01 X14.4551 Y-5.5065
G01 X14.4264 Y-5.5257
G01 X14.3968 Y-5.5435
G01 X14.3817 Y-5.5518
G01 X14.3508 Y-5.5673
G01 X14.3192 Y-5.5813
G01 X14.2870 Y-5.5938
G01 X14.2707 Y-5.5994
G01 X14.2376 Y-5.6094
G01 X14.2210 Y-5.6138
G01 X14.1873 Y-5.6214
G01 X14.1532 Y-5.6273
G01 X14.1190 Y-5.6315
G01 X14.1018 Y-5.6330
G01 X14.0845 Y-5.6340
G01 X14.0500 Y-5.6349
G01 X14.0327 Y-5.6347
G01 X13.9982 Y-5.6330
G01 X13.9810 Y-5.6315
G01 X13.9468 Y-5.6273
G01 X13.9127 Y-5.6214
G01 X13.8958 Y-5.6178
G01 X13.8624 Y-5.6094
G01 X13.8293 Y-5.5994
G01 X13.8130 Y-5.5938
G01 X13.7808 Y-5.5813
G01 X13.7492 Y-5.5673
G01 X13.7183 Y-5.5518
G01 X13.6883 Y-5.5348
G01 X13.6736 Y-5.5257
G01 X13.6449 Y-5.5065
G01 X13.6176 Y-5.4864
G00 Z2.0000
G00 X13.6176 Y-5.3405
G01 F59.00
G01 Z-0.1001
G01 F120.00
G01 X13.6395 Y-5.3625
G01 X13.6612 Y-5.3821
G01 X13.6837 Y-5.4006
G01 X13.7072 Y-5.4181
G01 X13.7315 Y-5.4343
G01 X13.7566 Y-5.4493
G01 X13.7823 Y-5.4631
G01 X13.8088 Y-5.4756
G01 X13.8357 Y-5.4868
G01 X13.8633 Y-5.4966
G01 X13.8912 Y-5.5051
G01 X13.9196 Y-5.5122
G01 X13.9482 Y-5.5179
G01 X13.9771 Y-5.5222
G01 X14.0062 Y-5.5250
G01 X14.0354 Y-5.5265
G01 X14.0646 Y-5.5265
G01 X14.0938 Y-5.5250
G01 X14.1229 Y-5.5222
G01 X14.1518 Y-5.5179
G01 X14.1804 Y-5.5122
G01 X14.2088 Y-5.5051
G01 X14.2367 Y-5.4966
G01 X14.2643 Y-5.4868
G01 X14.2912 Y-5.4756
G01 X14.3177 Y-5.4631
G01 X14.3434 Y-5.4493
G01 X14.3685 Y-5.4343
G01 X14.3928 Y-5.4181
G01 X14.4163 Y-5.4006
G01 X14.4388 Y-5.3821
G01 X14.4605 Y-5.3625
G01 X14.4823 Y-5.3405
G01 X14.4823 Y-5.1556
G01 X14.4678 Y-5.1817
G01 X14.4550 Y-5.2019
G01 X14.4412 Y-5.2215
G01 X14.4265 Y-5.2403
G01 X14.4109 Y-5.2584
G01 X14.3944 Y-5.2757
G01 X14.3771 Y-5.2922
G01 X14.3590 Y-5.3078
G01 X14.3497 Y-5.3153
G01 X14.3305 Y-5.3296
G01 X14.3206 Y-5.3363
G01 X14.3004 Y-5.3491
G01 X14.2796 Y-5.3609
G01 X14.2583 Y-5.3716
G01 X14.2364 Y-5.3813
G01 X14.2253 Y-5.3858
G01 X14.2028 Y-5.3938
G01 X14.1799 Y-5.4008
G01 X14.1567 Y-5.4066
G01 X14.1450 Y-5.4091
G01 X14.1215 Y-5.4131
G01 X14.0977 Y-5.4161
G01 X14.0739 Y-5.4178
G01 X14.0500 Y-5.4184
G01 X14.0261 Y-5.4178
G01 X14.0142 Y-5.4171
G01 X13.9904 Y-5.4147
G01 X13.9667 Y-5.4112
G01 X13.9433 Y-5.4066
G01 X13.9201 Y-5.4008
G01 X13.8972 Y-5.3938
G01 X13.8747 Y-5.3858
G01 X13.8636 Y-5.3813
G01 X13.8417 Y-5.3716
G01 X13.8204 Y-5.3609
G01 X13.7996 Y-5.3491
G01 X13.7794 Y-5.3363
G01 X13.7598 Y-5.3226
G01 X13.7503 Y-5.3153
G01 X13.7319 Y-5.3002
G01 X13.7141 Y-5.2841
G01 X13.6972 Y-5.2672
G01 X13.6891 Y-5.2584
G01 X13.6735 Y-5.2403
G01 X13.6588 Y-5.2215
G01 X13.6450 Y-5.2019
G01 X13.6322 Y-5.1817
G01 X13.6176 Y-5.1556
G01 X13.6176 Y-4.7071
G01 X13.6322 Y-4.6809
G01 X13.6385 Y-4.6707
G01 X13.6518 Y-4.6509
G01 X13.6588 Y-4.6412
G01 X13.6735 Y-4.6223
G01 X13.6891 Y-4.6042
G01 X13.6972 Y-4.5955
G01 X13.7056 Y-4.5869
G01 X13.7229 Y-4.5704
G01 X13.7319 Y-4.5625
G01 X13.7503 Y-4.5473
G01 X13.7695 Y-4.5331
G01 X13.7894 Y-4.5198
G01 X13.7996 Y-4.5135
G01 X13.8204 Y-4.5018
G01 X13.8310 Y-4.4963
G01 X13.8526 Y-4.4860
G01 X13.8636 Y-4.4813
G01 X13.8747 Y-4.4769
G01 X13.8972 Y-4.4688
G01 X13.9201 Y-4.4619
G01 X13.9433 Y-4.4561
G01 X13.9550 Y-4.4536
G01 X13.9785 Y-4.4495
G01 X13.9904 Y-4.4479
G01 X14.0142 Y-4.4456
G01 X14.0261 Y-4.4448
G01 X14.0500 Y-4.4442
G01 X14.0620 Y-4.4444
G01 X14.0858 Y-4.4456
G01 X14.0977 Y-4.4466
G01 X14.1215 Y-4.4495
G01 X14.1450 Y-4.4536
G01 X14.1684 Y-4.4588
G01 X14.1799 Y-4.4619
G01 X14.2028 Y-4.4688
G01 X14.2141 Y-4.4727
G01 X14.2364 Y-4.4813
G01 X14.2583 Y-4.4910
G01 X14.2690 Y-4.4963
G01 X14.2796 Y-4.5018
G01 X14.3004 Y-4.5135
G01 X14.3106 Y-4.5198
G01 X14.3305 Y-4.5331
G01 X14.3497 Y-4.5473
G01 X14.3681 Y-4.5625
G01 X14.3771 Y-4.5704
G01 X14.3944 Y-4.5869
G01 X14.4028 Y-4.5955
G01 X14.4109 Y-4.6042
G01 X14.4265 Y-4.6223
G01 X14.4340 Y-4.6317
G01 X14.4482 Y-4.6509
G01 X14.4550 Y-4.6607
G01 X14.4678 Y-4.6809
G01 X14.4823 Y-4.7071
G01 X14.4823 Y-4.5221
G01 X14.4605 Y-4.5002
G01 X14.4388 Y-4.4805
G01 X14.4163 Y-4.4620
G01 X14.3928 Y-4.4446
G01 X14.3685 Y-4.4284
G01 X14.3434 Y-4.4133
G01 X14.3177 Y-4.3996
G01 X14.2912 Y-4.3871
G01 X14.2643 Y-4.3759
G01 X14.2367 Y-4.3661
G01 X14.2228 Y-4.3616
G01 X14.1947 Y-4.3539
G01 X14.1661 Y-4.3474
G01 X14.1374 Y-4.3425
G01 X14.1084 Y-4.3389
G01 X14.0792 Y-4.3367
G01 X14.0500 Y-4.3360
G01 X14.0208 Y-4.3367
G01 X13.9916 Y-4.3389
G01 X13.9626 Y-4.3425
G01 X13.9339 Y-4.3474
G01 X13.9053 Y-4.3539
G01 X13.8772 Y-4.3616
G01 X13.8494 Y-4.3708
G01 X13.8357 Y-4.3759
G01 X13.8088 Y-4.3871
G01 X13.7823 Y-4.3996
G01 X13.7566 Y-4.4133
G01 X13.7315 Y-4.4284
G01 X13.7072 Y-4.4446
G01 X13.6837 Y-4.4620
G01 X13.6612 Y-4.4805
G01 X13.6395 Y-4.5002
G01 X13.6176 Y-4.5221
G00 Z2.0000
G00 X13.6176 Y-4.3763
G01 F59.00
G01 Z-0.1001
G01 F120.00
G01 X13.6449 Y-4.3561
G01 X13.6736 Y-4.3369
G01 X13.6883 Y-4.3279
G01 X13.7183 Y-4.3108
G01 X13.7492 Y-4.2953
G01 X13.7649 Y-4.2881
G01 X13.7968 Y-4.2749
G01 X13.8293 Y-4.2633
G01 X13.8624 Y-4.2533
G01 X13.8958 Y-4.2449
G01 X13.9127 Y-4.2413
G01 X13.9468 Y-4.2354
G01 X13.9639 Y-4.2331
G01 X13.9982 Y-4.2297
G01 X14.0155 Y-4.2286
G01 X14.0500 Y-4.2278
G01 X14.0673 Y-4.2280
G01 X14.1018 Y-4.2297
G01 X14.1361 Y-4.2331
G01 X14.1532 Y-4.2354
G01 X14.1873 Y-4.2413
G01 X14.2042 Y-4.2449
G01 X14.2376 Y-4.2533
G01 X14.2707 Y-4.2633
G01 X14.2870 Y-4.2689
G01 X14.3192 Y-4.2813
G01 X14.3508 Y-4.2953
G01 X14.3817 Y-4.3108
G01 X14.3968 Y-4.3192
G01 X14.4264 Y-4.3369
G01 X14.4551 Y-4.3561
G01 X14.4823 Y-4.3763
G01 X14.4823 Y-4.2443
G01 X14.4501 Y-4.2250
G01 X14.4327 Y-4.2154
G01 X14.4150 Y-4.2062
G01 X14.3790 Y-4.1892
G01 X14.3422 Y-4.1739
G01 X14.3235 Y-4.1670
G01 X14.2857 Y-4.1545
G01 X14.2665 Y-4.1489
G01 X14.2473 Y-4.1439
G01 X14.2084 Y-4.1351
G01 X14.1888 Y-4.1315
G01 X14.1494 Y-4.1256
G01 X14.1097 Y-4.1217
G01 X14.0898 Y-4.1205
G01 X14.0500 Y-4.1195
G01 X14.0301 Y-4.1198
G01 X13.9903 Y-4.1217
G01 X13.9704 Y-4.1234
G01 X13.9309 Y-4.1283
G01 X13.8916 Y-4.1351
G01 X13.8721 Y-4.1393
G01 X13.8335 Y-4.1489
G01 X13.7954 Y-4.1605
G01 X13.7765 Y-4.1670
G01 X13.7578 Y-4.1739
G01 X13.7210 Y-4.1892
G01 X13.7029 Y-4.1975
G01 X13.6673 Y-4.2154
G01 X13.6499 Y-4.2250
G01 X13.6176 Y-4.2443
G00 Z2.0000
G00 X13.5450 Y-4.1624
G01 F59.00
G01 Z-0.1001
G01 F120.00
G01 X13.5770 Y-4.1422
G01 X13.5965 Y-4.1308
G01 X13.6163 Y-4.1199
G01 X13.6363 Y-4.1095
G01 X13.6566 Y-4.0996
G01 X13.6772 Y-4.0902
G01 X13.6979 Y-4.0813
G01 X13.7189 Y-4.0729
G01 X13.7400 Y-4.0651
G01 X13.7614 Y-4.0577
G01 X13.7829 Y-4.0509
G01 X13.8046 Y-4.0446
G01 X13.8264 Y-4.0389
G01 X13.8484 Y-4.0336
G01 X13.8705 Y-4.0290
G01 X13.8927 Y-4.0248
G01 X13.9150 Y-4.0212
G01 X13.9374 Y-4.0182
G01 X13.9598 Y-4.0157
G01 X13.9823 Y-4.0138
G01 X14.0049 Y-4.0124
G01 X14.0274 Y-4.0116
G01 X14.0500 Y-4.0113
G01 X14.0726 Y-4.0116
G01 X14.0951 Y-4.0124
G01 X14.1177 Y-4.0138
G01 X14.1402 Y-4.0157
G01 X14.1626 Y-4.0182
G01 X14.1850 Y-4.0212
G01 X14.2073 Y-4.0248
G01 X14.2295 Y-4.0290
G01 X14.2516 Y-4.0336
G01 X14.2736 Y-4.0389
G01 X14.2954 Y-4.0446
G01 X14.3171 Y-4.0509
G01 X14.3386 Y-4.0577
G01 X14.3600 Y-4.0651
G01 X14.3811 Y-4.0729
G01 X14.4021 Y-4.0813
G01 X14.4228 Y-4.0902
G01 X14.4434 Y-4.0996
G01 X14.4637 Y-4.1095
G01 X14.4823 Y-4.1192
G01 X14.4823 Y-3.9984
G01 X14.4667 Y-3.9913
G01 X14.4435 Y-3.9813
G01 X14.4201 Y-3.9720
G01 X14.3964 Y-3.9632
G01 X14.3726 Y-3.9549
G01 X14.3485 Y-3.9473
G01 X14.3243 Y-3.9403
G01 X14.2999 Y-3.9339
G01 X14.2753 Y-3.9280
G01 X14.2506 Y-3.9228
G01 X14.2258 Y-3.9182
G01 X14.2009 Y-3.9142
G01 X14.1759 Y-3.9108
G01 X14.1508 Y-3.9080
G01 X14.1256 Y-3.9058
G01 X14.1005 Y-3.9043
G01 X14.0752 Y-3.9034
G01 X14.0500 Y-3.9030
G01 X14.0248 Y-3.9034
G01 X13.9995 Y-3.9043
G01 X13.9744 Y-3.9058
G01 X13.9492 Y-3.9080
G01 X13.9241 Y-3.9108
G01 X13.8991 Y-3.9142
G01 X13.8742 Y-3.9182
G01 X13.8494 Y-3.9228
G01 X13.8247 Y-3.9280
G01 X13.8001 Y-3.9339
G01 X13.7757 Y-3.9403
G01 X13.7515 Y-3.9473
G01 X13.7274 Y-3.9549
G01 X13.7036 Y-3.9632
G01 X13.6799 Y-3.9720
G01 X13.6565 Y-3.9813
G01 X13.6333 Y-3.9913
G01 X13.6104 Y-4.0018
G01 X13.5877 Y-4.0128
G01 X13.5653 Y-4.0245
G01 X13.5432 Y-4.0366
G01 X13.5214 Y-4.0493
G01 X13.4999 Y-4.0626
G01 X13.4787 Y-4.0763
G01 X13.4579 Y-4.0906
G01 X13.4375 Y-4.1054
G01 X13.4174 Y-4.1207
G01 X13.3977 Y-4.1365
G01 X13.3674 Y-4.1624
G00 Z2.0000
G00 X13.2132 Y-4.1624
G01 F59.00
G01 Z-0.1001
G01 F120.00
G01 X13.2269 Y-4.1477
G01 X13.2464 Y-4.1277
G01 X13.2663 Y-4.1082
G01 X13.2868 Y-4.0892
G01 X13.3077 Y-4.0707
G01 X13.3290 Y-4.0528
G01 X13.3508 Y-4.0354
G01 X13.3730 Y-4.0185
G01 X13.3956 Y-4.0021
G01 X13.4186 Y-3.9863
G01 X13.4420 Y-3.9711
G01 X13.4657 Y-3.9565
G01 X13.4898 Y-3.9425
G01 X13.5142 Y-3.9290
G01 X13.5390 Y-3.9162
G01 X13.5641 Y-3.9039
G01 X13.5894 Y-3.8923
G01 X13.6151 Y-3.8813
G01 X13.6410 Y-3.8710
G01 X13.6671 Y-3.8612
G01 X13.6935 Y-3.8522
G01 X13.7201 Y-3.8437
G01 X13.7469 Y-3.8360
G01 X13.7738 Y-3.8289
G01 X13.8010 Y-3.8224
G01 X13.8283 Y-3.8166
G01 X13.8557 Y-3.8115
G01 X13.8832 Y-3.8071
G01 X13.9109 Y-3.8034
G01 X13.9386 Y-3.8003
G01 X13.9664 Y-3.7979
G01 X13.9942 Y-3.7962
G01 X14.0221 Y-3.7952
G01 X14.0500 Y-3.7948
G01 X14.0779 Y-3.7952
G01 X14.1058 Y-3.7962
G01 X14.1336 Y-3.7979
G01 X14.1614 Y-3.8003
G01 X14.1891 Y-3.8034
G01 X14.2168 Y-3.8071
G01 X14.2443 Y-3.8115
G01 X14.2717 Y-3.8166
G01 X14.2990 Y-3.8224
G01 X14.3262 Y-3.8289
G01 X14.3531 Y-3.8360
G01 X14.3799 Y-3.8437
G01 X14.4065 Y-3.8522
G01 X14.4329 Y-3.8612
G01 X14.4590 Y-3.8710
G01 X14.4823 Y-3.8803
G01 X14.4823 Y-3.7642
G01 X14.4405 Y-3.7494
G01 X14.4113 Y-3.7402
G01 X14.3820 Y-3.7317
G01 X14.3525 Y-3.7239
G01 X14.3227 Y-3.7168
G01 X14.2928 Y-3.7105
G01 X14.2628 Y-3.7049
G01 X14.2326 Y-3.7000
G01 X14.2024 Y-3.6959
G01 X14.1720 Y-3.6926
G01 X14.1416 Y-3.6899
G01 X14.1111 Y-3.6881
G01 X14.0805 Y-3.6869
G01 X14.0500 Y-3.6866
G01 X14.0195 Y-3.6869
G01 X13.9889 Y-3.6881
G01 X13.9584 Y-3.6899
G01 X13.9280 Y-3.6926
G01 X13.8976 Y-3.6959
G01 X13.8674 Y-3.7000
G01 X13.8372 Y-3.7049
G01 X13.8072 Y-3.7105
G01 X13.7773 Y-3.7168
G01 X13.7475 Y-3.7239
G01 X13.7180 Y-3.7317
G01 X13.6887 Y-3.7402
G01 X13.6595 Y-3.7494
G01 X13.6307 Y-3.7593
G01 X13.6020 Y-3.7700
G01 X13.5737 Y-3.7813
G01 X13.5456 Y-3.7934
G01 X13.5178 Y-3.8061
G01 X13.4903 Y-3.8195
G01 X13.4632 Y-3.8335
G01 X13.4365 Y-3.8483
G01 X13.4101 Y-3.8637
G01 X13.3841 Y-3.8797
G01 X13.3584 Y-3.8963
G01 X13.3333 Y-3.9136
G01 X13.3085 Y-3.9315
G01 X13.2842 Y-3.9500
G01 X13.2603 Y-3.9691
G01 X13.2370 Y-3.9888
G01 X13.2141 Y-4.0090
G01 X13.1917 Y-4.0298
G01 X13.1698 Y-4.0512
G01 X13.1485 Y-4.0730
G01 X13.1277 Y-4.0954
G01 X13.1075 Y-4.1183
G01 X13.0878 Y-4.1417
G01 X13.0712 Y-4.1624
G01 X12.9369 Y-4.1624
G01 X12.9633 Y-4.1253
G01 X12.9834 Y-4.0989
G01 X13.0041 Y-4.0730
G01 X13.0255 Y-4.0476
G01 X13.0475 Y-4.0227
G01 X13.0701 Y-3.9984
G01 X13.0933 Y-3.9746
G01 X13.1171 Y-3.9514
G01 X13.1414 Y-3.9288
G01 X13.1663 Y-3.9068
G01 X13.1917 Y-3.8854
G01 X13.2176 Y-3.8647
G01 X13.2440 Y-3.8446
G01 X13.2709 Y-3.8251
G01 X13.2983 Y-3.8064
G01 X13.3261 Y-3.7882
G01 X13.3544 Y-3.7708
G01 X13.3831 Y-3.7541
G01 X13.4122 Y-3.7381
G01 X13.4417 Y-3.7228
G01 X13.4715 Y-3.7082
G01 X13.5017 Y-3.6944
G01 X13.5322 Y-3.6813
G01 X13.5631 Y-3.6690
G01 X13.5942 Y-3.6574
G01 X13.6256 Y-3.6466
G01 X13.6572 Y-3.6366
G01 X13.6891 Y-3.6273
G01 X13.7212 Y-3.6189
G01 X13.7536 Y-3.6112
G01 X13.7860 Y-3.6043
G01 X13.8187 Y-3.5982
G01 X13.8515 Y-3.5930
G01 X13.8844 Y-3.5885
G01 X13.9174 Y-3.5848
G01 X13.9505 Y-3.5820
G01 X13.9836 Y-3.5800
G01 X14.0168 Y-3.5787
G01 X14.0500 Y-3.5783
G01 X14.0832 Y-3.5787
G01 X14.1164 Y-3.5800
G01 X14.1495 Y-3.5820
G01 X14.1826 Y-3.5848
G01 X14.2156 Y-3.5885
G01 X14.2485 Y-3.5930
G01 X14.2813 Y-3.5982
G01 X14.3140 Y-3.6043
G01 X14.3464 Y-3.6112
G01 X14.3788 Y-3.6189
G01 X14.4109 Y-3.6273
G01 X14.4428 Y-3.6366
G01 X14.4823 Y-3.6493
G01 X14.4823 Y-3.5356
G01 X14.4397 Y-3.5230
G01 X14.4051 Y-3.5139
G01 X14.3702 Y-3.5056
G01 X14.3351 Y-3.4982
G01 X14.2998 Y-3.4916
G01 X14.2644 Y-3.4859
G01 X14.2289 Y-3.4811
G01 X14.1932 Y-3.4771
G01 X14.1575 Y-3.4740
G01 X14.1217 Y-3.4718
G01 X14.0859 Y-3.4705
G01 X14.0500 Y-3.4701
G01 X14.0141 Y-3.4705
G01 X13.9783 Y-3.4718
G01 X13.9425 Y-3.4740
G01 X13.9068 Y-3.4771
G01 X13.8711 Y-3.4811
G01 X13.8356 Y-3.4859
G01 X13.8002 Y-3.4916
G01 X13.7649 Y-3.4982
G01 X13.7298 Y-3.5056
G01 X13.6949 Y-3.5139
G01 X13.6603 Y-3.5230
G01 X13.6258 Y-3.5330
G01 X13.5916 Y-3.5438
G01 X13.5577 Y-3.5555
G01 X13.5241 Y-3.5680
G01 X13.4908 Y-3.5813
G01 X13.4578 Y-3.5954
G01 X13.4252 Y-3.6104
G01 X13.3930 Y-3.6261
G01 X13.3612 Y-3.6426
G01 X13.3298 Y-3.6599
G01 X13.2988 Y-3.6780
G01 X13.2682 Y-3.6968
G01 X13.2382 Y-3.7164
G01 X13.2086 Y-3.7366
G01 X13.1795 Y-3.7577
G01 X13.1510 Y-3.7794
G01 X13.1230 Y-3.8018
G01 X13.0956 Y-3.8249
G01 X13.0687 Y-3.8486
G01 X13.0424 Y-3.8730
G01 X13.0167 Y-3.8981
G01 X12.9917 Y-3.9237
G01 X12.9673 Y-3.9500
G01 X12.9435 Y-3.9769
G01 X12.9204 Y-4.0043
G01 X12.8980 Y-4.0323
G01 X12.8763 Y-4.0609
G01 X12.8553 Y-4.0899
G01 X12.8350 Y-4.1195
G01 X12.8155 Y-4.1496
G01 X12.8076 Y-4.1624
G01 X12.6819 Y-4.1624
G01 X12.7038 Y-4.1245
G01 X12.7240 Y-4.0917
G01 X12.7450 Y-4.0594
G01 X12.7668 Y-4.0276
G01 X12.7894 Y-3.9964
G01 X12.8127 Y-3.9657
G01 X12.8368 Y-3.9357
G01 X12.8616 Y-3.9062
G01 X12.8871 Y-3.8773
G01 X12.9133 Y-3.8491
G01 X12.9402 Y-3.8215
G01 X12.9678 Y-3.7946
G01 X12.9960 Y-3.7684
G01 X13.0249 Y-3.7429
G01 X13.0543 Y-3.7181
G01 X13.0844 Y-3.6940
G01 X13.1151 Y-3.6707
G01 X13.1463 Y-3.6481
G01 X13.1780 Y-3.6264
G01 X13.2103 Y-3.6053
G01 X13.2431 Y-3.5851
G01 X13.2764 Y-3.5657
G01 X13.3102 Y-3.5472
G01 X13.3443 Y-3.5294
G01 X13.3790 Y-3.5125
G01 X13.4140 Y-3.4965
G01 X13.4494 Y-3.4813
G01 X13.4852 Y-3.4670
G01 X13.5103 Y-3.4576
G00 Z2.0000
G00 X13.6075 Y-3.4256
G01 F59.00
G01 Z-0.1001
G01 F120.00
G01 X13.6314 Y-3.4187
G01 X13.6686 Y-3.4089
G01 X13.7061 Y-3.4000
G01 X13.7438 Y-3.3920
G01 X13.7817 Y-3.3850
G01 X13.8197 Y-3.3788
G01 X13.8579 Y-3.3737
G01 X13.8962 Y-3.3694
G01 X13.9345 Y-3.3661
G01 X13.9730 Y-3.3637
G01 X14.0115 Y-3.3623
G01 X14.0500 Y-3.3618
G01 X14.0885 Y-3.3623
G01 X14.1270 Y-3.3637
G01 X14.1655 Y-3.3661
G01 X14.2038 Y-3.3694
G01 X14.2421 Y-3.3737
G01 X14.2803 Y-3.3788
G01 X14.3183 Y-3.3850
G01 X14.3562 Y-3.3920
G01 X14.3939 Y-3.4000
G01 X14.4314 Y-3.4089
G01 X14.4686 Y-3.4187
G01 X14.4823 Y-3.4227
G00 Z2.0000
G00 X14.4823 Y-3.3104
G01 F59.00
G01 Z-0.1001
G01 F120.00
G01 X14.4577 Y-3.3039
G01 X14.4176 Y-3.2944
G01 X14.3773 Y-3.2858
G01 X14.3368 Y-3.2783
G01 X14.2962 Y-3.2718
G01 X14.2554 Y-3.2662
G01 X14.2144 Y-3.2617
G01 X14.1734 Y-3.2582
G01 X14.1323 Y-3.2556
G01 X14.0912 Y-3.2541
G01 X14.0500 Y-3.2536
G01 X14.0088 Y-3.2541
G01 X13.9677 Y-3.2556
G01 X13.9266 Y-3.2582
G01 X13.8856 Y-3.2617
G01 X13.8446 Y-3.2662
G01 X13.8038 Y-3.2718
G01 X13.7632 Y-3.2783
G01 X13.7227 Y-3.2858
G01 X13.6824 Y-3.2944
G01 X13.6423 Y-3.3039
G01 X13.6176 Y-3.3104
G00 Z2.0000
G00 X13.6176 Y-3.1985
G01 F59.00
G01 Z-0.1001
G01 F120.00
G01 X13.6587 Y-3.1888
G01 X13.7016 Y-3.1797
G01 X13.7447 Y-3.1717
G01 X13.7879 Y-3.1647
G01 X13.8314 Y-3.1588
G01 X13.8749 Y-3.1540
G01 X13.9186 Y-3.1502
G01 X13.9624 Y-3.1475
G01 X14.0062 Y-3.1459
G01 X14.0500 Y-3.1454
G01 X14.0938 Y-3.1459
G01 X14.1376 Y-3.1475
G01 X14.1814 Y-3.1502
G01 X14.2251 Y-3.1540
G01 X14.2686 Y-3.1588
G01 X14.3121 Y-3.1647
G01 X14.3553 Y-3.1717
G01 X14.3984 Y-3.1797
G01 X14.4413 Y-3.1888
G01 X14.4823 Y-3.1985
G01 X14.4823 Y-3.0873
G01 X14.4650 Y-3.0832
G01 X14.4195 Y-3.0735
G01 X14.3738 Y-3.0650
G01 X14.3279 Y-3.0576
G01 X14.2819 Y-3.0514
G01 X14.2357 Y-3.0463
G01 X14.1893 Y-3.0423
G01 X14.1429 Y-3.0394
G01 X14.0965 Y-3.0377
G01 X14.0500 Y-3.0371
G01 X14.0035 Y-3.0377
G01 X13.9571 Y-3.0394
G01 X13.9107 Y-3.0423
G01 X13.8643 Y-3.0463
G01 X13.8181 Y-3.0514
G01 X13.7721 Y-3.0576
G01 X13.7262 Y-3.0650
G01 X13.6805 Y-3.0735
G01 X13.6350 Y-3.0832
G01 X13.6176 Y-3.0873
G00 Z2.0000
G00 X13.6176 Y-2.9762
G01 F59.00
G01 Z-0.1001
G01 F120.00
G01 X13.6593 Y-2.9674
G01 X13.7077 Y-2.9584
G01 X13.7562 Y-2.9506
G01 X13.8049 Y-2.9439
G01 X13.8537 Y-2.9385
G01 X13.9027 Y-2.9343
G01 X13.9517 Y-2.9313
G01 X14.0009 Y-2.9295
G01 X14.0500 Y-2.9289
G01 X14.0991 Y-2.9295
G01 X14.1483 Y-2.9313
G01 X14.1973 Y-2.9343
G01 X14.2463 Y-2.9385
G01 X14.2951 Y-2.9439
G01 X14.3438 Y-2.9506
G01 X14.3923 Y-2.9584
G01 X14.4407 Y-2.9674
G01 X14.4823 Y-2.9762
G00 Z2.0000
G00 X14.4823 Y-2.8656
G01 F59.00
G01 Z-0.1001
G01 F120.00
G01 X14.4618 Y-2.8612
G01 X14.4108 Y-2.8517
G01 X14.3597 Y-2.8435
G01 X14.3084 Y-2.8365
G01 X14.2569 Y-2.8308
G01 X14.2053 Y-2.8264
G01 X14.1536 Y-2.8232
G01 X14.1018 Y-2.8213
G01 X14.0500 Y-2.8206
G01 X13.9982 Y-2.8213
G01 X13.9464 Y-2.8232
G01 X13.8947 Y-2.8264
G01 X13.8431 Y-2.8308
G01 X13.7916 Y-2.8365
G01 X13.7403 Y-2.8435
G01 X13.6892 Y-2.8517
G01 X13.6382 Y-2.8612
G01 X13.6176 Y-2.8656
G00 Z2.0000
G00 X13.6176 Y-2.7549
G01 F59.00
G01 Z-0.1001
G01 F120.00
G01 X13.6706 Y-2.7451
G01 X13.7244 Y-2.7364
G01 X13.7784 Y-2.7291
G01 X13.8325 Y-2.7231
G01 X13.8868 Y-2.7184
G01 X13.9411 Y-2.7151
G01 X13.9955 Y-2.7131
G01 X14.0500 Y-2.7124
G01 X14.1045 Y-2.7131
G01 X14.1589 Y-2.7151
G01 X14.2132 Y-2.7184
G01 X14.2675 Y-2.7231
G01 X14.3216 Y-2.7291
G01 X14.3756 Y-2.7364
G01 X14.4294 Y-2.7451
G01 X14.4823 Y-2.7549
G00 Z2.0000
G00 X14.4823 Y-2.6449
G01 F59.00
G01 Z-0.1001
G01 F120.00
G01 X14.4479 Y-2.6384
G01 X14.3915 Y-2.6294
G01 X14.3349 Y-2.6217
G01 X14.2781 Y-2.6154
G01 X14.2212 Y-2.6105
G01 X14.1642 Y-2.6070
G01 X14.1071 Y-2.6049
G01 X14.0500 Y-2.6042
G01 X13.9929 Y-2.6049
G01 X13.9358 Y-2.6070
G01 X13.8788 Y-2.6105
G01 X13.8219 Y-2.6154
G01 X13.7651 Y-2.6217
G01 X13.7085 Y-2.6294
G01 X13.6521 Y-2.6384
G01 X13.6176 Y-2.6449
G00 Z2.0000
G00 X13.6176 Y-2.5348
G01 F59.00
G01 Z-0.1001
G01 F120.00
G01 X13.6336 Y-2.5318
G01 X13.6927 Y-2.5223
G01 X13.7519 Y-2.5142
G01 X13.8113 Y-2.5077
G01 X13.8708 Y-2.5025
G01 X13.9305 Y-2.4989
G01 X13.9902 Y-2.4967
G01 X14.0500 Y-2.4959
G01 X14.1098 Y-2.4967
G01 X14.1695 Y-2.4989
G01 X14.2292 Y-2.5025
G01 X14.2887 Y-2.5077
G01 X14.3481 Y-2.5142
G01 X14.4073 Y-2.5223
G01 X14.4664 Y-2.5318
G01 X14.4823 Y-2.5348
G00 Z2.0000
G00 X14.4823 Y-2.4247
G01 F59.00
G01 Z-0.1001
G01 F120.00
G01 X14.4232 Y-2.4152
G01 X14.3614 Y-2.4068
G01 X14.2993 Y-2.3999
G01 X14.2371 Y-2.3946
G01 X14.1748 Y-2.3908
G01 X14.1124 Y-2.3885
G01 X14.0500 Y-2.3877
G01 X13.9876 Y-2.3885
G01 X13.9252 Y-2.3908
G01 X13.8629 Y-2.3946
G01 X13.8007 Y-2.3999
G01 X13.7386 Y-2.4068
G01 X13.6768 Y-2.4152
G01 X13.6176 Y-2.4247
G01 X13.6176 Y-2.3151
G01 X13.6609 Y-2.3082
G01 X13.7254 Y-2.2994
G01 X13.7901 Y-2.2922
G01 X13.8549 Y-2.2866
G01 X13.9199 Y-2.2826
G01 X13.9849 Y-2.2802
G01 X14.0500 Y-2.2794
G01 X14.1151 Y-2.2802
G01 X14.1801 Y-2.2826
G01 X14.2451 Y-2.2866
G01 X14.3099 Y-2.2922
G01 X14.3746 Y-2.2994
G01 X14.4391 Y-2.3082
G01 X14.4823 Y-2.3151
G01 X14.4823 Y-2.2055
G01 X14.4550 Y-2.2011
G01 X14.3879 Y-2.1920
G01 X14.3205 Y-2.1845
G01 X14.2530 Y-2.1787
G01 X14.1854 Y-2.1745
G01 X14.1177 Y-2.1720
G01 X14.0500 Y-2.1712
G01 X13.9823 Y-2.1720
G01 X13.9146 Y-2.1745
G01 X13.8470 Y-2.1787
G01 X13.7795 Y-2.1845
G01 X13.7121 Y-2.1920
G01 X13.6450 Y-2.2011
G01 X13.6176 Y-2.2055
G00 Z2.0000
G00 X13.6176 Y-2.0959
G01 F59.00
G01 Z-0.1001
G01 F120.00
G01 X13.6989 Y-2.0845
G01 X13.7689 Y-2.0768
G01 X13.8390 Y-2.0707
G01 X13.9093 Y-2.0664
G01 X13.9796 Y-2.0638
G01 X14.0500 Y-2.0630
G01 X14.1204 Y-2.0638
G01 X14.1907 Y-2.0664
G01 X14.2610 Y-2.0707
G01 X14.3311 Y-2.0768
G01 X14.4011 Y-2.0845
G01 X14.4823 Y-2.0959
G00 Z2.0000
G00 X14.4823 Y-1.9863
G01 F59.00
G01 Z-0.1001
G01 F120.00
G01 X14.4144 Y-1.9771
G01 X14.3418 Y-1.9691
G01 X14.2690 Y-1.9628
G01 X14.1961 Y-1.9583
G01 X14.1230 Y-1.9556
G01 X14.0500 Y-1.9547
G01 X13.9770 Y-1.9556
G01 X13.9039 Y-1.9583
G01 X13.8310 Y-1.9628
G01 X13.7582 Y-1.9691
G01 X13.6856 Y-1.9771
G01 X13.6176 Y-1.9863
G01 X13.6176 Y-1.8771
G01 X13.6724 Y-1.8697
G01 X13.7476 Y-1.8613
G01 X13.8231 Y-1.8548
G01 X13.8986 Y-1.8502
G01 X13.9743 Y-1.8474
G01 X14.0500 Y-1.8465
G01 X14.1257 Y-1.8474
G01 X14.2014 Y-1.8502
G01 X14.2769 Y-1.8548
G01 X14.3524 Y-1.8613
G01 X14.4276 Y-1.8697
G01 X14.4823 Y-1.8771
G00 Z2.0000
G00 X14.4823 Y-1.7679
G01 F59.00
G01 Z-0.1001
G01 F120.00
G01 X14.4409 Y-1.7623
G01 X14.3630 Y-1.7536
G01 X14.2849 Y-1.7469
G01 X14.2067 Y-1.7421
G01 X14.1284 Y-1.7392
G01 X14.0500 Y-1.7382
G01 X13.9716 Y-1.7392
G01 X13.8933 Y-1.7421
G01 X13.8151 Y-1.7469
G01 X13.7370 Y-1.7536
G01 X13.6591 Y-1.7623
G01 X13.6176 Y-1.7679
G00 Z2.0000
G00 X13.6105 Y-1.6596
G01 F59.00
G01 Z-0.1001
G01 F120.00
G01 X13.6459 Y-1.6548
G01 X13.7264 Y-1.6459
G01 X13.8071 Y-1.6390
G01 X13.8880 Y-1.6340
G01 X13.9690 Y-1.6310
G01 X14.0500 Y-1.6300
G01 X14.1310 Y-1.6310
G01 X14.2120 Y-1.6340
G01 X14.2929 Y-1.6390
G01 X14.3736 Y-1.6459
G01 X14.4541 Y-1.6548
G01 X14.4823 Y-1.6587
G01 X14.4823 Y-1.5494
G01 X14.4674 Y-1.5474
G01 X14.3842 Y-1.5382
G01 X14.3008 Y-1.5310
G01 X14.2173 Y-1.5259
G01 X14.1337 Y-1.5228
G01 X14.0500 Y-1.5218
G01 X13.9663 Y-1.5228
G01 X13.8827 Y-1.5259
G01 X13.7992 Y-1.5310
G01 X13.7158 Y-1.5382
G01 X13.6326 Y-1.5474
G01 X13.5497 Y-1.5587
G01 X13.4671 Y-1.5720
G01 X13.3848 Y-1.5873
G01 X13.3030 Y-1.6046
G01 X13.2283 Y-1.6224
G01 X12.8563 Y-1.6224
G01 X12.9465 Y-1.5911
G01 X13.0288 Y-1.5650
G01 X13.1118 Y-1.5410
G01 X13.1952 Y-1.5190
G01 X13.2792 Y-1.4990
G01 X13.3637 Y-1.4811
G01 X13.4486 Y-1.4653
G01 X13.5338 Y-1.4516
G01 X13.6194 Y-1.4400
G01 X13.7052 Y-1.4305
G01 X13.7912 Y-1.4231
G01 X13.8774 Y-1.4178
G01 X13.9637 Y-1.4146
G01 X14.0500 Y-1.4135
G01 X14.1363 Y-1.4146
G01 X14.2226 Y-1.4178
G01 X14.3088 Y-1.4231
G01 X14.3948 Y-1.4305
G01 X14.4823 Y-1.4402
G00 Z2.0000
G00 X14.4823 Y-1.3313
G01 F59.00
G01 Z-0.1001
G01 F120.00
G01 X14.4054 Y-1.3227
G01 X14.3167 Y-1.3151
G01 X14.2279 Y-1.3097
G01 X14.1390 Y-1.3064
G01 X14.0500 Y-1.3053
G01 X13.9610 Y-1.3064
G01 X13.8721 Y-1.3097
G01 X13.7833 Y-1.3151
G01 X13.6946 Y-1.3227
G01 X13.6061 Y-1.3326
G01 X13.5179 Y-1.3445
G01 X13.4301 Y-1.3587
G01 X13.3426 Y-1.3750
G01 X13.2555 Y-1.3934
G01 X13.1689 Y-1.4140
G01 X13.0829 Y-1.4366
G01 X12.9974 Y-1.4614
G01 X12.9126 Y-1.4883
G01 X12.8284 Y-1.5173
G01 X12.7450 Y-1.5483
G01 X12.6624 Y-1.5813
G01 X12.5806 Y-1.6164
G01 X12.5675 Y-1.6224
G01 X12.3198 Y-1.6224
G01 X12.3710 Y-1.5958
G01 X12.4534 Y-1.5556
G01 X12.5367 Y-1.5174
G01 X12.6210 Y-1.4813
G01 X12.7061 Y-1.4473
G01 X12.7920 Y-1.4153
G01 X12.8786 Y-1.3855
G01 X12.9660 Y-1.3578
G01 X13.0540 Y-1.3323
G01 X13.1426 Y-1.3090
G01 X13.2318 Y-1.2878
G01 X13.3215 Y-1.2688
G01 X13.4116 Y-1.2520
G01 X13.5021 Y-1.2375
G01 X13.5929 Y-1.2251
G01 X13.6840 Y-1.2150
G01 X13.7753 Y-1.2072
G01 X13.8668 Y-1.2015
G01 X13.9584 Y-1.1982
G01 X14.0500 Y-1.1970
G01 X14.1416 Y-1.1982
G01 X14.2332 Y-1.2015
G01 X14.3247 Y-1.2072
G01 X14.4160 Y-1.2150
G01 X14.4823 Y-1.2224
G00 Z2.0000
G00 X14.4823 Y-1.1135
G01 F59.00
G01 Z-0.1001
G01 F120.00
G01 X14.4266 Y-1.1073
G01 X14.3327 Y-1.0992
G01 X14.2385 Y-1.0934
G01 X14.1443 Y-1.0900
G01 X14.0500 Y-1.0888
G01 X13.9557 Y-1.0900
G01 X13.8615 Y-1.0934
G01 X13.7673 Y-1.0992
G01 X13.6734 Y-1.1073
G01 X13.5796 Y-1.1177
G01 X13.4862 Y-1.1304
G01 X13.3931 Y-1.1454
G01 X13.3004 Y-1.1626
G01 X13.2081 Y-1.1822
G01 X13.1163 Y-1.2040
G01 X13.0252 Y-1.2280
G01 X12.9346 Y-1.2543
G01 X12.8447 Y-1.2827
G01 X12.7555 Y-1.3134
G01 X12.6671 Y-1.3463
G01 X12.5795 Y-1.3813
G01 X12.4929 Y-1.4185
G01 X12.4071 Y-1.4577
G01 X12.3224 Y-1.4991
G01 X12.2386 Y-1.5425
G01 X12.1560 Y-1.5880
G01 X12.0971 Y-1.6224
G00 Z2.0000
G00 X12.2425 Y-1.4186
G01 F59.00
G01 Z-0.1001
G01 F120.00
G01 X12.2737 Y-1.4024
G01 X12.3608 Y-1.3599
G01 X12.4490 Y-1.3195
G01 X12.5381 Y-1.2813
G01 X12.6281 Y-1.2453
G01 X12.7190 Y-1.2115
G01 X12.8107 Y-1.1800
G01 X12.9032 Y-1.1507
G01 X12.9963 Y-1.1237
G01 X13.0900 Y-1.0990
G01 X13.1844 Y-1.0766
G01 X13.2792 Y-1.0565
G01 X13.3746 Y-1.0387
G01 X13.4703 Y-1.0233
G01 X13.5664 Y-1.0103
G01 X13.6628 Y-0.9996
G01 X13.7594 Y-0.9913
G01 X13.8561 Y-0.9853
G01 X13.9530 Y-0.9818
G01 X14.0500 Y-0.9806
G01 X14.1470 Y-0.9818
G01 X14.2439 Y-0.9853
G01 X14.3406 Y-0.9913
G01 X14.4372 Y-0.9996
G01 X14.4823 Y-1.0046
G01 X14.2070 Y-0.8757
G01 X14.1496 Y-0.8736
G01 X14.0500 Y-0.8723
G01 X13.9504 Y-0.8736
G01 X13.8508 Y-0.8772
G01 X13.7514 Y-0.8833
G01 X13.6521 Y-0.8919
G01 X13.5531 Y-0.9029
G01 X13.4544 Y-0.9163
G01 X13.3561 Y-0.9321
G01 X13.2581 Y-0.9503
G01 X13.1607 Y-0.9710
G01 X13.0637 Y-0.9940
G01 X12.9674 Y-1.0194
G01 X12.8717 Y-1.0471
G01 X12.7768 Y-1.0772
G01 X12.6826 Y-1.1096
G01 X12.5892 Y-1.1443
G01 X12.4967 Y-1.1813
G01 X12.4051 Y-1.2206
G01 X12.3114 Y-1.2636
G00 Z2.0000
G00 X12.3427 Y-1.1301
G01 F59.00
G01 Z-0.1001
G01 F120.00
G01 X12.3613 Y-1.1216
G01 X12.4553 Y-1.0813
G01 X12.5502 Y-1.0433
G01 X12.6461 Y-1.0077
G01 X12.7428 Y-0.9744
G01 X12.8403 Y-0.9435
G01 X12.9385 Y-0.9150
G01 X13.0374 Y-0.8890
G01 X13.1370 Y-0.8653
G01 X13.2370 Y-0.8442
G01 X13.3376 Y-0.8254
G01 X13.4385 Y-0.8092
G01 X13.5399 Y-0.7954
G01 X13.6415 Y-0.7842
G01 X13.7348 Y-0.7761
G00 Z2.0000
G00 X13.4006 Y-0.7057
G01 F59.00
G01 Z-0.1001
G01 F120.00
G01 X13.3191 Y-0.7188
G01 X13.2159 Y-0.7380
G01 X13.1132 Y-0.7597
G01 X13.0111 Y-0.7840
G01 X12.9097 Y-0.8107
G01 X12.8089 Y-0.8399
G01 X12.7089 Y-0.8716
G01 X12.6096 Y-0.9058
G01 X12.5113 Y-0.9423
G01 X12.4138 Y-0.9813
G01 X12.3514 Y-1.0081
G00 Z2.0000
G00 X12.3432 Y-0.8938
G01 F59.00
G01 Z-0.1001
G01 F120.00
G01 X12.3724 Y-0.8813
G01 X12.4723 Y-0.8414
G01 X12.5732 Y-0.8039
G01 X12.6749 Y-0.7689
G01 X12.7775 Y-0.7364
G01 X12.8808 Y-0.7064
G01 X12.9848 Y-0.6790
G01 X13.0895 Y-0.6541
G01 X13.1227 Y-0.6471
G01 X12.8774 Y-0.5954
G01 X12.8519 Y-0.6021
G01 X12.7461 Y-0.6328
G01 X12.6410 Y-0.6661
G01 X12.5367 Y-0.7020
G01 X12.4334 Y-0.7404
G01 X12.3207 Y-0.7857
G00 Z2.0000
G00 X12.2835 Y-0.6839
G01 F59.00
G01 Z-0.1001
G01 F120.00
G01 X12.3944 Y-0.6394
G01 X12.5002 Y-0.6000
G01 X12.6070 Y-0.5633
G01 X12.6543 Y-0.5483
G01 X12.4465 Y-0.5045
G01 X12.3555 Y-0.5384
G01 X12.2482 Y-0.5813
G01 X12.2339 Y-0.5874
G00 Z2.0000
G00 X12.1709 Y-0.4967
G01 F59.00
G01 Z-0.1001
G01 F120.00
G01 X12.2067 Y-0.4813
G01 X12.2515 Y-0.4634
G00 Z2.0000
G00 X11.7431 Y-2.3473
G01 F59.00
G01 Z-0.1001
G01 F120.00
G01 X11.7685 Y-2.3147
G01 X11.7824 Y-2.2929
G01 X11.7824 Y-2.3473
G01 X11.7431 Y-2.3473
G00 Z2.0000
G00 X11.7345 Y-2.7327
G01 F59.00
G01 Z-0.1001
G01 F120.00
G01 X11.6841 Y-2.7870
G01 X11.6322 Y-2.8457
G01 X11.5817 Y-2.9057
G01 X11.5327 Y-2.9668
G01 X11.4853 Y-3.0292
G01 X11.4394 Y-3.0927
G01 X11.3951 Y-3.1573
G01 X11.3523 Y-3.2230
G01 X11.3112 Y-3.2898
G01 X11.2717 Y-3.3575
G01 X11.2340 Y-3.4261
G01 X11.1979 Y-3.4957
G01 X11.1635 Y-3.5661
G01 X11.1309 Y-3.6374
G01 X11.1000 Y-3.7094
G01 X11.0709 Y-3.7822
G01 X11.0436 Y-3.8556
G01 X11.0181 Y-3.9297
G01 X10.9944 Y-4.0044
G01 X10.9726 Y-4.0797
G01 X10.9526 Y-4.1555
G01 X10.9345 Y-4.2317
G01 X10.9183 Y-4.3084
G01 X10.9039 Y-4.3854
G01 X10.8915 Y-4.4628
G01 X10.8809 Y-4.5405
G01 X10.8723 Y-4.6184
G01 X10.8656 Y-4.6964
G01 X10.8608 Y-4.7747
G01 X10.8579 Y-4.8530
G01 X10.8575 Y-4.8873
G01 X10.7492 Y-4.8873
G01 X10.7497 Y-4.8503
G01 X10.7527 Y-4.7693
G01 X10.7576 Y-4.6885
G01 X10.7646 Y-4.6077
G01 X10.7735 Y-4.5272
G01 X10.7844 Y-4.4469
G01 X10.7973 Y-4.3669
G01 X10.8121 Y-4.2873
G01 X10.8289 Y-4.2080
G01 X10.8476 Y-4.1292
G01 X10.8683 Y-4.0508
G01 X10.8908 Y-3.9730
G01 X10.9153 Y-3.8958
G01 X10.9417 Y-3.8191
G01 X10.9699 Y-3.7432
G01 X11.0000 Y-3.6680
G01 X11.0319 Y-3.5935
G01 X11.0656 Y-3.5198
G01 X11.1012 Y-3.4470
G01 X11.1385 Y-3.3751
G01 X11.1776 Y-3.3041
G01 X11.2184 Y-3.2341
G01 X11.2343 Y-3.2082
G01 X10.9668 Y-3.4757
G01 X10.9329 Y-3.5496
G01 X10.9000 Y-3.6265
G01 X10.8689 Y-3.7042
G01 X10.8397 Y-3.7827
G01 X10.8125 Y-3.8618
G01 X10.7873 Y-3.9416
G01 X10.7639 Y-4.0220
G01 X10.7426 Y-4.1029
G01 X10.7233 Y-4.1843
G01 X10.7060 Y-4.2662
G01 X10.6906 Y-4.3484
G01 X10.6773 Y-4.4310
G01 X10.6661 Y-4.5140
G01 X10.6569 Y-4.5971
G01 X10.6497 Y-4.6805
G01 X10.6445 Y-4.7640
G01 X10.6415 Y-4.8477
G01 X10.6410 Y-4.8873
G01 X10.5327 Y-4.8873
G01 X10.5333 Y-4.8450
G01 X10.5364 Y-4.7587
G01 X10.5417 Y-4.6725
G01 X10.5491 Y-4.5865
G01 X10.5587 Y-4.5007
G01 X10.5703 Y-4.4152
G01 X10.5840 Y-4.3299
G01 X10.5998 Y-4.2450
G01 X10.6177 Y-4.1606
G01 X10.6376 Y-4.0766
G01 X10.6596 Y-3.9931
G01 X10.6837 Y-3.9102
G01 X10.7097 Y-3.8279
G01 X10.7378 Y-3.7462
G01 X10.7624 Y-3.6801
G00 Z2.0000
G00 X10.5877 Y-3.8549
G01 F59.00
G01 Z-0.1001
G01 F120.00
G01 X10.5801 Y-3.8787
G01 X10.5553 Y-3.9642
G01 X10.5326 Y-4.0503
G01 X10.5121 Y-4.1369
G01 X10.4936 Y-4.2239
G01 X10.4773 Y-4.3114
G01 X10.4632 Y-4.3993
G01 X10.4512 Y-4.4875
G01 X10.4414 Y-4.5759
G01 X10.4338 Y-4.6646
G01 X10.4283 Y-4.7534
G01 X10.4251 Y-4.8423
G01 X10.4245 Y-4.8873
G01 X10.3163 Y-4.8873
G01 X10.3168 Y-4.8397
G01 X10.3202 Y-4.7481
G01 X10.3258 Y-4.6566
G01 X10.3337 Y-4.5653
G01 X10.3438 Y-4.4742
G01 X10.3561 Y-4.3834
G01 X10.3707 Y-4.2929
G01 X10.3875 Y-4.2028
G01 X10.4065 Y-4.1131
G01 X10.4276 Y-4.0240
G01 X10.4309 Y-4.0117
G01 X10.2868 Y-4.1557
G01 X10.2813 Y-4.1817
G01 X10.2641 Y-4.2744
G01 X10.2491 Y-4.3675
G01 X10.2364 Y-4.4610
G01 X10.2260 Y-4.5547
G01 X10.2179 Y-4.6487
G01 X10.2121 Y-4.7428
G01 X10.2086 Y-4.8370
G01 X10.2080 Y-4.8873
G01 X10.0998 Y-4.8873
G01 X10.1004 Y-4.8344
G01 X10.1040 Y-4.7375
G01 X10.1099 Y-4.6407
G01 X10.1183 Y-4.5441
G01 X10.1290 Y-4.4477
G01 X10.1420 Y-4.3516
G01 X10.1518 Y-4.2907
G01 X10.0236 Y-4.4189
G01 X10.0215 Y-4.4345
G01 X10.0105 Y-4.5335
G01 X10.0020 Y-4.6327
G01 X9.9959 Y-4.7322
G01 X9.9922 Y-4.8317
G01 X9.9915 Y-4.8873
G01 X9.8833 Y-4.8873
G01 X9.8840 Y-4.8291
G01 X9.8878 Y-4.7269
G01 X9.8941 Y-4.6248
G01 X9.9012 Y-4.5413
G00 Z2.0000
G00 X9.7861 Y-4.6170
G01 F59.00
G01 Z-0.1001
G01 F120.00
G01 X9.7797 Y-4.7215
G01 X9.7758 Y-4.8264
G01 X9.7751 Y-4.8873
G01 X9.6668 Y-4.8873
G01 X9.6676 Y-4.8237
G01 X9.6716 Y-4.7162
G01 X9.6773 Y-4.6227
G01 X9.5689 Y-4.6227
G01 X9.5635 Y-4.7109
G01 X9.5594 Y-4.8211
G01 X9.5586 Y-4.8873
G01 X9.4503 Y-4.8873
G01 X9.4512 Y-4.8184
G01 X9.4553 Y-4.7056
G01 X9.4604 Y-4.6227
G01 X9.3520 Y-4.6227
G01 X9.3472 Y-4.7003
G01 X9.3430 Y-4.8158
G01 X9.3421 Y-4.8873
G01 X9.2339 Y-4.8873
G01 X9.2348 Y-4.8131
G01 X9.2391 Y-4.6950
G01 X9.2436 Y-4.6227
G01 X9.1351 Y-4.6227
G01 X9.1310 Y-4.6897
G01 X9.1266 Y-4.8105
G01 X9.1256 Y-4.8873
G01 X9.0178 Y-4.8571
G01 X9.0184 Y-4.8078
G01 X9.0229 Y-4.6844
G01 X9.0254 Y-4.6438
G00 Z2.0000
G00 X8.9152 Y-4.6726
G01 F59.00
G01 Z-0.1001
G01 F120.00
G01 X8.9101 Y-4.8052
G01 X8.9098 Y-4.8374
G01 X8.8015 Y-4.8374
G01 X8.8019 Y-4.8025
G01 X8.8068 Y-4.6726
G01 X8.6984 Y-4.6726
G01 X8.6937 Y-4.7998
G01 X8.6933 Y-4.8374
G00 Z2.0000
G00 X8.5850 Y-4.8374
G01 F59.00
G01 Z-0.1001
G01 F120.00
G01 X8.5855 Y-4.7972
G01 X8.5901 Y-4.6726
G00 Z2.0000
G00 X8.4818 Y-4.6726
G01 F59.00
G01 Z-0.1001
G01 F120.00
G01 X8.4773 Y-4.7945
G01 X8.4768 Y-4.8374
G00 Z2.0000
G00 X8.3686 Y-4.8374
G01 F59.00
G01 Z-0.1001
G01 F120.00
G01 X8.3691 Y-4.7919
G01 X8.3735 Y-4.6726
G00 Z2.0000
G00 X8.2652 Y-4.6726
G01 F59.00
G01 Z-0.1001
G01 F120.00
G01 X8.2609 Y-4.7892
G01 X8.2603 Y-4.8374
G01 X8.1521 Y-4.8374
G01 X8.1527 Y-4.7866
G01 X8.1569 Y-4.6726
G01 X8.0486 Y-4.6726
G01 X8.0445 Y-4.7839
G01 X8.0438 Y-4.8374
G00 Z2.0000
G00 X7.9356 Y-4.8380
G01 F59.00
G01 Z-0.1001
G01 F120.00
G01 X7.9363 Y-4.7812
G01 X7.9403 Y-4.6725
G00 Z2.0000
G00 X7.8332 Y-4.6406
G01 F59.00
G01 Z-0.1001
G01 F120.00
G01 X7.8281 Y-4.7786
G01 X7.8269 Y-4.8724
G01 X7.5018 Y-4.9572
G01 X7.5015 Y-4.9313
G01 X7.5035 Y-4.7706
G01 X7.5075 Y-4.6613
G00 Z2.0000
G00 X7.3988 Y-4.6726
G01 F59.00
G01 Z-0.1001
G01 F120.00
G01 X7.3952 Y-4.7680
G01 X7.3941 Y-4.8633
G00 Z2.0000
G00 X7.2862 Y-4.8374
G01 F59.00
G01 Z-0.1001
G01 F120.00
G01 X7.2870 Y-4.7653
G01 X7.2905 Y-4.6726
G01 X7.1821 Y-4.6726
G01 X7.1788 Y-4.7627
G01 X7.1779 Y-4.8374
G00 Z2.0000
G00 X7.0697 Y-4.8374
G01 F59.00
G01 Z-0.1001
G01 F120.00
G01 X7.0706 Y-4.7600
G01 X7.0738 Y-4.6726
G00 Z2.0000
G00 X6.9655 Y-4.6726
G01 F59.00
G01 Z-0.1001
G01 F120.00
G01 X6.9624 Y-4.7573
G01 X6.9614 Y-4.8374
G00 Z2.0000
G00 X6.8532 Y-4.8374
G01 F59.00
G01 Z-0.1001
G01 F120.00
G01 X6.8542 Y-4.7547
G01 X6.8572 Y-4.6726
G00 Z2.0000
G00 X6.7489 Y-4.6726
G01 F59.00
G01 Z-0.1001
G01 F120.00
G01 X6.7460 Y-4.7520
G01 X6.7450 Y-4.8374
G00 Z2.0000
G00 X6.6367 Y-4.8374
G01 F59.00
G01 Z-0.1001
G01 F120.00
G01 X6.6378 Y-4.7494
G01 X6.6406 Y-4.6726
G01 X6.5323 Y-4.6726
G01 X6.5296 Y-4.7467
G01 X6.5285 Y-4.8374
G00 Z2.0000
G00 X6.4202 Y-4.8374
G01 F59.00
G01 Z-0.1001
G01 F120.00
G01 X6.4214 Y-4.7441
G01 X6.4240 Y-4.6726
G00 Z2.0000
G00 X6.3157 Y-4.6726
G01 F59.00
G01 Z-0.1001
G01 F120.00
G01 X6.3132 Y-4.7414
G01 X6.3120 Y-4.8374
G00 Z2.0000
G00 X6.2031 Y-4.8873
G01 F59.00
G01 Z-0.1001
G01 F120.00
G01 X6.2050 Y-4.7387
G01 X6.2088 Y-4.6339
G01 X6.1009 Y-4.6227
G01 X6.0968 Y-4.7361
G01 X6.0949 Y-4.8873
G01 X5.9867 Y-4.8873
G01 X5.9885 Y-4.7334
G01 X5.9926 Y-4.6227
G01 X5.8843 Y-4.6227
G01 X5.8803 Y-4.7308
G01 X5.8784 Y-4.8873
G01 X5.7702 Y-4.8873
G01 X5.7721 Y-4.7281
G01 X5.7760 Y-4.6227
G01 X5.6677 Y-4.6227
G01 X5.6639 Y-4.7255
G01 X5.6619 Y-4.8873
G01 X5.5537 Y-4.8873
G01 X5.5557 Y-4.7228
G01 X5.5594 Y-4.6227
G01 X5.4511 Y-4.6227
G01 X5.4475 Y-4.7202
G01 X5.4455 Y-4.8873
G01 X5.3372 Y-4.8873
G01 X5.3393 Y-4.7175
G01 X5.3428 Y-4.6227
G01 X5.2345 Y-4.6227
G01 X5.2311 Y-4.7148
G01 X5.2290 Y-4.8873
G01 X5.1207 Y-4.8873
G01 X5.1229 Y-4.7122
G01 X5.1262 Y-4.6227
G00 Z2.0000
G00 X5.0183 Y-4.6124
G01 F59.00
G01 Z-0.1001
G01 F120.00
G01 X5.0147 Y-4.7095
G01 X5.0125 Y-4.8873
G01 X4.9043 Y-4.8873
G01 X4.9065 Y-4.7069
G01 X4.9128 Y-4.5353
G01 X4.8094 Y-4.4319
G01 X4.8066 Y-4.4772
G01 X4.7983 Y-4.7042
G01 X4.7960 Y-4.8873
G01 X4.6878 Y-4.8873
G01 X4.6901 Y-4.7016
G01 X4.6985 Y-4.4719
G01 X4.7072 Y-4.3298
G01 X4.6052 Y-4.2278
G01 X4.5904 Y-4.4666
G01 X4.5819 Y-4.6989
G01 X4.5795 Y-4.8873
G01 X4.4713 Y-4.8873
G01 X4.4736 Y-4.6962
G01 X4.4823 Y-4.4613
G01 X4.4967 Y-4.2266
G01 X4.5052 Y-4.1278
G01 X4.4052 Y-4.0277
G01 X4.3888 Y-4.2187
G01 X4.3742 Y-4.4560
G01 X4.3654 Y-4.6936
G01 X4.3631 Y-4.8873
G01 X4.2548 Y-4.8873
G01 X4.2572 Y-4.6909
G01 X4.2661 Y-4.4507
G01 X4.2808 Y-4.2107
G01 X4.3014 Y-3.9712
G01 X4.3062 Y-3.9287
G01 X4.2081 Y-3.8307
G01 X4.1937 Y-3.9606
G01 X4.1729 Y-4.2027
G01 X4.1580 Y-4.4454
G01 X4.1490 Y-4.6883
G01 X4.1466 Y-4.8873
G01 X4.0383 Y-4.8873
G01 X4.0408 Y-4.6856
G01 X4.0499 Y-4.4401
G01 X4.0649 Y-4.1948
G01 X4.0860 Y-3.9500
G01 X4.1101 Y-3.7326
G01 X4.0134 Y-3.6359
G01 X4.0057 Y-3.6925
G01 X3.9783 Y-3.9394
G01 X3.9570 Y-4.1868
G01 X3.9418 Y-4.4347
G01 X3.9326 Y-4.6830
G01 X3.9301 Y-4.8873
G01 X3.8219 Y-4.8873
G01 X3.8244 Y-4.6803
G01 X3.8336 Y-4.4294
G01 X3.8490 Y-4.1789
G01 X3.8706 Y-3.9287
G01 X3.8982 Y-3.6792
G01 X3.9172 Y-3.5397
G01 X3.8210 Y-3.4436
G01 X3.7908 Y-3.6660
G01 X3.7629 Y-3.9181
G01 X3.7411 Y-4.1709
G01 X3.7255 Y-4.4241
G01 X3.7162 Y-4.6776
G01 X3.7136 Y-4.8873
G01 X3.6054 Y-4.8873
G01 X3.6080 Y-4.6750
G01 X3.6174 Y-4.4188
G01 X3.6331 Y-4.1629
G01 X3.6551 Y-3.9075
G01 X3.6834 Y-3.6527
G01 X3.7179 Y-3.3987
G01 X3.7260 Y-3.3485
G01 X3.6315 Y-3.2541
G01 X3.6108 Y-3.3828
G01 X3.5760 Y-3.6395
G01 X3.5474 Y-3.8969
G01 X3.5252 Y-4.1550
G01 X3.5093 Y-4.4135
G01 X3.4998 Y-4.6723
G01 X3.4971 Y-4.8873
G00 Z2.0000
G00 X3.4160 Y-4.1675
G01 F59.00
G01 Z-0.1001
G01 F120.00
G01 X3.4172 Y-4.1470
G01 X3.4397 Y-3.8863
G01 X3.4685 Y-3.6262
G01 X3.5038 Y-3.3669
G01 X3.5366 Y-3.1627
G00 Z2.0000
G00 X3.3822 Y-3.4576
G01 F59.00
G01 Z-0.1001
G01 F120.00
G01 X3.3611 Y-3.6130
G01 X3.3320 Y-3.8757
G01 X3.3093 Y-4.1390
G01 X3.3079 Y-4.1624
G01 X3.1994 Y-4.1624
G01 X3.2014 Y-4.1311
G01 X3.2243 Y-3.8651
G01 X3.2537 Y-3.5997
G01 X3.2730 Y-3.4576
G00 Z2.0000
G00 X3.1638 Y-3.4576
G01 F59.00
G01 Z-0.1001
G01 F120.00
G01 X3.1463 Y-3.5865
G01 X3.1165 Y-3.8545
G01 X3.0934 Y-4.1231
G01 X3.0910 Y-4.1624
G01 X2.9826 Y-4.1624
G01 X2.9855 Y-4.1152
G01 X3.0088 Y-3.8439
G01 X3.0388 Y-3.5732
G01 X3.0545 Y-3.4576
G00 Z2.0000
G00 X2.9453 Y-3.4576
G01 F59.00
G01 Z-0.1001
G01 F120.00
G01 X2.9314 Y-3.5600
G01 X2.9011 Y-3.8333
G01 X2.8775 Y-4.1072
G01 X2.8741 Y-4.1624
G01 X2.7657 Y-4.1624
G01 X2.7696 Y-4.0992
G01 X2.7934 Y-3.8226
G01 X2.8240 Y-3.5467
G01 X2.8361 Y-3.4576
G00 Z2.0000
G00 X2.7269 Y-3.4576
G01 F59.00
G01 Z-0.1001
G01 F120.00
G01 X2.7166 Y-3.5335
G01 X2.6857 Y-3.8120
G01 X2.6616 Y-4.0913
G01 X2.6573 Y-4.1624
G01 X2.5488 Y-4.1624
G01 X2.5537 Y-4.0833
G01 X2.5779 Y-3.8014
G01 X2.6091 Y-3.5202
G01 X2.6176 Y-3.4576
G00 Z2.0000
G00 X2.5084 Y-3.4576
G01 F59.00
G01 Z-0.1001
G01 F120.00
G01 X2.5017 Y-3.5070
G01 X2.4702 Y-3.7908
G01 X2.4457 Y-4.0753
G01 X2.4404 Y-4.1624
G01 X2.3319 Y-4.1624
G01 X2.3378 Y-4.0674
G01 X2.3625 Y-3.7802
G01 X2.3943 Y-3.4937
G01 X2.3992 Y-3.4576
G01 X2.2900 Y-3.4576
G01 X2.2869 Y-3.4805
G01 X2.2548 Y-3.7696
G01 X2.2298 Y-4.0594
G01 X2.2235 Y-4.1624
G01 X2.1151 Y-4.1624
G01 X2.1219 Y-4.0515
G01 X2.1471 Y-3.7590
G01 X2.1807 Y-3.4576
G00 Z2.0000
G00 X2.0716 Y-3.4576
G01 F59.00
G01 Z-0.1001
G01 F120.00
G01 X2.0394 Y-3.7484
G01 X2.0139 Y-4.0435
G01 X2.0066 Y-4.1624
G01 X1.8982 Y-4.1624
G01 X1.9060 Y-4.0355
G01 X1.9316 Y-3.7378
G01 X1.9627 Y-3.4576
G00 Z2.0000
G00 X1.8538 Y-3.4576
G01 F59.00
G01 Z-0.1001
G01 F120.00
G01 X1.8239 Y-3.7272
G01 X1.7980 Y-4.0276
G01 X1.7898 Y-4.1624
G00 Z2.0000
G00 X1.6813 Y-4.1629
G01 F59.00
G01 Z-0.1001
G01 F120.00
G01 X1.6901 Y-4.0196
G01 X1.7162 Y-3.7166
G01 X1.7449 Y-3.4576
G00 Z2.0000
G00 X1.6386 Y-3.4340
G01 F59.00
G01 Z-0.1001
G01 F120.00
G01 X1.6085 Y-3.7059
G01 X1.5822 Y-4.0116
G01 X1.5633 Y-4.3179
G01 X1.5520 Y-4.6245
G01 X1.5483 Y-4.9313
G01 X1.5520 Y-5.2381
G01 X1.5633 Y-5.5448
G01 X1.5822 Y-5.8510
G01 X1.6085 Y-6.1567
G01 X1.6423 Y-6.4617
G01 X1.6752 Y-6.7040
G00 Z2.0000
G00 X1.7842 Y-6.7024
G01 F59.00
G01 Z-0.1001
G01 F120.00
G01 X1.7497 Y-6.4484
G01 X1.7162 Y-6.1461
G01 X1.7034 Y-5.9976
G00 Z2.0000
G00 X1.6224 Y-5.9300
G01 F59.00
G01 Z-0.1001
G01 F120.00
G01 X1.6227 Y-5.9366
G01 X1.6236 Y-5.9432
G01 X1.6253 Y-5.9496
G01 X1.6275 Y-5.9559
G01 X1.6303 Y-5.9619
G01 X1.6338 Y-5.9676
G01 X1.6377 Y-5.9729
G01 X1.6422 Y-5.9778
G01 X1.6471 Y-5.9823
G01 X1.6524 Y-5.9862
G01 X1.6581 Y-5.9897
G01 X1.6641 Y-5.9925
G01 X1.6704 Y-5.9947
G01 X1.6768 Y-5.9964
G01 X1.6883 Y-5.9976
G01 X3.3900 Y-5.9976
G01 X3.4016 Y-5.9967
G01 X3.4128 Y-5.9937
G01 X3.4219 Y-5.9897
G01 X3.4303 Y-5.9843
G01 X3.4378 Y-5.9778
G01 X3.4433 Y-5.9716
G01 X3.4489 Y-5.9633
G01 X3.4531 Y-5.9543
G01 X3.4560 Y-5.9448
G01 X3.4575 Y-5.9350
G01 X3.4576 Y-5.2727
G01 X6.2047 Y-5.2727
G01 X6.2082 Y-5.2824
G01 X6.2128 Y-5.2912
G01 X6.2199 Y-5.3004
G01 X6.2271 Y-5.3073
G01 X6.2367 Y-5.3139
G01 X6.2457 Y-5.3181
G01 X6.2568 Y-5.3214
G01 X6.2667 Y-5.3226
G01 X7.2983 Y-5.3226
G01 X7.3082 Y-5.3214
G01 X7.3188 Y-5.3183
G01 X7.3350 Y-5.3184
G01 X7.3434 Y-5.3176
G01 X7.3516 Y-5.3159
G01 X7.3580 Y-5.3138
G01 X7.4359 Y-5.2767
G01 X7.4444 Y-5.2712
G01 X7.4496 Y-5.2669
G01 X7.4532 Y-5.2633
G01 X7.5062 Y-5.1975
G01 X7.5109 Y-5.1905
G01 X7.5147 Y-5.1829
G01 X7.5165 Y-5.1782
G01 X7.5183 Y-5.1717
G01 X7.5363 Y-5.0942
G01 X7.5373 Y-5.0875
G01 X7.5376 Y-5.0824
G01 X7.5376 Y-5.0767
G01 X7.5369 Y-5.0700
G01 X7.5182 Y-4.9874
G01 X7.5163 Y-4.9810
G01 X7.5136 Y-4.9748
G01 X7.5095 Y-4.9674
G01 X7.5056 Y-4.9620
G01 X7.4571 Y-4.9011
G01 X7.4514 Y-4.8948
