(G-CODE GENERATED BY FLATCAM v8.994 - www.flatcam.org - Version Date: 2020/11/7)

(Name: als holder-Edge_Cuts.gbr_edit_cutout_cnc)
(Type: G-code from Geometry)
(Units: MM)

(Created on Monday, 28 March 2022 at 22:10)

(This preprocessor is the default preprocessor used by FlatCAM.)
(It is made to work with MACH3 compatible motion controllers.)

(TOOL DIAMETER: 1.5 mm)
(Feedrate_XY: 60.0 mm/min)
(Feedrate_Z: 40.0 mm/min)
(Feedrate rapids 1500.0 mm/min)

(Z_Cut: -1.7 mm)
(Z_Move: 2.0 mm)
(Z Start: None mm)
(Z End: 15.0 mm)
(X,Y End: None mm)
(Steps per circle: 64)
(Preprocessor Geometry: default)

(X range:   -0.7500 ...   15.9900  mm)
(Y range:  -10.9100 ...    0.7500  mm)

(Spindle Speed: 3600.0 RPM)
G21
G90
G94

G01 F60.00

M5
G00 Z15.0000
G00 X0.0000 Y0.0000
T1
M6    
(MSG, Change to Tool Dia = 1.5000)
M0
G00 Z15.0000

M03 S3600.0
G01 F60.00
G00 X15.2400 Y-10.9100
G01 F40.00
G01 Z-1.7000
G01 F60.00
G01 X-0.0000 Y-10.9100
G01 X-0.0735 Y-10.9064
G01 X-0.1463 Y-10.8956
G01 X-0.2177 Y-10.8777
G01 X-0.2870 Y-10.8529
G01 X-0.3536 Y-10.8215
G01 X-0.4167 Y-10.7836
G01 X-0.4758 Y-10.7398
G01 X-0.5304 Y-10.6904
G01 X-0.5798 Y-10.6358
G01 X-0.6236 Y-10.5767
G01 X-0.6615 Y-10.5136
G01 X-0.6929 Y-10.4470
G01 X-0.7177 Y-10.3777
G01 X-0.7356 Y-10.3063
G01 X-0.7464 Y-10.2335
G01 X-0.7500 Y-10.1600
G01 X-0.7500 Y0.0000
G01 X-0.7464 Y0.0735
G01 X-0.7356 Y0.1463
G01 X-0.7177 Y0.2177
G01 X-0.6929 Y0.2870
G01 X-0.6615 Y0.3536
G01 X-0.6236 Y0.4167
G01 X-0.5798 Y0.4758
G01 X-0.5304 Y0.5304
G01 X-0.4758 Y0.5798
G01 X-0.4167 Y0.6236
G01 X-0.3536 Y0.6615
G01 X-0.2870 Y0.6929
G01 X-0.2177 Y0.7177
G01 X-0.1463 Y0.7356
G01 X-0.0735 Y0.7464
G01 X-0.0000 Y0.7500
G01 X15.2400 Y0.7500
G01 X15.3135 Y0.7464
G01 X15.3863 Y0.7356
G01 X15.4577 Y0.7177
G01 X15.5270 Y0.6929
G01 X15.5936 Y0.6615
G01 X15.6567 Y0.6236
G01 X15.7158 Y0.5798
G01 X15.7704 Y0.5304
G01 X15.8198 Y0.4758
G01 X15.8636 Y0.4167
G01 X15.9015 Y0.3536
G01 X15.9329 Y0.2870
G01 X15.9577 Y0.2177
G01 X15.9756 Y0.1463
G01 X15.9864 Y0.0735
G01 X15.9900 Y0.0000
G01 X15.9900 Y-10.1600
G01 X15.9864 Y-10.2335
G01 X15.9756 Y-10.3063
G01 X15.9577 Y-10.3777
G01 X15.9329 Y-10.4470
G01 X15.9015 Y-10.5136
G01 X15.8636 Y-10.5767
G01 X15.8198 Y-10.6358
G01 X15.7704 Y-10.6904
G01 X15.7158 Y-10.7398
G01 X15.6567 Y-10.7836
G01 X15.5936 Y-10.8215
G01 X15.5270 Y-10.8529
G01 X15.4577 Y-10.8777
G01 X15.3863 Y-10.8956
G01 X15.3135 Y-10.9064
G01 X15.2400 Y-10.9100
G00 Z2.0000
M05
G00 Z2.0000
G00 Z15.00


