(G-CODE GENERATED BY FLATCAM v8.994 - www.flatcam.org - Version Date: 2020/11/7)

(Name: pb_orangepi - hori.drl_cnc)
(Type: G-code from Geometry)
(Units: MM)

(Created on Saturday, 04 June 2022 at 04:31)

(This preprocessor is the default preprocessor used by FlatCAM.)
(It is made to work with MACH3 compatible motion controllers.)


(TOOLS DIAMETER: )
(Tool: 1 -> Dia: 0.8)
(Tool: 2 -> Dia: 1.0)
(Tool: 3 -> Dia: 3.0)

(FEEDRATE Z: )
(Tool: 1 -> Feedrate: 300)
(Tool: 2 -> Feedrate: 300)
(Tool: 3 -> Feedrate: 300)

(FEEDRATE RAPIDS: )
(Tool: 1 -> Feedrate Rapids: 1500)
(Tool: 2 -> Feedrate Rapids: 1500)
(Tool: 3 -> Feedrate Rapids: 1500)

(Z_CUT: )
(Tool: 1 -> Z_Cut: -1.7)
(Tool: 2 -> Z_Cut: -1.7)
(Tool: 3 -> Z_Cut: -1.7)

(Tools Offset: )
(Tool: 1 -> Offset Z: 0.0)
(Tool: 2 -> Offset Z: 0.0)
(Tool: 3 -> Offset Z: 0.0)

(Z_MOVE: )
(Tool: 1 -> Z_Move: 2)
(Tool: 2 -> Z_Move: 2)
(Tool: 3 -> Z_Move: 2)

(Z Toolchange: 50.0 mm)
(X,Y Toolchange: 0.0000, 0.0000 mm)
(Z Start: None mm)
(Z End: 50.0 mm)
(X,Y End: None mm)
(Steps per circle: 64)
(Preprocessor Excellon: default)

(X range:    5.6000 ...   17.9200  mm)
(Y range:  -67.5600 ...   -1.4440  mm)

(Spindle Speed: 0 RPM)
G21
G90
G94

G01 F300.00

M5
G00 Z50.0000
T1
G00 X0.0000 Y0.0000                
M6
(MSG, Change to Tool Dia = 0.8000 ||| Total drills for tool T1 = 2)
M0
G00 Z50.0000

G01 F300.00
M03
G00 X6.0000 Y-49.0000
G01 Z-1.7000
G01 Z0
G00 Z2.0000
G00 X8.5000 Y-49.0000
G01 Z-1.7000
G01 Z0
G00 Z2.0000
G01 F300.00

M5
G00 Z50.0000
T2
G00 X0.0000 Y0.0000                
M6
(MSG, Change to Tool Dia = 1.0000 ||| Total drills for tool T2 = 40)
M0
G00 Z50.0000

G01 F300.00
M03
G00 X14.8800 Y-10.4000
G01 Z-1.7000
G01 Z0
G00 Z2.0000
G00 X17.4200 Y-10.4000
G01 Z-1.7000
G01 Z0
G00 Z2.0000
G00 X17.4200 Y-12.9400
G01 Z-1.7000
G01 Z0
G00 Z2.0000
G00 X17.4200 Y-15.4800
G01 Z-1.7000
G01 Z0
G00 Z2.0000
G00 X17.4200 Y-18.0200
G01 Z-1.7000
G01 Z0
G00 Z2.0000
G00 X17.4200 Y-20.5600
G01 Z-1.7000
G01 Z0
G00 Z2.0000
G00 X17.4200 Y-23.1000
G01 Z-1.7000
G01 Z0
G00 Z2.0000
G00 X17.4200 Y-25.6400
G01 Z-1.7000
G01 Z0
G00 Z2.0000
G00 X17.4200 Y-28.1800
G01 Z-1.7000
G01 Z0
G00 Z2.0000
G00 X17.4200 Y-30.7200
G01 Z-1.7000
G01 Z0
G00 Z2.0000
G00 X17.4200 Y-33.2600
G01 Z-1.7000
G01 Z0
G00 Z2.0000
G00 X17.4200 Y-35.8000
G01 Z-1.7000
G01 Z0
G00 Z2.0000
G00 X17.4200 Y-38.3400
G01 Z-1.7000
G01 Z0
G00 Z2.0000
G00 X17.4200 Y-40.8800
G01 Z-1.7000
G01 Z0
G00 Z2.0000
G00 X17.4200 Y-43.4200
G01 Z-1.7000
G01 Z0
G00 Z2.0000
G00 X17.4200 Y-45.9600
G01 Z-1.7000
G01 Z0
G00 Z2.0000
G00 X17.4200 Y-48.5000
G01 Z-1.7000
G01 Z0
G00 Z2.0000
G00 X17.4200 Y-51.0400
G01 Z-1.7000
G01 Z0
G00 Z2.0000
G00 X17.4200 Y-53.5800
G01 Z-1.7000
G01 Z0
G00 Z2.0000
G00 X17.4200 Y-56.1200
G01 Z-1.7000
G01 Z0
G00 Z2.0000
G00 X17.4200 Y-58.6600
G01 Z-1.7000
G01 Z0
G00 Z2.0000
G00 X14.8800 Y-58.6600
G01 Z-1.7000
G01 Z0
G00 Z2.0000
G00 X14.8800 Y-56.1200
G01 Z-1.7000
G01 Z0
G00 Z2.0000
G00 X14.8800 Y-53.5800
G01 Z-1.7000
G01 Z0
G00 Z2.0000
G00 X14.8800 Y-51.0400
G01 Z-1.7000
G01 Z0
G00 Z2.0000
G00 X14.8800 Y-48.5000
G01 Z-1.7000
G01 Z0
G00 Z2.0000
G00 X14.8800 Y-45.9600
G01 Z-1.7000
G01 Z0
G00 Z2.0000
G00 X14.8800 Y-43.4200
G01 Z-1.7000
G01 Z0
G00 Z2.0000
G00 X14.8800 Y-40.8800
G01 Z-1.7000
G01 Z0
G00 Z2.0000
G00 X14.8800 Y-38.3400
G01 Z-1.7000
G01 Z0
G00 Z2.0000
G00 X14.8800 Y-35.8000
G01 Z-1.7000
G01 Z0
G00 Z2.0000
G00 X14.8800 Y-33.2600
G01 Z-1.7000
G01 Z0
G00 Z2.0000
G00 X14.8800 Y-30.7200
G01 Z-1.7000
G01 Z0
G00 Z2.0000
G00 X14.8800 Y-28.1800
G01 Z-1.7000
G01 Z0
G00 Z2.0000
G00 X14.8800 Y-25.6400
G01 Z-1.7000
G01 Z0
G00 Z2.0000
G00 X14.8800 Y-23.1000
G01 Z-1.7000
G01 Z0
G00 Z2.0000
G00 X14.8800 Y-20.5600
G01 Z-1.7000
G01 Z0
G00 Z2.0000
G00 X14.8800 Y-18.0200
G01 Z-1.7000
G01 Z0
G00 Z2.0000
G00 X14.8800 Y-15.4800
G01 Z-1.7000
G01 Z0
G00 Z2.0000
G00 X14.8800 Y-12.9400
G01 Z-1.7000
G01 Z0
G00 Z2.0000
G01 F300.00

M5
G00 Z50.0000
T3
G00 X0.0000 Y0.0000                
M6
(MSG, Change to Tool Dia = 3.0000 ||| Total drills for tool T3 = 2)
M0
G00 Z50.0000

G01 F300.00
M03
G00 X15.2400 Y-2.9440
G01 Z-1.7000
G01 Z0
G00 Z2.0000
G00 X15.2400 Y-66.0600
G01 Z-1.7000
G01 Z0
G00 Z2.0000
M05
G00 Z50.00


M30
