(G-CODE GENERATED BY FLATCAM v8.994 - www.flatcam.org - Version Date: 2020/11/7)

(Name: pb_orangepi - hori-Edge_Cuts.gbr_edit_cutout_cnc)
(Type: G-code from Geometry)
(Units: MM)

(Created on Saturday, 04 June 2022 at 04:34)

(This preprocessor is the default preprocessor used by FlatCAM.)
(It is made to work with MACH3 compatible motion controllers.)

(TOOL DIAMETER: 1.5 mm)
(Feedrate_XY: 120.0 mm/min)
(Feedrate_Z: 60.0 mm/min)
(Feedrate rapids 1500.0 mm/min)

(Z_Cut: -1.6 mm)
(DepthPerCut: 0.8 mm <=>2 passes)
(Z_Move: 2.0 mm)
(Z Start: None mm)
(Z End: 15.0 mm)
(X,Y End: None mm)
(Steps per circle: 64)
(Preprocessor Geometry: default)

(X range:   -0.7500 ...   20.7500  mm)
(Y range:  -69.7500 ...    0.7500  mm)

(Spindle Speed: 8000.0 RPM)
G21
G90
G94

G01 F120.00

M5
G00 Z15.0000
G00 X0.0000 Y0.0000
T1
M6    
(MSG, Change to Tool Dia = 1.5000)
M0
G00 Z15.0000

M03 S8000.0
G01 F120.00
G00 X20.0000 Y-69.7500
G01 F60.00
G01 Z-0.8000
G01 F120.00
G01 X-0.0000 Y-69.7500
G01 X-0.0735 Y-69.7464
G01 X-0.1463 Y-69.7356
G01 X-0.2177 Y-69.7177
G01 X-0.2870 Y-69.6929
G01 X-0.3536 Y-69.6615
G01 X-0.4167 Y-69.6236
G01 X-0.4758 Y-69.5798
G01 X-0.5303 Y-69.5303
G01 X-0.5798 Y-69.4758
G01 X-0.6236 Y-69.4167
G01 X-0.6615 Y-69.3536
G01 X-0.6929 Y-69.2870
G01 X-0.7177 Y-69.2177
G01 X-0.7356 Y-69.1463
G01 X-0.7464 Y-69.0735
G01 X-0.7500 Y-69.0000
G01 X-0.7500 Y0.0000
G01 X-0.7464 Y0.0735
G01 X-0.7356 Y0.1463
G01 X-0.7177 Y0.2177
G01 X-0.6929 Y0.2870
G01 X-0.6615 Y0.3536
G01 X-0.6236 Y0.4167
G01 X-0.5798 Y0.4758
G01 X-0.5303 Y0.5303
G01 X-0.4758 Y0.5798
G01 X-0.4167 Y0.6236
G01 X-0.3536 Y0.6615
G01 X-0.2870 Y0.6929
G01 X-0.2177 Y0.7177
G01 X-0.1463 Y0.7356
G01 X-0.0735 Y0.7464
G01 X-0.0000 Y0.7500
G01 X20.0000 Y0.7500
G01 X20.0735 Y0.7464
G01 X20.1463 Y0.7356
G01 X20.2177 Y0.7177
G01 X20.2870 Y0.6929
G01 X20.3536 Y0.6615
G01 X20.4167 Y0.6236
G01 X20.4758 Y0.5798
G01 X20.5303 Y0.5303
G01 X20.5798 Y0.4758
G01 X20.6236 Y0.4167
G01 X20.6615 Y0.3536
G01 X20.6929 Y0.2870
G01 X20.7177 Y0.2177
G01 X20.7356 Y0.1463
G01 X20.7464 Y0.0735
G01 X20.7500 Y0.0000
G01 X20.7500 Y-69.0000
G01 X20.7464 Y-69.0735
G01 X20.7356 Y-69.1463
G01 X20.7177 Y-69.2177
G01 X20.6929 Y-69.2870
G01 X20.6615 Y-69.3536
G01 X20.6236 Y-69.4167
G01 X20.5798 Y-69.4758
G01 X20.5303 Y-69.5303
G01 X20.4758 Y-69.5798
G01 X20.4167 Y-69.6236
G01 X20.3536 Y-69.6615
G01 X20.2870 Y-69.6929
G01 X20.2177 Y-69.7177
G01 X20.1463 Y-69.7356
G01 X20.0735 Y-69.7464
G01 X20.0000 Y-69.7500
G00 X20.0000 Y-69.7500
G01 F60.00
G01 Z-1.6000
G01 F120.00
G01 X20.0735 Y-69.7464
G01 X20.1463 Y-69.7356
G01 X20.2177 Y-69.7177
G01 X20.2870 Y-69.6929
G01 X20.3536 Y-69.6615
G01 X20.4167 Y-69.6236
G01 X20.4758 Y-69.5798
G01 X20.5303 Y-69.5303
G01 X20.5798 Y-69.4758
G01 X20.6236 Y-69.4167
G01 X20.6615 Y-69.3536
G01 X20.6929 Y-69.2870
G01 X20.7177 Y-69.2177
G01 X20.7356 Y-69.1463
G01 X20.7464 Y-69.0735
G01 X20.7500 Y-69.0000
G01 X20.7500 Y0.0000
G01 X20.7464 Y0.0735
G01 X20.7356 Y0.1463
G01 X20.7177 Y0.2177
G01 X20.6929 Y0.2870
G01 X20.6615 Y0.3536
G01 X20.6236 Y0.4167
G01 X20.5798 Y0.4758
G01 X20.5303 Y0.5303
G01 X20.4758 Y0.5798
G01 X20.4167 Y0.6236
G01 X20.3536 Y0.6615
G01 X20.2870 Y0.6929
G01 X20.2177 Y0.7177
G01 X20.1463 Y0.7356
G01 X20.0735 Y0.7464
G01 X20.0000 Y0.7500
G01 X-0.0000 Y0.7500
G01 X-0.0735 Y0.7464
G01 X-0.1463 Y0.7356
G01 X-0.2177 Y0.7177
G01 X-0.2870 Y0.6929
G01 X-0.3536 Y0.6615
G01 X-0.4167 Y0.6236
G01 X-0.4758 Y0.5798
G01 X-0.5303 Y0.5303
G01 X-0.5798 Y0.4758
G01 X-0.6236 Y0.4167
G01 X-0.6615 Y0.3536
G01 X-0.6929 Y0.2870
G01 X-0.7177 Y0.2177
G01 X-0.7356 Y0.1463
G01 X-0.7464 Y0.0735
G01 X-0.7500 Y0.0000
G01 X-0.7500 Y-69.0000
G01 X-0.7464 Y-69.0735
G01 X-0.7356 Y-69.1463
G01 X-0.7177 Y-69.2177
G01 X-0.6929 Y-69.2870
G01 X-0.6615 Y-69.3536
G01 X-0.6236 Y-69.4167
G01 X-0.5798 Y-69.4758
G01 X-0.5303 Y-69.5303
G01 X-0.4758 Y-69.5798
G01 X-0.4167 Y-69.6236
G01 X-0.3536 Y-69.6615
G01 X-0.2870 Y-69.6929
G01 X-0.2177 Y-69.7177
G01 X-0.1463 Y-69.7356
G01 X-0.0735 Y-69.7464
G01 X-0.0000 Y-69.7500
G01 X20.0000 Y-69.7500
G00 Z2.0000
M05
G00 Z2.0000
G00 Z15.00


M30
