(G-CODE GENERATED BY FLATCAM v8.994 - www.flatcam.org - Version Date: 2020/11/7)

(Name: pb_orangepi - hori-F_Cu.gbr_1.5000_iso_cnc)
(Type: G-code from Geometry)
(Units: MM)

(Created on Saturday, 04 June 2022 at 04:12)

(This preprocessor is the default preprocessor used by FlatCAM.)
(It is made to work with MACH3 compatible motion controllers.)

(TOOL DIAMETER: 1.5 mm)
(Feedrate_XY: 120.0 mm/min)
(Feedrate_Z: 60.0 mm/min)
(Feedrate rapids 1500.0 mm/min)

(Z_Cut: -0.1 mm)
(Z_Move: 2.0 mm)
(Z Start: None mm)
(Z End: 50.0 mm)
(X,Y End: None mm)
(Steps per circle: 64)
(Preprocessor Geometry: default)

(X range:    2.8250 ...   19.9001  mm)
(Y range:  -69.3100 ...    0.3060  mm)

(Spindle Speed: 8000.0 RPM)
G21
G90
G94

G01 F120.00

M5
G00 Z50.0000
G00 X0.0000 Y0.0000
T2
M6    
(MSG, Change to Tool Dia = 1.5000)
M0
G00 Z50.0000

M03 S8000.0
G01 F120.00
G00 X18.4891 Y-2.9072
G01 F60.00
G01 Z-0.1000
G01 F120.00
G01 X18.4771 Y-2.6622
G01 X18.4744 Y-2.6254
G01 X18.4698 Y-2.5889
G01 X18.4338 Y-2.3462
G01 X18.4276 Y-2.3100
G01 X18.4195 Y-2.2740
G01 X18.3599 Y-2.0361
G01 X18.3501 Y-2.0006
G01 X18.3385 Y-1.9656
G01 X18.2559 Y-1.7346
G01 X18.2426 Y-1.7003
G01 X18.2277 Y-1.6666
G01 X18.1228 Y-1.4448
G01 X18.1062 Y-1.4120
G01 X18.0881 Y-1.3799
G01 X17.9620 Y-1.1695
G01 X17.9423 Y-1.1384
G01 X17.9211 Y-1.1083
G01 X17.7749 Y-0.9112
G01 X17.7523 Y-0.8822
G01 X17.7282 Y-0.8543
G01 X17.5635 Y-0.6726
G01 X17.5381 Y-0.6459
G01 X17.5114 Y-0.6205
G01 X17.3297 Y-0.4558
G01 X17.3018 Y-0.4317
G01 X17.2728 Y-0.4091
G01 X17.0757 Y-0.2629
G01 X17.0456 Y-0.2417
G01 X17.0145 Y-0.2220
G01 X16.8041 Y-0.0959
G01 X16.7720 Y-0.0778
G01 X16.7392 Y-0.0612
G01 X16.5174 Y0.0437
G01 X16.4837 Y0.0586
G01 X16.4494 Y0.0719
G01 X16.2184 Y0.1545
G01 X16.1834 Y0.1661
G01 X16.1479 Y0.1759
G01 X15.9100 Y0.2355
G01 X15.8740 Y0.2436
G01 X15.8378 Y0.2498
G01 X15.5951 Y0.2858
G01 X15.5586 Y0.2904
G01 X15.5218 Y0.2931
G01 X15.2768 Y0.3051
G01 X15.2400 Y0.3060
G01 X15.2032 Y0.3051
G01 X14.9582 Y0.2931
G01 X14.9214 Y0.2904
G01 X14.8849 Y0.2858
G01 X14.6422 Y0.2498
G01 X14.6060 Y0.2436
G01 X14.5700 Y0.2355
G01 X14.3321 Y0.1759
G01 X14.2966 Y0.1661
G01 X14.2616 Y0.1545
G01 X14.0306 Y0.0719
G01 X13.9963 Y0.0586
G01 X13.9626 Y0.0437
G01 X13.7408 Y-0.0612
G01 X13.7080 Y-0.0778
G01 X13.6759 Y-0.0959
G01 X13.4655 Y-0.2220
G01 X13.4344 Y-0.2417
G01 X13.4043 Y-0.2629
G01 X13.2072 Y-0.4091
G01 X13.1782 Y-0.4317
G01 X13.1503 Y-0.4558
G01 X12.9686 Y-0.6205
G01 X12.9419 Y-0.6459
G01 X12.9165 Y-0.6726
G01 X12.7518 Y-0.8543
G01 X12.7277 Y-0.8822
G01 X12.7051 Y-0.9112
G01 X12.5589 Y-1.1083
G01 X12.5377 Y-1.1384
G01 X12.5180 Y-1.1695
G01 X12.3919 Y-1.3799
G01 X12.3738 Y-1.4120
G01 X12.3572 Y-1.4448
G01 X12.2523 Y-1.6666
G01 X12.2374 Y-1.7003
G01 X12.2241 Y-1.7346
G01 X12.1415 Y-1.9656
G01 X12.1299 Y-2.0006
G01 X12.1201 Y-2.0361
G01 X12.0605 Y-2.2740
G01 X12.0524 Y-2.3100
G01 X12.0462 Y-2.3462
G01 X12.0102 Y-2.5889
G01 X12.0056 Y-2.6254
G01 X12.0029 Y-2.6622
G01 X11.9909 Y-2.9072
G01 X11.9900 Y-2.9440
G01 X11.9909 Y-2.9808
G01 X12.0029 Y-3.2258
G01 X12.0056 Y-3.2626
G01 X12.0102 Y-3.2991
G01 X12.0462 Y-3.5418
G01 X12.0524 Y-3.5780
G01 X12.0605 Y-3.6140
G01 X12.1201 Y-3.8519
G01 X12.1299 Y-3.8874
G01 X12.1415 Y-3.9224
G01 X12.2241 Y-4.1534
G01 X12.2374 Y-4.1877
G01 X12.2523 Y-4.2214
G01 X12.3572 Y-4.4432
G01 X12.3738 Y-4.4760
G01 X12.3919 Y-4.5081
G01 X12.5180 Y-4.7185
G01 X12.5377 Y-4.7496
G01 X12.5589 Y-4.7797
G01 X12.7051 Y-4.9768
G01 X12.7277 Y-5.0058
G01 X12.7518 Y-5.0337
G01 X12.9165 Y-5.2154
G01 X12.9419 Y-5.2421
G01 X12.9686 Y-5.2675
G01 X13.1503 Y-5.4322
G01 X13.1782 Y-5.4563
G01 X13.2072 Y-5.4789
G01 X13.4043 Y-5.6251
G01 X13.4344 Y-5.6463
G01 X13.4655 Y-5.6660
G01 X13.6759 Y-5.7921
G01 X13.7080 Y-5.8102
G01 X13.7408 Y-5.8268
G01 X13.9626 Y-5.9317
G01 X13.9963 Y-5.9466
G01 X14.0306 Y-5.9599
G01 X14.2616 Y-6.0425
G01 X14.2966 Y-6.0541
G01 X14.3321 Y-6.0639
G01 X14.5700 Y-6.1235
G01 X14.6060 Y-6.1316
G01 X14.6422 Y-6.1378
G01 X14.8849 Y-6.1738
G01 X14.9214 Y-6.1784
G01 X14.9582 Y-6.1811
G01 X15.2032 Y-6.1931
G01 X15.2400 Y-6.1940
G01 X15.2768 Y-6.1931
G01 X15.5218 Y-6.1811
G01 X15.5586 Y-6.1784
G01 X15.5951 Y-6.1738
G01 X15.8378 Y-6.1378
G01 X15.8740 Y-6.1316
G01 X15.9100 Y-6.1235
G01 X16.1479 Y-6.0639
G01 X16.1834 Y-6.0541
G01 X16.2184 Y-6.0425
G01 X16.4494 Y-5.9599
G01 X16.4837 Y-5.9466
G01 X16.5174 Y-5.9317
G01 X16.7392 Y-5.8268
G01 X16.7720 Y-5.8102
G01 X16.8041 Y-5.7921
G01 X17.0145 Y-5.6660
G01 X17.0456 Y-5.6463
G01 X17.0757 Y-5.6251
G01 X17.2728 Y-5.4789
G01 X17.3018 Y-5.4563
G01 X17.3297 Y-5.4322
G01 X17.5114 Y-5.2675
G01 X17.5381 Y-5.2421
G01 X17.5635 Y-5.2154
G01 X17.7282 Y-5.0337
G01 X17.7523 Y-5.0058
G01 X17.7749 Y-4.9768
G01 X17.9211 Y-4.7797
G01 X17.9423 Y-4.7496
G01 X17.9620 Y-4.7185
G01 X18.0881 Y-4.5081
G01 X18.1062 Y-4.4760
G01 X18.1228 Y-4.4432
G01 X18.2277 Y-4.2214
G01 X18.2426 Y-4.1877
G01 X18.2559 Y-4.1534
G01 X18.3385 Y-3.9224
G01 X18.3501 Y-3.8874
G01 X18.3599 Y-3.8519
G01 X18.4195 Y-3.6140
G01 X18.4276 Y-3.5780
G01 X18.4338 Y-3.5418
G01 X18.4698 Y-3.2991
G01 X18.4744 Y-3.2626
G01 X18.4771 Y-3.2258
G01 X18.4891 Y-2.9808
G01 X18.4900 Y-2.9440
G01 X18.4891 Y-2.9072
G00 Z2.0000
G00 X16.0983 Y-11.9033
G01 F60.00
G01 Z-0.1000
G01 F120.00
G01 X16.1168 Y-11.9250
G01 X16.1283 Y-11.9393
G01 X16.1500 Y-11.9682
G01 X16.1717 Y-11.9393
G01 X16.1950 Y-11.9109
G01 X16.2632 Y-11.8353
G01 X16.2886 Y-11.8086
G01 X16.3153 Y-11.7832
G01 X16.3909 Y-11.7150
G01 X16.4193 Y-11.6917
G01 X16.4482 Y-11.6700
G01 X16.4193 Y-11.6483
G01 X16.4050 Y-11.6368
G01 X16.3833 Y-11.6183
G01 X16.3733 Y-11.6356
G01 X16.3636 Y-11.6512
G01 X16.3536 Y-11.6667
G01 X16.3324 Y-11.6968
G01 X16.3098 Y-11.7258
G01 X16.2979 Y-11.7399
G01 X16.2857 Y-11.7537
G01 X16.2603 Y-11.7803
G01 X16.2472 Y-11.7932
G01 X16.2199 Y-11.8179
G01 X16.2058 Y-11.8298
G01 X16.1768 Y-11.8524
G01 X16.1619 Y-11.8632
G01 X16.1312 Y-11.8836
G01 X16.1156 Y-11.8933
G01 X16.0983 Y-11.9033
G00 Z2.0000
G00 X15.8518 Y-14.2100
G01 F60.00
G01 Z-0.1000
G01 F120.00
G01 X15.8807 Y-14.2317
G01 X15.9091 Y-14.2550
G01 X15.9847 Y-14.3232
G01 X16.0114 Y-14.3486
G01 X16.0368 Y-14.3753
G01 X16.1050 Y-14.4509
G01 X16.1283 Y-14.4793
G01 X16.1500 Y-14.5082
G01 X16.1717 Y-14.4793
G01 X16.1950 Y-14.4509
G01 X16.2632 Y-14.3753
G01 X16.2886 Y-14.3486
G01 X16.3153 Y-14.3232
G01 X16.3909 Y-14.2550
G01 X16.4193 Y-14.2317
G01 X16.4482 Y-14.2100
G01 X16.4193 Y-14.1883
G01 X16.3909 Y-14.1650
G01 X16.3153 Y-14.0968
G01 X16.2886 Y-14.0714
G01 X16.2632 Y-14.0447
G01 X16.1950 Y-13.9691
G01 X16.1717 Y-13.9407
G01 X16.1500 Y-13.9118
G01 X16.1283 Y-13.9407
G01 X16.1050 Y-13.9691
G01 X16.0368 Y-14.0447
G01 X16.0114 Y-14.0714
G01 X15.9847 Y-14.0968
G01 X15.9091 Y-14.1650
G01 X15.8807 Y-14.1883
G01 X15.8518 Y-14.2100
G00 Z2.0000
G00 X15.8518 Y-16.7500
G01 F60.00
G01 Z-0.1000
G01 F120.00
G01 X15.8807 Y-16.7717
G01 X15.9091 Y-16.7950
G01 X15.9847 Y-16.8632
G01 X16.0114 Y-16.8886
G01 X16.0368 Y-16.9153
G01 X16.1050 Y-16.9909
G01 X16.1283 Y-17.0193
G01 X16.1500 Y-17.0482
G01 X16.1717 Y-17.0193
G01 X16.1950 Y-16.9909
G01 X16.2632 Y-16.9153
G01 X16.2886 Y-16.8886
G01 X16.3153 Y-16.8632
G01 X16.3909 Y-16.7950
G01 X16.4193 Y-16.7717
G01 X16.4482 Y-16.7500
G01 X16.4193 Y-16.7283
G01 X16.3909 Y-16.7050
G01 X16.3153 Y-16.6368
G01 X16.2886 Y-16.6114
G01 X16.2632 Y-16.5847
G01 X16.1950 Y-16.5091
G01 X16.1717 Y-16.4807
G01 X16.1500 Y-16.4518
G01 X16.1283 Y-16.4807
G01 X16.1050 Y-16.5091
G01 X16.0368 Y-16.5847
G01 X16.0114 Y-16.6114
G01 X15.9847 Y-16.6368
G01 X15.9091 Y-16.7050
G01 X15.8807 Y-16.7283
G01 X15.8518 Y-16.7500
G00 Z2.0000
G00 X15.8518 Y-19.2900
G01 F60.00
G01 Z-0.1000
G01 F120.00
G01 X15.8807 Y-19.3117
G01 X15.9091 Y-19.3350
G01 X15.9847 Y-19.4032
G01 X16.0114 Y-19.4286
G01 X16.0368 Y-19.4553
G01 X16.1050 Y-19.5309
G01 X16.1283 Y-19.5593
G01 X16.1500 Y-19.5882
G01 X16.1717 Y-19.5593
G01 X16.1950 Y-19.5309
G01 X16.2632 Y-19.4553
G01 X16.2886 Y-19.4286
G01 X16.3153 Y-19.4032
G01 X16.3909 Y-19.3350
G01 X16.4193 Y-19.3117
G01 X16.4482 Y-19.2900
G01 X16.4193 Y-19.2683
G01 X16.3909 Y-19.2450
G01 X16.3153 Y-19.1768
G01 X16.2886 Y-19.1514
G01 X16.2632 Y-19.1247
G01 X16.1950 Y-19.0491
G01 X16.1717 Y-19.0207
G01 X16.1500 Y-18.9918
G01 X16.1283 Y-19.0207
G01 X16.1050 Y-19.0491
G01 X16.0368 Y-19.1247
G01 X16.0114 Y-19.1514
G01 X15.9847 Y-19.1768
G01 X15.9091 Y-19.2450
G01 X15.8807 Y-19.2683
G01 X15.8518 Y-19.2900
G00 Z2.0000
G00 X16.1500 Y-22.1282
G01 F60.00
G01 Z-0.1000
G01 F120.00
G01 X16.1717 Y-22.0993
G01 X16.1950 Y-22.0709
G01 X16.2632 Y-21.9953
G01 X16.2886 Y-21.9686
G01 X16.3153 Y-21.9432
G01 X16.3909 Y-21.8750
G01 X16.4193 Y-21.8517
G01 X16.4482 Y-21.8300
G01 X16.4193 Y-21.8083
G01 X16.3909 Y-21.7850
G01 X16.3153 Y-21.7168
G01 X16.2886 Y-21.6914
G01 X16.2632 Y-21.6647
G01 X16.1950 Y-21.5891
G01 X16.1717 Y-21.5607
G01 X16.1500 Y-21.5318
G01 X16.1283 Y-21.5607
G01 X16.1050 Y-21.5891
G01 X16.0368 Y-21.6647
G01 X16.0114 Y-21.6914
G01 X15.9847 Y-21.7168
G01 X15.9091 Y-21.7850
G01 X15.8807 Y-21.8083
G01 X15.8518 Y-21.8300
G01 X15.8807 Y-21.8517
G01 X15.9091 Y-21.8750
G01 X15.9847 Y-21.9432
G01 X16.0114 Y-21.9686
G01 X16.0368 Y-21.9953
G01 X16.1050 Y-22.0709
G01 X16.1283 Y-22.0993
G01 X16.1500 Y-22.1282
G00 Z2.0000
G00 X15.8518 Y-24.3700
G01 F60.00
G01 Z-0.1000
G01 F120.00
G01 X15.8807 Y-24.3917
G01 X15.9091 Y-24.4150
G01 X15.9847 Y-24.4832
G01 X16.0114 Y-24.5086
G01 X16.0368 Y-24.5353
G01 X16.1050 Y-24.6109
G01 X16.1283 Y-24.6393
G01 X16.1500 Y-24.6682
G01 X16.1717 Y-24.6393
G01 X16.1950 Y-24.6109
G01 X16.2632 Y-24.5353
G01 X16.2886 Y-24.5086
G01 X16.3153 Y-24.4832
G01 X16.3909 Y-24.4150
G01 X16.4193 Y-24.3917
G01 X16.4482 Y-24.3700
G01 X16.4193 Y-24.3483
G01 X16.3909 Y-24.3250
G01 X16.3153 Y-24.2568
G01 X16.2886 Y-24.2314
G01 X16.2632 Y-24.2047
G01 X16.1950 Y-24.1291
G01 X16.1717 Y-24.1007
G01 X16.1500 Y-24.0718
G01 X16.1283 Y-24.1007
G01 X16.1050 Y-24.1291
G01 X16.0368 Y-24.2047
G01 X16.0114 Y-24.2314
G01 X15.9847 Y-24.2568
G01 X15.9091 Y-24.3250
G01 X15.8807 Y-24.3483
G01 X15.8518 Y-24.3700
G00 Z2.0000
G00 X16.1500 Y-27.2082
G01 F60.00
G01 Z-0.1000
G01 F120.00
G01 X16.1717 Y-27.1793
G01 X16.1950 Y-27.1509
G01 X16.2632 Y-27.0753
G01 X16.2886 Y-27.0486
G01 X16.3153 Y-27.0232
G01 X16.3909 Y-26.9550
G01 X16.4193 Y-26.9317
G01 X16.4482 Y-26.9100
G01 X16.4193 Y-26.8883
G01 X16.3909 Y-26.8650
G01 X16.3153 Y-26.7968
G01 X16.2886 Y-26.7714
G01 X16.2632 Y-26.7447
G01 X16.1950 Y-26.6691
G01 X16.1717 Y-26.6407
G01 X16.1500 Y-26.6118
G01 X16.1283 Y-26.6407
G01 X16.1050 Y-26.6691
G01 X16.0368 Y-26.7447
G01 X16.0114 Y-26.7714
G01 X15.9847 Y-26.7968
G01 X15.9091 Y-26.8650
G01 X15.8807 Y-26.8883
G01 X15.8518 Y-26.9100
G01 X15.8807 Y-26.9317
G01 X15.9091 Y-26.9550
G01 X15.9847 Y-27.0232
G01 X16.0114 Y-27.0486
G01 X16.0368 Y-27.0753
G01 X16.1050 Y-27.1509
G01 X16.1283 Y-27.1793
G01 X16.1500 Y-27.2082
G00 Z2.0000
G00 X15.8518 Y-29.4500
G01 F60.00
G01 Z-0.1000
G01 F120.00
G01 X15.8807 Y-29.4717
G01 X15.9091 Y-29.4950
G01 X15.9847 Y-29.5632
G01 X16.0114 Y-29.5886
G01 X16.0368 Y-29.6153
G01 X16.1050 Y-29.6909
G01 X16.1283 Y-29.7193
G01 X16.1500 Y-29.7482
G01 X16.1717 Y-29.7193
G01 X16.1950 Y-29.6909
G01 X16.2632 Y-29.6153
G01 X16.2886 Y-29.5886
G01 X16.3153 Y-29.5632
G01 X16.3909 Y-29.4950
G01 X16.4193 Y-29.4717
G01 X16.4482 Y-29.4500
G01 X16.4193 Y-29.4283
G01 X16.3909 Y-29.4050
G01 X16.3153 Y-29.3368
G01 X16.2886 Y-29.3114
G01 X16.2632 Y-29.2847
G01 X16.1950 Y-29.2091
G01 X16.1717 Y-29.1807
G01 X16.1500 Y-29.1518
G01 X16.1283 Y-29.1807
G01 X16.1050 Y-29.2091
G01 X16.0368 Y-29.2847
G01 X16.0114 Y-29.3114
G01 X15.9847 Y-29.3368
G01 X15.9091 Y-29.4050
G01 X15.8807 Y-29.4283
G01 X15.8518 Y-29.4500
G00 Z2.0000
G00 X13.3268 Y-31.0999
G01 F60.00
G01 Z-0.1000
G01 F120.00
G01 X13.3146 Y-31.0502
G01 X13.3074 Y-31.0140
G01 X13.2922 Y-30.9134
G01 X13.2897 Y-30.8951
G01 X13.2871 Y-30.8701
G01 X9.6720 Y-30.8701
G01 X9.9018 Y-31.0999
G01 X13.3268 Y-31.0999
G00 Z2.0000
G00 X7.9795 Y-37.0999
G01 F60.00
G01 Z-0.1000
G01 F120.00
G01 X12.7729 Y-37.0999
G01 X12.8097 Y-37.1008
G01 X12.8428 Y-37.1027
G01 X12.8611 Y-37.1043
G01 X12.8977 Y-37.1088
G01 X12.9304 Y-37.1139
G01 X12.9485 Y-37.1172
G01 X12.9665 Y-37.1210
G01 X12.9987 Y-37.1289
G01 X13.0342 Y-37.1387
G01 X13.0692 Y-37.1502
G01 X13.1003 Y-37.1616
G01 X13.1174 Y-37.1684
G01 X13.1343 Y-37.1757
G01 X13.1643 Y-37.1897
G01 X13.1809 Y-37.1977
G01 X13.2133 Y-37.2151
G01 X13.2575 Y-37.2416
G01 X13.2882 Y-37.2620
G01 X13.3296 Y-37.2927
G01 X13.3580 Y-37.3161
G01 X13.3827 Y-37.3382
G01 X13.4094 Y-37.3636
G01 X13.5292 Y-37.4834
G01 X13.5396 Y-37.4665
G01 X13.5601 Y-37.4359
G01 X13.6317 Y-37.3393
G01 X13.6550 Y-37.3109
G01 X13.7232 Y-37.2353
G01 X13.7358 Y-37.2218
G01 X13.7618 Y-37.1958
G01 X13.8371 Y-37.1272
G01 X13.8650 Y-37.1032
G01 X13.8793 Y-37.0917
G01 X13.9082 Y-37.0700
G01 X13.8793 Y-37.0483
G01 X13.8509 Y-37.0250
G01 X13.7618 Y-36.9442
G01 X13.7358 Y-36.9182
G01 X13.6672 Y-36.8429
G01 X13.6432 Y-36.8150
G01 X13.6313 Y-36.8001
G01 X8.2793 Y-36.8001
G01 X7.9795 Y-37.0999
G00 Z2.0000
G00 X8.9800 Y-38.9001
G01 F60.00
G01 Z-0.1000
G01 F120.00
G01 X8.9800 Y-39.3106
G01 X9.5493 Y-39.8799
G01 X13.3799 Y-39.8799
G01 X12.4001 Y-38.9001
G01 X8.9800 Y-38.9001
G00 Z2.0000
G00 X4.9701 Y-41.2467
G01 F60.00
G01 Z-0.1000
G01 F120.00
G01 X4.9701 Y-41.7655
G01 X4.9844 Y-41.7770
G01 X5.0000 Y-41.7902
G01 X5.0156 Y-41.7770
G01 X5.0300 Y-41.7655
G01 X5.0643 Y-41.7397
G01 X5.0944 Y-41.7185
G01 X5.1255 Y-41.6988
G01 X5.1625 Y-41.6770
G01 X5.1949 Y-41.6596
G01 X5.2504 Y-41.6334
G01 X5.2844 Y-41.6193
G01 X5.3248 Y-41.6046
G01 X5.3597 Y-41.5931
G01 X5.3952 Y-41.5832
G01 X5.4369 Y-41.5730
G01 X5.4549 Y-41.5692
G01 X5.4730 Y-41.5658
G01 X5.5154 Y-41.5593
G01 X5.5520 Y-41.5548
G01 X5.5887 Y-41.5521
G01 X5.6349 Y-41.5502
G01 X5.6349 Y-41.2500
G01 X5.0400 Y-41.2500
G01 X5.0032 Y-41.2491
G01 X4.9701 Y-41.2467
G00 Z2.0000
G00 X4.9999 Y-44.2099
G01 F60.00
G01 Z-0.1000
G01 F120.00
G01 X4.9876 Y-44.2203
G01 X4.9876 Y-47.4808
G01 X4.9999 Y-47.4772
G01 X4.9999 Y-44.2099
G00 Z2.0000
G00 X7.4999 Y-47.8161
G01 F60.00
G01 Z-0.1000
G01 F120.00
G01 X7.4999 Y-42.7793
G01 X7.4766 Y-42.8177
G01 X7.4562 Y-42.8483
G01 X7.4196 Y-42.8976
G01 X7.3963 Y-42.9261
G01 X7.3676 Y-42.9580
G01 X7.3422 Y-42.9847
G01 X7.1750 Y-43.1519
G01 X7.1750 Y-43.4500
G01 X7.1741 Y-43.4868
G01 X7.1718 Y-43.5297
G01 X7.1682 Y-43.5663
G01 X7.1621 Y-43.6088
G01 X7.1558 Y-43.6451
G01 X7.1520 Y-43.6631
G01 X7.1418 Y-43.7048
G01 X7.1319 Y-43.7403
G01 X7.1204 Y-43.7752
G01 X7.1057 Y-43.8156
G01 X7.0989 Y-43.8327
G01 X7.0916 Y-43.8496
G01 X7.0735 Y-43.8885
G01 X7.0569 Y-43.9214
G01 X7.0480 Y-43.9375
G01 X7.0262 Y-43.9745
G01 X7.0165 Y-43.9901
G01 X7.0001 Y-44.0148
G01 X7.0001 Y-47.4772
G01 X7.0353 Y-47.4879
G01 X7.0527 Y-47.4938
G01 X7.0870 Y-47.5071
G01 X7.1207 Y-47.5220
G01 X7.1535 Y-47.5386
G01 X7.1856 Y-47.5567
G01 X7.2167 Y-47.5764
G01 X7.2468 Y-47.5976
G01 X7.2758 Y-47.6202
G01 X7.3037 Y-47.6443
G01 X7.3303 Y-47.6697
G01 X7.3557 Y-47.6963
G01 X7.3798 Y-47.7242
G01 X7.4024 Y-47.7532
G01 X7.4236 Y-47.7833
G01 X7.4433 Y-47.8144
G01 X7.4526 Y-47.8303
G01 X7.4629 Y-47.8493
G01 X7.4999 Y-47.8161
G00 Z2.0000
G00 X13.3799 Y-41.8801
G01 F60.00
G01 Z-0.1000
G01 F120.00
G01 X9.5343 Y-41.8801
G01 X9.5001 Y-41.9143
G01 X9.5001 Y-45.7599
G01 X13.3799 Y-41.8801
G00 Z2.0000
G00 X15.8518 Y-44.6900
G01 F60.00
G01 Z-0.1000
G01 F120.00
G01 X15.8807 Y-44.7117
G01 X15.9091 Y-44.7350
G01 X15.9847 Y-44.8032
G01 X16.0114 Y-44.8286
G01 X16.0368 Y-44.8553
G01 X16.1050 Y-44.9309
G01 X16.1283 Y-44.9593
G01 X16.1500 Y-44.9882
G01 X16.1717 Y-44.9593
G01 X16.1950 Y-44.9309
G01 X16.2632 Y-44.8553
G01 X16.2886 Y-44.8286
G01 X16.3153 Y-44.8032
G01 X16.3909 Y-44.7350
G01 X16.4193 Y-44.7117
G01 X16.4482 Y-44.6900
G01 X16.4193 Y-44.6683
G01 X16.3909 Y-44.6450
G01 X16.3153 Y-44.5768
G01 X16.2886 Y-44.5514
G01 X16.2632 Y-44.5247
G01 X16.1950 Y-44.4491
G01 X16.1717 Y-44.4207
G01 X16.1500 Y-44.3918
G01 X16.1283 Y-44.4207
G01 X16.1050 Y-44.4491
G01 X16.0368 Y-44.5247
G01 X16.0114 Y-44.5514
G01 X15.9847 Y-44.5768
G01 X15.9091 Y-44.6450
G01 X15.8807 Y-44.6683
G01 X15.8518 Y-44.6900
G00 Z2.0000
G00 X15.8518 Y-47.2300
G01 F60.00
G01 Z-0.1000
G01 F120.00
G01 X15.8807 Y-47.2517
G01 X15.9091 Y-47.2750
G01 X15.9847 Y-47.3432
G01 X16.0114 Y-47.3686
G01 X16.0368 Y-47.3953
G01 X16.1050 Y-47.4709
G01 X16.1283 Y-47.4993
G01 X16.1500 Y-47.5282
G01 X16.1717 Y-47.4993
G01 X16.1950 Y-47.4709
G01 X16.2632 Y-47.3953
G01 X16.2886 Y-47.3686
G01 X16.3153 Y-47.3432
G01 X16.3909 Y-47.2750
G01 X16.4193 Y-47.2517
G01 X16.4482 Y-47.2300
G01 X16.4193 Y-47.2083
G01 X16.3909 Y-47.1850
G01 X16.3153 Y-47.1168
G01 X16.2886 Y-47.0914
G01 X16.2632 Y-47.0647
G01 X16.1950 Y-46.9891
G01 X16.1717 Y-46.9607
G01 X16.1500 Y-46.9318
G01 X16.1283 Y-46.9607
G01 X16.1050 Y-46.9891
G01 X16.0368 Y-47.0647
G01 X16.0114 Y-47.0914
G01 X15.9847 Y-47.1168
G01 X15.9091 Y-47.1850
G01 X15.8807 Y-47.2083
G01 X15.8518 Y-47.2300
G00 Z2.0000
G00 X16.1500 Y-50.0682
G01 F60.00
G01 Z-0.1000
G01 F120.00
G01 X16.1717 Y-50.0393
G01 X16.1950 Y-50.0109
G01 X16.2632 Y-49.9353
G01 X16.2886 Y-49.9086
G01 X16.3153 Y-49.8832
G01 X16.3909 Y-49.8150
G01 X16.4193 Y-49.7917
G01 X16.4482 Y-49.7700
G01 X16.4193 Y-49.7483
G01 X16.3909 Y-49.7250
G01 X16.3153 Y-49.6568
G01 X16.2886 Y-49.6314
G01 X16.2632 Y-49.6047
G01 X16.1950 Y-49.5291
G01 X16.1717 Y-49.5007
G01 X16.1500 Y-49.4718
G01 X16.1283 Y-49.5007
G01 X16.1050 Y-49.5291
G01 X16.0368 Y-49.6047
G01 X16.0114 Y-49.6314
G01 X15.9847 Y-49.6568
G01 X15.9091 Y-49.7250
G01 X15.8807 Y-49.7483
G01 X15.8518 Y-49.7700
G01 X15.8807 Y-49.7917
G01 X15.9091 Y-49.8150
G01 X15.9847 Y-49.8832
G01 X16.0114 Y-49.9086
G01 X16.0368 Y-49.9353
G01 X16.1050 Y-50.0109
G01 X16.1283 Y-50.0393
G01 X16.1500 Y-50.0682
G00 Z2.0000
G00 X15.8518 Y-52.3100
G01 F60.00
G01 Z-0.1000
G01 F120.00
G01 X15.8807 Y-52.3317
G01 X15.9091 Y-52.3550
G01 X15.9847 Y-52.4232
G01 X16.0114 Y-52.4486
G01 X16.0368 Y-52.4753
G01 X16.1050 Y-52.5509
G01 X16.1283 Y-52.5793
G01 X16.1500 Y-52.6082
G01 X16.1717 Y-52.5793
G01 X16.1950 Y-52.5509
G01 X16.2632 Y-52.4753
G01 X16.2886 Y-52.4486
G01 X16.3153 Y-52.4232
G01 X16.3909 Y-52.3550
G01 X16.4193 Y-52.3317
G01 X16.4482 Y-52.3100
G01 X16.4193 Y-52.2883
G01 X16.3909 Y-52.2650
G01 X16.3153 Y-52.1968
G01 X16.2886 Y-52.1714
G01 X16.2632 Y-52.1447
G01 X16.1950 Y-52.0691
G01 X16.1717 Y-52.0407
G01 X16.1500 Y-52.0118
G01 X16.1283 Y-52.0407
G01 X16.1050 Y-52.0691
G01 X16.0368 Y-52.1447
G01 X16.0114 Y-52.1714
G01 X15.9847 Y-52.1968
G01 X15.9091 Y-52.2650
G01 X15.8807 Y-52.2883
G01 X15.8518 Y-52.3100
G00 Z2.0000
G00 X15.8518 Y-54.8500
G01 F60.00
G01 Z-0.1000
G01 F120.00
G01 X15.8807 Y-54.8717
G01 X15.9091 Y-54.8950
G01 X15.9847 Y-54.9632
G01 X16.0114 Y-54.9886
G01 X16.0368 Y-55.0153
G01 X16.1050 Y-55.0909
G01 X16.1283 Y-55.1193
G01 X16.1500 Y-55.1482
G01 X16.1717 Y-55.1193
G01 X16.1950 Y-55.0909
G01 X16.2632 Y-55.0153
G01 X16.2886 Y-54.9886
G01 X16.3153 Y-54.9632
G01 X16.3909 Y-54.8950
G01 X16.4193 Y-54.8717
G01 X16.4482 Y-54.8500
G01 X16.4193 Y-54.8283
G01 X16.3909 Y-54.8050
G01 X16.3153 Y-54.7368
G01 X16.2886 Y-54.7114
G01 X16.2632 Y-54.6847
G01 X16.1950 Y-54.6091
G01 X16.1717 Y-54.5807
G01 X16.1500 Y-54.5518
G01 X16.1283 Y-54.5807
G01 X16.1050 Y-54.6091
G01 X16.0368 Y-54.6847
G01 X16.0114 Y-54.7114
G01 X15.9847 Y-54.7368
G01 X15.9091 Y-54.8050
G01 X15.8807 Y-54.8283
G01 X15.8518 Y-54.8500
G00 Z2.0000
G00 X16.1500 Y-57.0918
G01 F60.00
G01 Z-0.1000
G01 F120.00
G01 X16.1283 Y-57.1207
G01 X16.1050 Y-57.1491
G01 X16.0368 Y-57.2247
G01 X16.0114 Y-57.2514
G01 X15.9847 Y-57.2768
G01 X15.9091 Y-57.3450
G01 X15.8807 Y-57.3683
G01 X15.8518 Y-57.3900
G01 X15.8807 Y-57.4117
G01 X15.9091 Y-57.4350
G01 X15.9847 Y-57.5032
G01 X16.0114 Y-57.5286
G01 X16.0368 Y-57.5553
G01 X16.1050 Y-57.6309
G01 X16.1283 Y-57.6593
G01 X16.1500 Y-57.6882
G01 X16.1717 Y-57.6593
G01 X16.1950 Y-57.6309
G01 X16.2632 Y-57.5553
G01 X16.2886 Y-57.5286
G01 X16.3153 Y-57.5032
G01 X16.3909 Y-57.4350
G01 X16.4193 Y-57.4117
G01 X16.4482 Y-57.3900
G01 X16.4193 Y-57.3683
G01 X16.3909 Y-57.3450
G01 X16.3153 Y-57.2768
G01 X16.2886 Y-57.2514
G01 X16.2632 Y-57.2247
G01 X16.1950 Y-57.1491
G01 X16.1717 Y-57.1207
G01 X16.1500 Y-57.0918
G00 Z2.0000
G00 X17.4568 Y-60.2591
G01 F60.00
G01 Z-0.1000
G01 F120.00
G01 X17.5401 Y-60.2550
G01 X17.5768 Y-60.2523
G01 X17.6134 Y-60.2478
G01 X17.6959 Y-60.2355
G01 X17.7321 Y-60.2293
G01 X17.7681 Y-60.2212
G01 X17.8490 Y-60.2009
G01 X17.8845 Y-60.1911
G01 X17.9194 Y-60.1796
G01 X17.9979 Y-60.1515
G01 X18.0323 Y-60.1382
G01 X18.0659 Y-60.1233
G01 X18.1414 Y-60.0876
G01 X18.1742 Y-60.0711
G01 X18.2063 Y-60.0529
G01 X18.2778 Y-60.0100
G01 X18.3089 Y-59.9904
G01 X18.3390 Y-59.9692
G01 X18.4060 Y-59.9195
G01 X18.4350 Y-59.8968
G01 X18.4629 Y-59.8728
G01 X18.5247 Y-59.8168
G01 X18.5382 Y-59.8042
G01 X18.5642 Y-59.7782
G01 X18.6450 Y-59.6891
G01 X18.6683 Y-59.6607
G01 X18.7292 Y-59.5790
G01 X18.7504 Y-59.5489
G01 X18.7700 Y-59.5178
G01 X18.8222 Y-59.4304
G01 X18.8396 Y-59.3979
G01 X18.8476 Y-59.3814
G01 X18.8833 Y-59.3059
G01 X18.8982 Y-59.2723
G01 X18.9115 Y-59.2379
G01 X18.9396 Y-59.1594
G01 X18.9511 Y-59.1245
G01 X18.9609 Y-59.0890
G01 X18.9812 Y-59.0081
G01 X18.9893 Y-58.9721
G01 X18.9955 Y-58.9359
G01 X19.0078 Y-58.8534
G01 X19.0123 Y-58.8168
G01 X19.0150 Y-58.7801
G01 X19.0198 Y-58.6784
G01 X19.0200 Y-58.6600
G01 X19.0191 Y-58.6232
G01 X19.0150 Y-58.5399
G01 X19.0123 Y-58.5032
G01 X19.0078 Y-58.4666
G01 X18.9955 Y-58.3841
G01 X18.9893 Y-58.3479
G01 X18.9854 Y-58.3298
G01 X18.9609 Y-58.2310
G01 X18.9511 Y-58.1955
G01 X18.9396 Y-58.1606
G01 X18.9115 Y-58.0821
G01 X18.9050 Y-58.0648
G01 X18.8910 Y-58.0308
G01 X18.8396 Y-57.9221
G01 X18.8311 Y-57.9058
G01 X18.8129 Y-57.8737
G01 X18.7700 Y-57.8022
G01 X18.7504 Y-57.7711
G01 X18.7292 Y-57.7410
G01 X18.6683 Y-57.6593
G01 X18.6450 Y-57.6309
G01 X18.6328 Y-57.6171
G01 X18.5642 Y-57.5418
G01 X18.5382 Y-57.5158
G01 X18.4491 Y-57.4350
G01 X18.4207 Y-57.4117
G01 X18.3918 Y-57.3900
G01 X18.4207 Y-57.3683
G01 X18.4350 Y-57.3568
G01 X18.4629 Y-57.3328
G01 X18.5382 Y-57.2642
G01 X18.5514 Y-57.2514
G01 X18.5768 Y-57.2247
G01 X18.6450 Y-57.1491
G01 X18.6683 Y-57.1207
G01 X18.7399 Y-57.0241
G01 X18.7604 Y-56.9935
G01 X18.7700 Y-56.9778
G01 X18.8222 Y-56.8904
G01 X18.8396 Y-56.8579
G01 X18.8833 Y-56.7659
G01 X18.8910 Y-56.7492
G01 X18.9050 Y-56.7152
G01 X18.9396 Y-56.6194
G01 X18.9511 Y-56.5845
G01 X18.9562 Y-56.5668
G01 X18.9854 Y-56.4502
G01 X18.9926 Y-56.4140
G01 X18.9955 Y-56.3959
G01 X19.0078 Y-56.3134
G01 X19.0123 Y-56.2768
G01 X19.0150 Y-56.2401
G01 X19.0191 Y-56.1568
G01 X19.0198 Y-56.1384
G01 X19.0198 Y-56.1016
G01 X19.0150 Y-55.9999
G01 X19.0123 Y-55.9632
G01 X19.0078 Y-55.9266
G01 X18.9926 Y-55.8260
G01 X18.9854 Y-55.7898
G01 X18.9812 Y-55.7719
G01 X18.9609 Y-55.6910
G01 X18.9511 Y-55.6555
G01 X18.9396 Y-55.6206
G01 X18.9050 Y-55.5248
G01 X18.8910 Y-55.4908
G01 X18.8476 Y-55.3986
G01 X18.8311 Y-55.3658
G01 X18.8222 Y-55.3496
G01 X18.7700 Y-55.2622
G01 X18.7504 Y-55.2311
G01 X18.7292 Y-55.2010
G01 X18.6795 Y-55.1340
G01 X18.6568 Y-55.1050
G01 X18.6450 Y-55.0909
G01 X18.5768 Y-55.0153
G01 X18.5514 Y-54.9886
G01 X18.5247 Y-54.9632
G01 X18.4491 Y-54.8950
G01 X18.4207 Y-54.8717
G01 X18.3918 Y-54.8500
G01 X18.4207 Y-54.8283
G01 X18.4491 Y-54.8050
G01 X18.5382 Y-54.7242
G01 X18.5642 Y-54.6982
G01 X18.6328 Y-54.6229
G01 X18.6450 Y-54.6091
G01 X18.6683 Y-54.5807
G01 X18.7399 Y-54.4841
G01 X18.7604 Y-54.4535
G01 X18.7700 Y-54.4378
G01 X18.8129 Y-54.3663
G01 X18.8311 Y-54.3342
G01 X18.8476 Y-54.3014
G01 X18.8910 Y-54.2092
G01 X18.9050 Y-54.1752
G01 X18.9115 Y-54.1579
G01 X18.9396 Y-54.0794
G01 X18.9511 Y-54.0445
G01 X18.9609 Y-54.0090
G01 X18.9854 Y-53.9102
G01 X18.9926 Y-53.8740
G01 X18.9955 Y-53.8559
G01 X19.0078 Y-53.7734
G01 X19.0123 Y-53.7368
G01 X19.0150 Y-53.7001
G01 X19.0191 Y-53.6168
G01 X19.0198 Y-53.5984
G01 X19.0198 Y-53.5616
G01 X19.0150 Y-53.4599
G01 X19.0123 Y-53.4232
G01 X19.0078 Y-53.3866
G01 X18.9955 Y-53.3041
G01 X18.9893 Y-53.2679
G01 X18.9812 Y-53.2319
G01 X18.9609 Y-53.1510
G01 X18.9511 Y-53.1155
G01 X18.9396 Y-53.0806
G01 X18.9115 Y-53.0021
G01 X18.8982 Y-52.9677
G01 X18.8833 Y-52.9341
G01 X18.8476 Y-52.8586
G01 X18.8311 Y-52.8258
G01 X18.8222 Y-52.8096
G01 X18.7700 Y-52.7222
G01 X18.7504 Y-52.6911
G01 X18.7292 Y-52.6610
G01 X18.6795 Y-52.5940
G01 X18.6568 Y-52.5650
G01 X18.6450 Y-52.5509
G01 X18.5768 Y-52.4753
G01 X18.5514 Y-52.4486
G01 X18.5382 Y-52.4358
G01 X18.4491 Y-52.3550
G01 X18.4207 Y-52.3317
G01 X18.3918 Y-52.3100
G01 X18.4207 Y-52.2883
G01 X18.4491 Y-52.2650
G01 X18.5382 Y-52.1842
G01 X18.5642 Y-52.1582
G01 X18.6328 Y-52.0829
G01 X18.6450 Y-52.0691
G01 X18.6683 Y-52.0407
G01 X18.7399 Y-51.9441
G01 X18.7604 Y-51.9135
G01 X18.7700 Y-51.8978
G01 X18.8129 Y-51.8263
G01 X18.8311 Y-51.7942
G01 X18.8476 Y-51.7614
G01 X18.8910 Y-51.6692
G01 X18.9050 Y-51.6352
G01 X18.9115 Y-51.6179
G01 X18.9396 Y-51.5394
G01 X18.9511 Y-51.5045
G01 X18.9609 Y-51.4690
G01 X18.9854 Y-51.3702
G01 X18.9926 Y-51.3340
G01 X18.9955 Y-51.3159
G01 X19.0078 Y-51.2334
G01 X19.0123 Y-51.1968
G01 X19.0150 Y-51.1601
G01 X19.0191 Y-51.0768
G01 X19.0198 Y-51.0584
G01 X19.0198 Y-51.0216
G01 X19.0139 Y-50.9015
G01 X19.0123 Y-50.8832
G01 X19.0078 Y-50.8466
G01 X18.9955 Y-50.7641
G01 X18.9893 Y-50.7279
G01 X18.9812 Y-50.6919
G01 X18.9609 Y-50.6110
G01 X18.9511 Y-50.5755
G01 X18.9396 Y-50.5406
G01 X18.9115 Y-50.4621
G01 X18.8982 Y-50.4277
G01 X18.8833 Y-50.3941
G01 X18.8476 Y-50.3186
G01 X18.8311 Y-50.2858
G01 X18.8129 Y-50.2537
G01 X18.7700 Y-50.1822
G01 X18.7504 Y-50.1511
G01 X18.7292 Y-50.1210
G01 X18.6795 Y-50.0540
G01 X18.6568 Y-50.0250
G01 X18.6450 Y-50.0109
G01 X18.5768 Y-49.9353
G01 X18.5514 Y-49.9086
G01 X18.5382 Y-49.8958
G01 X18.4491 Y-49.8150
G01 X18.4207 Y-49.7917
G01 X18.3918 Y-49.7700
G01 X18.4207 Y-49.7483
G01 X18.4491 Y-49.7250
G01 X18.5382 Y-49.6442
G01 X18.5642 Y-49.6182
G01 X18.6328 Y-49.5429
G01 X18.6450 Y-49.5291
G01 X18.6683 Y-49.5007
G01 X18.7399 Y-49.4041
G01 X18.7604 Y-49.3735
G01 X18.7700 Y-49.3578
G01 X18.8129 Y-49.2863
G01 X18.8311 Y-49.2542
G01 X18.8476 Y-49.2214
G01 X18.8910 Y-49.1292
G01 X18.9050 Y-49.0952
G01 X18.9115 Y-49.0779
G01 X18.9396 Y-48.9994
G01 X18.9511 Y-48.9645
G01 X18.9609 Y-48.9290
G01 X18.9812 Y-48.8481
G01 X18.9854 Y-48.8302
G01 X18.9926 Y-48.7940
G01 X19.0103 Y-48.6751
G01 X19.0123 Y-48.6568
G01 X19.0150 Y-48.6201
G01 X19.0191 Y-48.5368
G01 X19.0200 Y-48.5000
G01 X19.0191 Y-48.4632
G01 X19.0150 Y-48.3799
G01 X19.0123 Y-48.3432
G01 X19.0103 Y-48.3249
G01 X18.9926 Y-48.2060
G01 X18.9854 Y-48.1698
G01 X18.9812 Y-48.1519
G01 X18.9609 Y-48.0710
G01 X18.9511 Y-48.0355
G01 X18.9396 Y-48.0006
G01 X18.9115 Y-47.9221
G01 X18.8982 Y-47.8877
G01 X18.8833 Y-47.8541
G01 X18.8476 Y-47.7786
G01 X18.8311 Y-47.7458
G01 X18.8129 Y-47.7137
G01 X18.7700 Y-47.6422
G01 X18.7504 Y-47.6111
G01 X18.7292 Y-47.5810
G01 X18.6795 Y-47.5140
G01 X18.6568 Y-47.4850
G01 X18.6450 Y-47.4709
G01 X18.5768 Y-47.3953
G01 X18.5514 Y-47.3686
G01 X18.5382 Y-47.3558
G01 X18.4491 Y-47.2750
G01 X18.4207 Y-47.2517
G01 X18.3918 Y-47.2300
G01 X18.4207 Y-47.2083
G01 X18.4491 Y-47.1850
G01 X18.5382 Y-47.1042
G01 X18.5514 Y-47.0914
G01 X18.5768 Y-47.0647
G01 X18.6328 Y-47.0029
G01 X18.6568 Y-46.9750
G01 X18.6795 Y-46.9460
G01 X18.7292 Y-46.8790
G01 X18.7399 Y-46.8641
G01 X18.7604 Y-46.8335
G01 X18.8222 Y-46.7304
G01 X18.8396 Y-46.6979
G01 X18.8476 Y-46.6814
G01 X18.8833 Y-46.6059
G01 X18.8982 Y-46.5723
G01 X18.9115 Y-46.5379
G01 X18.9396 Y-46.4594
G01 X18.9511 Y-46.4245
G01 X18.9562 Y-46.4068
G01 X18.9854 Y-46.2902
G01 X18.9926 Y-46.2540
G01 X18.9955 Y-46.2359
G01 X19.0078 Y-46.1534
G01 X19.0123 Y-46.1168
G01 X19.0150 Y-46.0801
G01 X19.0198 Y-45.9784
G01 X19.0200 Y-45.9600
G01 X19.0191 Y-45.9232
G01 X19.0139 Y-45.8215
G01 X19.0123 Y-45.8032
G01 X19.0078 Y-45.7666
G01 X18.9955 Y-45.6841
G01 X18.9893 Y-45.6479
G01 X18.9812 Y-45.6119
G01 X18.9609 Y-45.5310
G01 X18.9562 Y-45.5132
G01 X18.9455 Y-45.4780
G01 X18.9050 Y-45.3648
G01 X18.8910 Y-45.3308
G01 X18.8833 Y-45.3141
G01 X18.8396 Y-45.2221
G01 X18.8311 Y-45.2058
G01 X18.8129 Y-45.1737
G01 X18.7700 Y-45.1022
G01 X18.7504 Y-45.0711
G01 X18.7292 Y-45.0410
G01 X18.6795 Y-44.9740
G01 X18.6568 Y-44.9450
G01 X18.6450 Y-44.9309
G01 X18.5768 Y-44.8553
G01 X18.5514 Y-44.8286
G01 X18.5382 Y-44.8158
G01 X18.4491 Y-44.7350
G01 X18.4207 Y-44.7117
G01 X18.3918 Y-44.6900
G01 X18.4207 Y-44.6683
G01 X18.4491 Y-44.6450
G01 X18.5382 Y-44.5642
G01 X18.5514 Y-44.5514
G01 X18.5768 Y-44.5247
G01 X18.6328 Y-44.4629
G01 X18.6568 Y-44.4350
G01 X18.6795 Y-44.4060
G01 X18.7292 Y-44.3390
G01 X18.7399 Y-44.3241
G01 X18.7604 Y-44.2935
G01 X18.8222 Y-44.1904
G01 X18.8396 Y-44.1579
G01 X18.8476 Y-44.1414
G01 X18.8833 Y-44.0659
G01 X18.8982 Y-44.0323
G01 X18.9115 Y-43.9979
G01 X18.9396 Y-43.9194
G01 X18.9511 Y-43.8845
G01 X18.9562 Y-43.8668
G01 X18.9854 Y-43.7502
G01 X18.9926 Y-43.7140
G01 X18.9955 Y-43.6959
G01 X19.0078 Y-43.6134
G01 X19.0123 Y-43.5768
G01 X19.0150 Y-43.5401
G01 X19.0198 Y-43.4384
G01 X19.0200 Y-43.4200
G01 X19.0191 Y-43.3832
G01 X19.0139 Y-43.2815
G01 X19.0123 Y-43.2632
G01 X19.0078 Y-43.2266
G01 X18.9955 Y-43.1441
G01 X18.9893 Y-43.1079
G01 X18.9812 Y-43.0719
G01 X18.9609 Y-42.9910
G01 X18.9562 Y-42.9732
G01 X18.9455 Y-42.9380
G01 X18.9050 Y-42.8248
G01 X18.8910 Y-42.7908
G01 X18.8833 Y-42.7741
G01 X18.8396 Y-42.6821
G01 X18.8311 Y-42.6658
G01 X18.8129 Y-42.6337
G01 X18.7700 Y-42.5622
G01 X18.7504 Y-42.5311
G01 X18.7292 Y-42.5010
G01 X18.6795 Y-42.4340
G01 X18.6568 Y-42.4050
G01 X18.6450 Y-42.3909
G01 X18.5768 Y-42.3153
G01 X18.5514 Y-42.2886
G01 X18.5382 Y-42.2758
G01 X18.4491 Y-42.1950
G01 X18.4207 Y-42.1717
G01 X18.3918 Y-42.1500
G01 X18.4207 Y-42.1283
G01 X18.4491 Y-42.1050
G01 X18.5382 Y-42.0242
G01 X18.5514 Y-42.0114
G01 X18.5768 Y-41.9847
G01 X18.6328 Y-41.9229
G01 X18.6568 Y-41.8950
G01 X18.6795 Y-41.8660
G01 X18.7292 Y-41.7990
G01 X18.7399 Y-41.7841
G01 X18.7604 Y-41.7535
G01 X18.8222 Y-41.6504
G01 X18.8396 Y-41.6179
G01 X18.8476 Y-41.6014
G01 X18.8833 Y-41.5259
G01 X18.8982 Y-41.4923
G01 X18.9115 Y-41.4579
G01 X18.9396 Y-41.3794
G01 X18.9511 Y-41.3445
G01 X18.9562 Y-41.3268
G01 X18.9854 Y-41.2102
G01 X18.9926 Y-41.1740
G01 X18.9955 Y-41.1559
G01 X19.0078 Y-41.0734
G01 X19.0123 Y-41.0368
G01 X19.0150 Y-41.0001
G01 X19.0191 Y-40.9168
G01 X19.0198 Y-40.8984
G01 X19.0198 Y-40.8616
G01 X19.0150 Y-40.7599
G01 X19.0123 Y-40.7232
G01 X19.0103 Y-40.7049
G01 X18.9926 Y-40.5860
G01 X18.9854 Y-40.5498
G01 X18.9812 Y-40.5319
G01 X18.9609 Y-40.4510
G01 X18.9511 Y-40.4155
G01 X18.9396 Y-40.3806
G01 X18.9115 Y-40.3021
G01 X18.9050 Y-40.2848
G01 X18.8910 Y-40.2508
G01 X18.8396 Y-40.1421
G01 X18.8311 Y-40.1258
G01 X18.8129 Y-40.0937
G01 X18.7700 Y-40.0222
G01 X18.7504 Y-39.9911
G01 X18.7292 Y-39.9610
G01 X18.6795 Y-39.8940
G01 X18.6568 Y-39.8650
G01 X18.6450 Y-39.8509
G01 X18.5768 Y-39.7753
G01 X18.5514 Y-39.7486
G01 X18.5382 Y-39.7358
G01 X18.4491 Y-39.6550
G01 X18.4207 Y-39.6317
G01 X18.3918 Y-39.6100
G01 X18.4207 Y-39.5883
G01 X18.4350 Y-39.5768
G01 X18.4629 Y-39.5528
G01 X18.5382 Y-39.4842
G01 X18.5514 Y-39.4714
G01 X18.5768 Y-39.4447
G01 X18.6450 Y-39.3691
G01 X18.6683 Y-39.3407
G01 X18.7399 Y-39.2441
G01 X18.7604 Y-39.2135
G01 X18.7700 Y-39.1978
G01 X18.8222 Y-39.1104
G01 X18.8396 Y-39.0779
G01 X18.8833 Y-38.9859
G01 X18.8910 Y-38.9692
G01 X18.9050 Y-38.9352
G01 X18.9396 Y-38.8394
G01 X18.9511 Y-38.8045
G01 X18.9609 Y-38.7690
G01 X18.9812 Y-38.6881
G01 X18.9854 Y-38.6702
G01 X18.9926 Y-38.6340
G01 X19.0078 Y-38.5334
G01 X19.0123 Y-38.4968
G01 X19.0150 Y-38.4601
G01 X19.0191 Y-38.3768
G01 X19.0200 Y-38.3400
G01 X19.0191 Y-38.3032
G01 X19.0150 Y-38.2199
G01 X19.0123 Y-38.1832
G01 X19.0078 Y-38.1466
G01 X18.9955 Y-38.0641
G01 X18.9893 Y-38.0279
G01 X18.9812 Y-37.9919
G01 X18.9609 Y-37.9110
G01 X18.9511 Y-37.8755
G01 X18.9396 Y-37.8406
G01 X18.9050 Y-37.7448
G01 X18.8910 Y-37.7108
G01 X18.8833 Y-37.6941
G01 X18.8396 Y-37.6021
G01 X18.8222 Y-37.5696
G01 X18.7778 Y-37.4951
G01 X19.6364 Y-36.6364
G01 X19.6618 Y-36.6098
G01 X19.6839 Y-36.5851
G01 X19.7073 Y-36.5566
G01 X19.7184 Y-36.5420
G01 X19.7380 Y-36.5152
G01 X19.7584 Y-36.4846
G01 X19.7757 Y-36.4563
G01 X19.7938 Y-36.4243
G01 X19.8103 Y-36.3914
G01 X19.8243 Y-36.3614
G01 X19.8384 Y-36.3274
G01 X19.8498 Y-36.2962
G01 X19.8613 Y-36.2613
G01 X19.8711 Y-36.2258
G01 X19.8790 Y-36.1936
G01 X19.8861 Y-36.1575
G01 X19.8912 Y-36.1248
G01 X19.8957 Y-36.0882
G01 X19.8984 Y-36.0515
G01 X19.8998 Y-36.0184
G01 X19.9001 Y-33.0729
G01 X19.8992 Y-33.0361
G01 X19.8973 Y-33.0030
G01 X19.8957 Y-32.9847
G01 X19.8937 Y-32.9664
G01 X19.8891 Y-32.9336
G01 X19.8828 Y-32.8973
G01 X19.8790 Y-32.8793
G01 X19.8711 Y-32.8471
G01 X19.8613 Y-32.8116
G01 X19.8558 Y-32.7941
G01 X19.8448 Y-32.7628
G01 X19.8384 Y-32.7456
G01 X19.8243 Y-32.7116
G01 X19.8023 Y-32.6650
G01 X19.7938 Y-32.6486
G01 X19.7757 Y-32.6166
G01 X19.7584 Y-32.5883
G01 X19.7484 Y-32.5729
G01 X19.7380 Y-32.5577
G01 X19.7184 Y-32.5309
G01 X19.7073 Y-32.5163
G01 X19.6839 Y-32.4878
G01 X19.6618 Y-32.4631
G01 X19.6364 Y-32.4365
G01 X18.7729 Y-31.5730
G01 X18.8129 Y-31.5063
G01 X18.8311 Y-31.4742
G01 X18.8476 Y-31.4414
G01 X18.8833 Y-31.3659
G01 X18.8982 Y-31.3323
G01 X18.9115 Y-31.2979
G01 X18.9396 Y-31.2194
G01 X18.9511 Y-31.1845
G01 X18.9609 Y-31.1490
G01 X18.9812 Y-31.0681
G01 X18.9893 Y-31.0321
G01 X18.9955 Y-30.9959
G01 X19.0078 Y-30.9134
G01 X19.0123 Y-30.8768
G01 X19.0150 Y-30.8401
G01 X19.0191 Y-30.7568
G01 X19.0200 Y-30.7200
G01 X19.0191 Y-30.6832
G01 X19.0150 Y-30.5999
G01 X19.0123 Y-30.5632
G01 X19.0078 Y-30.5266
G01 X18.9926 Y-30.4260
G01 X18.9854 Y-30.3898
G01 X18.9812 Y-30.3719
G01 X18.9609 Y-30.2910
G01 X18.9511 Y-30.2555
G01 X18.9396 Y-30.2206
G01 X18.9050 Y-30.1248
G01 X18.8910 Y-30.0908
G01 X18.8833 Y-30.0741
G01 X18.8396 Y-29.9821
G01 X18.8222 Y-29.9496
G01 X18.7700 Y-29.8622
G01 X18.7504 Y-29.8311
G01 X18.7399 Y-29.8159
G01 X18.6683 Y-29.7193
G01 X18.6450 Y-29.6909
G01 X18.5768 Y-29.6153
G01 X18.5514 Y-29.5886
G01 X18.5382 Y-29.5758
G01 X18.4629 Y-29.5072
G01 X18.4350 Y-29.4832
G01 X18.4207 Y-29.4717
G01 X18.3918 Y-29.4500
G01 X18.4207 Y-29.4283
G01 X18.4491 Y-29.4050
G01 X18.5382 Y-29.3242
G01 X18.5514 Y-29.3114
G01 X18.5768 Y-29.2847
G01 X18.6450 Y-29.2091
G01 X18.6568 Y-29.1950
G01 X18.6795 Y-29.1660
G01 X18.7292 Y-29.0990
G01 X18.7504 Y-29.0689
G01 X18.7700 Y-29.0378
G01 X18.8129 Y-28.9663
G01 X18.8222 Y-28.9504
G01 X18.8396 Y-28.9179
G01 X18.8833 Y-28.8259
G01 X18.8910 Y-28.8092
G01 X18.9050 Y-28.7752
G01 X18.9455 Y-28.6620
G01 X18.9511 Y-28.6445
G01 X18.9609 Y-28.6090
G01 X18.9812 Y-28.5281
G01 X18.9893 Y-28.4921
G01 X18.9955 Y-28.4559
G01 X19.0078 Y-28.3734
G01 X19.0103 Y-28.3551
G01 X19.0139 Y-28.3185
G01 X19.0198 Y-28.1984
G01 X19.0200 Y-28.1800
G01 X19.0191 Y-28.1432
G01 X19.0150 Y-28.0599
G01 X19.0123 Y-28.0232
G01 X19.0078 Y-27.9866
G01 X18.9955 Y-27.9041
G01 X18.9926 Y-27.8860
G01 X18.9854 Y-27.8498
G01 X18.9562 Y-27.7332
G01 X18.9455 Y-27.6980
G01 X18.9396 Y-27.6806
G01 X18.9115 Y-27.6021
G01 X18.8982 Y-27.5677
G01 X18.8833 Y-27.5341
G01 X18.8476 Y-27.4586
G01 X18.8311 Y-27.4258
G01 X18.8222 Y-27.4096
G01 X18.7604 Y-27.3065
G01 X18.7504 Y-27.2911
G01 X18.7292 Y-27.2610
G01 X18.6795 Y-27.1940
G01 X18.6568 Y-27.1650
G01 X18.6328 Y-27.1371
G01 X18.5768 Y-27.0753
G01 X18.5514 Y-27.0486
G01 X18.5382 Y-27.0358
G01 X18.4491 Y-26.9550
G01 X18.4207 Y-26.9317
G01 X18.3918 Y-26.9100
G01 X18.4207 Y-26.8883
G01 X18.4491 Y-26.8650
G01 X18.5382 Y-26.7842
G01 X18.5514 Y-26.7714
G01 X18.5768 Y-26.7447
G01 X18.6450 Y-26.6691
G01 X18.6568 Y-26.6550
G01 X18.6795 Y-26.6260
G01 X18.7292 Y-26.5590
G01 X18.7504 Y-26.5289
G01 X18.7700 Y-26.4978
G01 X18.8129 Y-26.4263
G01 X18.8222 Y-26.4104
G01 X18.8396 Y-26.3779
G01 X18.8833 Y-26.2859
G01 X18.8910 Y-26.2692
G01 X18.9050 Y-26.2352
G01 X18.9455 Y-26.1220
G01 X18.9511 Y-26.1045
G01 X18.9609 Y-26.0690
G01 X18.9854 Y-25.9702
G01 X18.9893 Y-25.9521
G01 X18.9955 Y-25.9159
G01 X19.0078 Y-25.8334
G01 X19.0123 Y-25.7968
G01 X19.0150 Y-25.7601
G01 X19.0191 Y-25.6768
G01 X19.0198 Y-25.6584
G01 X19.0198 Y-25.6216
G01 X19.0150 Y-25.5199
G01 X19.0123 Y-25.4832
G01 X19.0078 Y-25.4466
G01 X18.9955 Y-25.3641
G01 X18.9926 Y-25.3460
G01 X18.9854 Y-25.3098
G01 X18.9562 Y-25.1932
G01 X18.9455 Y-25.1580
G01 X18.9396 Y-25.1406
G01 X18.9115 Y-25.0621
G01 X18.8982 Y-25.0277
G01 X18.8833 Y-24.9941
G01 X18.8476 Y-24.9186
G01 X18.8311 Y-24.8858
G01 X18.8222 Y-24.8696
G01 X18.7604 Y-24.7665
G01 X18.7504 Y-24.7511
G01 X18.7292 Y-24.7210
G01 X18.6795 Y-24.6540
G01 X18.6568 Y-24.6250
G01 X18.6328 Y-24.5971
G01 X18.5768 Y-24.5353
G01 X18.5514 Y-24.5086
G01 X18.5382 Y-24.4958
G01 X18.4491 Y-24.4150
G01 X18.4207 Y-24.3917
G01 X18.3918 Y-24.3700
G01 X18.4207 Y-24.3483
G01 X18.4491 Y-24.3250
G01 X18.5382 Y-24.2442
G01 X18.5514 Y-24.2314
G01 X18.5768 Y-24.2047
G01 X18.6450 Y-24.1291
G01 X18.6568 Y-24.1150
G01 X18.6795 Y-24.0860
G01 X18.7292 Y-24.0190
G01 X18.7504 Y-23.9889
G01 X18.7700 Y-23.9578
G01 X18.8129 Y-23.8863
G01 X18.8222 Y-23.8704
G01 X18.8396 Y-23.8379
G01 X18.8833 Y-23.7459
G01 X18.8982 Y-23.7123
G01 X18.9050 Y-23.6952
G01 X18.9455 Y-23.5820
G01 X18.9511 Y-23.5645
G01 X18.9609 Y-23.5290
G01 X18.9854 Y-23.4302
G01 X18.9893 Y-23.4121
G01 X18.9955 Y-23.3759
G01 X19.0078 Y-23.2934
G01 X19.0123 Y-23.2568
G01 X19.0150 Y-23.2201
G01 X19.0191 Y-23.1368
G01 X19.0198 Y-23.1184
G01 X19.0198 Y-23.0816
G01 X19.0150 Y-22.9799
G01 X19.0123 Y-22.9432
G01 X19.0078 Y-22.9066
G01 X18.9955 Y-22.8241
G01 X18.9926 Y-22.8060
G01 X18.9854 Y-22.7698
G01 X18.9562 Y-22.6532
G01 X18.9455 Y-22.6180
G01 X18.9396 Y-22.6006
G01 X18.9115 Y-22.5221
G01 X18.8982 Y-22.4877
G01 X18.8833 Y-22.4541
G01 X18.8476 Y-22.3786
G01 X18.8311 Y-22.3458
G01 X18.8222 Y-22.3296
G01 X18.7604 Y-22.2265
G01 X18.7504 Y-22.2111
G01 X18.7292 Y-22.1810
G01 X18.6795 Y-22.1140
G01 X18.6568 Y-22.0850
G01 X18.6328 Y-22.0571
G01 X18.5768 Y-21.9953
G01 X18.5514 Y-21.9686
G01 X18.5382 Y-21.9558
G01 X18.4491 Y-21.8750
G01 X18.4207 Y-21.8517
G01 X18.3918 Y-21.8300
G01 X18.4207 Y-21.8083
G01 X18.4491 Y-21.7850
G01 X18.5382 Y-21.7042
G01 X18.5514 Y-21.6914
G01 X18.5768 Y-21.6647
G01 X18.6450 Y-21.5891
G01 X18.6568 Y-21.5750
G01 X18.6795 Y-21.5460
G01 X18.7292 Y-21.4790
G01 X18.7504 Y-21.4489
G01 X18.7700 Y-21.4178
G01 X18.8129 Y-21.3463
G01 X18.8311 Y-21.3142
G01 X18.8476 Y-21.2814
G01 X18.8833 Y-21.2059
G01 X18.8982 Y-21.1723
G01 X18.9115 Y-21.1379
G01 X18.9396 Y-21.0594
G01 X18.9511 Y-21.0245
G01 X18.9609 Y-20.9890
G01 X18.9812 Y-20.9081
G01 X18.9893 Y-20.8721
G01 X18.9926 Y-20.8540
G01 X19.0103 Y-20.7351
G01 X19.0123 Y-20.7168
G01 X19.0150 Y-20.6801
G01 X19.0191 Y-20.5968
G01 X19.0200 Y-20.5600
G01 X19.0191 Y-20.5232
G01 X19.0150 Y-20.4399
G01 X19.0123 Y-20.4032
G01 X19.0103 Y-20.3849
G01 X18.9926 Y-20.2660
G01 X18.9854 Y-20.2298
G01 X18.9812 Y-20.2119
G01 X18.9609 Y-20.1310
G01 X18.9511 Y-20.0955
G01 X18.9396 Y-20.0606
G01 X18.9115 Y-19.9821
G01 X18.9050 Y-19.9648
G01 X18.8910 Y-19.9308
G01 X18.8396 Y-19.8221
G01 X18.8311 Y-19.8058
G01 X18.8129 Y-19.7737
G01 X18.7700 Y-19.7022
G01 X18.7504 Y-19.6711
G01 X18.7292 Y-19.6410
G01 X18.6683 Y-19.5593
G01 X18.6450 Y-19.5309
G01 X18.6328 Y-19.5171
G01 X18.5642 Y-19.4418
G01 X18.5382 Y-19.4158
G01 X18.4491 Y-19.3350
G01 X18.4207 Y-19.3117
G01 X18.3918 Y-19.2900
G01 X18.4207 Y-19.2683
G01 X18.4491 Y-19.2450
G01 X18.5382 Y-19.1642
G01 X18.5514 Y-19.1514
G01 X18.5768 Y-19.1247
G01 X18.6450 Y-19.0491
G01 X18.6568 Y-19.0350
G01 X18.6795 Y-19.0060
G01 X18.7292 Y-18.9390
G01 X18.7504 Y-18.9089
G01 X18.7700 Y-18.8778
G01 X18.8129 Y-18.8063
G01 X18.8311 Y-18.7742
G01 X18.8476 Y-18.7414
G01 X18.8833 Y-18.6659
G01 X18.8982 Y-18.6323
G01 X18.9115 Y-18.5979
G01 X18.9396 Y-18.5194
G01 X18.9511 Y-18.4845
G01 X18.9609 Y-18.4490
G01 X18.9812 Y-18.3681
G01 X18.9893 Y-18.3321
G01 X18.9955 Y-18.2959
G01 X19.0078 Y-18.2134
G01 X19.0103 Y-18.1951
G01 X19.0139 Y-18.1585
G01 X19.0198 Y-18.0384
G01 X19.0200 Y-18.0200
G01 X19.0191 Y-17.9832
G01 X19.0150 Y-17.8999
G01 X19.0123 Y-17.8632
G01 X19.0078 Y-17.8266
G01 X18.9955 Y-17.7441
G01 X18.9926 Y-17.7260
G01 X18.9854 Y-17.6898
G01 X18.9609 Y-17.5910
G01 X18.9511 Y-17.5555
G01 X18.9396 Y-17.5206
G01 X18.9115 Y-17.4421
G01 X18.9050 Y-17.4248
G01 X18.8910 Y-17.3908
G01 X18.8396 Y-17.2821
G01 X18.8311 Y-17.2658
G01 X18.8129 Y-17.2337
G01 X18.7700 Y-17.1622
G01 X18.7504 Y-17.1311
G01 X18.7292 Y-17.1010
G01 X18.6683 Y-17.0193
G01 X18.6450 Y-16.9909
G01 X18.6328 Y-16.9771
G01 X18.5642 Y-16.9018
G01 X18.5382 Y-16.8758
G01 X18.4491 Y-16.7950
G01 X18.4207 Y-16.7717
G01 X18.3918 Y-16.7500
G01 X18.4207 Y-16.7283
G01 X18.4491 Y-16.7050
G01 X18.5382 Y-16.6242
G01 X18.5514 Y-16.6114
G01 X18.5768 Y-16.5847
G01 X18.6450 Y-16.5091
G01 X18.6568 Y-16.4950
G01 X18.6795 Y-16.4660
G01 X18.7292 Y-16.3990
G01 X18.7504 Y-16.3689
G01 X18.7700 Y-16.3378
G01 X18.8222 Y-16.2504
G01 X18.8311 Y-16.2342
G01 X18.8476 Y-16.2014
G01 X18.8833 Y-16.1259
G01 X18.8982 Y-16.0923
G01 X18.9115 Y-16.0579
G01 X18.9396 Y-15.9794
G01 X18.9511 Y-15.9445
G01 X18.9609 Y-15.9090
G01 X18.9812 Y-15.8281
G01 X18.9893 Y-15.7921
G01 X18.9955 Y-15.7559
G01 X19.0078 Y-15.6734
G01 X19.0123 Y-15.6368
G01 X19.0150 Y-15.6001
G01 X19.0198 Y-15.4984
G01 X19.0200 Y-15.4800
G01 X19.0191 Y-15.4432
G01 X19.0150 Y-15.3599
G01 X19.0123 Y-15.3232
G01 X19.0078 Y-15.2866
G01 X18.9955 Y-15.2041
G01 X18.9893 Y-15.1679
G01 X18.9854 Y-15.1498
G01 X18.9609 Y-15.0510
G01 X18.9511 Y-15.0155
G01 X18.9396 Y-14.9806
G01 X18.9115 Y-14.9021
G01 X18.8982 Y-14.8677
G01 X18.8910 Y-14.8508
G01 X18.8396 Y-14.7421
G01 X18.8311 Y-14.7258
G01 X18.8129 Y-14.6937
G01 X18.7700 Y-14.6222
G01 X18.7504 Y-14.5911
G01 X18.7292 Y-14.5610
G01 X18.6683 Y-14.4793
G01 X18.6450 Y-14.4509
G01 X18.6328 Y-14.4371
G01 X18.5642 Y-14.3618
G01 X18.5382 Y-14.3358
G01 X18.4491 Y-14.2550
G01 X18.4207 Y-14.2317
G01 X18.3918 Y-14.2100
G01 X18.4207 Y-14.1883
G01 X18.4491 Y-14.1650
G01 X18.5247 Y-14.0968
G01 X18.5514 Y-14.0714
G01 X18.5768 Y-14.0447
G01 X18.6450 Y-13.9691
G01 X18.6683 Y-13.9407
G01 X18.6795 Y-13.9260
G01 X18.7292 Y-13.8590
G01 X18.7504 Y-13.8289
G01 X18.7700 Y-13.7978
G01 X18.8222 Y-13.7104
G01 X18.8396 Y-13.6779
G01 X18.8476 Y-13.6614
G01 X18.8910 Y-13.5692
G01 X18.9050 Y-13.5352
G01 X18.9396 Y-13.4394
G01 X18.9511 Y-13.4045
G01 X18.9609 Y-13.3690
G01 X18.9812 Y-13.2881
G01 X18.9854 Y-13.2702
G01 X18.9926 Y-13.2340
G01 X19.0078 Y-13.1334
G01 X19.0123 Y-13.0968
G01 X19.0150 Y-13.0601
G01 X19.0198 Y-12.9584
G01 X19.0200 Y-12.9400
G01 X19.0191 Y-12.9032
G01 X19.0150 Y-12.8199
G01 X19.0123 Y-12.7832
G01 X19.0078 Y-12.7466
G01 X18.9955 Y-12.6641
G01 X18.9893 Y-12.6279
G01 X18.9854 Y-12.6098
G01 X18.9562 Y-12.4932
G01 X18.9511 Y-12.4755
G01 X18.9396 Y-12.4406
G01 X18.9050 Y-12.3448
G01 X18.8982 Y-12.3277
G01 X18.8833 Y-12.2941
G01 X18.8396 Y-12.2021
G01 X18.8222 Y-12.1696
G01 X18.7700 Y-12.0822
G01 X18.7504 Y-12.0511
G01 X18.7399 Y-12.0359
G01 X18.6683 Y-11.9393
G01 X18.6450 Y-11.9109
G01 X18.5768 Y-11.8353
G01 X18.5514 Y-11.8086
G01 X18.5382 Y-11.7958
G01 X18.4629 Y-11.7272
G01 X18.4350 Y-11.7032
G01 X18.4207 Y-11.6917
G01 X18.3918 Y-11.6700
G01 X18.4207 Y-11.6483
G01 X18.4491 Y-11.6250
G01 X18.5382 Y-11.5442
G01 X18.5642 Y-11.5182
G01 X18.6328 Y-11.4429
G01 X18.6450 Y-11.4291
G01 X18.6683 Y-11.4007
G01 X18.7292 Y-11.3190
G01 X18.7504 Y-11.2889
G01 X18.7700 Y-11.2578
G01 X18.8129 Y-11.1863
G01 X18.8222 Y-11.1704
G01 X18.8396 Y-11.1379
G01 X18.8910 Y-11.0292
G01 X18.8982 Y-11.0123
G01 X18.9115 Y-10.9779
G01 X18.9396 Y-10.8994
G01 X18.9511 Y-10.8645
G01 X18.9609 Y-10.8290
G01 X18.9854 Y-10.7302
G01 X18.9926 Y-10.6940
G01 X18.9955 Y-10.6759
G01 X19.0078 Y-10.5934
G01 X19.0123 Y-10.5568
G01 X19.0150 Y-10.5201
G01 X19.0191 Y-10.4368
G01 X19.0198 Y-10.4184
G01 X19.0198 Y-10.3816
G01 X19.0139 Y-10.2615
G01 X19.0103 Y-10.2249
G01 X18.9955 Y-10.1241
G01 X18.9893 Y-10.0879
G01 X18.9812 Y-10.0519
G01 X18.9609 Y-9.9710
G01 X18.9511 Y-9.9355
G01 X18.9396 Y-9.9006
G01 X18.9115 Y-9.8221
G01 X18.8982 Y-9.7877
G01 X18.8833 Y-9.7541
G01 X18.8396 Y-9.6621
G01 X18.8311 Y-9.6458
G01 X18.8129 Y-9.6137
G01 X18.7700 Y-9.5422
G01 X18.7504 Y-9.5111
G01 X18.7292 Y-9.4810
G01 X18.6795 Y-9.4140
G01 X18.6568 Y-9.3850
G01 X18.6328 Y-9.3571
G01 X18.5642 Y-9.2818
G01 X18.5514 Y-9.2686
G01 X18.5247 Y-9.2432
G01 X18.4629 Y-9.1872
G01 X18.4350 Y-9.1632
G01 X18.4060 Y-9.1405
G01 X18.3390 Y-9.0908
G01 X18.3089 Y-9.0696
G01 X18.2778 Y-9.0500
G01 X18.2063 Y-9.0071
G01 X18.1742 Y-8.9889
G01 X18.1414 Y-8.9724
G01 X18.0659 Y-8.9367
G01 X18.0323 Y-8.9218
G01 X17.9979 Y-8.9085
G01 X17.9020 Y-8.8745
G01 X17.8668 Y-8.8638
G01 X17.7502 Y-8.8346
G01 X17.7321 Y-8.8307
G01 X17.6959 Y-8.8245
G01 X17.6134 Y-8.8122
G01 X17.5768 Y-8.8077
G01 X17.5401 Y-8.8050
G01 X17.4568 Y-8.8009
G01 X17.4384 Y-8.8002
G01 X17.4016 Y-8.8002
G01 X17.2999 Y-8.8050
G01 X17.2632 Y-8.8077
G01 X17.2266 Y-8.8122
G01 X17.1441 Y-8.8245
G01 X17.1260 Y-8.8274
G01 X17.0898 Y-8.8346
G01 X16.9910 Y-8.8591
G01 X16.9555 Y-8.8689
G01 X16.9206 Y-8.8804
G01 X16.8421 Y-8.9085
G01 X16.8248 Y-8.9150
G01 X16.7908 Y-8.9290
G01 X16.6821 Y-8.9804
G01 X16.6496 Y-8.9978
G01 X16.6337 Y-9.0071
G01 X16.5622 Y-9.0500
G01 X16.5311 Y-9.0696
G01 X16.5010 Y-9.0908
G01 X16.4340 Y-9.1405
G01 X16.4050 Y-9.1632
G01 X16.3833 Y-9.1817
G01 X16.3733 Y-9.1644
G01 X16.3636 Y-9.1488
G01 X16.3432 Y-9.1181
G01 X16.3213 Y-9.0886
G01 X16.3098 Y-9.0742
G01 X16.2857 Y-9.0463
G01 X16.2603 Y-9.0197
G01 X16.2337 Y-8.9943
G01 X16.2199 Y-8.9821
G01 X16.1914 Y-8.9587
G01 X16.1619 Y-8.9368
G01 X16.1312 Y-8.9164
G01 X16.0997 Y-8.8974
G01 X16.0835 Y-8.8886
G01 X16.0672 Y-8.8801
G01 X16.0339 Y-8.8643
G01 X15.9999 Y-8.8503
G01 X15.9653 Y-8.8379
G01 X15.9477 Y-8.8323
G01 X15.9122 Y-8.8225
G01 X15.8763 Y-8.8144
G01 X15.8400 Y-8.8081
G01 X15.8218 Y-8.8056
G01 X15.7852 Y-8.8020
G01 X15.7668 Y-8.8009
G01 X15.7300 Y-8.8000
G01 X14.0300 Y-8.8000
G01 X13.9932 Y-8.8009
G01 X13.9748 Y-8.8020
G01 X13.9382 Y-8.8056
G01 X13.9018 Y-8.8110
G01 X13.8657 Y-8.8182
G01 X13.8478 Y-8.8225
G01 X13.8123 Y-8.8323
G01 X13.7773 Y-8.8438
G01 X13.7430 Y-8.8571
G01 X13.7093 Y-8.8720
G01 X13.6765 Y-8.8886
G01 X13.6444 Y-8.9067
G01 X13.6133 Y-8.9264
G01 X13.5832 Y-8.9476
G01 X13.5542 Y-8.9702
G01 X13.5263 Y-8.9943
G01 X13.4997 Y-9.0197
G01 X13.4868 Y-9.0328
G01 X13.4621 Y-9.0601
G01 X13.4387 Y-9.0886
G01 X13.4168 Y-9.1181
G01 X13.3964 Y-9.1488
G01 X13.3867 Y-9.1644
G01 X13.3686 Y-9.1965
G01 X13.3520 Y-9.2293
G01 X13.3371 Y-9.2630
G01 X13.3238 Y-9.2973
G01 X13.3123 Y-9.3323
G01 X13.3072 Y-9.3500
G01 X13.2982 Y-9.3857
G01 X13.2910 Y-9.4218
G01 X13.2856 Y-9.4582
G01 X13.2820 Y-9.4948
G01 X13.2802 Y-9.5316
G01 X13.2800 Y-11.2500
G01 X13.2809 Y-11.2868
G01 X13.2820 Y-11.3052
G01 X13.2836 Y-11.3235
G01 X13.2881 Y-11.3600
G01 X13.2944 Y-11.3963
G01 X13.2982 Y-11.4143
G01 X13.3072 Y-11.4500
G01 X13.3179 Y-11.4853
G01 X13.3303 Y-11.5199
G01 X13.3371 Y-11.5370
G01 X13.3520 Y-11.5707
G01 X13.3686 Y-11.6035
G01 X13.3774 Y-11.6197
G01 X13.3964 Y-11.6512
G01 X13.4168 Y-11.6819
G01 X13.4387 Y-11.7114
G01 X13.4621 Y-11.7399
G01 X13.4743 Y-11.7537
G01 X13.4997 Y-11.7803
G01 X13.5263 Y-11.8057
G01 X13.5401 Y-11.8179
G01 X13.5686 Y-11.8413
G01 X13.5981 Y-11.8632
G01 X13.6288 Y-11.8836
G01 X13.6444 Y-11.8933
G01 X13.6617 Y-11.9033
G01 X13.6432 Y-11.9250
G01 X13.6205 Y-11.9540
G01 X13.5708 Y-12.0210
G01 X13.5496 Y-12.0511
G01 X13.5300 Y-12.0822
G01 X13.4871 Y-12.1537
G01 X13.4689 Y-12.1858
G01 X13.4524 Y-12.2186
G01 X13.4167 Y-12.2941
G01 X13.4018 Y-12.3277
G01 X13.3885 Y-12.3621
G01 X13.3604 Y-12.4406
G01 X13.3489 Y-12.4755
G01 X13.3391 Y-12.5110
G01 X13.3188 Y-12.5919
G01 X13.3107 Y-12.6279
G01 X13.3045 Y-12.6641
G01 X13.2922 Y-12.7466
G01 X13.2877 Y-12.7832
G01 X13.2850 Y-12.8199
G01 X13.2809 Y-12.9032
G01 X13.2800 Y-12.9400
G01 X13.2809 Y-12.9768
G01 X13.2850 Y-13.0601
G01 X13.2877 Y-13.0968
G01 X13.2897 Y-13.1151
G01 X13.3045 Y-13.2159
G01 X13.3107 Y-13.2521
G01 X13.3188 Y-13.2881
G01 X13.3391 Y-13.3690
G01 X13.3489 Y-13.4045
G01 X13.3604 Y-13.4394
G01 X13.3885 Y-13.5179
G01 X13.4018 Y-13.5523
G01 X13.4167 Y-13.5859
G01 X13.4524 Y-13.6614
G01 X13.4689 Y-13.6942
G01 X13.4778 Y-13.7104
G01 X13.5300 Y-13.7978
G01 X13.5496 Y-13.8289
G01 X13.5708 Y-13.8590
G01 X13.6205 Y-13.9260
G01 X13.6432 Y-13.9550
G01 X13.6550 Y-13.9691
G01 X13.7232 Y-14.0447
G01 X13.7358 Y-14.0582
G01 X13.7618 Y-14.0842
G01 X13.8509 Y-14.1650
G01 X13.8793 Y-14.1883
G01 X13.9082 Y-14.2100
G01 X13.8793 Y-14.2317
G01 X13.8509 Y-14.2550
G01 X13.7618 Y-14.3358
G01 X13.7486 Y-14.3486
G01 X13.7232 Y-14.3753
G01 X13.6550 Y-14.4509
G01 X13.6317 Y-14.4793
G01 X13.6205 Y-14.4940
G01 X13.5708 Y-14.5610
G01 X13.5496 Y-14.5911
G01 X13.5300 Y-14.6222
G01 X13.4871 Y-14.6937
G01 X13.4689 Y-14.7258
G01 X13.4604 Y-14.7421
G01 X13.4090 Y-14.8508
G01 X13.3950 Y-14.8848
G01 X13.3885 Y-14.9021
G01 X13.3604 Y-14.9806
G01 X13.3489 Y-15.0155
G01 X13.3391 Y-15.0510
G01 X13.3188 Y-15.1319
G01 X13.3107 Y-15.1679
G01 X13.3074 Y-15.1860
G01 X13.2897 Y-15.3049
G01 X13.2861 Y-15.3415
G01 X13.2850 Y-15.3599
G01 X13.2802 Y-15.4616
G01 X13.2802 Y-15.4984
G01 X13.2809 Y-15.5168
G01 X13.2850 Y-15.6001
G01 X13.2877 Y-15.6368
G01 X13.2922 Y-15.6734
G01 X13.3045 Y-15.7559
G01 X13.3107 Y-15.7921
G01 X13.3146 Y-15.8102
G01 X13.3438 Y-15.9268
G01 X13.3489 Y-15.9445
G01 X13.3604 Y-15.9794
G01 X13.3885 Y-16.0579
G01 X13.4018 Y-16.0923
G01 X13.4167 Y-16.1259
G01 X13.4524 Y-16.2014
G01 X13.4689 Y-16.2342
G01 X13.4778 Y-16.2504
G01 X13.5396 Y-16.3535
G01 X13.5496 Y-16.3689
G01 X13.5708 Y-16.3990
G01 X13.6205 Y-16.4660
G01 X13.6432 Y-16.4950
G01 X13.6672 Y-16.5229
G01 X13.7232 Y-16.5847
G01 X13.7486 Y-16.6114
G01 X13.7618 Y-16.6242
G01 X13.8509 Y-16.7050
G01 X13.8793 Y-16.7283
G01 X13.9082 Y-16.7500
G01 X13.8793 Y-16.7717
G01 X13.8509 Y-16.7950
G01 X13.7618 Y-16.8758
G01 X13.7358 Y-16.9018
G01 X13.7232 Y-16.9153
G01 X13.6550 Y-16.9909
G01 X13.6432 Y-17.0050
G01 X13.6205 Y-17.0340
G01 X13.5708 Y-17.1010
G01 X13.5496 Y-17.1311
G01 X13.5300 Y-17.1622
G01 X13.4871 Y-17.2337
G01 X13.4778 Y-17.2496
G01 X13.4604 Y-17.2821
G01 X13.4167 Y-17.3741
G01 X13.4090 Y-17.3908
G01 X13.3950 Y-17.4248
G01 X13.3545 Y-17.5380
G01 X13.3438 Y-17.5732
G01 X13.3391 Y-17.5910
G01 X13.3188 Y-17.6719
G01 X13.3107 Y-17.7079
G01 X13.3045 Y-17.7441
G01 X13.2922 Y-17.8266
G01 X13.2897 Y-17.8449
G01 X13.2861 Y-17.8815
G01 X13.2809 Y-17.9832
G01 X13.2800 Y-18.0200
G01 X13.2802 Y-18.0384
G01 X13.2850 Y-18.1401
G01 X13.2877 Y-18.1768
G01 X13.2922 Y-18.2134
G01 X13.3045 Y-18.2959
G01 X13.3107 Y-18.3321
G01 X13.3146 Y-18.3502
G01 X13.3438 Y-18.4668
G01 X13.3545 Y-18.5020
G01 X13.3604 Y-18.5194
G01 X13.3885 Y-18.5979
G01 X13.4018 Y-18.6323
G01 X13.4167 Y-18.6659
G01 X13.4524 Y-18.7414
G01 X13.4689 Y-18.7742
G01 X13.4778 Y-18.7904
G01 X13.5396 Y-18.8935
G01 X13.5496 Y-18.9089
G01 X13.5708 Y-18.9390
G01 X13.6205 Y-19.0060
G01 X13.6432 Y-19.0350
G01 X13.6672 Y-19.0629
G01 X13.7232 Y-19.1247
G01 X13.7358 Y-19.1382
G01 X13.7618 Y-19.1642
G01 X13.8509 Y-19.2450
G01 X13.8793 Y-19.2683
G01 X13.9082 Y-19.2900
G01 X13.8793 Y-19.3117
G01 X13.8509 Y-19.3350
G01 X13.7618 Y-19.4158
G01 X13.7358 Y-19.4418
G01 X13.7232 Y-19.4553
G01 X13.6550 Y-19.5309
G01 X13.6432 Y-19.5450
G01 X13.6205 Y-19.5740
G01 X13.5708 Y-19.6410
G01 X13.5496 Y-19.6711
G01 X13.5300 Y-19.7022
G01 X13.4871 Y-19.7737
G01 X13.4689 Y-19.8058
G01 X13.4524 Y-19.8386
G01 X13.4167 Y-19.9141
G01 X13.4018 Y-19.9477
G01 X13.3885 Y-19.9821
G01 X13.3604 Y-20.0606
G01 X13.3489 Y-20.0955
G01 X13.3391 Y-20.1310
G01 X13.3188 Y-20.2119
G01 X13.3146 Y-20.2298
G01 X13.3074 Y-20.2660
G01 X13.2897 Y-20.3849
G01 X13.2861 Y-20.4215
G01 X13.2850 Y-20.4399
G01 X13.2809 Y-20.5232
G01 X13.2800 Y-20.5600
G01 X13.2809 Y-20.5968
G01 X13.2850 Y-20.6801
G01 X13.2877 Y-20.7168
G01 X13.2897 Y-20.7351
G01 X13.3074 Y-20.8540
G01 X13.3146 Y-20.8902
G01 X13.3188 Y-20.9081
G01 X13.3391 Y-20.9890
G01 X13.3489 Y-21.0245
G01 X13.3604 Y-21.0594
G01 X13.3885 Y-21.1379
G01 X13.3950 Y-21.1552
G01 X13.4090 Y-21.1892
G01 X13.4524 Y-21.2814
G01 X13.4689 Y-21.3142
G01 X13.4871 Y-21.3463
G01 X13.5300 Y-21.4178
G01 X13.5496 Y-21.4489
G01 X13.5601 Y-21.4641
G01 X13.6317 Y-21.5607
G01 X13.6550 Y-21.5891
G01 X13.7232 Y-21.6647
G01 X13.7358 Y-21.6782
G01 X13.7618 Y-21.7042
G01 X13.8509 Y-21.7850
G01 X13.8793 Y-21.8083
G01 X13.9082 Y-21.8300
G01 X13.8793 Y-21.8517
G01 X13.8509 Y-21.8750
G01 X13.7618 Y-21.9558
G01 X13.7358 Y-21.9818
G01 X13.7232 Y-21.9953
G01 X13.6550 Y-22.0709
G01 X13.6432 Y-22.0850
G01 X13.6205 Y-22.1140
G01 X13.5708 Y-22.1810
G01 X13.5496 Y-22.2111
G01 X13.5300 Y-22.2422
G01 X13.4871 Y-22.3137
G01 X13.4689 Y-22.3458
G01 X13.4524 Y-22.3786
G01 X13.4167 Y-22.4541
G01 X13.4018 Y-22.4877
G01 X13.3885 Y-22.5221
G01 X13.3604 Y-22.6006
G01 X13.3489 Y-22.6355
G01 X13.3391 Y-22.6710
G01 X13.3188 Y-22.7519
G01 X13.3107 Y-22.7879
G01 X13.3045 Y-22.8241
G01 X13.2922 Y-22.9066
G01 X13.2897 Y-22.9249
G01 X13.2861 Y-22.9615
G01 X13.2802 Y-23.0816
G01 X13.2802 Y-23.1184
G01 X13.2809 Y-23.1368
G01 X13.2850 Y-23.2201
G01 X13.2877 Y-23.2568
G01 X13.2922 Y-23.2934
G01 X13.3045 Y-23.3759
G01 X13.3107 Y-23.4121
G01 X13.3146 Y-23.4302
G01 X13.3391 Y-23.5290
G01 X13.3489 Y-23.5645
G01 X13.3604 Y-23.5994
G01 X13.3885 Y-23.6779
G01 X13.3950 Y-23.6952
G01 X13.4090 Y-23.7292
G01 X13.4524 Y-23.8214
G01 X13.4689 Y-23.8542
G01 X13.4871 Y-23.8863
G01 X13.5300 Y-23.9578
G01 X13.5496 Y-23.9889
G01 X13.5601 Y-24.0041
G01 X13.6317 Y-24.1007
G01 X13.6550 Y-24.1291
G01 X13.7232 Y-24.2047
G01 X13.7358 Y-24.2182
G01 X13.7618 Y-24.2442
G01 X13.8509 Y-24.3250
G01 X13.8793 Y-24.3483
G01 X13.9082 Y-24.3700
G01 X13.8793 Y-24.3917
G01 X13.8509 Y-24.4150
G01 X13.7618 Y-24.4958
G01 X13.7358 Y-24.5218
G01 X13.7232 Y-24.5353
G01 X13.6550 Y-24.6109
G01 X13.6432 Y-24.6250
G01 X13.6205 Y-24.6540
G01 X13.5708 Y-24.7210
G01 X13.5496 Y-24.7511
G01 X13.5300 Y-24.7822
G01 X13.4778 Y-24.8696
G01 X13.4689 Y-24.8858
G01 X13.4524 Y-24.9186
G01 X13.4167 Y-24.9941
G01 X13.4018 Y-25.0277
G01 X13.3885 Y-25.0621
G01 X13.3604 Y-25.1406
G01 X13.3489 Y-25.1755
G01 X13.3391 Y-25.2110
G01 X13.3188 Y-25.2919
G01 X13.3107 Y-25.3279
G01 X13.3045 Y-25.3641
G01 X13.2922 Y-25.4466
G01 X13.2877 Y-25.4832
G01 X13.2850 Y-25.5199
G01 X13.2802 Y-25.6216
G01 X13.2802 Y-25.6584
G01 X13.2809 Y-25.6768
G01 X13.2850 Y-25.7601
G01 X13.2877 Y-25.7968
G01 X13.2922 Y-25.8334
G01 X13.3045 Y-25.9159
G01 X13.3107 Y-25.9521
G01 X13.3146 Y-25.9702
G01 X13.3391 Y-26.0690
G01 X13.3489 Y-26.1045
G01 X13.3604 Y-26.1394
G01 X13.3885 Y-26.2179
G01 X13.4018 Y-26.2523
G01 X13.4090 Y-26.2692
G01 X13.4524 Y-26.3614
G01 X13.4689 Y-26.3942
G01 X13.4871 Y-26.4263
G01 X13.5300 Y-26.4978
G01 X13.5496 Y-26.5289
G01 X13.5601 Y-26.5441
G01 X13.6317 Y-26.6407
G01 X13.6550 Y-26.6691
G01 X13.7232 Y-26.7447
G01 X13.7358 Y-26.7582
G01 X13.7618 Y-26.7842
G01 X13.8509 Y-26.8650
G01 X13.8793 Y-26.8883
G01 X13.9082 Y-26.9100
G01 X13.8793 Y-26.9317
G01 X13.8509 Y-26.9550
G01 X13.7753 Y-27.0232
G01 X13.7618 Y-27.0358
G01 X13.7358 Y-27.0618
G01 X13.6672 Y-27.1371
G01 X13.6432 Y-27.1650
G01 X13.6205 Y-27.1940
G01 X13.5708 Y-27.2610
G01 X13.5601 Y-27.2759
G01 X13.5396 Y-27.3065
G01 X13.4871 Y-27.3937
G01 X13.4689 Y-27.4258
G01 X13.4524 Y-27.4586
G01 X13.4167 Y-27.5341
G01 X13.4018 Y-27.5677
G01 X13.3885 Y-27.6021
G01 X13.3604 Y-27.6806
G01 X13.3489 Y-27.7155
G01 X13.3391 Y-27.7510
G01 X13.3188 Y-27.8319
G01 X13.3146 Y-27.8498
G01 X13.3074 Y-27.8860
G01 X13.2922 Y-27.9866
G01 X13.2877 Y-28.0232
G01 X13.2850 Y-28.0599
G01 X13.2802 Y-28.1616
G01 X13.2802 Y-28.1984
G01 X13.2850 Y-28.3001
G01 X13.2877 Y-28.3368
G01 X13.2897 Y-28.3551
G01 X13.3045 Y-28.4559
G01 X13.3107 Y-28.4921
G01 X13.3188 Y-28.5281
G01 X13.3438 Y-28.6268
G01 X13.3489 Y-28.6445
G01 X13.3604 Y-28.6794
G01 X13.3950 Y-28.7752
G01 X13.4090 Y-28.8092
G01 X13.4375 Y-28.8699
G01 X6.5750 Y-28.8699
G01 X6.5566 Y-28.8701
G01 X6.5137 Y-28.8720
G01 X6.4770 Y-28.8747
G01 X6.4587 Y-28.8767
G01 X6.4162 Y-28.8828
G01 X6.3799 Y-28.8891
G01 X6.3619 Y-28.8929
G01 X6.3202 Y-28.9031
G01 X6.3024 Y-28.9078
G01 X6.2671 Y-28.9185
G01 X6.2094 Y-28.9392
G01 X6.1754 Y-28.9533
G01 X6.1586 Y-28.9609
G01 X6.1199 Y-28.9795
G01 X6.1035 Y-28.9880
G01 X6.0874 Y-28.9968
G01 X6.0505 Y-29.0187
G01 X6.0194 Y-29.0384
G01 X6.0042 Y-29.0488
G01 X5.9549 Y-29.0854
G01 X5.9264 Y-29.1087
G01 X5.9127 Y-29.1209
G01 X5.8810 Y-29.1499
G01 X5.8678 Y-29.1628
G01 X4.2806 Y-30.7500
G01 X3.7516 Y-30.7502
G01 X3.7148 Y-30.7520
G01 X3.6965 Y-30.7536
G01 X3.6782 Y-30.7556
G01 X3.6418 Y-30.7610
G01 X3.6057 Y-30.7682
G01 X3.5878 Y-30.7725
G01 X3.5523 Y-30.7823
G01 X3.5173 Y-30.7938
G01 X3.4830 Y-30.8071
G01 X3.4661 Y-30.8143
G01 X3.4328 Y-30.8301
G01 X3.4165 Y-30.8386
G01 X3.3844 Y-30.8567
G01 X3.3688 Y-30.8664
G01 X3.3381 Y-30.8868
G01 X3.3086 Y-30.9087
G01 X3.2801 Y-30.9321
G01 X3.2528 Y-30.9568
G01 X3.2268 Y-30.9828
G01 X3.2143 Y-30.9963
G01 X3.1902 Y-31.0242
G01 X3.1787 Y-31.0386
G01 X3.1568 Y-31.0681
G01 X3.1364 Y-31.0988
G01 X3.1174 Y-31.1303
G01 X3.1001 Y-31.1628
G01 X3.0920 Y-31.1793
G01 X3.0843 Y-31.1961
G01 X3.0703 Y-31.2301
G01 X3.0579 Y-31.2647
G01 X3.0472 Y-31.3000
G01 X3.0382 Y-31.3357
G01 X3.0310 Y-31.3718
G01 X3.0256 Y-31.4082
G01 X3.0236 Y-31.4265
G01 X3.0209 Y-31.4632
G01 X3.0200 Y-31.5000
G01 X3.0200 Y-33.2000
G01 X3.0209 Y-33.2368
G01 X3.0220 Y-33.2552
G01 X3.0256 Y-33.2918
G01 X3.0310 Y-33.3282
G01 X3.0382 Y-33.3643
G01 X3.0472 Y-33.4000
G01 X3.0523 Y-33.4177
G01 X3.0579 Y-33.4353
G01 X3.0703 Y-33.4699
G01 X3.0843 Y-33.5039
G01 X3.0920 Y-33.5207
G01 X3.1086 Y-33.5535
G01 X3.1267 Y-33.5856
G01 X3.1364 Y-33.6012
G01 X3.1464 Y-33.6167
G01 X3.1676 Y-33.6468
G01 X3.1787 Y-33.6614
G01 X3.2021 Y-33.6899
G01 X3.2268 Y-33.7172
G01 X3.2397 Y-33.7303
G01 X3.2663 Y-33.7557
G01 X3.2942 Y-33.7798
G01 X3.3232 Y-33.8024
G01 X3.3381 Y-33.8132
G01 X3.3688 Y-33.8336
G01 X3.3844 Y-33.8433
G01 X3.4165 Y-33.8614
G01 X3.4493 Y-33.8780
G01 X3.4661 Y-33.8857
G01 X3.5001 Y-33.8997
G01 X3.5173 Y-33.9062
G01 X3.5347 Y-33.9121
G01 X3.5700 Y-33.9228
G01 X3.6057 Y-33.9318
G01 X3.6418 Y-33.9390
G01 X3.6600 Y-33.9419
G01 X3.6782 Y-33.9444
G01 X3.7148 Y-33.9480
G01 X3.7516 Y-33.9498
G01 X4.4384 Y-33.9498
G01 X4.4752 Y-33.9480
G01 X4.5118 Y-33.9444
G01 X4.5482 Y-33.9390
G01 X4.5843 Y-33.9318
G01 X4.6200 Y-33.9228
G01 X4.6553 Y-33.9121
G01 X4.6899 Y-33.8997
G01 X4.7070 Y-33.8929
G01 X4.7300 Y-33.8829
G01 X4.7530 Y-33.8929
G01 X4.7873 Y-33.9062
G01 X4.8223 Y-33.9177
G01 X4.8578 Y-33.9275
G01 X4.8937 Y-33.9356
G01 X4.9300 Y-33.9419
G01 X4.9482 Y-33.9444
G01 X4.9848 Y-33.9480
G01 X5.0032 Y-33.9491
G01 X5.0400 Y-33.9500
G01 X5.7084 Y-33.9498
G01 X5.7452 Y-33.9480
G01 X5.7818 Y-33.9444
G01 X5.8182 Y-33.9390
G01 X5.8543 Y-33.9318
G01 X5.8900 Y-33.9228
G01 X5.9253 Y-33.9121
G01 X5.9599 Y-33.8997
G01 X5.9770 Y-33.8929
G01 X6.0000 Y-33.8829
G01 X6.0230 Y-33.8929
G01 X6.0573 Y-33.9062
G01 X6.0923 Y-33.9177
G01 X6.1278 Y-33.9275
G01 X6.1457 Y-33.9318
G01 X6.1818 Y-33.9390
G01 X6.2182 Y-33.9444
G01 X6.2548 Y-33.9480
G01 X6.2732 Y-33.9491
G01 X6.3100 Y-33.9500
G01 X6.9600 Y-33.9500
G01 X6.9968 Y-33.9491
G01 X7.0152 Y-33.9480
G01 X7.0518 Y-33.9444
G01 X7.0882 Y-33.9390
G01 X7.1243 Y-33.9318
G01 X7.1600 Y-33.9228
G01 X7.1953 Y-33.9121
G01 X7.2299 Y-33.8997
G01 X7.2470 Y-33.8929
G01 X7.2700 Y-33.8829
G01 X7.2930 Y-33.8929
G01 X7.3273 Y-33.9062
G01 X7.3623 Y-33.9177
G01 X7.3978 Y-33.9275
G01 X7.4337 Y-33.9356
G01 X7.4700 Y-33.9419
G01 X7.5065 Y-33.9464
G01 X7.5248 Y-33.9480
G01 X7.5432 Y-33.9491
G01 X7.5800 Y-33.9500
G01 X8.0906 Y-33.9500
G01 X8.1210 Y-33.9801
G01 X8.1664 Y-34.0213
G01 X8.1949 Y-34.0446
G01 X8.2442 Y-34.0812
G01 X8.2748 Y-34.1016
G01 X8.3274 Y-34.1332
G01 X8.3599 Y-34.1505
G01 X8.3986 Y-34.1691
G01 X8.4154 Y-34.1767
G01 X8.4494 Y-34.1908
G01 X8.4897 Y-34.2055
G01 X8.5247 Y-34.2171
G01 X8.5602 Y-34.2269
G01 X8.6019 Y-34.2371
G01 X8.6380 Y-34.2443
G01 X8.6987 Y-34.2533
G01 X8.7353 Y-34.2569
G01 X8.7537 Y-34.2580
G01 X8.7966 Y-34.2599
G01 X8.8150 Y-34.2601
G01 X13.6313 Y-34.2601
G01 X13.6432 Y-34.2750
G01 X13.6672 Y-34.3029
G01 X13.7358 Y-34.3782
G01 X13.7618 Y-34.4042
G01 X13.8509 Y-34.4850
G01 X13.8793 Y-34.5083
G01 X13.9082 Y-34.5300
G01 X13.8793 Y-34.5517
G01 X13.8509 Y-34.5750
G01 X13.7618 Y-34.6558
G01 X13.7358 Y-34.6818
G01 X13.6672 Y-34.7571
G01 X13.6432 Y-34.7850
G01 X13.6313 Y-34.7999
G01 X7.8650 Y-34.7999
G01 X7.8282 Y-34.8008
G01 X7.7853 Y-34.8031
G01 X7.7670 Y-34.8047
G01 X7.7304 Y-34.8092
G01 X7.6880 Y-34.8157
G01 X7.6519 Y-34.8229
G01 X7.6102 Y-34.8331
G01 X7.5747 Y-34.8429
G01 X7.5397 Y-34.8545
G01 X7.4994 Y-34.8692
G01 X7.4823 Y-34.8760
G01 X7.4654 Y-34.8833
G01 X7.4264 Y-34.9014
G01 X7.4099 Y-34.9095
G01 X7.3774 Y-34.9268
G01 X7.3405 Y-34.9487
G01 X7.3248 Y-34.9584
G01 X7.2942 Y-34.9788
G01 X7.2449 Y-35.0154
G01 X7.2164 Y-35.0387
G01 X7.1710 Y-35.0799
G01 X4.6578 Y-37.5928
G01 X4.6324 Y-37.6195
G01 X4.6037 Y-37.6514
G01 X4.5919 Y-37.6655
G01 X4.5692 Y-37.6945
G01 X4.5438 Y-37.7292
G01 X4.5334 Y-37.7444
G01 X4.5137 Y-37.7755
G01 X4.4918 Y-37.8124
G01 X4.4745 Y-37.8449
G01 X4.4664 Y-37.8614
G01 X4.4483 Y-37.9004
G01 X4.4342 Y-37.9344
G01 X4.4135 Y-37.9921
G01 X4.4028 Y-38.0274
G01 X4.3969 Y-38.0500
G01 X3.7516 Y-38.0502
G01 X3.7148 Y-38.0520
G01 X3.6782 Y-38.0556
G01 X3.6600 Y-38.0581
G01 X3.6237 Y-38.0644
G01 X3.5878 Y-38.0725
G01 X3.5523 Y-38.0823
G01 X3.5173 Y-38.0938
G01 X3.4830 Y-38.1071
G01 X3.4661 Y-38.1143
G01 X3.4328 Y-38.1301
G01 X3.4003 Y-38.1474
G01 X3.3688 Y-38.1664
G01 X3.3533 Y-38.1764
G01 X3.3232 Y-38.1976
G01 X3.2942 Y-38.2202
G01 X3.2663 Y-38.2443
G01 X3.2397 Y-38.2697
G01 X3.2143 Y-38.2963
G01 X3.1902 Y-38.3242
G01 X3.1787 Y-38.3386
G01 X3.1568 Y-38.3681
G01 X3.1464 Y-38.3833
G01 X3.1267 Y-38.4144
G01 X3.1174 Y-38.4303
G01 X3.1001 Y-38.4628
G01 X3.0920 Y-38.4793
G01 X3.0771 Y-38.5130
G01 X3.0638 Y-38.5473
G01 X3.0523 Y-38.5823
G01 X3.0472 Y-38.6000
G01 X3.0425 Y-38.6178
G01 X3.0344 Y-38.6537
G01 X3.0310 Y-38.6718
G01 X3.0256 Y-38.7082
G01 X3.0220 Y-38.7448
G01 X3.0202 Y-38.7816
G01 X3.0200 Y-38.8000
G01 X3.0202 Y-40.5184
G01 X3.0220 Y-40.5552
G01 X3.0256 Y-40.5918
G01 X3.0310 Y-40.6282
G01 X3.0382 Y-40.6643
G01 X3.0425 Y-40.6822
G01 X3.0523 Y-40.7177
G01 X3.0638 Y-40.7527
G01 X3.0771 Y-40.7870
G01 X3.0843 Y-40.8039
G01 X3.1001 Y-40.8372
G01 X3.1174 Y-40.8697
G01 X3.1364 Y-40.9012
G01 X3.1568 Y-40.9319
G01 X3.1787 Y-40.9614
G01 X3.2021 Y-40.9899
G01 X3.2199 Y-41.0098
G01 X3.2199 Y-41.7541
G01 X3.1906 Y-41.7770
G01 X3.1627 Y-41.8010
G01 X3.1311 Y-41.8300
G01 X3.1179 Y-41.8429
G01 X3.0925 Y-41.8696
G01 X3.0638 Y-41.9015
G01 X3.0405 Y-41.9300
G01 X3.0039 Y-41.9793
G01 X2.9835 Y-42.0099
G01 X2.9612 Y-42.0466
G01 X2.9431 Y-42.0786
G01 X2.9346 Y-42.0949
G01 X2.9160 Y-42.1337
G01 X2.9011 Y-42.1673
G01 X2.8879 Y-42.2017
G01 X2.8736 Y-42.2422
G01 X2.8681 Y-42.2597
G01 X2.8582 Y-42.2952
G01 X2.8480 Y-42.3369
G01 X2.8408 Y-42.3730
G01 X2.8318 Y-42.4337
G01 X2.8282 Y-42.4703
G01 X2.8252 Y-42.5316
G01 X2.8250 Y-43.4500
G01 X2.8259 Y-43.4868
G01 X2.8282 Y-43.5297
G01 X2.8298 Y-43.5480
G01 X2.8318 Y-43.5663
G01 X2.8379 Y-43.6088
G01 X2.8408 Y-43.6270
G01 X2.8480 Y-43.6631
G01 X2.8629 Y-43.7226
G01 X2.8736 Y-43.7578
G01 X2.8943 Y-43.8156
G01 X2.9084 Y-43.8496
G01 X2.9160 Y-43.8663
G01 X2.9346 Y-43.9051
G01 X2.9431 Y-43.9214
G01 X2.9520 Y-43.9375
G01 X2.9738 Y-43.9745
G01 X2.9935 Y-44.0056
G01 X3.0039 Y-44.0207
G01 X3.0405 Y-44.0700
G01 X3.0638 Y-44.0985
G01 X3.0760 Y-44.1123
G01 X3.1050 Y-44.1439
G01 X3.1179 Y-44.1571
G01 X3.1446 Y-44.1825
G01 X3.1765 Y-44.2112
G01 X3.1874 Y-44.2203
G01 X3.1874 Y-49.4865
G01 X3.1883 Y-49.5233
G01 X3.1902 Y-49.5564
G01 X3.1938 Y-49.5930
G01 X3.2014 Y-49.6440
G01 X3.2085 Y-49.6801
G01 X3.2164 Y-49.7123
G01 X3.2262 Y-49.7478
G01 X3.2377 Y-49.7828
G01 X3.2491 Y-49.8139
G01 X3.2632 Y-49.8479
G01 X3.2772 Y-49.8779
G01 X3.2937 Y-49.9108
G01 X3.3026 Y-49.9269
G01 X3.3194 Y-49.9555
G01 X3.3391 Y-49.9866
G01 X3.3603 Y-50.0167
G01 X3.3802 Y-50.0432
G01 X3.3917 Y-50.0575
G01 X3.4158 Y-50.0854
G01 X3.4382 Y-50.1098
G01 X4.1640 Y-50.8360
G01 X4.1907 Y-50.8613
G01 X4.2154 Y-50.8834
G01 X4.2295 Y-50.8953
G01 X4.2439 Y-50.9068
G01 X4.2703 Y-50.9267
G01 X4.3004 Y-50.9479
G01 X4.3159 Y-50.9579
G01 X4.3601 Y-50.9844
G01 X4.3762 Y-50.9933
G01 X4.4091 Y-51.0099
G01 X4.4391 Y-51.0238
G01 X4.4560 Y-51.0311
G01 X4.4731 Y-51.0379
G01 X4.5043 Y-51.0493
G01 X4.5217 Y-51.0553
G01 X4.5569 Y-51.0660
G01 X4.6069 Y-51.0785
G01 X4.6249 Y-51.0823
G01 X4.6612 Y-51.0886
G01 X4.6940 Y-51.0932
G01 X4.7123 Y-51.0953
G01 X4.7306 Y-51.0968
G01 X4.7637 Y-51.0987
G01 X4.8005 Y-51.0996
G01 X9.0153 Y-51.0994
G01 X9.0667 Y-51.0968
G01 X9.1034 Y-51.0932
G01 X9.1544 Y-51.0857
G01 X9.1725 Y-51.0823
G01 X9.2084 Y-51.0742
G01 X9.2405 Y-51.0660
G01 X9.2581 Y-51.0608
G01 X9.2757 Y-51.0553
G01 X9.3070 Y-51.0443
G01 X9.3242 Y-51.0379
G01 X9.3582 Y-51.0238
G01 X9.4048 Y-51.0018
G01 X9.4211 Y-50.9933
G01 X9.4532 Y-50.9752
G01 X9.4815 Y-50.9579
G01 X9.5121 Y-50.9375
G01 X9.5388 Y-50.9179
G01 X9.5679 Y-50.8953
G01 X9.5957 Y-50.8712
G01 X9.6201 Y-50.8488
G01 X10.3488 Y-50.1201
G01 X10.3834 Y-50.0819
G01 X10.4068 Y-50.0535
G01 X10.4179 Y-50.0388
G01 X10.4375 Y-50.0121
G01 X10.4479 Y-49.9969
G01 X10.4579 Y-49.9815
G01 X10.4752 Y-49.9532
G01 X10.4844 Y-49.9373
G01 X10.5018 Y-49.9048
G01 X10.5238 Y-49.8582
G01 X10.5311 Y-49.8413
G01 X10.5443 Y-49.8070
G01 X10.5553 Y-49.7757
G01 X10.5608 Y-49.7581
G01 X10.5706 Y-49.7227
G01 X10.5785 Y-49.6905
G01 X10.5857 Y-49.6544
G01 X10.5886 Y-49.6362
G01 X10.5932 Y-49.6034
G01 X10.5953 Y-49.5851
G01 X10.5980 Y-49.5484
G01 X10.5994 Y-49.5153
G01 X10.5996 Y-47.2062
G01 X13.5292 Y-44.2766
G01 X13.5396 Y-44.2935
G01 X13.5601 Y-44.3241
G01 X13.6317 Y-44.4207
G01 X13.6550 Y-44.4491
G01 X13.7232 Y-44.5247
G01 X13.7358 Y-44.5382
G01 X13.7618 Y-44.5642
G01 X13.8371 Y-44.6328
G01 X13.8650 Y-44.6568
G01 X13.8793 Y-44.6683
G01 X13.9082 Y-44.6900
G01 X13.8793 Y-44.7117
G01 X13.8509 Y-44.7350
G01 X13.7618 Y-44.8158
G01 X13.7358 Y-44.8418
G01 X13.7232 Y-44.8553
G01 X13.6550 Y-44.9309
G01 X13.6317 Y-44.9593
G01 X13.5708 Y-45.0410
G01 X13.5496 Y-45.0711
G01 X13.5300 Y-45.1022
G01 X13.4871 Y-45.1737
G01 X13.4689 Y-45.2058
G01 X13.4604 Y-45.2221
G01 X13.4167 Y-45.3141
G01 X13.4018 Y-45.3477
G01 X13.3885 Y-45.3821
G01 X13.3545 Y-45.4780
G01 X13.3489 Y-45.4955
G01 X13.3391 Y-45.5310
G01 X13.3188 Y-45.6119
G01 X13.3107 Y-45.6479
G01 X13.3045 Y-45.6841
G01 X13.2922 Y-45.7666
G01 X13.2897 Y-45.7849
G01 X13.2861 Y-45.8215
G01 X13.2809 Y-45.9232
G01 X13.2800 Y-45.9600
G01 X13.2809 Y-45.9968
G01 X13.2850 Y-46.0801
G01 X13.2877 Y-46.1168
G01 X13.2897 Y-46.1351
G01 X13.3045 Y-46.2359
G01 X13.3107 Y-46.2721
G01 X13.3188 Y-46.3081
G01 X13.3391 Y-46.3890
G01 X13.3489 Y-46.4245
G01 X13.3604 Y-46.4594
G01 X13.3885 Y-46.5379
G01 X13.4018 Y-46.5723
G01 X13.4167 Y-46.6059
G01 X13.4524 Y-46.6814
G01 X13.4689 Y-46.7142
G01 X13.4778 Y-46.7304
G01 X13.5300 Y-46.8178
G01 X13.5496 Y-46.8489
G01 X13.5708 Y-46.8790
G01 X13.6205 Y-46.9460
G01 X13.6317 Y-46.9607
G01 X13.6550 Y-46.9891
G01 X13.7232 Y-47.0647
G01 X13.7358 Y-47.0782
G01 X13.7618 Y-47.1042
G01 X13.8509 Y-47.1850
G01 X13.8793 Y-47.2083
G01 X13.9082 Y-47.2300
G01 X13.8793 Y-47.2517
G01 X13.8509 Y-47.2750
G01 X13.7618 Y-47.3558
G01 X13.7358 Y-47.3818
G01 X13.7232 Y-47.3953
G01 X13.6550 Y-47.4709
G01 X13.6317 Y-47.4993
G01 X13.5601 Y-47.5959
G01 X13.5396 Y-47.6265
G01 X13.5300 Y-47.6422
G01 X13.4871 Y-47.7137
G01 X13.4689 Y-47.7458
G01 X13.4524 Y-47.7786
G01 X13.4090 Y-47.8708
G01 X13.3950 Y-47.9048
G01 X13.3885 Y-47.9221
G01 X13.3604 Y-48.0006
G01 X13.3489 Y-48.0355
G01 X13.3391 Y-48.0710
G01 X13.3146 Y-48.1698
G01 X13.3107 Y-48.1879
G01 X13.3045 Y-48.2241
G01 X13.2922 Y-48.3066
G01 X13.2877 Y-48.3432
G01 X13.2850 Y-48.3799
G01 X13.2809 Y-48.4632
G01 X13.2800 Y-48.5000
G01 X13.2802 Y-48.5184
G01 X13.2861 Y-48.6385
G01 X13.2877 Y-48.6568
G01 X13.2922 Y-48.6934
G01 X13.3045 Y-48.7759
G01 X13.3107 Y-48.8121
G01 X13.3188 Y-48.8481
G01 X13.3391 Y-48.9290
G01 X13.3489 Y-48.9645
G01 X13.3604 Y-48.9994
G01 X13.3885 Y-49.0779
G01 X13.4018 Y-49.1123
G01 X13.4167 Y-49.1459
G01 X13.4524 Y-49.2214
G01 X13.4689 Y-49.2542
G01 X13.4871 Y-49.2863
G01 X13.5300 Y-49.3578
G01 X13.5496 Y-49.3889
G01 X13.5708 Y-49.4190
G01 X13.6205 Y-49.4860
G01 X13.6317 Y-49.5007
G01 X13.6550 Y-49.5291
G01 X13.7232 Y-49.6047
G01 X13.7486 Y-49.6314
G01 X13.7618 Y-49.6442
G01 X13.8509 Y-49.7250
G01 X13.8793 Y-49.7483
G01 X13.9082 Y-49.7700
G01 X13.8793 Y-49.7917
G01 X13.8509 Y-49.8150
G01 X13.7618 Y-49.8958
G01 X13.7358 Y-49.9218
G01 X13.7232 Y-49.9353
G01 X13.6672 Y-49.9971
G01 X13.6432 Y-50.0250
G01 X13.6205 Y-50.0540
G01 X13.5708 Y-50.1210
G01 X13.5601 Y-50.1359
G01 X13.5396 Y-50.1665
G01 X13.4778 Y-50.2696
G01 X13.4689 Y-50.2858
G01 X13.4524 Y-50.3186
G01 X13.4167 Y-50.3941
G01 X13.4018 Y-50.4277
G01 X13.3885 Y-50.4621
G01 X13.3604 Y-50.5406
G01 X13.3545 Y-50.5580
G01 X13.3438 Y-50.5932
G01 X13.3146 Y-50.7098
G01 X13.3107 Y-50.7279
G01 X13.3045 Y-50.7641
G01 X13.2922 Y-50.8466
G01 X13.2877 Y-50.8832
G01 X13.2850 Y-50.9199
G01 X13.2802 Y-51.0216
G01 X13.2802 Y-51.0584
G01 X13.2809 Y-51.0768
G01 X13.2850 Y-51.1601
G01 X13.2877 Y-51.1968
G01 X13.2922 Y-51.2334
G01 X13.3045 Y-51.3159
G01 X13.3074 Y-51.3340
G01 X13.3146 Y-51.3702
G01 X13.3391 Y-51.4690
G01 X13.3438 Y-51.4868
G01 X13.3545 Y-51.5220
G01 X13.3950 Y-51.6352
G01 X13.4090 Y-51.6692
G01 X13.4167 Y-51.6859
G01 X13.4604 Y-51.7779
G01 X13.4689 Y-51.7942
G01 X13.4871 Y-51.8263
G01 X13.5300 Y-51.8978
G01 X13.5496 Y-51.9289
G01 X13.5708 Y-51.9590
G01 X13.6205 Y-52.0260
G01 X13.6317 Y-52.0407
G01 X13.6550 Y-52.0691
G01 X13.7232 Y-52.1447
G01 X13.7358 Y-52.1582
G01 X13.7618 Y-52.1842
G01 X13.8509 Y-52.2650
G01 X13.8793 Y-52.2883
G01 X13.9082 Y-52.3100
G01 X13.8793 Y-52.3317
G01 X13.8509 Y-52.3550
G01 X13.7618 Y-52.4358
G01 X13.7358 Y-52.4618
G01 X13.7232 Y-52.4753
G01 X13.6672 Y-52.5371
G01 X13.6432 Y-52.5650
G01 X13.6205 Y-52.5940
G01 X13.5708 Y-52.6610
G01 X13.5601 Y-52.6759
G01 X13.5396 Y-52.7065
G01 X13.4778 Y-52.8096
G01 X13.4689 Y-52.8258
G01 X13.4524 Y-52.8586
G01 X13.4167 Y-52.9341
G01 X13.4018 Y-52.9677
G01 X13.3885 Y-53.0021
G01 X13.3604 Y-53.0806
G01 X13.3545 Y-53.0980
G01 X13.3438 Y-53.1332
G01 X13.3146 Y-53.2498
G01 X13.3107 Y-53.2679
G01 X13.3045 Y-53.3041
G01 X13.2922 Y-53.3866
G01 X13.2877 Y-53.4232
G01 X13.2850 Y-53.4599
G01 X13.2809 Y-53.5432
G01 X13.2800 Y-53.5800
G01 X13.2802 Y-53.5984
G01 X13.2861 Y-53.7185
G01 X13.2877 Y-53.7368
G01 X13.2922 Y-53.7734
G01 X13.3045 Y-53.8559
G01 X13.3107 Y-53.8921
G01 X13.3188 Y-53.9281
G01 X13.3391 Y-54.0090
G01 X13.3438 Y-54.0268
G01 X13.3545 Y-54.0620
G01 X13.3950 Y-54.1752
G01 X13.4090 Y-54.2092
G01 X13.4167 Y-54.2259
G01 X13.4604 Y-54.3179
G01 X13.4689 Y-54.3342
G01 X13.4871 Y-54.3663
G01 X13.5300 Y-54.4378
G01 X13.5496 Y-54.4689
G01 X13.5708 Y-54.4990
G01 X13.6205 Y-54.5660
G01 X13.6317 Y-54.5807
G01 X13.6550 Y-54.6091
G01 X13.7232 Y-54.6847
G01 X13.7486 Y-54.7114
G01 X13.7618 Y-54.7242
G01 X13.8509 Y-54.8050
G01 X13.8793 Y-54.8283
G01 X13.9082 Y-54.8500
G01 X13.8793 Y-54.8717
G01 X13.8509 Y-54.8950
G01 X13.7618 Y-54.9758
G01 X13.7358 Y-55.0018
G01 X13.7232 Y-55.0153
G01 X13.6672 Y-55.0771
G01 X13.6432 Y-55.1050
G01 X13.6205 Y-55.1340
G01 X13.5708 Y-55.2010
G01 X13.5601 Y-55.2159
G01 X13.5396 Y-55.2465
G01 X13.4778 Y-55.3496
G01 X13.4689 Y-55.3658
G01 X13.4524 Y-55.3986
G01 X13.4167 Y-55.4741
G01 X13.4018 Y-55.5077
G01 X13.3885 Y-55.5421
G01 X13.3604 Y-55.6206
G01 X13.3545 Y-55.6380
G01 X13.3438 Y-55.6732
G01 X13.3146 Y-55.7898
G01 X13.3107 Y-55.8079
G01 X13.3045 Y-55.8441
G01 X13.2922 Y-55.9266
G01 X13.2877 Y-55.9632
G01 X13.2850 Y-55.9999
G01 X13.2809 Y-56.0832
G01 X13.2800 Y-56.1200
G01 X13.2802 Y-56.1384
G01 X13.2861 Y-56.2585
G01 X13.2877 Y-56.2768
G01 X13.2922 Y-56.3134
G01 X13.3045 Y-56.3959
G01 X13.3107 Y-56.4321
G01 X13.3188 Y-56.4681
G01 X13.3391 Y-56.5490
G01 X13.3438 Y-56.5668
G01 X13.3545 Y-56.6020
G01 X13.3950 Y-56.7152
G01 X13.4090 Y-56.7492
G01 X13.4167 Y-56.7659
G01 X13.4604 Y-56.8579
G01 X13.4689 Y-56.8742
G01 X13.4871 Y-56.9063
G01 X13.5300 Y-56.9778
G01 X13.5496 Y-57.0089
G01 X13.5708 Y-57.0390
G01 X13.6205 Y-57.1060
G01 X13.6317 Y-57.1207
G01 X13.6550 Y-57.1491
G01 X13.7232 Y-57.2247
G01 X13.7358 Y-57.2382
G01 X13.7618 Y-57.2642
G01 X13.8509 Y-57.3450
G01 X13.8793 Y-57.3683
G01 X13.9082 Y-57.3900
G01 X13.8793 Y-57.4117
G01 X13.8509 Y-57.4350
G01 X13.7753 Y-57.5032
G01 X13.7486 Y-57.5286
G01 X13.7232 Y-57.5553
G01 X13.6550 Y-57.6309
G01 X13.6317 Y-57.6593
G01 X13.6205 Y-57.6740
G01 X13.5708 Y-57.7410
G01 X13.5496 Y-57.7711
G01 X13.5300 Y-57.8022
G01 X13.4778 Y-57.8896
G01 X13.4604 Y-57.9221
G01 X13.4167 Y-58.0141
G01 X13.4018 Y-58.0477
G01 X13.3885 Y-58.0821
G01 X13.3604 Y-58.1606
G01 X13.3489 Y-58.1955
G01 X13.3391 Y-58.2310
G01 X13.3146 Y-58.3298
G01 X13.3107 Y-58.3479
G01 X13.3045 Y-58.3841
G01 X13.2897 Y-58.4849
G01 X13.2861 Y-58.5215
G01 X13.2809 Y-58.6232
G01 X13.2800 Y-58.6600
G01 X13.2809 Y-58.6968
G01 X13.2861 Y-58.7985
G01 X13.2897 Y-58.8351
G01 X13.3045 Y-58.9359
G01 X13.3107 Y-58.9721
G01 X13.3188 Y-59.0081
G01 X13.3391 Y-59.0890
G01 X13.3489 Y-59.1245
G01 X13.3604 Y-59.1594
G01 X13.3885 Y-59.2379
G01 X13.4018 Y-59.2723
G01 X13.4090 Y-59.2892
G01 X13.4524 Y-59.3814
G01 X13.4689 Y-59.4142
G01 X13.4871 Y-59.4463
G01 X13.5396 Y-59.5335
G01 X13.5601 Y-59.5641
G01 X13.5708 Y-59.5790
G01 X13.6205 Y-59.6460
G01 X13.6432 Y-59.6750
G01 X13.6672 Y-59.7029
G01 X13.7232 Y-59.7647
G01 X13.7486 Y-59.7914
G01 X13.7618 Y-59.8042
G01 X13.8371 Y-59.8728
G01 X13.8650 Y-59.8968
G01 X13.8940 Y-59.9195
G01 X13.9759 Y-59.9799
G01 X13.9911 Y-59.9904
G01 X14.0222 Y-60.0100
G01 X14.0937 Y-60.0529
G01 X14.1258 Y-60.0711
G01 X14.1586 Y-60.0876
G01 X14.2341 Y-60.1233
G01 X14.2508 Y-60.1310
G01 X14.2848 Y-60.1450
G01 X14.3806 Y-60.1796
G01 X14.4155 Y-60.1911
G01 X14.4510 Y-60.2009
G01 X14.5498 Y-60.2254
G01 X14.5679 Y-60.2293
G01 X14.6041 Y-60.2355
G01 X14.6866 Y-60.2478
G01 X14.7232 Y-60.2523
G01 X14.7599 Y-60.2550
G01 X14.8432 Y-60.2591
G01 X14.8800 Y-60.2600
G01 X14.9168 Y-60.2591
G01 X15.0001 Y-60.2550
G01 X15.0368 Y-60.2523
G01 X15.0734 Y-60.2478
G01 X15.1559 Y-60.2355
G01 X15.1921 Y-60.2293
G01 X15.2281 Y-60.2212
G01 X15.3268 Y-60.1962
G01 X15.3620 Y-60.1855
G01 X15.4579 Y-60.1515
G01 X15.4923 Y-60.1382
G01 X15.5259 Y-60.1233
G01 X15.6014 Y-60.0876
G01 X15.6342 Y-60.0711
G01 X15.6663 Y-60.0529
G01 X15.7535 Y-60.0004
G01 X15.7841 Y-59.9799
G01 X15.8660 Y-59.9195
G01 X15.8950 Y-59.8968
G01 X15.9229 Y-59.8728
G01 X15.9982 Y-59.8042
G01 X16.0242 Y-59.7782
G01 X16.0368 Y-59.7647
G01 X16.1050 Y-59.6891
G01 X16.1283 Y-59.6607
G01 X16.1500 Y-59.6318
G01 X16.1717 Y-59.6607
G01 X16.1950 Y-59.6891
G01 X16.2758 Y-59.7782
G01 X16.2886 Y-59.7914
G01 X16.3153 Y-59.8168
G01 X16.3771 Y-59.8728
G01 X16.4050 Y-59.8968
G01 X16.4340 Y-59.9195
G01 X16.5010 Y-59.9692
G01 X16.5311 Y-59.9904
G01 X16.5465 Y-60.0004
G01 X16.6496 Y-60.0622
G01 X16.6821 Y-60.0796
G01 X16.6986 Y-60.0876
G01 X16.7741 Y-60.1233
G01 X16.8077 Y-60.1382
G01 X16.8421 Y-60.1515
G01 X16.9206 Y-60.1796
G01 X16.9555 Y-60.1911
G01 X16.9732 Y-60.1962
G01 X17.0898 Y-60.2254
G01 X17.1260 Y-60.2326
G01 X17.1441 Y-60.2355
G01 X17.2266 Y-60.2478
G01 X17.2632 Y-60.2523
G01 X17.2999 Y-60.2550
G01 X17.4016 Y-60.2598
G01 X17.4384 Y-60.2598
G01 X17.4568 Y-60.2591
G00 Z2.0000
G00 X18.4891 Y-66.0232
G01 F60.00
G01 Z-0.1000
G01 F120.00
G01 X18.4771 Y-65.7782
G01 X18.4744 Y-65.7414
G01 X18.4698 Y-65.7049
G01 X18.4338 Y-65.4622
G01 X18.4276 Y-65.4260
G01 X18.4195 Y-65.3900
G01 X18.3599 Y-65.1521
G01 X18.3501 Y-65.1166
G01 X18.3385 Y-65.0816
G01 X18.2559 Y-64.8506
G01 X18.2426 Y-64.8163
G01 X18.2277 Y-64.7826
G01 X18.1228 Y-64.5608
G01 X18.1062 Y-64.5280
G01 X18.0881 Y-64.4959
G01 X17.9620 Y-64.2855
G01 X17.9423 Y-64.2544
G01 X17.9211 Y-64.2243
G01 X17.7749 Y-64.0272
G01 X17.7523 Y-63.9982
G01 X17.7282 Y-63.9703
G01 X17.5635 Y-63.7886
G01 X17.5381 Y-63.7619
G01 X17.5114 Y-63.7365
G01 X17.3297 Y-63.5718
G01 X17.3018 Y-63.5477
G01 X17.2728 Y-63.5251
G01 X17.0757 Y-63.3789
G01 X17.0456 Y-63.3577
G01 X17.0145 Y-63.3380
G01 X16.8041 Y-63.2119
G01 X16.7720 Y-63.1938
G01 X16.7392 Y-63.1772
G01 X16.5174 Y-63.0723
G01 X16.4837 Y-63.0574
G01 X16.4494 Y-63.0441
G01 X16.2184 Y-62.9615
G01 X16.1834 Y-62.9499
G01 X16.1479 Y-62.9401
G01 X15.9100 Y-62.8805
G01 X15.8740 Y-62.8724
G01 X15.8378 Y-62.8662
G01 X15.5951 Y-62.8302
G01 X15.5586 Y-62.8256
G01 X15.5218 Y-62.8229
G01 X15.2768 Y-62.8109
G01 X15.2400 Y-62.8100
G01 X15.2032 Y-62.8109
G01 X14.9582 Y-62.8229
G01 X14.9214 Y-62.8256
G01 X14.8849 Y-62.8302
G01 X14.6422 Y-62.8662
G01 X14.6060 Y-62.8724
G01 X14.5700 Y-62.8805
G01 X14.3321 Y-62.9401
G01 X14.2966 Y-62.9499
G01 X14.2616 Y-62.9615
G01 X14.0306 Y-63.0441
G01 X13.9963 Y-63.0574
G01 X13.9626 Y-63.0723
G01 X13.7408 Y-63.1772
G01 X13.7080 Y-63.1938
G01 X13.6759 Y-63.2119
G01 X13.4655 Y-63.3380
G01 X13.4344 Y-63.3577
G01 X13.4043 Y-63.3789
G01 X13.2072 Y-63.5251
G01 X13.1782 Y-63.5477
G01 X13.1503 Y-63.5718
G01 X12.9686 Y-63.7365
G01 X12.9419 Y-63.7619
G01 X12.9165 Y-63.7886
G01 X12.7518 Y-63.9703
G01 X12.7277 Y-63.9982
G01 X12.7051 Y-64.0272
G01 X12.5589 Y-64.2243
G01 X12.5377 Y-64.2544
G01 X12.5180 Y-64.2855
G01 X12.3919 Y-64.4959
G01 X12.3738 Y-64.5280
G01 X12.3572 Y-64.5608
G01 X12.2523 Y-64.7826
G01 X12.2374 Y-64.8163
G01 X12.2241 Y-64.8506
G01 X12.1415 Y-65.0816
G01 X12.1299 Y-65.1166
G01 X12.1201 Y-65.1521
G01 X12.0605 Y-65.3900
G01 X12.0524 Y-65.4260
G01 X12.0462 Y-65.4622
G01 X12.0102 Y-65.7049
G01 X12.0056 Y-65.7414
G01 X12.0029 Y-65.7782
G01 X11.9909 Y-66.0232
G01 X11.9900 Y-66.0600
G01 X11.9909 Y-66.0968
G01 X12.0029 Y-66.3418
G01 X12.0056 Y-66.3786
G01 X12.0102 Y-66.4151
G01 X12.0462 Y-66.6578
G01 X12.0524 Y-66.6940
G01 X12.0605 Y-66.7300
G01 X12.1201 Y-66.9679
G01 X12.1299 Y-67.0034
G01 X12.1415 Y-67.0384
G01 X12.2241 Y-67.2694
G01 X12.2374 Y-67.3037
G01 X12.2523 Y-67.3374
G01 X12.3572 Y-67.5592
G01 X12.3738 Y-67.5920
G01 X12.3919 Y-67.6241
G01 X12.5180 Y-67.8345
G01 X12.5377 Y-67.8656
G01 X12.5589 Y-67.8957
G01 X12.7051 Y-68.0928
G01 X12.7277 Y-68.1218
G01 X12.7518 Y-68.1497
G01 X12.9165 Y-68.3314
G01 X12.9419 Y-68.3581
G01 X12.9686 Y-68.3835
G01 X13.1503 Y-68.5482
G01 X13.1782 Y-68.5723
G01 X13.2072 Y-68.5949
G01 X13.4043 Y-68.7411
G01 X13.4344 Y-68.7623
G01 X13.4655 Y-68.7820
G01 X13.6759 Y-68.9081
G01 X13.7080 Y-68.9262
G01 X13.7408 Y-68.9428
G01 X13.9626 Y-69.0477
G01 X13.9963 Y-69.0626
G01 X14.0306 Y-69.0759
G01 X14.2616 Y-69.1585
G01 X14.2966 Y-69.1701
G01 X14.3321 Y-69.1799
G01 X14.5700 Y-69.2395
G01 X14.6060 Y-69.2476
G01 X14.6422 Y-69.2538
G01 X14.8849 Y-69.2898
G01 X14.9214 Y-69.2944
G01 X14.9582 Y-69.2971
G01 X15.2032 Y-69.3091
G01 X15.2400 Y-69.3100
G01 X15.2768 Y-69.3091
G01 X15.5218 Y-69.2971
G01 X15.5586 Y-69.2944
G01 X15.5951 Y-69.2898
G01 X15.8378 Y-69.2538
G01 X15.8740 Y-69.2476
G01 X15.9100 Y-69.2395
G01 X16.1479 Y-69.1799
G01 X16.1834 Y-69.1701
G01 X16.2184 Y-69.1585
G01 X16.4494 Y-69.0759
G01 X16.4837 Y-69.0626
G01 X16.5174 Y-69.0477
G01 X16.7392 Y-68.9428
G01 X16.7720 Y-68.9262
G01 X16.8041 Y-68.9081
G01 X17.0145 Y-68.7820
G01 X17.0456 Y-68.7623
G01 X17.0757 Y-68.7411
G01 X17.2728 Y-68.5949
G01 X17.3018 Y-68.5723
G01 X17.3297 Y-68.5482
G01 X17.5114 Y-68.3835
G01 X17.5381 Y-68.3581
G01 X17.5635 Y-68.3314
G01 X17.7282 Y-68.1497
G01 X17.7523 Y-68.1218
G01 X17.7749 Y-68.0928
G01 X17.9211 Y-67.8957
G01 X17.9423 Y-67.8656
G01 X17.9620 Y-67.8345
G01 X18.0881 Y-67.6241
G01 X18.1062 Y-67.5920
G01 X18.1228 Y-67.5592
G01 X18.2277 Y-67.3374
G01 X18.2426 Y-67.3037
G01 X18.2559 Y-67.2694
G01 X18.3385 Y-67.0384
G01 X18.3501 Y-67.0034
G01 X18.3599 Y-66.9679
G01 X18.4195 Y-66.7300
G01 X18.4276 Y-66.6940
G01 X18.4338 Y-66.6578
G01 X18.4698 Y-66.4151
G01 X18.4744 Y-66.3786
G01 X18.4771 Y-66.3418
G01 X18.4891 Y-66.0968
G01 X18.4900 Y-66.0600
G01 X18.4891 Y-66.0232
G00 Z2.0000
G01 F160.00

M5
G00 Z50.0000
G00 X0.0000 Y0.0000
T3
M6    
(MSG, Change to Tool Dia = 0.1353)
M0
G00 Z50.0000

M03 S8000.0
G01 F160.00
G00 X14.0300 Y-11.3176
G01 F60.00
G01 Z-0.1001
G01 F160.00
G01 X15.7300 Y-11.3176
G01 X15.7366 Y-11.3173
G01 X15.7432 Y-11.3164
G01 X15.7496 Y-11.3147
G01 X15.7559 Y-11.3125
G01 X15.7619 Y-11.3097
G01 X15.7690 Y-11.3053
G01 X15.7742 Y-11.3012
G01 X15.7790 Y-11.2966
G01 X15.7833 Y-11.2916
G01 X15.7872 Y-11.2862
G01 X15.7904 Y-11.2804
G01 X15.7931 Y-11.2743
G01 X15.7952 Y-11.2680
G01 X15.7967 Y-11.2616
G01 X15.7976 Y-11.2500
G01 X15.7976 Y-9.5500
G01 X15.7973 Y-9.5434
G01 X15.7964 Y-9.5368
G01 X15.7947 Y-9.5304
G01 X15.7925 Y-9.5241
G01 X15.7897 Y-9.5181
G01 X15.7853 Y-9.5110
G01 X15.7812 Y-9.5058
G01 X15.7766 Y-9.5010
G01 X15.7716 Y-9.4967
G01 X15.7662 Y-9.4928
G01 X15.7604 Y-9.4896
G01 X15.7543 Y-9.4869
G01 X15.7480 Y-9.4848
G01 X15.7416 Y-9.4833
G01 X15.7300 Y-9.4824
G01 X14.0300 Y-9.4824
G01 X14.0234 Y-9.4827
G01 X14.0168 Y-9.4836
G01 X14.0104 Y-9.4853
G01 X14.0041 Y-9.4875
G01 X13.9981 Y-9.4903
G01 X13.9924 Y-9.4938
G01 X13.9858 Y-9.4988
G01 X13.9810 Y-9.5034
G01 X13.9767 Y-9.5084
G01 X13.9728 Y-9.5138
G01 X13.9696 Y-9.5196
G01 X13.9669 Y-9.5257
G01 X13.9636 Y-9.5368
G01 X13.9627 Y-9.5434
G01 X13.9624 Y-9.5500
G01 X13.9624 Y-11.2517
G01 X13.9629 Y-11.2583
G01 X13.9640 Y-11.2648
G01 X13.9675 Y-11.2759
G01 X13.9703 Y-11.2819
G01 X13.9738 Y-11.2876
G01 X13.9777 Y-11.2929
G01 X13.9822 Y-11.2978
G01 X13.9871 Y-11.3023
G01 X13.9924 Y-11.3062
G01 X13.9981 Y-11.3097
G01 X14.0041 Y-11.3125
G01 X14.0104 Y-11.3147
G01 X14.0168 Y-11.3164
G01 X14.0234 Y-11.3173
G01 X14.0300 Y-11.3176
G00 Z2.0000
G00 X14.0300 Y-11.4394
G01 F60.00
G01 Z-0.1001
G01 F160.00
G01 X15.7346 Y-11.4394
G01 X15.7532 Y-11.4380
G01 X15.7715 Y-11.4348
G01 X15.7894 Y-11.4299
G01 X15.8068 Y-11.4232
G01 X15.8193 Y-11.4171
G01 X15.8274 Y-11.4125
G01 X15.8428 Y-11.4021
G01 X15.8572 Y-11.3904
G01 X15.8704 Y-11.3772
G01 X15.8821 Y-11.3628
G01 X15.8925 Y-11.3474
G01 X15.9012 Y-11.3310
G01 X15.9067 Y-11.3182
G01 X15.9126 Y-11.3005
G01 X15.9158 Y-11.2870
G01 X15.9180 Y-11.2732
G01 X15.9194 Y-11.2546
G01 X15.9194 Y-9.5500
G01 X15.9185 Y-9.5314
G01 X15.9158 Y-9.5130
G01 X15.9113 Y-9.4950
G01 X15.9067 Y-9.4818
G01 X15.9032 Y-9.4732
G01 X15.8971 Y-9.4607
G01 X15.8925 Y-9.4526
G01 X15.8821 Y-9.4372
G01 X15.8704 Y-9.4228
G01 X15.8572 Y-9.4096
G01 X15.8428 Y-9.3979
G01 X15.8274 Y-9.3875
G01 X15.8110 Y-9.3788
G01 X15.7982 Y-9.3733
G01 X15.7805 Y-9.3674
G01 X15.7670 Y-9.3642
G01 X15.7532 Y-9.3620
G01 X15.7346 Y-9.3606
G01 X14.0300 Y-9.3606
G01 X14.0114 Y-9.3615
G01 X13.9930 Y-9.3642
G01 X13.9750 Y-9.3687
G01 X13.9662 Y-9.3717
G01 X13.9532 Y-9.3768
G01 X13.9407 Y-9.3829
G01 X13.9326 Y-9.3875
G01 X13.9172 Y-9.3979
G01 X13.9028 Y-9.4096
G01 X13.8896 Y-9.4228
G01 X13.8779 Y-9.4372
G01 X13.8700 Y-9.4487
G01 X13.8608 Y-9.4648
G01 X13.8550 Y-9.4775
G01 X13.8487 Y-9.4950
G01 X13.8452 Y-9.5085
G01 X13.8420 Y-9.5268
G01 X13.8406 Y-9.5454
G01 X13.8406 Y-11.2500
G01 X13.8411 Y-11.2639
G01 X13.8434 Y-11.2824
G01 X13.8474 Y-11.3005
G01 X13.8533 Y-11.3182
G01 X13.8588 Y-11.3310
G01 X13.8675 Y-11.3474
G01 X13.8779 Y-11.3628
G01 X13.8866 Y-11.3737
G01 X13.8994 Y-11.3872
G01 X13.9135 Y-11.3993
G01 X13.9248 Y-11.4075
G01 X13.9407 Y-11.4171
G01 X13.9575 Y-11.4250
G01 X13.9750 Y-11.4313
G01 X13.9930 Y-11.4358
G01 X14.0114 Y-11.4385
G01 X14.0300 Y-11.4394
G00 Z2.0000
G00 X14.0300 Y-11.5612
G01 F60.00
G01 Z-0.1001
G01 F160.00
G01 X15.7300 Y-11.5612
G01 X15.7453 Y-11.5608
G01 X15.7605 Y-11.5597
G01 X15.7757 Y-11.5578
G01 X15.7907 Y-11.5552
G01 X15.8056 Y-11.5519
G01 X15.8203 Y-11.5478
G01 X15.8348 Y-11.5430
G01 X15.8561 Y-11.5345
G01 X15.8699 Y-11.5280
G01 X15.8834 Y-11.5208
G01 X15.8965 Y-11.5129
G01 X15.9092 Y-11.5044
G01 X15.9215 Y-11.4953
G01 X15.9333 Y-11.4856
G01 X15.9446 Y-11.4754
G01 X15.9554 Y-11.4646
G01 X15.9656 Y-11.4533
G01 X15.9800 Y-11.4354
G01 X15.9887 Y-11.4229
G01 X15.9969 Y-11.4100
G01 X16.0080 Y-11.3899
G01 X16.0145 Y-11.3761
G01 X16.0203 Y-11.3620
G01 X16.0278 Y-11.3403
G01 X16.0336 Y-11.3182
G01 X16.0378 Y-11.2957
G01 X16.0397 Y-11.2805
G01 X16.0408 Y-11.2653
G01 X16.0412 Y-11.2500
G01 X16.0411 Y-9.5424
G01 X16.0403 Y-9.5271
G01 X16.0388 Y-9.5119
G01 X16.0366 Y-9.4968
G01 X16.0336 Y-9.4818
G01 X16.0299 Y-9.4670
G01 X16.0230 Y-9.4452
G01 X16.0175 Y-9.4309
G01 X16.0113 Y-9.4169
G01 X16.0008 Y-9.3966
G01 X15.9929 Y-9.3835
G01 X15.9844 Y-9.3708
G01 X15.9753 Y-9.3585
G01 X15.9656 Y-9.3467
G01 X15.9554 Y-9.3354
G01 X15.9446 Y-9.3246
G01 X15.9333 Y-9.3144
G01 X15.9154 Y-9.3000
G01 X15.9029 Y-9.2913
G01 X15.8900 Y-9.2831
G01 X15.8699 Y-9.2720
G01 X15.8561 Y-9.2655
G01 X15.8420 Y-9.2597
G01 X15.8203 Y-9.2522
G01 X15.8056 Y-9.2481
G01 X15.7907 Y-9.2448
G01 X15.7681 Y-9.2412
G01 X15.7453 Y-9.2392
G01 X15.7300 Y-9.2388
G01 X14.0224 Y-9.2389
G01 X14.0071 Y-9.2397
G01 X13.9919 Y-9.2412
G01 X13.9693 Y-9.2448
G01 X13.9544 Y-9.2481
G01 X13.9397 Y-9.2522
G01 X13.9252 Y-9.2570
G01 X13.9109 Y-9.2625
G01 X13.8969 Y-9.2687
G01 X13.8766 Y-9.2792
G01 X13.8635 Y-9.2871
G01 X13.8508 Y-9.2956
G01 X13.8385 Y-9.3047
G01 X13.8267 Y-9.3144
G01 X13.8154 Y-9.3246
G01 X13.8046 Y-9.3354
G01 X13.7944 Y-9.3467
G01 X13.7800 Y-9.3646
G01 X13.7713 Y-9.3771
G01 X13.7631 Y-9.3900
G01 X13.7556 Y-9.4033
G01 X13.7487 Y-9.4169
G01 X13.7397 Y-9.4380
G01 X13.7322 Y-9.4597
G01 X13.7264 Y-9.4818
G01 X13.7222 Y-9.5043
G01 X13.7203 Y-9.5195
G01 X13.7192 Y-9.5347
G01 X13.7188 Y-9.5500
G01 X13.7188 Y-11.2500
G01 X13.7192 Y-11.2653
G01 X13.7203 Y-11.2805
G01 X13.7222 Y-11.2957
G01 X13.7248 Y-11.3107
G01 X13.7301 Y-11.3330
G01 X13.7345 Y-11.3476
G01 X13.7397 Y-11.3620
G01 X13.7455 Y-11.3761
G01 X13.7520 Y-11.3899
G01 X13.7592 Y-11.4034
G01 X13.7671 Y-11.4165
G01 X13.7756 Y-11.4292
G01 X13.7847 Y-11.4415
G01 X13.7944 Y-11.4533
G01 X13.8046 Y-11.4646
G01 X13.8210 Y-11.4806
G01 X13.8326 Y-11.4906
G01 X13.8446 Y-11.5000
G01 X13.8571 Y-11.5087
G01 X13.8700 Y-11.5169
G01 X13.8833 Y-11.5244
G01 X13.8969 Y-11.5313
G01 X13.9180 Y-11.5403
G01 X13.9397 Y-11.5478
G01 X13.9544 Y-11.5519
G01 X13.9693 Y-11.5552
G01 X13.9843 Y-11.5578
G01 X13.9995 Y-11.5597
G01 X14.0147 Y-11.5608
G01 X14.0300 Y-11.5612
G00 Z2.0000
G00 X14.8833 Y-13.8576
G01 F60.00
G01 Z-0.1001
G01 F160.00
G01 X14.9699 Y-13.8532
G01 X15.0590 Y-13.8400
G01 X15.1464 Y-13.8181
G01 X15.2312 Y-13.7878
G01 X15.3126 Y-13.7493
G01 X15.3898 Y-13.7030
G01 X15.4622 Y-13.6494
G01 X15.5289 Y-13.5889
G01 X15.5894 Y-13.5222
G01 X15.6430 Y-13.4498
G01 X15.6893 Y-13.3726
G01 X15.7278 Y-13.2912
G01 X15.7581 Y-13.2064
G01 X15.7800 Y-13.1190
G01 X15.7932 Y-13.0299
G01 X15.7976 Y-12.9400
G01 X15.7932 Y-12.8501
G01 X15.7800 Y-12.7610
G01 X15.7581 Y-12.6736
G01 X15.7278 Y-12.5888
G01 X15.6893 Y-12.5074
G01 X15.6430 Y-12.4302
G01 X15.5894 Y-12.3578
G01 X15.5289 Y-12.2911
G01 X15.4622 Y-12.2306
G01 X15.3898 Y-12.1770
G01 X15.3126 Y-12.1307
G01 X15.2312 Y-12.0922
G01 X15.1464 Y-12.0619
G01 X15.0590 Y-12.0400
G01 X14.9699 Y-12.0268
G01 X14.8800 Y-12.0224
G01 X14.7901 Y-12.0268
G01 X14.7010 Y-12.0400
G01 X14.6136 Y-12.0619
G01 X14.5288 Y-12.0922
G01 X14.4474 Y-12.1307
G01 X14.3702 Y-12.1770
G01 X14.2978 Y-12.2306
G01 X14.2311 Y-12.2911
G01 X14.1706 Y-12.3578
G01 X14.1170 Y-12.4302
G01 X14.0707 Y-12.5074
G01 X14.0322 Y-12.5888
G01 X14.0019 Y-12.6736
G01 X13.9800 Y-12.7610
G01 X13.9668 Y-12.8501
G01 X13.9624 Y-12.9400
G01 X13.9668 Y-13.0299
G01 X13.9800 Y-13.1190
G01 X14.0019 Y-13.2064
G01 X14.0322 Y-13.2912
G01 X14.0707 Y-13.3726
G01 X14.1170 Y-13.4498
G01 X14.1706 Y-13.5222
G01 X14.2311 Y-13.5889
G01 X14.2978 Y-13.6494
G01 X14.3702 Y-13.7030
G01 X14.4474 Y-13.7493
G01 X14.5288 Y-13.7878
G01 X14.6136 Y-13.8181
G01 X14.7010 Y-13.8400
G01 X14.7901 Y-13.8532
G01 X14.8767 Y-13.8576
G01 X14.8833 Y-13.8576
G00 Z2.0000
G00 X14.8893 Y-13.9792
G01 F60.00
G01 Z-0.1001
G01 F160.00
G01 X14.9819 Y-13.9744
G01 X15.0828 Y-13.9594
G01 X15.1817 Y-13.9347
G01 X15.2778 Y-13.9003
G01 X15.3700 Y-13.8567
G01 X15.4575 Y-13.8042
G01 X15.5394 Y-13.7435
G01 X15.6150 Y-13.6750
G01 X15.6835 Y-13.5994
G01 X15.7442 Y-13.5175
G01 X15.7967 Y-13.4300
G01 X15.8403 Y-13.3378
G01 X15.8747 Y-13.2417
G01 X15.8994 Y-13.1428
G01 X15.9144 Y-13.0419
G01 X15.9194 Y-12.9400
G01 X15.9144 Y-12.8381
G01 X15.8994 Y-12.7372
G01 X15.8747 Y-12.6383
G01 X15.8403 Y-12.5422
G01 X15.7967 Y-12.4500
G01 X15.7442 Y-12.3625
G01 X15.6835 Y-12.2806
G01 X15.6150 Y-12.2050
G01 X15.5394 Y-12.1365
G01 X15.4575 Y-12.0758
G01 X15.3700 Y-12.0233
G01 X15.2778 Y-11.9797
G01 X15.1817 Y-11.9453
G01 X15.0828 Y-11.9206
G01 X14.9819 Y-11.9056
G01 X14.8800 Y-11.9006
G01 X14.7781 Y-11.9056
G01 X14.6772 Y-11.9206
G01 X14.5783 Y-11.9453
G01 X14.4822 Y-11.9797
G01 X14.3900 Y-12.0233
G01 X14.3025 Y-12.0758
G01 X14.2206 Y-12.1365
G01 X14.1450 Y-12.2050
G01 X14.0765 Y-12.2806
G01 X14.0158 Y-12.3625
G01 X13.9633 Y-12.4500
G01 X13.9197 Y-12.5422
G01 X13.8853 Y-12.6383
G01 X13.8606 Y-12.7372
G01 X13.8456 Y-12.8381
G01 X13.8406 Y-12.9400
G01 X13.8456 Y-13.0419
G01 X13.8606 Y-13.1428
G01 X13.8853 Y-13.2417
G01 X13.9197 Y-13.3378
G01 X13.9633 Y-13.4300
G01 X14.0158 Y-13.5175
G01 X14.0765 Y-13.5994
G01 X14.1450 Y-13.6750
G01 X14.2206 Y-13.7435
G01 X14.3025 Y-13.8042
G01 X14.3900 Y-13.8567
G01 X14.4822 Y-13.9003
G01 X14.5783 Y-13.9347
G01 X14.6772 Y-13.9594
G01 X14.7781 Y-13.9744
G01 X14.8707 Y-13.9792
G01 X14.8893 Y-13.9792
G00 Z2.0000
G00 X14.8953 Y-14.1008
G01 F60.00
G01 Z-0.1001
G01 F160.00
G01 X14.9786 Y-14.0967
G01 X14.9938 Y-14.0956
G01 X15.0090 Y-14.0937
G01 X15.0915 Y-14.0815
G01 X15.1065 Y-14.0789
G01 X15.1214 Y-14.0755
G01 X15.2024 Y-14.0553
G01 X15.2171 Y-14.0512
G01 X15.2316 Y-14.0464
G01 X15.3101 Y-14.0183
G01 X15.3244 Y-14.0128
G01 X15.3383 Y-14.0066
G01 X15.4137 Y-13.9709
G01 X15.4274 Y-13.9641
G01 X15.4407 Y-13.9565
G01 X15.5122 Y-13.9137
G01 X15.5251 Y-13.9055
G01 X15.5376 Y-13.8967
G01 X15.6046 Y-13.8470
G01 X15.6167 Y-13.8376
G01 X15.6282 Y-13.8276
G01 X15.6900 Y-13.7716
G01 X15.7011 Y-13.7611
G01 X15.7116 Y-13.7500
G01 X15.7676 Y-13.6882
G01 X15.7776 Y-13.6767
G01 X15.7870 Y-13.6646
G01 X15.8367 Y-13.5976
G01 X15.8455 Y-13.5851
G01 X15.8537 Y-13.5722
G01 X15.8965 Y-13.5007
G01 X15.9041 Y-13.4874
G01 X15.9109 Y-13.4737
G01 X15.9466 Y-13.3983
G01 X15.9528 Y-13.3844
G01 X15.9583 Y-13.3701
G01 X15.9864 Y-13.2916
G01 X15.9912 Y-13.2771
G01 X15.9953 Y-13.2624
G01 X16.0155 Y-13.1814
G01 X16.0189 Y-13.1665
G01 X16.0215 Y-13.1515
G01 X16.0337 Y-13.0690
G01 X16.0356 Y-13.0538
G01 X16.0367 Y-13.0386
G01 X16.0408 Y-12.9553
G01 X16.0412 Y-12.9400
G01 X16.0408 Y-12.9247
G01 X16.0367 Y-12.8414
G01 X16.0356 Y-12.8262
G01 X16.0337 Y-12.8110
G01 X16.0215 Y-12.7285
G01 X16.0189 Y-12.7135
G01 X16.0155 Y-12.6986
G01 X15.9953 Y-12.6176
G01 X15.9912 Y-12.6029
G01 X15.9864 Y-12.5884
G01 X15.9583 Y-12.5099
G01 X15.9528 Y-12.4956
G01 X15.9466 Y-12.4817
G01 X15.9109 Y-12.4063
G01 X15.9041 Y-12.3926
G01 X15.8965 Y-12.3793
G01 X15.8537 Y-12.3078
G01 X15.8455 Y-12.2949
G01 X15.8367 Y-12.2824
G01 X15.7870 Y-12.2154
G01 X15.7776 Y-12.2033
G01 X15.7676 Y-12.1918
G01 X15.7116 Y-12.1300
G01 X15.7011 Y-12.1189
G01 X15.6900 Y-12.1084
G01 X15.6282 Y-12.0524
G01 X15.6167 Y-12.0424
G01 X15.6046 Y-12.0330
G01 X15.5376 Y-11.9833
G01 X15.5251 Y-11.9745
G01 X15.5122 Y-11.9663
G01 X15.4407 Y-11.9235
G01 X15.4274 Y-11.9159
G01 X15.4137 Y-11.9091
G01 X15.3383 Y-11.8734
G01 X15.3244 Y-11.8672
G01 X15.3101 Y-11.8617
G01 X15.2316 Y-11.8336
G01 X15.2171 Y-11.8288
G01 X15.2024 Y-11.8247
G01 X15.1214 Y-11.8045
G01 X15.1065 Y-11.8011
G01 X15.0915 Y-11.7985
G01 X15.0090 Y-11.7863
G01 X14.9938 Y-11.7844
G01 X14.9786 Y-11.7833
G01 X14.8953 Y-11.7792
G01 X14.8800 Y-11.7788
G01 X14.8647 Y-11.7792
G01 X14.7814 Y-11.7833
G01 X14.7662 Y-11.7844
G01 X14.7510 Y-11.7863
G01 X14.6685 Y-11.7985
G01 X14.6535 Y-11.8011
G01 X14.6386 Y-11.8045
G01 X14.5576 Y-11.8247
G01 X14.5429 Y-11.8288
G01 X14.5284 Y-11.8336
G01 X14.4499 Y-11.8617
G01 X14.4356 Y-11.8672
G01 X14.4217 Y-11.8734
G01 X14.3463 Y-11.9091
G01 X14.3326 Y-11.9159
G01 X14.3193 Y-11.9235
G01 X14.2478 Y-11.9663
G01 X14.2349 Y-11.9745
G01 X14.2224 Y-11.9833
G01 X14.1554 Y-12.0330
G01 X14.1433 Y-12.0424
G01 X14.1318 Y-12.0524
G01 X14.0700 Y-12.1084
G01 X14.0589 Y-12.1189
G01 X14.0484 Y-12.1300
G01 X13.9924 Y-12.1918
G01 X13.9824 Y-12.2033
G01 X13.9730 Y-12.2154
G01 X13.9233 Y-12.2824
G01 X13.9145 Y-12.2949
G01 X13.9063 Y-12.3078
G01 X13.8635 Y-12.3793
G01 X13.8559 Y-12.3926
G01 X13.8491 Y-12.4063
G01 X13.8134 Y-12.4817
G01 X13.8072 Y-12.4956
G01 X13.8017 Y-12.5099
G01 X13.7736 Y-12.5884
G01 X13.7688 Y-12.6029
G01 X13.7647 Y-12.6176
G01 X13.7445 Y-12.6986
G01 X13.7411 Y-12.7135
G01 X13.7385 Y-12.7285
G01 X13.7263 Y-12.8110
G01 X13.7244 Y-12.8262
G01 X13.7233 Y-12.8414
G01 X13.7192 Y-12.9247
G01 X13.7188 Y-12.9400
G01 X13.7192 Y-12.9553
G01 X13.7233 Y-13.0386
G01 X13.7244 Y-13.0538
G01 X13.7263 Y-13.0690
G01 X13.7385 Y-13.1515
G01 X13.7411 Y-13.1665
G01 X13.7445 Y-13.1814
G01 X13.7647 Y-13.2624
G01 X13.7688 Y-13.2771
G01 X13.7736 Y-13.2916
G01 X13.8017 Y-13.3701
G01 X13.8072 Y-13.3844
G01 X13.8134 Y-13.3983
G01 X13.8491 Y-13.4737
G01 X13.8559 Y-13.4874
G01 X13.8635 Y-13.5007
G01 X13.9063 Y-13.5722
G01 X13.9145 Y-13.5851
G01 X13.9233 Y-13.5976
G01 X13.9730 Y-13.6646
G01 X13.9824 Y-13.6767
G01 X13.9924 Y-13.6882
G01 X14.0484 Y-13.7500
G01 X14.0589 Y-13.7611
G01 X14.0700 Y-13.7716
G01 X14.1318 Y-13.8276
G01 X14.1433 Y-13.8376
G01 X14.1554 Y-13.8470
G01 X14.2224 Y-13.8967
G01 X14.2349 Y-13.9055
G01 X14.2478 Y-13.9137
G01 X14.3193 Y-13.9565
G01 X14.3326 Y-13.9641
G01 X14.3463 Y-13.9709
G01 X14.4217 Y-14.0066
G01 X14.4356 Y-14.0128
G01 X14.4499 Y-14.0183
G01 X14.5284 Y-14.0464
G01 X14.5429 Y-14.0512
G01 X14.5576 Y-14.0553
G01 X14.6386 Y-14.0755
G01 X14.6535 Y-14.0789
G01 X14.6685 Y-14.0815
G01 X14.7510 Y-14.0937
G01 X14.7662 Y-14.0956
G01 X14.7814 Y-14.0967
G01 X14.8647 Y-14.1008
G01 X14.8800 Y-14.1012
G01 X14.8953 Y-14.1008
G00 Z2.0000
G00 X14.8833 Y-16.3976
G01 F60.00
G01 Z-0.1001
G01 F160.00
G01 X14.9699 Y-16.3932
G01 X15.0590 Y-16.3800
G01 X15.1464 Y-16.3581
G01 X15.2312 Y-16.3278
G01 X15.3126 Y-16.2893
G01 X15.3898 Y-16.2430
G01 X15.4622 Y-16.1894
G01 X15.5289 Y-16.1289
G01 X15.5894 Y-16.0622
G01 X15.6430 Y-15.9898
G01 X15.6893 Y-15.9126
G01 X15.7278 Y-15.8312
G01 X15.7581 Y-15.7464
G01 X15.7800 Y-15.6590
G01 X15.7932 Y-15.5699
G01 X15.7976 Y-15.4800
G01 X15.7932 Y-15.3901
G01 X15.7800 Y-15.3010
G01 X15.7581 Y-15.2136
G01 X15.7278 Y-15.1288
G01 X15.6893 Y-15.0474
G01 X15.6430 Y-14.9702
G01 X15.5894 Y-14.8978
G01 X15.5289 Y-14.8311
G01 X15.4622 Y-14.7706
G01 X15.3898 Y-14.7170
G01 X15.3126 Y-14.6707
G01 X15.2312 Y-14.6322
G01 X15.1464 Y-14.6019
G01 X15.0590 Y-14.5800
G01 X14.9699 Y-14.5668
G01 X14.8800 Y-14.5624
G01 X14.7901 Y-14.5668
G01 X14.7010 Y-14.5800
G01 X14.6136 Y-14.6019
G01 X14.5288 Y-14.6322
G01 X14.4474 Y-14.6707
G01 X14.3702 Y-14.7170
G01 X14.2978 Y-14.7706
G01 X14.2311 Y-14.8311
G01 X14.1706 Y-14.8978
G01 X14.1170 Y-14.9702
G01 X14.0707 Y-15.0474
G01 X14.0322 Y-15.1288
G01 X14.0019 Y-15.2136
G01 X13.9800 Y-15.3010
G01 X13.9668 Y-15.3901
G01 X13.9624 Y-15.4800
G01 X13.9668 Y-15.5699
G01 X13.9800 Y-15.6590
G01 X14.0019 Y-15.7464
G01 X14.0322 Y-15.8312
G01 X14.0707 Y-15.9126
G01 X14.1170 Y-15.9898
G01 X14.1706 Y-16.0622
G01 X14.2311 Y-16.1289
G01 X14.2978 Y-16.1894
G01 X14.3702 Y-16.2430
G01 X14.4474 Y-16.2893
G01 X14.5288 Y-16.3278
G01 X14.6136 Y-16.3581
G01 X14.7010 Y-16.3800
G01 X14.7901 Y-16.3932
G01 X14.8767 Y-16.3976
G01 X14.8833 Y-16.3976
G00 Z2.0000
G00 X14.8893 Y-16.5192
G01 F60.00
G01 Z-0.1001
G01 F160.00
G01 X14.9819 Y-16.5144
G01 X15.0828 Y-16.4994
G01 X15.1817 Y-16.4747
G01 X15.2778 Y-16.4403
G01 X15.3700 Y-16.3967
G01 X15.4575 Y-16.3442
G01 X15.5394 Y-16.2835
G01 X15.6150 Y-16.2150
G01 X15.6835 Y-16.1394
G01 X15.7442 Y-16.0575
G01 X15.7967 Y-15.9700
G01 X15.8403 Y-15.8778
G01 X15.8747 Y-15.7817
G01 X15.8994 Y-15.6828
G01 X15.9144 Y-15.5819
G01 X15.9194 Y-15.4800
G01 X15.9144 Y-15.3781
G01 X15.8994 Y-15.2772
G01 X15.8747 Y-15.1783
G01 X15.8403 Y-15.0822
G01 X15.7967 Y-14.9900
G01 X15.7442 Y-14.9025
G01 X15.6835 Y-14.8206
G01 X15.6150 Y-14.7450
G01 X15.5394 Y-14.6765
G01 X15.4575 Y-14.6158
G01 X15.3700 Y-14.5633
G01 X15.2778 Y-14.5197
G01 X15.1817 Y-14.4853
G01 X15.0828 Y-14.4606
G01 X14.9819 Y-14.4456
G01 X14.8800 Y-14.4406
G01 X14.7781 Y-14.4456
G01 X14.6772 Y-14.4606
G01 X14.5783 Y-14.4853
G01 X14.4822 Y-14.5197
G01 X14.3900 Y-14.5633
G01 X14.3025 Y-14.6158
G01 X14.2206 Y-14.6765
G01 X14.1450 Y-14.7450
G01 X14.0765 Y-14.8206
G01 X14.0158 Y-14.9025
G01 X13.9633 Y-14.9900
G01 X13.9197 Y-15.0822
G01 X13.8853 Y-15.1783
G01 X13.8606 Y-15.2772
G01 X13.8456 Y-15.3781
G01 X13.8406 Y-15.4800
G01 X13.8456 Y-15.5819
G01 X13.8606 Y-15.6828
G01 X13.8853 Y-15.7817
G01 X13.9197 Y-15.8778
G01 X13.9633 Y-15.9700
G01 X14.0158 Y-16.0575
G01 X14.0765 Y-16.1394
G01 X14.1450 Y-16.2150
G01 X14.2206 Y-16.2835
G01 X14.3025 Y-16.3442
G01 X14.3900 Y-16.3967
G01 X14.4822 Y-16.4403
G01 X14.5783 Y-16.4747
G01 X14.6772 Y-16.4994
G01 X14.7781 Y-16.5144
G01 X14.8707 Y-16.5192
