(G-CODE GENERATED BY FLATCAM v8.994 - www.flatcam.org - Version Date: 2020/11/7)

(Name: pwm_gen_board-F_Cu.gbr_iso_combined_cnc)
(Type: G-code from Geometry)
(Units: MM)

(Created on Wednesday, 30 March 2022 at 23:56)

(This preprocessor is the default preprocessor used by FlatCAM.)
(It is made to work with MACH3 compatible motion controllers.)

(TOOL DIAMETER: 0.1353 mm)
(Feedrate_XY: 120.0 mm/min)
(Feedrate_Z: 59.0 mm/min)
(Feedrate rapids 1500.0 mm/min)

(Z_Cut: -0.1001 mm)
(Z_Move: 2.0 mm)
(Z Start: None mm)
(Z End: 15.0 mm)
(X,Y End: None mm)
(Steps per circle: 64)
(Preprocessor Geometry: default)

(X range:    0.4613 ...   43.9887  mm)
(Y range:  -27.4787 ...   -0.4613  mm)

(Spindle Speed: 3600.0 RPM)
G21
G90
G94

G01 F120.00

M5
G00 Z15.0000
G00 X0.0000 Y0.0000
T1
M6    
(MSG, Change to Tool Dia = 0.1353)
M0
G00 Z15.0000

M03 S3600.0
G01 F120.00
G00 X0.9496 Y-1.5114
G01 F59.00
G01 Z-0.1001
G01 F120.00
G01 X0.9484 Y-1.5323
G01 X0.9484 Y-11.6787
G01 X0.9500 Y-11.7010
G01 X0.9643 Y-11.8096
G01 X0.9658 Y-11.8165
G01 X0.9743 Y-11.8483
G01 X0.9765 Y-11.8550
G01 X1.0159 Y-11.9502
G01 X1.0191 Y-11.9565
G01 X1.0356 Y-11.9850
G01 X1.0405 Y-11.9923
G01 X1.1010 Y-12.0712
G01 X1.1056 Y-12.0766
G01 X1.1301 Y-12.1011
G01 X1.1354 Y-12.1059
G01 X1.2157 Y-12.1675
G01 X1.2230 Y-12.1724
G01 X1.2515 Y-12.1889
G01 X1.2578 Y-12.1921
G01 X1.3530 Y-12.2315
G01 X1.3597 Y-12.2337
G01 X1.3915 Y-12.2422
G01 X1.4001 Y-12.2439
G01 X1.5114 Y-12.2584
G01 X1.5323 Y-12.2596
G01 X1.7368 Y-12.2596
G01 X1.7450 Y-12.2592
G01 X1.7530 Y-12.2577
G01 X1.8201 Y-12.2394
G01 X1.8296 Y-12.2358
G01 X1.8370 Y-12.2317
G01 X1.8425 Y-12.2278
G01 X1.8489 Y-12.2221
G01 X1.9019 Y-12.1653
G01 X1.9068 Y-12.1585
G01 X1.9100 Y-12.1526
G01 X1.9127 Y-12.1464
G01 X1.9147 Y-12.1400
G01 X1.9287 Y-12.0653
G01 X1.9297 Y-12.0557
G01 X1.9294 Y-12.0460
G01 X1.9197 Y-11.9503
G01 X1.9197 Y-11.7516
G01 X2.2924 Y-11.7516
G01 X2.2924 Y-11.9050
G01 X2.2941 Y-11.9378
G01 X2.2985 Y-11.9670
G01 X2.3060 Y-11.9972
G01 X2.3165 Y-12.0266
G01 X2.3307 Y-12.0562
G01 X2.3459 Y-12.0815
G01 X2.3624 Y-12.1039
G01 X2.3666 Y-12.1090
G01 X2.3831 Y-12.1272
G01 X2.3878 Y-12.1319
G01 X2.4085 Y-12.1505
G01 X2.4308 Y-12.1672
G01 X2.4363 Y-12.1709
G01 X2.4603 Y-12.1851
G01 X2.4884 Y-12.1985
G01 X2.5178 Y-12.2090
G01 X2.5497 Y-12.2169
G01 X2.5789 Y-12.2211
G01 X2.6100 Y-12.2226
G01 X3.1100 Y-12.2226
G01 X3.1378 Y-12.2214
G01 X3.1444 Y-12.2207
G01 X3.1720 Y-12.2165
G01 X3.1990 Y-12.2099
G01 X3.2054 Y-12.2079
G01 X3.2316 Y-12.1985
G01 X3.2568 Y-12.1866
G01 X3.2626 Y-12.1835
G01 X3.2865 Y-12.1691
G01 X3.3089 Y-12.1526
G01 X3.3140 Y-12.1484
G01 X3.3346 Y-12.1296
G01 X3.3534 Y-12.1090
G01 X3.3576 Y-12.1039
G01 X3.3741 Y-12.0815
G01 X3.3885 Y-12.0576
G01 X3.3916 Y-12.0518
G01 X3.4035 Y-12.0266
G01 X3.4144 Y-11.9956
G01 X3.4215 Y-11.9670
G01 X3.4257 Y-11.9394
G01 X3.4264 Y-11.9328
G01 X3.4276 Y-11.9067
G01 X3.4276 Y-10.9517
G01 X3.4261 Y-10.9239
G01 X3.4215 Y-10.8930
G01 X3.4140 Y-10.8628
G01 X3.4047 Y-10.8365
G01 X3.4021 Y-10.8304
G01 X3.3916 Y-10.8082
G01 X3.3885 Y-10.8024
G01 X3.3741 Y-10.7785
G01 X3.3555 Y-10.7535
G01 X3.3346 Y-10.7304
G01 X3.3115 Y-10.7095
G01 X3.2865 Y-10.6909
G01 X3.2626 Y-10.6765
G01 X3.2568 Y-10.6734
G01 X3.2346 Y-10.6629
G01 X3.2285 Y-10.6603
G01 X3.2022 Y-10.6510
G01 X3.1752 Y-10.6442
G01 X3.1687 Y-10.6429
G01 X3.1411 Y-10.6389
G01 X3.1133 Y-10.6374
G01 X2.6100 Y-10.6374
G01 X2.5789 Y-10.6389
G01 X2.5513 Y-10.6429
G01 X2.5448 Y-10.6442
G01 X2.5178 Y-10.6510
G01 X2.4884 Y-10.6615
G01 X2.4632 Y-10.6734
G01 X2.4574 Y-10.6765
G01 X2.4335 Y-10.6909
G01 X2.4104 Y-10.7079
G01 X2.1456 Y-10.4430
G01 X2.1759 Y-10.4127
G01 X2.1811 Y-10.4085
G01 X2.3123 Y-10.3274
G01 X2.3184 Y-10.3245
G01 X2.4653 Y-10.2755
G01 X2.4715 Y-10.2742
G01 X2.5647 Y-10.2647
G01 X2.7241 Y-10.2647
G01 X2.7405 Y-10.2639
G01 X2.7471 Y-10.2629
G01 X2.7552 Y-10.2606
G01 X2.8264 Y-10.2340
G01 X2.8339 Y-10.2302
G01 X2.8395 Y-10.2265
G01 X2.8447 Y-10.2223
G01 X2.8506 Y-10.2163
G01 X2.8963 Y-10.1556
G01 X2.9018 Y-10.1471
G01 X2.9059 Y-10.1379
G01 X2.9085 Y-10.1282
G01 X2.9097 Y-10.1199
G01 X2.9148 Y-10.0474
G01 X2.9145 Y-10.0373
G01 X2.9132 Y-10.0290
G01 X2.9108 Y-10.0210
G01 X2.9074 Y-10.0133
G01 X2.8726 Y-9.9495
G01 X2.8683 Y-9.9427
G01 X2.8622 Y-9.9352
G01 X2.8196 Y-9.8927
G01 X2.7684 Y-9.8441
G01 X2.7640 Y-9.8383
G01 X2.7541 Y-9.8269
G01 X2.7187 Y-9.7686
G01 X2.6800 Y-9.7094
G01 X2.6778 Y-9.7042
G01 X2.6696 Y-9.6876
G01 X2.6477 Y-9.6204
G01 X2.6251 Y-9.5580
G01 X2.6214 Y-9.5398
G01 X2.6199 Y-9.5343
G01 X2.6145 Y-9.4682
G01 X2.6111 Y-9.4384
G01 X2.6106 Y-9.4199
G01 X2.6069 Y-9.3737
G01 X2.6094 Y-9.3567
G01 X2.6111 Y-9.3309
G01 X2.6111 Y-4.0769
G01 X2.6092 Y-4.0021
G01 X2.6102 Y-3.9950
G01 X2.6113 Y-3.9798
G01 X2.6275 Y-3.9136
G01 X2.6420 Y-3.8444
G01 X2.6442 Y-3.8392
G01 X2.6501 Y-3.8216
G01 X2.6802 Y-3.7625
G01 X2.7102 Y-3.6985
G01 X2.7135 Y-3.6938
G01 X2.7233 Y-3.6781
G01 X2.7662 Y-3.6275
G01 X2.7850 Y-3.6040
G01 X2.7976 Y-3.5906
G01 X2.8276 Y-3.5553
G01 X2.8415 Y-3.5450
G01 X2.8609 Y-3.5281
G01 X3.9444 Y-2.4445
G01 X3.9479 Y-2.4406
G01 X3.9520 Y-2.4350
G01 X3.9852 Y-2.3810
G01 X3.9895 Y-2.3715
G01 X3.9996 Y-2.3410
G01 X4.0841 Y-2.2039
G01 X4.1980 Y-2.0899
G01 X4.3349 Y-2.0051
G01 X4.4882 Y-1.9540
G01 X4.5831 Y-1.9441
G01 X5.5769 Y-1.9441
G01 X5.6706 Y-1.9537
G01 X5.8240 Y-2.0046
G01 X5.9371 Y-2.0743
G01 X5.9430 Y-2.0776
G01 X5.9477 Y-2.0797
G01 X5.9541 Y-2.0818
G01 X6.0252 Y-2.1018
G01 X6.0319 Y-2.1028
G01 X6.0387 Y-2.1031
G01 X6.3011 Y-2.1031
G01 X6.3759 Y-2.1012
G01 X6.3830 Y-2.1022
G01 X6.3982 Y-2.1033
G01 X6.4644 Y-2.1195
G01 X6.5336 Y-2.1340
G01 X6.5388 Y-2.1362
G01 X6.5564 Y-2.1421
G01 X6.6155 Y-2.1722
G01 X6.6795 Y-2.2022
G01 X6.6842 Y-2.2055
G01 X6.6999 Y-2.2153
G01 X6.7505 Y-2.2582
G01 X6.7740 Y-2.2770
G01 X6.7874 Y-2.2896
G01 X6.8227 Y-2.3196
G01 X6.8330 Y-2.3335
G01 X6.8499 Y-2.3529
G01 X7.0777 Y-2.5806
G01 X7.0867 Y-2.5875
G01 X7.1387 Y-2.6192
G01 X7.1447 Y-2.6225
G01 X7.1525 Y-2.6256
G01 X7.1606 Y-2.6278
G01 X7.1707 Y-2.6290
G01 X7.2433 Y-2.6308
G01 X7.2530 Y-2.6303
G01 X7.2624 Y-2.6285
G01 X7.3937 Y-2.5933
G01 X7.6100 Y-2.5744
G01 X7.8263 Y-2.5933
G01 X8.0360 Y-2.6495
G01 X8.2328 Y-2.7413
G01 X8.4106 Y-2.8658
G01 X8.5642 Y-3.0194
G01 X8.6887 Y-3.1972
G01 X8.7805 Y-3.3940
G01 X8.8367 Y-3.6037
G01 X8.8556 Y-3.8200
G01 X8.8367 Y-4.0363
G01 X8.7805 Y-4.2460
G01 X8.7234 Y-4.3687
G01 X8.7101 Y-4.4135
G01 X8.7087 Y-4.4231
G01 X8.7088 Y-4.4345
G01 X8.7196 Y-4.5096
G01 X8.7215 Y-4.5178
G01 X8.7244 Y-4.5257
G01 X8.7283 Y-4.5331
G01 X8.7341 Y-4.5414
G01 X8.7828 Y-4.5976
G01 X8.7888 Y-4.6034
G01 X8.7955 Y-4.6085
G01 X8.8028 Y-4.6126
G01 X8.8089 Y-4.6153
G01 X8.8834 Y-4.6373
G01 X8.8897 Y-4.6387
G01 X8.8961 Y-4.6395
G01 X13.7960 Y-4.6396
G01 X13.8024 Y-4.6393
G01 X13.8104 Y-4.6381
G01 X13.8660 Y-4.6259
G01 X13.8756 Y-4.6225
G01 X13.8845 Y-4.6178
G01 X13.8926 Y-4.6117
G01 X13.9500 Y-4.5618
G01 X13.9545 Y-4.5568
G01 X13.9585 Y-4.5514
G01 X13.9626 Y-4.5441
G01 X13.9653 Y-4.5380
G01 X13.9873 Y-4.4635
G01 X13.9887 Y-4.4572
G01 X13.9895 Y-4.4508
G01 X13.9897 Y-4.1416
G01 X14.3624 Y-4.1416
G01 X14.3624 Y-4.6200
G01 X14.3629 Y-4.6283
G01 X14.3653 Y-4.6396
G01 X14.3696 Y-4.6504
G01 X14.3757 Y-4.6603
G01 X14.3834 Y-4.6690
G01 X14.3924 Y-4.6762
G01 X14.4026 Y-4.6818
G01 X14.4136 Y-4.6856
G01 X14.4234 Y-4.6873
G01 X14.4300 Y-4.6876
G01 X16.0300 Y-4.6876
G01 X16.0416 Y-4.6867
G01 X16.0528 Y-4.6837
G01 X16.0619 Y-4.6797
G01 X16.0703 Y-4.6743
G01 X16.0778 Y-4.6678
G01 X16.0843 Y-4.6603
G01 X16.0897 Y-4.6519
G01 X16.0937 Y-4.6428
G01 X16.0967 Y-4.6316
G01 X16.0976 Y-4.6200
G01 X16.0976 Y-4.3818
G01 X16.9874 Y-4.3818
G01 X16.9889 Y-4.4111
G01 X16.9935 Y-4.4420
G01 X17.0010 Y-4.4722
G01 X17.0115 Y-4.5016
G01 X17.0249 Y-4.5297
G01 X17.0409 Y-4.5565
G01 X17.0595 Y-4.5815
G01 X17.0781 Y-4.6022
G01 X17.0828 Y-4.6069
G01 X17.1035 Y-4.6255
G01 X17.1258 Y-4.6422
G01 X17.1313 Y-4.6459
G01 X17.1524 Y-4.6585
G01 X17.1582 Y-4.6616
G01 X17.1834 Y-4.6735
G01 X17.2128 Y-4.6840
G01 X17.2430 Y-4.6915
G01 X17.2755 Y-4.6963
G01 X17.3050 Y-4.6976
G01 X18.2550 Y-4.6976
G01 X18.2861 Y-4.6961
G01 X18.3170 Y-4.6915
G01 X18.3440 Y-4.6849
G01 X18.3504 Y-4.6829
G01 X18.3766 Y-4.6735
G01 X18.4047 Y-4.6601
G01 X18.4287 Y-4.6459
G01 X18.4342 Y-4.6422
G01 X18.4565 Y-4.6255
G01 X18.4784 Y-4.6058
G01 X18.4984 Y-4.5840
G01 X18.5026 Y-4.5789
G01 X18.5191 Y-4.5565
G01 X18.5343 Y-4.5312
G01 X18.5491 Y-4.5000
G01 X18.5590 Y-4.4722
G01 X18.5642 Y-4.4516
G01 X18.9478 Y-4.4516
G01 X18.9667 Y-4.5245
G01 X18.9702 Y-4.5338
G01 X18.9750 Y-4.5426
G01 X18.9799 Y-4.5493
G01 X18.9856 Y-4.5553
G01 X19.0400 Y-4.6036
G01 X19.0480 Y-4.6097
G01 X19.0523 Y-4.6123
G01 X19.0583 Y-4.6152
G01 X19.0646 Y-4.6175
G01 X19.0711 Y-4.6192
G01 X19.1494 Y-4.6313
G01 X19.1558 Y-4.6316
G01 X19.1622 Y-4.6312
G01 X19.2192 Y-4.6237
G01 X19.2261 Y-4.6222
G01 X19.2579 Y-4.6137
G01 X19.2646 Y-4.6115
G01 X19.3581 Y-4.5728
G01 X19.3645 Y-4.5697
G01 X19.3946 Y-4.5524
G01 X19.4005 Y-4.5486
G01 X19.4886 Y-4.4810
G01 X19.5054 Y-4.4662
G01 X21.3640 Y-2.6076
G01 X22.6813 Y-2.6076
G01 X22.6899 Y-2.6071
G01 X22.7421 Y-2.5976
G01 X22.7530 Y-2.5938
G01 X22.7631 Y-2.5882
G01 X22.8227 Y-2.5437
G01 X22.8288 Y-2.5386
G01 X22.8353 Y-2.5314
G01 X22.8626 Y-2.4951
G01 X22.9636 Y-2.4193
G01 X23.0830 Y-2.3746
G01 X23.1330 Y-2.3691
G01 X25.1270 Y-2.3691
G01 X25.1770 Y-2.3746
G01 X25.2964 Y-2.4193
G01 X25.3974 Y-2.4951
G01 X25.4237 Y-2.5301
G01 X25.4281 Y-2.5354
G01 X25.4657 Y-2.5706
G01 X25.4736 Y-2.5766
G01 X25.4822 Y-2.5814
G01 X25.4915 Y-2.5849
G01 X25.5612 Y-2.6053
G01 X25.5707 Y-2.6072
G01 X25.5787 Y-2.6076
G01 X25.8246 Y-2.6076
G01 X25.8330 Y-2.6071
G01 X25.8429 Y-2.6051
G01 X25.9071 Y-2.5871
G01 X25.9169 Y-2.5835
G01 X26.1282 Y-2.4736
G01 X26.3460 Y-2.4024
G01 X26.5725 Y-2.3678
G01 X26.8016 Y-2.3706
G01 X27.0271 Y-2.4108
G01 X27.2431 Y-2.4872
G01 X27.4221 Y-2.5858
G01 X27.4285 Y-2.5884
G01 X27.4334 Y-2.5898
G01 X27.4976 Y-2.6063
G01 X27.5043 Y-2.6073
G01 X27.5112 Y-2.6076
G01 X27.9120 Y-2.6076
G01 X28.0341 Y-2.7297
G01 X28.0404 Y-2.7353
G01 X28.0459 Y-2.7392
G01 X28.0684 Y-2.7523
G01 X28.0763 Y-2.7556
G01 X28.0829 Y-2.7575
G01 X28.0896 Y-2.7588
G01 X28.1600 Y-2.7680
G01 X28.1684 Y-2.7686
G01 X28.1751 Y-2.7683
G01 X28.1817 Y-2.7674
G01 X28.1883 Y-2.7658
G01 X28.1946 Y-2.7635
G01 X28.2619 Y-2.7319
G01 X28.2689 Y-2.7280
G01 X28.2755 Y-2.7234
G01 X28.2840 Y-2.7159
G01 X28.4633 Y-2.5813
G01 X28.4674 Y-2.5787
G01 X28.6663 Y-2.4752
G01 X28.6707 Y-2.4733
G01 X28.8215 Y-2.4240
G01 X28.8884 Y-2.4909
G01 X28.8884 Y-2.7953
G01 X28.8196 Y-2.8200
G01 X28.7291 Y-2.8628
G01 X28.6432 Y-2.9143
G01 X28.5628 Y-2.9739
G01 X28.4886 Y-3.0411
G01 X28.4214 Y-3.1153
G01 X28.3618 Y-3.1957
G01 X28.3119 Y-3.2787
G01 X28.3088 Y-3.2846
G01 X28.2688 Y-3.3691
G01 X28.2663 Y-3.3752
G01 X28.2338 Y-3.4664
G01 X28.2091 Y-3.5651
G01 X28.1948 Y-3.6625
G01 X28.1899 Y-3.7608
G01 X28.1899 Y-3.8592
G01 X28.1949 Y-3.9591
G01 X28.2095 Y-4.0565
G01 X28.2338 Y-4.1536
G01 X28.2675 Y-4.2479
G01 X28.3088 Y-4.3354
G01 X28.3119 Y-4.3413
G01 X28.3600 Y-4.4215
G01 X28.3637 Y-4.4270
G01 X28.4214 Y-4.5047
G01 X28.4886 Y-4.5789
G01 X28.5628 Y-4.6461
G01 X28.6405 Y-4.7038
G01 X28.6460 Y-4.7075
G01 X28.7262 Y-4.7556
G01 X28.7321 Y-4.7587
G01 X28.8196 Y-4.8000
G01 X28.9139 Y-4.8337
G01 X29.0110 Y-4.8580
G01 X29.1084 Y-4.8726
G01 X29.2100 Y-4.8776
G01 X29.3067 Y-4.8730
G01 X29.3133 Y-4.8723
G01 X29.4057 Y-4.8586
G01 X29.4123 Y-4.8573
G01 X29.5061 Y-4.8337
G01 X29.6004 Y-4.8000
G01 X29.6909 Y-4.7572
G01 X29.7768 Y-4.7057
G01 X29.8572 Y-4.6461
G01 X29.9314 Y-4.5789
G01 X29.9986 Y-4.5047
G01 X30.0563 Y-4.4270
G01 X30.0600 Y-4.4215
G01 X30.1097 Y-4.3384
G01 X30.1512 Y-4.2509
G01 X30.1537 Y-4.2448
G01 X30.1857 Y-4.1552
G01 X30.1918 Y-4.1316
G01 X30.5795 Y-4.1316
G01 X30.5223 Y-4.3378
G01 X30.5207 Y-4.3423
G01 X30.5104 Y-4.3645
G01 X30.5079 Y-4.3706
G01 X30.4964 Y-4.4088
G01 X30.4949 Y-4.4151
G01 X30.4937 Y-4.4248
G01 X30.4939 Y-4.4345
G01 X30.5050 Y-4.5113
G01 X30.5071 Y-4.5194
G01 X30.5102 Y-4.5272
G01 X30.5134 Y-4.5331
G01 X30.5181 Y-4.5401
G01 X30.5679 Y-4.5976
G01 X30.5726 Y-4.6023
G01 X30.5778 Y-4.6065
G01 X30.5820 Y-4.6094
G01 X30.5879 Y-4.6126
G01 X30.5972 Y-4.6164
G01 X30.6685 Y-4.6373
G01 X30.6764 Y-4.6390
G01 X30.6844 Y-4.6396
G01 X36.1133 Y-4.6396
G01 X36.1218 Y-4.6386
G01 X36.1706 Y-4.6296
G01 X36.1815 Y-4.6258
G01 X36.1916 Y-4.6202
G01 X36.2511 Y-4.5757
G01 X36.2561 Y-4.5716
G01 X36.2638 Y-4.5634
G01 X36.2851 Y-4.5351
G01 X36.3861 Y-4.4593
G01 X36.5055 Y-4.4146
G01 X36.5555 Y-4.4091
G01 X39.6445 Y-4.4091
G01 X39.6945 Y-4.4146
G01 X39.8139 Y-4.4593
G01 X39.9149 Y-4.5351
G01 X39.9907 Y-4.6361
G01 X40.0354 Y-4.7555
G01 X40.0409 Y-4.8055
G01 X40.0409 Y-7.8945
G01 X40.0354 Y-7.9445
G01 X39.9907 Y-8.0639
G01 X39.9149 Y-8.1649
G01 X39.8865 Y-8.1863
G01 X39.8813 Y-8.1908
G01 X39.8474 Y-8.2272
G01 X39.8414 Y-8.2351
G01 X39.8366 Y-8.2437
G01 X39.8331 Y-8.2530
G01 X39.8127 Y-8.3227
G01 X39.8110 Y-8.3306
G01 X39.8104 Y-8.3386
G01 X39.8105 Y-10.4698
G01 X39.8123 Y-10.4809
G01 X39.8263 Y-10.5387
G01 X39.8287 Y-10.5464
G01 X39.8319 Y-10.5538
G01 X39.8854 Y-10.6574
G01 X39.9737 Y-10.9068
G01 X40.0274 Y-11.1660
G01 X40.0455 Y-11.4319
G01 X40.0451 Y-11.4688
G01 X40.0214 Y-11.7343
G01 X39.9624 Y-11.9923
G01 X39.8688 Y-12.2398
G01 X39.8338 Y-12.3043
G01 X39.8303 Y-12.3119
G01 X39.8277 Y-12.3199
G01 X39.8124 Y-12.3800
G01 X39.8111 Y-12.3866
G01 X39.8104 Y-12.3933
G01 X39.8104 Y-15.5450
G01 X39.8108 Y-15.5530
G01 X39.8119 Y-15.5594
G01 X39.8263 Y-15.6187
G01 X39.8287 Y-15.6264
G01 X39.8319 Y-15.6338
G01 X39.8854 Y-15.7374
G01 X39.9737 Y-15.9868
G01 X40.0274 Y-16.2460
G01 X40.0455 Y-16.5119
G01 X40.0451 Y-16.5488
G01 X40.0214 Y-16.8143
G01 X39.9624 Y-17.0723
G01 X39.8688 Y-17.3198
G01 X39.8178 Y-17.4139
G01 X39.8144 Y-17.4216
G01 X39.8117 Y-17.4313
G01 X39.8107 Y-17.4380
G01 X39.8104 Y-17.4447
G01 X39.8104 Y-17.7124
G01 X39.6560 Y-17.7124
G01 X39.6477 Y-17.7134
G01 X39.6396 Y-17.7153
G01 X39.6317 Y-17.7182
G01 X39.6229 Y-17.7229
G01 X39.6149 Y-17.7289
G01 X39.6079 Y-17.7360
G01 X39.5859 Y-17.7657
G01 X39.4017 Y-17.9557
G01 X39.1935 Y-18.1190
G01 X38.9650 Y-18.2525
G01 X38.7205 Y-18.3538
G01 X38.4645 Y-18.4209
G01 X38.2018 Y-18.4527
G01 X37.9372 Y-18.4486
G01 X37.6756 Y-18.4085
G01 X37.4219 Y-18.3334
G01 X37.1807 Y-18.2245
G01 X36.9565 Y-18.0839
G01 X36.7535 Y-17.9141
G01 X36.6263 Y-17.7744
G01 X36.6212 Y-17.7695
G01 X36.5948 Y-17.7473
G01 X36.5895 Y-17.7434
G01 X36.5838 Y-17.7400
G01 X36.5731 Y-17.7356
G01 X36.5018 Y-17.7147
G01 X36.4940 Y-17.7130
G01 X36.4875 Y-17.7124
G01 X31.6126 Y-17.7124
G01 X31.5771 Y-17.7161
G01 X31.5706 Y-17.7174
G01 X31.5643 Y-17.7194
G01 X31.5552 Y-17.7235
G01 X31.4915 Y-17.7583
G01 X31.4861 Y-17.7618
G01 X31.4810 Y-17.7658
G01 X31.4747 Y-17.7719
G01 X31.4700 Y-17.7774
G01 X31.3689 Y-17.8532
G01 X31.3559 Y-17.8581
G01 X31.3367 Y-17.8669
G01 X31.3310 Y-17.8700
G01 X31.3257 Y-17.8737
G01 X31.3184 Y-17.8800
G01 X31.2683 Y-17.9303
G01 X31.2617 Y-17.9379
G01 X31.2564 Y-17.9464
G01 X31.2523 Y-17.9557
G01 X31.2504 Y-17.9621
G01 X31.2461 Y-17.9818
G01 X29.0645 Y-17.9818
G01 X29.0469 Y-17.9352
G01 X29.0447 Y-17.9307
G01 X29.0411 Y-17.9250
G01 X29.0371 Y-17.9197
G01 X29.0337 Y-17.9159
G01 X29.0261 Y-17.9093
G01 X28.9667 Y-17.8648
G01 X28.9569 Y-17.8593
G01 X28.9411 Y-17.8532
G01 X28.8401 Y-17.7774
G01 X28.7643 Y-17.6764
G01 X28.7196 Y-17.5570
G01 X28.7141 Y-17.5070
G01 X28.7141 Y-15.5130
G01 X28.7196 Y-15.4630
G01 X28.7643 Y-15.3436
G01 X28.8401 Y-15.2426
G01 X28.9488 Y-15.1609
G01 X28.9551 Y-15.1550
G01 X28.9888 Y-15.1186
G01 X28.9952 Y-15.1090
G01 X28.9999 Y-15.0984
G01 X29.0209 Y-15.0272
G01 X29.0232 Y-15.0161
G01 X29.0236 Y-15.0081
G01 X29.0236 Y-13.1267
G01 X29.0231 Y-13.1177
G01 X29.0159 Y-13.0733
G01 X29.0136 Y-13.0652
G01 X29.0104 Y-13.0575
G01 X29.0054 Y-13.0489
G01 X28.9651 Y-12.9904
G01 X28.9588 Y-12.9826
G01 X28.9539 Y-12.9779
G01 X28.9487 Y-12.9737
G01 X28.9430 Y-12.9701
G01 X28.9370 Y-12.9671
G01 X28.8684 Y-12.9384
G01 X28.8621 Y-12.9363
G01 X28.8538 Y-12.9345
G01 X28.8438 Y-12.9338
G01 X28.8338 Y-12.9345
G01 X28.7622 Y-12.9472
G01 X28.7559 Y-12.9486
G01 X28.7453 Y-12.9525
G01 X28.6816 Y-12.9841
G01 X28.6758 Y-12.9863
G01 X28.5186 Y-13.0255
G01 X28.5136 Y-13.0262
G01 X28.4818 Y-13.0283
G01 X28.4096 Y-13.0283
G01 X28.4096 Y-12.6556
G01 X28.4515 Y-12.6538
G01 X28.4863 Y-12.6487
G01 X28.4928 Y-12.6474
G01 X28.5238 Y-12.6396
G01 X28.5301 Y-12.6377
G01 X28.5633 Y-12.6258
G01 X28.5981 Y-12.6093
G01 X28.6311 Y-12.5895
G01 X28.6621 Y-12.5665
G01 X28.6906 Y-12.5406
G01 X28.7144 Y-12.5146
G01 X28.7186 Y-12.5095
G01 X28.7376 Y-12.4839
G01 X28.7413 Y-12.4783
G01 X28.7593 Y-12.4481
G01 X28.7758 Y-12.4133
G01 X28.7887 Y-12.3770
G01 X28.7974 Y-12.3428
G01 X28.7987 Y-12.3363
G01 X28.8038 Y-12.3015
G01 X28.8056 Y-12.2630
G01 X28.8056 Y-11.6130
G01 X28.8038 Y-11.5745
G01 X28.7987 Y-11.5397
G01 X28.7974 Y-11.5332
G01 X28.7896 Y-11.5022
G01 X28.7877 Y-11.4959
G01 X28.7758 Y-11.4627
G01 X28.7608 Y-11.4309
G01 X28.7576 Y-11.4250
G01 X28.7395 Y-11.3949
G01 X28.7165 Y-11.3639
G01 X28.6929 Y-11.3378
G01 X28.6882 Y-11.3331
G01 X28.6621 Y-11.3095
G01 X28.6311 Y-11.2865
G01 X28.6010 Y-11.2684
G01 X28.5951 Y-11.2652
G01 X28.5633 Y-11.2502
G01 X28.5270 Y-11.2373
G01 X28.4928 Y-11.2286
G01 X28.4863 Y-11.2273
G01 X28.4548 Y-11.2226
G01 X28.4482 Y-11.2220
G01 X28.4130 Y-11.2204
G01 X27.7613 Y-11.2204
G01 X27.7245 Y-11.2222
G01 X27.6864 Y-11.2279
G01 X27.6490 Y-11.2373
G01 X27.6158 Y-11.2490
G01 X27.6097 Y-11.2516
G01 X27.5809 Y-11.2652
G01 X27.5750 Y-11.2684
G01 X27.5449 Y-11.2865
G01 X27.5139 Y-11.3095
G01 X27.4878 Y-11.3331
G01 X27.4831 Y-11.3378
G01 X27.4595 Y-11.3639
G01 X27.4365 Y-11.3949
G01 X27.4167 Y-11.4279
G01 X27.4016 Y-11.4597
G01 X27.3990 Y-11.4658
G01 X27.3873 Y-11.4990
G01 X27.3779 Y-11.5364
G01 X27.3726 Y-11.5712
G01 X27.3720 Y-11.5778
G01 X27.3704 Y-11.6164
G01 X26.9976 Y-11.6164
G01 X26.9976 Y-11.5654
G01 X26.9971 Y-11.5586
G01 X26.9959 Y-11.5518
G01 X26.9758 Y-11.4816
G01 X26.9737 Y-11.4753
G01 X26.9709 Y-11.4693
G01 X26.9667 Y-11.4621
G01 X26.9627 Y-11.4568
G01 X26.9569 Y-11.4508
G01 X26.9000 Y-11.4004
G01 X26.8960 Y-11.3974
G01 X26.8903 Y-11.3939
G01 X26.8858 Y-11.3916
G01 X26.8795 Y-11.3891
G01 X26.8731 Y-11.3873
G01 X26.8681 Y-11.3863
G01 X26.7932 Y-11.3748
G01 X26.7867 Y-11.3746
G01 X26.7803 Y-11.3750
G01 X26.7566 Y-11.3781
G01 X26.7496 Y-11.3794
G01 X26.7161 Y-11.3883
G01 X26.7094 Y-11.3905
G01 X26.6159 Y-11.4292
G01 X26.6095 Y-11.4323
G01 X26.5794 Y-11.4496
G01 X26.5735 Y-11.4534
G01 X26.4854 Y-11.5210
G01 X26.4686 Y-11.5358
G01 X24.7499 Y-13.2544
G01 X24.7453 Y-13.2596
G01 X24.7411 Y-13.2652
G01 X24.7097 Y-13.3161
G01 X24.7056 Y-13.3238
G01 X24.7031 Y-13.3304
G01 X24.6654 Y-13.4440
G01 X24.5809 Y-13.5811
G01 X24.4670 Y-13.6951
G01 X24.3301 Y-13.7799
G01 X24.2100 Y-13.8201
G01 X24.2008 Y-13.8249
G01 X24.1515 Y-13.8553
G01 X24.1444 Y-13.8604
G01 X24.1393 Y-13.8650
G01 X23.5940 Y-14.4104
G01 X22.8668 Y-14.4104
G01 X22.8430 Y-14.4120
G01 X22.7326 Y-14.4266
G01 X22.6957 Y-14.4363
G01 X22.6873 Y-14.4392
G01 X22.5938 Y-14.4779
G01 X22.5875 Y-14.4811
G01 X22.5575 Y-14.4985
G01 X22.5517 Y-14.5025
G01 X22.4856 Y-14.5532
G01 X22.4805 Y-14.5575
G01 X22.4456 Y-14.5953
G01 X22.4399 Y-14.6033
G01 X22.4360 Y-14.6105
G01 X22.4326 Y-14.6196
G01 X22.4122 Y-14.6893
G01 X22.4105 Y-14.6972
G01 X22.4099 Y-14.7036
G01 X22.4099 Y-14.9298
G01 X22.4106 Y-14.9364
G01 X22.4162 Y-14.9744
G01 X22.4181 Y-14.9823
G01 X22.4209 Y-14.9900
G01 X22.4263 Y-15.0000
G01 X22.4661 Y-15.0608
G01 X22.4713 Y-15.0674
G01 X22.4785 Y-15.0744
G01 X22.4853 Y-15.0793
G01 X22.4941 Y-15.0841
G01 X22.5605 Y-15.1137
G01 X22.5668 Y-15.1160
G01 X22.5733 Y-15.1177
G01 X22.5833 Y-15.1189
G01 X22.5934 Y-15.1186
G01 X22.6717 Y-15.1067
G01 X22.6809 Y-15.1039
G01 X22.6959 Y-15.0971
G01 X22.7006 Y-15.0953
G01 X22.8024 Y-15.0681
G01 X22.8024 Y-15.4606
G01 X22.7889 Y-15.4657
G01 X22.7180 Y-15.4993
G01 X22.7121 Y-15.5024
G01 X22.6420 Y-15.5446
G01 X22.5736 Y-15.5953
G01 X22.5105 Y-15.6525
G01 X22.4555 Y-15.7131
G01 X22.4513 Y-15.7182
G01 X22.4045 Y-15.7812
G01 X22.4008 Y-15.7868
G01 X22.3588 Y-15.8570
G01 X22.3224 Y-15.9340
G01 X22.2937 Y-16.0141
G01 X22.2737 Y-16.0935
G01 X22.2725 Y-16.1000
G01 X22.2609 Y-16.1777
G01 X22.2603 Y-16.1843
G01 X22.2564 Y-16.2660
G01 X22.2607 Y-16.3527
G01 X22.2730 Y-16.4353
G01 X22.2928 Y-16.5147
G01 X22.2948 Y-16.5210
G01 X22.3224 Y-16.5980
G01 X22.3573 Y-16.6720
G01 X22.3604 Y-16.6779
G01 X22.4026 Y-16.7480
G01 X22.4513 Y-16.8138
G01 X22.4555 Y-16.8189
G01 X22.5082 Y-16.8771
G01 X22.5129 Y-16.8818
G01 X22.5736 Y-16.9367
G01 X22.6392 Y-16.9855
G01 X22.6448 Y-16.9892
G01 X22.7150 Y-17.0312
G01 X22.7889 Y-17.0663
G01 X22.8024 Y-17.0714
G01 X22.8024 Y-17.4639
G01 X22.7006 Y-17.4367
G01 X22.6776 Y-17.4270
G01 X22.6392 Y-17.4155
G01 X22.6312 Y-17.4139
G01 X22.6231 Y-17.4132
G01 X22.6134 Y-17.4136
G01 X22.5415 Y-17.4240
G01 X22.5366 Y-17.4249
G01 X22.5301 Y-17.4266
G01 X22.5254 Y-17.4284
G01 X22.5193 Y-17.4312
G01 X22.5135 Y-17.4347
G01 X22.5081 Y-17.4387
G01 X22.4519 Y-17.4874
G01 X22.4472 Y-17.4922
G01 X22.4430 Y-17.4974
G01 X22.4376 Y-17.5059
G01 X22.4336 Y-17.5152
G01 X22.4114 Y-17.5912
G01 X22.4102 Y-17.5991
G01 X22.4099 Y-17.6055
G01 X22.4099 Y-18.7602
G01 X22.4106 Y-18.7768
G01 X22.4141 Y-18.8139
G01 X22.4116 Y-18.8308
G01 X22.4099 Y-18.8522
G01 X22.4099 Y-18.8675
G01 X22.4003 Y-18.9051
G01 X22.3975 Y-18.9183
G01 X22.3917 Y-18.9551
G01 X22.3857 Y-18.9692
G01 X22.3787 Y-18.9895
G01 X22.3743 Y-19.0060
G01 X22.3564 Y-19.0386
G01 X22.3504 Y-19.0507
G01 X22.3349 Y-19.0863
G01 X22.3257 Y-19.0984
G01 X22.3138 Y-19.1164
G01 X22.3083 Y-19.1260
G01 X22.3053 Y-19.1321
G01 X22.3021 Y-19.1418
G01 X22.2865 Y-19.2025
G01 X22.2849 Y-19.2108
G01 X22.2844 Y-19.2193
G01 X22.2844 Y-19.7840
G01 X19.6638 Y-22.4046
G01 X19.6490 Y-22.4214
G01 X19.5814 Y-22.5095
G01 X19.5776 Y-22.5154
G01 X19.5603 Y-22.5455
G01 X19.5572 Y-22.5519
G01 X19.5185 Y-22.6454
G01 X19.5163 Y-22.6521
G01 X19.5070 Y-22.6873
G01 X19.5004 Y-22.7360
G01 X19.5000 Y-22.7444
G01 X19.5005 Y-22.7512
G01 X19.5144 Y-22.8326
G01 X19.5163 Y-22.8390
G01 X19.5188 Y-22.8451
G01 X19.5219 Y-22.8509
G01 X19.5255 Y-22.8564
G01 X19.5308 Y-22.8627
G01 X19.5805 Y-22.9157
G01 X19.5881 Y-22.9223
G01 X19.5951 Y-22.9270
G01 X19.6042 Y-22.9313
G01 X19.6122 Y-22.9338
G01 X19.6827 Y-22.9515
G01 X19.6910 Y-22.9528
G01 X19.6977 Y-22.9531
G01 X19.7078 Y-22.9524
G01 X19.7176 Y-22.9501
G01 X19.7865 Y-22.9269
G01 X19.7968 Y-22.9224
G01 X19.8036 Y-22.9182
G01 X19.9594 Y-22.8092
G01 X19.9638 Y-22.8066
G01 X20.1559 Y-22.7171
G01 X20.1606 Y-22.7153
G01 X20.2624 Y-22.6881
G01 X20.2624 Y-23.0806
G01 X20.2489 Y-23.0857
G01 X20.1780 Y-23.1193
G01 X20.1721 Y-23.1224
G01 X20.1020 Y-23.1646
G01 X20.0336 Y-23.2153
G01 X19.9705 Y-23.2725
G01 X19.9155 Y-23.3331
G01 X19.9113 Y-23.3382
G01 X19.8626 Y-23.4040
G01 X19.8204 Y-23.4741
G01 X19.8173 Y-23.4800
G01 X19.7824 Y-23.5540
G01 X19.7537 Y-23.6341
G01 X19.7337 Y-23.7135
G01 X19.7325 Y-23.7200
G01 X19.7205 Y-23.8010
G01 X19.7164 Y-23.8860
G01 X19.7205 Y-23.9710
G01 X19.7325 Y-24.0520
G01 X19.7337 Y-24.0585
G01 X19.7537 Y-24.1379
G01 X19.7824 Y-24.2180
G01 X19.8173 Y-24.2920
G01 X19.8204 Y-24.2979
G01 X19.8626 Y-24.3680
G01 X19.9113 Y-24.4338
G01 X19.9155 Y-24.4389
G01 X19.9705 Y-24.4995
G01 X20.0336 Y-24.5567
G01 X20.1020 Y-24.6074
G01 X20.1721 Y-24.6496
G01 X20.1780 Y-24.6527
G01 X20.2489 Y-24.6863
G01 X20.2624 Y-24.6914
G01 X20.2624 Y-25.0839
G01 X20.1606 Y-25.0567
G01 X20.1559 Y-25.0549
G01 X19.9638 Y-24.9654
G01 X19.9594 Y-24.9628
G01 X19.7809 Y-24.8379
G01 X19.7739 Y-24.8338
G01 X19.7327 Y-24.8143
G01 X19.7267 Y-24.8120
G01 X19.7205 Y-24.8102
G01 X19.7141 Y-24.8091
G01 X19.7077 Y-24.8085
G01 X19.6301 Y-24.8095
G01 X19.6218 Y-24.8105
G01 X19.6152 Y-24.8121
G01 X19.6074 Y-24.8149
G01 X19.6013 Y-24.8179
G01 X19.5378 Y-24.8596
G01 X19.5337 Y-24.8625
G01 X19.5286 Y-24.8669
G01 X19.5239 Y-24.8717
G01 X19.5207 Y-24.8757
G01 X19.5170 Y-24.8813
G01 X19.5146 Y-24.8857
G01 X19.4961 Y-24.9271
G01 X19.4928 Y-24.9365
G01 X19.4909 Y-24.9462
G01 X19.4904 Y-24.9545
G01 X19.4904 Y-25.3324
G01 X16.8316 Y-25.3323
G01 X16.8316 Y-24.7675
G01 X16.8311 Y-24.7592
G01 X16.8266 Y-24.7237
G01 X16.8234 Y-24.7127
G01 X16.8185 Y-24.7025
G01 X16.7817 Y-24.6398
G01 X16.7768 Y-24.6330
G01 X16.7711 Y-24.6268
G01 X16.7634 Y-24.6204
G01 X16.7547 Y-24.6152
G01 X16.6899 Y-24.5824
G01 X16.6837 Y-24.5799
G01 X16.6756 Y-24.5775
G01 X16.6656 Y-24.5761
G01 X16.6556 Y-24.5761
G01 X16.5799 Y-24.5840
G01 X16.5717 Y-24.5858
G01 X16.5638 Y-24.5886
G01 X16.5563 Y-24.5923
G01 X16.5507 Y-24.5960
G01 X16.4925 Y-24.6423
G01 X16.4866 Y-24.6477
G01 X16.4803 Y-24.6551
G01 X16.4582 Y-24.6866
G01 X16.3046 Y-24.8402
G01 X16.1268 Y-24.9647
G01 X15.9300 Y-25.0565
G01 X15.7203 Y-25.1127
G01 X15.5040 Y-25.1316
G01 X15.2877 Y-25.1127
G01 X15.0780 Y-25.0565
G01 X14.8812 Y-24.9647
G01 X14.7034 Y-24.8402
G01 X14.5498 Y-24.6866
G01 X14.4253 Y-24.5088
G01 X14.3335 Y-24.3120
G01 X14.2773 Y-24.1023
G01 X14.2584 Y-23.8860
G01 X14.2773 Y-23.6697
G01 X14.3335 Y-23.4600
G01 X14.4253 Y-23.2632
G01 X14.5498 Y-23.0854
G01 X14.7034 Y-22.9318
G01 X14.8812 Y-22.8073
G01 X15.0780 Y-22.7155
G01 X15.2877 Y-22.6593
G01 X15.5040 Y-22.6404
G01 X15.7203 Y-22.6593
G01 X15.9300 Y-22.7155
G01 X16.1268 Y-22.8073
G01 X16.3046 Y-22.9318
G01 X16.4582 Y-23.0854
G01 X16.4824 Y-23.1196
G01 X16.5064 Y-23.1463
G01 X16.5123 Y-23.1518
G01 X16.5188 Y-23.1566
G01 X16.5259 Y-23.1606
G01 X16.5920 Y-23.1908
G01 X16.5982 Y-23.1933
G01 X16.6047 Y-23.1951
G01 X16.6113 Y-23.1963
G01 X16.6196 Y-23.1969
G01 X16.6264 Y-23.1966
G01 X16.7016 Y-23.1859
G01 X16.7098 Y-23.1840
G01 X16.7177 Y-23.1810
G01 X16.7266 Y-23.1763
G01 X16.7334 Y-23.1714
G01 X16.7896 Y-23.1227
G01 X16.7943 Y-23.1179
G01 X16.7985 Y-23.1127
G01 X16.8022 Y-23.1071
G01 X16.8054 Y-23.1012
G01 X16.8089 Y-23.0917
G01 X16.8293 Y-23.0221
G01 X16.8310 Y-23.0142
G01 X16.8316 Y-23.0062
G01 X16.8316 Y-22.1063
G01 X16.8302 Y-22.0824
G01 X16.8157 Y-21.9724
G01 X16.8142 Y-21.9655
G01 X16.8041 Y-21.9286
G01 X16.7633 Y-21.8302
G01 X16.7444 Y-21.7970
G01 X16.7395 Y-21.7897
G01 X16.6779 Y-21.7094
G01 X16.6731 Y-21.7041
G01 X16.6499 Y-21.6809
G01 X16.6432 Y-21.6750
G01 X16.5629 Y-21.6134
G01 X16.5570 Y-21.6096
G01 X16.5285 Y-21.5931
G01 X16.5222 Y-21.5899
G01 X16.4287 Y-21.5512
G01 X16.4220 Y-21.5488
G01 X16.3885 Y-21.5398
G01 X16.3816 Y-21.5383
G01 X16.2730 Y-21.5240
G01 X16.2522 Y-21.5225
G01 X13.1595 Y-21.5224
G01 X13.1279 Y-21.5251
G01 X13.1211 Y-21.5262
G01 X13.1145 Y-21.5281
G01 X13.1051 Y-21.5320
G01 X13.0375 Y-21.5669
G01 X13.0306 Y-21.5717
G01 X13.0244 Y-21.5773
G01 X13.0189 Y-21.5837
G01 X13.0142 Y-21.5907
G01 X12.9778 Y-21.6536
G01 X12.9736 Y-21.6627
G01 X12.9712 Y-21.6708
G01 X12.9698 Y-21.6791
G01 X12.9695 Y-21.6874
G01 X12.9728 Y-21.7600
G01 X12.9737 Y-21.7683
G01 X12.9751 Y-21.7747
G01 X12.9771 Y-21.7810
G01 X12.9821 Y-21.7914
G01 X13.0256 Y-21.8538
G01 X13.0335 Y-21.8626
G01 X13.1473 Y-21.9759
G01 X13.1515 Y-21.9811
G01 X13.2326 Y-22.1123
G01 X13.2355 Y-22.1184
G01 X13.2845 Y-22.2653
G01 X13.2858 Y-22.2715
G01 X13.2953 Y-22.3647
G01 X13.2953 Y-22.5384
G01 X12.9226 Y-22.5384
G01 X12.9226 Y-22.4100
G01 X12.9209 Y-22.3772
G01 X12.9165 Y-22.3480
G01 X12.9090 Y-22.3178
G01 X12.8985 Y-22.2884
G01 X12.8851 Y-22.2603
G01 X12.8691 Y-22.2335
G01 X12.8505 Y-22.2085
G01 X12.8296 Y-22.1854
G01 X12.8065 Y-22.1645
G01 X12.7815 Y-22.1459
G01 X12.7547 Y-22.1299
G01 X12.7266 Y-22.1165
G01 X12.6956 Y-22.1056
G01 X12.6670 Y-22.0985
G01 X12.6394 Y-22.0943
G01 X12.6328 Y-22.0936
G01 X12.6067 Y-22.0924
G01 X12.0800 Y-22.0924
G01 X12.0522 Y-22.0936
G01 X12.0456 Y-22.0943
G01 X12.0180 Y-22.0985
G01 X11.9910 Y-22.1051
G01 X11.9846 Y-22.1071
G01 X11.9584 Y-22.1165
G01 X11.9332 Y-22.1284
G01 X11.9274 Y-22.1315
G01 X11.9035 Y-22.1459
G01 X11.8785 Y-22.1645
G01 X11.8554 Y-22.1854
G01 X11.8345 Y-22.2085
G01 X11.8178 Y-22.2308
G01 X11.8141 Y-22.2363
G01 X11.7999 Y-22.2603
G01 X11.7879 Y-22.2854
G01 X11.7853 Y-22.2915
G01 X11.7771 Y-22.3146
G01 X11.7751 Y-22.3210
G01 X11.7685 Y-22.3480
G01 X11.7641 Y-22.3772
G01 X11.7624 Y-22.4100
G01 X11.7624 Y-23.3100
G01 X11.7637 Y-23.3395
G01 X11.7685 Y-23.3720
G01 X11.7751 Y-23.3990
G01 X11.7771 Y-23.4054
G01 X11.7853 Y-23.4285
G01 X11.7879 Y-23.4346
G01 X11.7999 Y-23.4597
G01 X11.8159 Y-23.4865
G01 X11.8345 Y-23.5115
G01 X11.8531 Y-23.5322
G01 X11.8578 Y-23.5369
G01 X11.8760 Y-23.5534
G01 X11.8811 Y-23.5576
G01 X11.9035 Y-23.5741
G01 X11.9303 Y-23.5901
G01 X11.9584 Y-23.6035
G01 X11.9846 Y-23.6129
G01 X11.9910 Y-23.6149
G01 X12.0209 Y-23.6220
G01 X12.0209 Y-23.9991
G01 X11.9427 Y-23.9911
G01 X11.9365 Y-23.9898
G01 X11.8666 Y-23.9668
G01 X11.8385 Y-23.9603
G01 X11.8284 Y-23.9595
G01 X11.8200 Y-23.9599
G01 X11.7464 Y-23.9705
G01 X11.7366 Y-23.9729
G01 X11.7273 Y-23.9768
G01 X11.7214 Y-23.9801
G01 X11.7146 Y-23.9850
G01 X11.6597 Y-24.0326
G01 X11.6537 Y-24.0385
G01 X11.6485 Y-24.0450
G01 X11.6458 Y-24.0493
G01 X11.6426 Y-24.0552
G01 X11.6391 Y-24.0646
G01 X11.6187 Y-24.1343
G01 X11.6170 Y-24.1422
G01 X11.6164 Y-24.1502
G01 X11.6164 Y-24.4223
G01 X11.6180 Y-24.4446
G01 X11.6323 Y-24.5532
G01 X11.6338 Y-24.5601
G01 X11.6423 Y-24.5919
G01 X11.6445 Y-24.5986
G01 X11.6832 Y-24.6921
G01 X11.6863 Y-24.6985
G01 X11.7036 Y-24.7286
G01 X11.7074 Y-24.7345
G01 X11.7741 Y-24.8214
G01 X11.7888 Y-24.8383
G01 X12.7526 Y-25.8022
G01 X12.7694 Y-25.8170
G01 X12.8575 Y-25.8846
G01 X12.8634 Y-25.8884
G01 X12.8919 Y-25.9049
G01 X12.8982 Y-25.9081
G01 X12.9934 Y-25.9475
G01 X13.0001 Y-25.9497
G01 X13.0319 Y-25.9582
G01 X13.0406 Y-25.9599
G01 X13.1489 Y-25.9742
G01 X13.1727 Y-25.9756
G01 X23.4033 Y-25.9756
G01 X23.4286 Y-25.9740
G01 X23.5407 Y-25.9590
G01 X23.5759 Y-25.9497
G01 X23.5826 Y-25.9475
G01 X23.6761 Y-25.9088
G01 X23.6825 Y-25.9057
G01 X23.7126 Y-25.8884
G01 X23.7185 Y-25.8846
G01 X23.8066 Y-25.8170
G01 X23.8234 Y-25.8022
G01 X29.2228 Y-20.4028
G01 X29.2262 Y-20.3990
G01 X29.2302 Y-20.3936
G01 X29.2610 Y-20.3444
G01 X29.2650 Y-20.3372
G01 X29.2685 Y-20.3279
G01 X29.2701 Y-20.3216
G01 X29.2712 Y-20.3134
G01 X29.2747 Y-20.2408
G01 X29.2747 Y-20.2341
G01 X29.2741 Y-20.2274
G01 X29.2723 Y-20.2192
G01 X29.2695 Y-20.2113
G01 X29.2658 Y-20.2038
G01 X29.2278 Y-20.1382
G01 X29.2208 Y-20.1294
G01 X29.2091 Y-20.1182
G01 X31.3652 Y-20.1182
G01 X31.3725 Y-20.1234
G01 X31.3812 Y-20.1280
G01 X31.3905 Y-20.1313
G01 X31.3985 Y-20.1329
G01 X31.4083 Y-20.1336
G01 X31.4680 Y-20.1336
G01 X38.1515 Y-26.8172
G01 X38.1694 Y-26.8330
G01 X38.2575 Y-26.9006
G01 X38.2634 Y-26.9044
G01 X38.2935 Y-26.9217
G01 X38.2999 Y-26.9248
G01 X38.3934 Y-26.9635
G01 X38.4001 Y-26.9657
G01 X38.4336 Y-26.9746
G01 X38.4406 Y-26.9759
G01 X38.5474 Y-26.9900
G01 X38.5712 Y-26.9916
G01 X42.9207 Y-26.9916
G01 X42.9430 Y-26.9900
G01 X43.0499 Y-26.9759
G01 X43.0568 Y-26.9746
G01 X43.0903 Y-26.9657
G01 X43.0970 Y-26.9635
G01 X43.1906 Y-26.9248
G01 X43.1970 Y-26.9217
G01 X43.2270 Y-26.9044
G01 X43.2329 Y-26.9006
G01 X43.3132 Y-26.8390
G01 X43.3186 Y-26.8344
G01 X43.3431 Y-26.8099
G01 X43.3479 Y-26.8046
G01 X43.4095 Y-26.7243
G01 X43.4144 Y-26.7170
G01 X43.4309 Y-26.6885
G01 X43.4341 Y-26.6822
G01 X43.4728 Y-26.5887
G01 X43.4752 Y-26.5820
G01 X43.4842 Y-26.5485
G01 X43.4857 Y-26.5416
G01 X43.5002 Y-26.4316
G01 X43.5016 Y-26.4077
G01 X43.5016 Y-1.5323
G01 X43.5000 Y-1.5070
G01 X43.4859 Y-1.4001
G01 X43.4846 Y-1.3932
G01 X43.4757 Y-1.3597
G01 X43.4735 Y-1.3530
G01 X43.4348 Y-1.2594
G01 X43.4317 Y-1.2530
G01 X43.4144 Y-1.2230
G01 X43.4106 Y-1.2171
G01 X43.3490 Y-1.1368
G01 X43.3444 Y-1.1314
G01 X43.3199 Y-1.1069
G01 X43.3146 Y-1.1021
G01 X43.2343 Y-1.0405
G01 X43.2270 Y-1.0356
G01 X43.1985 Y-1.0191
G01 X43.1922 Y-1.0159
G01 X43.0987 Y-0.9772
G01 X43.0920 Y-0.9748
G01 X43.0585 Y-0.9658
G01 X43.0516 Y-0.9643
G01 X42.9416 Y-0.9498
G01 X42.9177 Y-0.9484
G01 X1.5308 Y-0.9484
G01 X1.5084 Y-0.9498
G01 X1.3984 Y-0.9643
G01 X1.3915 Y-0.9658
G01 X1.3597 Y-0.9743
G01 X1.3530 Y-0.9765
G01 X1.2578 Y-1.0159
G01 X1.2515 Y-1.0191
G01 X1.2230 Y-1.0356
G01 X1.2157 Y-1.0405
G01 X1.1368 Y-1.1010
G01 X1.1314 Y-1.1056
G01 X1.1069 Y-1.1301
G01 X1.1021 Y-1.1354
G01 X1.0405 Y-1.2157
G01 X1.0356 Y-1.2230
G01 X1.0191 Y-1.2515
G01 X1.0159 Y-1.2578
G01 X0.9765 Y-1.3530
G01 X0.9743 Y-1.3597
G01 X0.9658 Y-1.3915
G01 X0.9641 Y-1.4001
G01 X0.9496 Y-1.5114
G00 Z2.0000
G00 X4.1301 Y-4.8054
G01 F59.00
G01 Z-0.1001
G01 F120.00
G01 X4.1286 Y-4.8343
G01 X4.1286 Y-6.5957
G01 X4.1301 Y-6.6246
G01 X4.1313 Y-6.6369
G01 X4.1453 Y-6.7438
G01 X4.1469 Y-6.7536
G01 X4.1490 Y-6.7633
G01 X4.1587 Y-6.7998
G01 X4.1631 Y-6.8140
G01 X4.1906 Y-6.8810
G01 X4.1906 Y-6.9746
G01 X4.1920 Y-7.0038
G01 X4.1932 Y-7.0177
G01 X4.1990 Y-7.0557
G01 X4.2070 Y-7.0886
G01 X4.2124 Y-7.1064
G01 X4.2223 Y-7.1338
G01 X4.2259 Y-7.1424
G01 X4.2425 Y-7.1771
G01 X4.2646 Y-7.2141
G01 X4.2903 Y-7.2488
G01 X4.3193 Y-7.2807
G01 X4.3512 Y-7.3097
G01 X4.3859 Y-7.3354
G01 X4.4229 Y-7.3575
G01 X4.4576 Y-7.3741
G01 X4.4705 Y-7.3793
G01 X4.5024 Y-7.3905
G01 X4.5443 Y-7.4010
G01 X4.5869 Y-7.4073
G01 X4.6254 Y-7.4094
G01 X5.5346 Y-7.4094
G01 X5.5731 Y-7.4073
G01 X5.6157 Y-7.4010
G01 X5.6576 Y-7.3905
G01 X5.6938 Y-7.3777
G01 X5.7067 Y-7.3722
G01 X5.7330 Y-7.3597
G01 X5.7412 Y-7.3553
G01 X5.7663 Y-7.3403
G01 X5.7780 Y-7.3327
G01 X5.8014 Y-7.3154
G01 X5.8088 Y-7.3097
G01 X5.8182 Y-7.3014
G01 X7.3070 Y-7.3014
G01 X7.3184 Y-7.3054
G01 X7.3317 Y-7.3093
G01 X7.4079 Y-7.3284
G01 X7.4261 Y-7.3320
G01 X7.5130 Y-7.3447
G01 X7.6100 Y-7.3494
G01 X7.7070 Y-7.3447
G01 X7.7939 Y-7.3320
G01 X7.8121 Y-7.3284
G01 X7.8883 Y-7.3093
G01 X7.9016 Y-7.3054
G01 X7.9130 Y-7.3014
G01 X8.1197 Y-7.3014
G01 X8.1321 Y-7.3010
G01 X8.1568 Y-7.2992
G01 X8.2776 Y-7.2831
G01 X8.2921 Y-7.2798
G01 X8.3333 Y-7.2685
G01 X8.3473 Y-7.2633
G01 X8.4437 Y-7.2233
G01 X8.4527 Y-7.2191
G01 X8.4614 Y-7.2143
G01 X8.4983 Y-7.1927
G01 X8.5105 Y-7.1841
G01 X8.5933 Y-7.1205
G01 X8.6008 Y-7.1141
G01 X8.6080 Y-7.1072
G01 X8.6381 Y-7.0768
G01 X8.6476 Y-7.0654
G01 X8.7139 Y-6.9785
G01 X8.7219 Y-6.9659
G01 X8.7383 Y-6.9374
G01 X8.7431 Y-6.9287
G01 X8.7473 Y-6.9197
G01 X8.7909 Y-6.8140
G01 X8.7953 Y-6.7998
G01 X8.8050 Y-6.7633
G01 X8.8071 Y-6.7536
G01 X8.8087 Y-6.7438
G01 X8.8227 Y-6.6369
G01 X8.8236 Y-6.6287
G01 X8.8252 Y-6.6040
G01 X8.8254 Y-5.5921
G01 X8.8232 Y-5.5592
G01 X8.8079 Y-5.4433
G01 X8.8061 Y-5.4336
G01 X8.8038 Y-5.4239
G01 X8.7953 Y-5.3922
G01 X8.7909 Y-5.3780
G01 X8.7493 Y-5.2768
G01 X8.7431 Y-5.2633
G01 X8.7383 Y-5.2546
G01 X8.7193 Y-5.2219
G01 X8.7139 Y-5.2135
G01 X8.7081 Y-5.2055
G01 X8.6413 Y-5.1189
G01 X8.6312 Y-5.1080
G01 X8.6008 Y-5.0779
G01 X8.5894 Y-5.0684
G01 X8.5025 Y-5.0021
G01 X8.4899 Y-4.9941
G01 X8.4614 Y-4.9777
G01 X8.4527 Y-4.9729
G01 X8.4437 Y-4.9687
G01 X8.3380 Y-4.9251
G01 X8.3238 Y-4.9207
G01 X8.2873 Y-4.9110
G01 X8.2776 Y-4.9089
G01 X8.2678 Y-4.9073
G01 X8.1609 Y-4.8933
G01 X8.1527 Y-4.8924
G01 X8.1280 Y-4.8908
G01 X7.9799 Y-4.8906
G01 X7.9699 Y-4.8908
G01 X7.9601 Y-4.8916
G01 X7.9225 Y-4.8965
G01 X7.9079 Y-4.8990
G01 X7.8051 Y-4.9263
G01 X7.6100 Y-4.9434
G01 X7.4149 Y-4.9263
G01 X7.3121 Y-4.8990
G01 X7.2975 Y-4.8965
G01 X7.2550 Y-4.8912
G01 X7.2401 Y-4.8906
G01 X6.9365 Y-4.8906
G01 X6.3816 Y-4.3358
G01 X6.3631 Y-4.3194
G01 X6.3536 Y-4.3115
G01 X6.2681 Y-4.2459
G01 X6.2600 Y-4.2401
G01 X6.2517 Y-4.2347
G01 X6.2146 Y-4.2132
G01 X6.2013 Y-4.2067
G01 X6.1049 Y-4.1667
G01 X6.0956 Y-4.1631
G01 X6.0862 Y-4.1600
G01 X6.0448 Y-4.1490
G01 X6.0302 Y-4.1461
G01 X5.9144 Y-4.1308
G01 X5.8815 Y-4.1286
G01 X5.8182 Y-4.1286
G01 X5.8088 Y-4.1203
G01 X5.8014 Y-4.1146
G01 X5.7780 Y-4.0973
G01 X5.7663 Y-4.0897
G01 X5.7412 Y-4.0747
G01 X5.7330 Y-4.0703
G01 X5.7067 Y-4.0578
G01 X5.6938 Y-4.0523
G01 X5.6576 Y-4.0395
G01 X5.6157 Y-4.0290
G01 X5.5731 Y-4.0227
G01 X5.5393 Y-4.0208
G01 X4.6207 Y-4.0208
G01 X4.5869 Y-4.0227
G01 X4.5534 Y-4.0274
G01 X4.5397 Y-4.0300
G01 X4.5069 Y-4.0382
G01 X4.4936 Y-4.0424
G01 X4.4618 Y-4.0540
G01 X4.4312 Y-4.0683
G01 X4.4188 Y-4.0747
G01 X4.3859 Y-4.0946
G01 X4.3512 Y-4.1203
G01 X4.3193 Y-4.1493
G01 X4.2964 Y-4.1742
G01 X4.2874 Y-4.1849
G01 X4.2700 Y-4.2083
G01 X4.2597 Y-4.2237
G01 X4.2447 Y-4.2488
G01 X4.2403 Y-4.2570
G01 X4.2278 Y-4.2833
G01 X4.2223 Y-4.2962
G01 X4.2095 Y-4.3324
G01 X4.2011 Y-4.3652
G01 X4.1982 Y-4.3788
G01 X4.1932 Y-4.4123
G01 X4.1920 Y-4.4262
G01 X4.1906 Y-4.4551
G01 X4.1904 Y-4.5494
G01 X4.1631 Y-4.6160
G01 X4.1587 Y-4.6302
G01 X4.1490 Y-4.6667
G01 X4.1469 Y-4.6764
G01 X4.1453 Y-4.6862
G01 X4.1313 Y-4.7931
G01 X4.1301 Y-4.8054
G00 Z2.0000
G00 X4.2516 Y-4.8134
G01 F59.00
G01 Z-0.1001
G01 F120.00
G01 X4.2504 Y-4.8343
G01 X4.2504 Y-6.5957
G01 X4.2518 Y-6.6196
G01 X4.2661 Y-6.7279
G01 X4.2678 Y-6.7365
G01 X4.2763 Y-6.7683
G01 X4.2785 Y-6.7750
G01 X4.3124 Y-6.8568
G01 X4.3124 Y-6.9700
G01 X4.3139 Y-7.0011
G01 X4.3179 Y-7.0287
G01 X4.3192 Y-7.0352
G01 X4.3260 Y-7.0622
G01 X4.3359 Y-7.0900
G01 X4.3499 Y-7.1197
G01 X4.3659 Y-7.1465
G01 X4.3845 Y-7.1715
G01 X4.4054 Y-7.1946
G01 X4.4285 Y-7.2155
G01 X4.4535 Y-7.2341
G01 X4.4803 Y-7.2501
G01 X4.5054 Y-7.2621
G01 X4.5115 Y-7.2647
G01 X4.5378 Y-7.2740
G01 X4.5680 Y-7.2815
G01 X4.5989 Y-7.2861
G01 X4.6283 Y-7.2876
G01 X5.5300 Y-7.2876
G01 X5.5595 Y-7.2863
G01 X5.5920 Y-7.2815
G01 X5.6222 Y-7.2740
G01 X5.6516 Y-7.2635
G01 X5.6783 Y-7.2509
G01 X5.7065 Y-7.2341
G01 X5.7302 Y-7.2166
G01 X5.7534 Y-7.1958
G01 X5.7683 Y-7.1796
G01 X7.3282 Y-7.1796
G01 X7.3597 Y-7.1908
G01 X7.4391 Y-7.2106
G01 X7.5233 Y-7.2233
G01 X7.6100 Y-7.2276
G01 X7.6950 Y-7.2235
G01 X7.7809 Y-7.2106
G01 X7.8603 Y-7.1908
G01 X7.8918 Y-7.1796
G01 X8.1197 Y-7.1796
G01 X8.1406 Y-7.1784
G01 X8.2536 Y-7.1637
G01 X8.2605 Y-7.1622
G01 X8.2923 Y-7.1537
G01 X8.2990 Y-7.1515
G01 X8.3942 Y-7.1121
G01 X8.4005 Y-7.1089
G01 X8.4290 Y-7.0924
G01 X8.4363 Y-7.0875
G01 X8.5180 Y-7.0247
G01 X8.5451 Y-6.9979
G01 X8.5510 Y-6.9912
G01 X8.6136 Y-6.9095
G01 X8.6353 Y-6.8718
G01 X8.6755 Y-6.7750
G01 X8.6777 Y-6.7683
G01 X8.6866 Y-6.7348
G01 X8.6879 Y-6.7279
G01 X8.7020 Y-6.6210
G01 X8.7036 Y-6.5987
G01 X8.7036 Y-5.5948
G01 X8.7022 Y-5.5724
G01 X8.6879 Y-5.4641
G01 X8.6862 Y-5.4555
G01 X8.6761 Y-5.4186
G01 X8.6368 Y-5.3234
G01 X8.6329 Y-5.3155
G01 X8.6155 Y-5.2855
G01 X8.6115 Y-5.2797
G01 X8.5499 Y-5.1994
G01 X8.5451 Y-5.1941
G01 X8.5193 Y-5.1684
G01 X8.4349 Y-5.1034
G01 X8.4290 Y-5.0996
G01 X8.3958 Y-5.0807
G01 X8.2990 Y-5.0405
G01 X8.2923 Y-5.0383
G01 X8.2588 Y-5.0294
G01 X8.2519 Y-5.0281
G01 X8.1450 Y-5.0140
G01 X8.1227 Y-5.0124
G01 X7.9799 Y-5.0124
G01 X7.9728 Y-5.0127
G01 X7.9384 Y-5.0172
G01 X7.9315 Y-5.0185
G01 X7.8263 Y-5.0467
G01 X7.6100 Y-5.0656
G01 X7.3937 Y-5.0467
G01 X7.2885 Y-5.0185
G01 X7.2816 Y-5.0172
G01 X7.2454 Y-5.0126
G01 X6.8860 Y-5.0124
G01 X6.2974 Y-4.4238
G01 X6.2794 Y-4.4081
G01 X6.1896 Y-4.3394
G01 X6.1581 Y-4.3211
G01 X6.1501 Y-4.3172
G01 X6.0566 Y-4.2785
G01 X6.0499 Y-4.2763
G01 X6.0147 Y-4.2670
G01 X5.8982 Y-4.2516
G01 X5.8773 Y-4.2504
G01 X5.7683 Y-4.2504
G01 X5.7534 Y-4.2342
G01 X5.7302 Y-4.2134
G01 X5.7065 Y-4.1959
G01 X5.6783 Y-4.1791
G01 X5.6516 Y-4.1665
G01 X5.6222 Y-4.1560
G01 X5.5920 Y-4.1485
G01 X5.5595 Y-4.1437
G01 X5.5300 Y-4.1424
G01 X4.6283 Y-4.1424
G01 X4.5989 Y-4.1439
G01 X4.5713 Y-4.1479
G01 X4.5648 Y-4.1492
G01 X4.5378 Y-4.1560
G01 X4.5115 Y-4.1653
G01 X4.5054 Y-4.1679
G01 X4.4817 Y-4.1791
G01 X4.4535 Y-4.1959
G01 X4.4285 Y-4.2145
G01 X4.4054 Y-4.2354
G01 X4.3866 Y-4.2560
G01 X4.3824 Y-4.2611
G01 X4.3678 Y-4.2808
G01 X4.3641 Y-4.2863
G01 X4.3499 Y-4.3103
G01 X4.3379 Y-4.3354
G01 X4.3353 Y-4.3415
G01 X4.3260 Y-4.3678
G01 X4.3192 Y-4.3948
G01 X4.3179 Y-4.4013
G01 X4.3139 Y-4.4289
G01 X4.3124 Y-4.4598
G01 X4.3121 Y-4.5738
G01 X4.2779 Y-4.6566
G01 X4.2674 Y-4.6952
G01 X4.2661 Y-4.7021
G01 X4.2516 Y-4.8134
G00 Z2.0000
G00 X6.1881 Y-3.8093
G01 F59.00
G01 Z-0.1001
G01 F120.00
G01 X6.1037 Y-3.7242
G01 X6.0893 Y-3.7385
G01 X6.0793 Y-3.7478
G01 X6.0611 Y-3.7643
G01 X6.0438 Y-3.7793
G01 X6.0874 Y-3.7852
G01 X6.1159 Y-3.7905
G01 X6.1442 Y-3.7973
G01 X6.1881 Y-3.8093
G00 Z2.0000
G00 X6.3970 Y-4.0387
G01 F59.00
G01 Z-0.1001
G01 F120.00
G01 X6.3856 Y-3.9619
G01 X6.3830 Y-3.9409
G01 X6.3814 Y-3.9197
G01 X6.3771 Y-3.8269
G01 X6.0954 Y-3.5430
G01 X6.0710 Y-3.5765
G01 X6.0579 Y-3.5933
G01 X6.0441 Y-3.6094
G01 X6.0203 Y-3.6353
G01 X6.0053 Y-3.6503
G01 X5.9794 Y-3.6741
G01 X5.9633 Y-3.6879
G01 X5.9465 Y-3.7010
G01 X5.9182 Y-3.7218
G01 X5.9005 Y-3.7337
G01 X5.8704 Y-3.7518
G01 X5.8519 Y-3.7623
G01 X5.8330 Y-3.7719
G01 X5.8108 Y-3.7824
G01 X5.7914 Y-3.7910
G01 X5.7715 Y-3.7986
G01 X5.7394 Y-3.8100
G01 X5.7815 Y-3.8251
G01 X5.7914 Y-3.8290
G01 X5.8108 Y-3.8376
G01 X5.8330 Y-3.8481
G01 X5.8519 Y-3.8577
G01 X5.8704 Y-3.8682
G01 X5.8994 Y-3.8856
G01 X5.9315 Y-3.8878
G01 X5.9503 Y-3.8898
G01 X6.0571 Y-3.9039
G01 X6.0795 Y-3.9074
G01 X6.1017 Y-3.9121
G01 X6.1444 Y-3.9235
G01 X6.1554 Y-3.9265
G01 X6.1769 Y-3.9335
G01 X6.1981 Y-3.9417
G01 X6.2899 Y-3.9797
G01 X6.3107 Y-3.9889
G01 X6.3208 Y-3.9939
G01 X6.3407 Y-4.0048
G01 X6.3790 Y-4.0270
G01 X6.3970 Y-4.0387
G00 Z2.0000
G00 X7.0335 Y-4.7688
G01 F59.00
G01 Z-0.1001
G01 F120.00
G01 X6.9991 Y-4.7481
G01 X6.9864 Y-4.7396
G01 X6.9110 Y-4.6837
G01 X6.8935 Y-4.6690
G01 X6.8353 Y-4.6163
G01 X6.8189 Y-4.6003
G01 X6.7610 Y-4.5365
G01 X6.7510 Y-4.5249
G01 X6.7416 Y-4.5129
G01 X6.6949 Y-4.4498
G01 X6.6861 Y-4.4373
G01 X6.6779 Y-4.4244
G01 X6.6375 Y-4.3571
G01 X6.6300 Y-4.3438
G01 X6.6232 Y-4.3302
G01 X6.5896 Y-4.2592
G01 X6.5834 Y-4.2452
G01 X6.5779 Y-4.2310
G01 X6.5514 Y-4.1571
G01 X6.5467 Y-4.1426
G01 X6.5426 Y-4.1278
G01 X6.5217 Y-4.0443
G01 X6.5176 Y-4.0217
G01 X6.5060 Y-3.9441
G01 X6.5035 Y-3.9213
G01 X6.4989 Y-3.8276
G01 X6.4989 Y-3.8124
G01 X6.5007 Y-3.7745
G01 X6.0815 Y-3.3553
G01 X6.0558 Y-3.3553
G01 X6.0513 Y-3.3677
G01 X6.0455 Y-3.3818
G01 X6.0284 Y-3.4178
G01 X6.0212 Y-3.4312
G01 X6.0048 Y-3.4589
G01 X5.9923 Y-3.4781
G01 X5.9732 Y-3.5040
G01 X5.9638 Y-3.5160
G01 X5.9374 Y-3.5458
G01 X5.9214 Y-3.5622
G01 X5.8976 Y-3.5838
G01 X5.8860 Y-3.5938
G01 X5.8543 Y-3.6178
G01 X5.8354 Y-3.6308
G01 X5.8012 Y-3.6512
G01 X5.7809 Y-3.6618
G01 X5.7448 Y-3.6785
G01 X5.7305 Y-3.6840
G01 X5.7002 Y-3.6947
G01 X5.6782 Y-3.7011
G01 X5.6395 Y-3.7104
G01 X5.6002 Y-3.7166
G01 X5.5850 Y-3.7185
G01 X5.5698 Y-3.7196
G01 X5.5300 Y-3.7212
G01 X4.6300 Y-3.7212
G01 X4.5902 Y-3.7196
G01 X4.5750 Y-3.7185
G01 X4.5356 Y-3.7130
G01 X4.5130 Y-3.7088
G01 X4.4818 Y-3.7011
G01 X4.4646 Y-3.6962
G01 X3.8633 Y-4.2966
G01 X3.8633 Y-7.9754
G01 X3.8768 Y-7.9522
G01 X3.8904 Y-7.9319
G01 X3.9558 Y-7.8465
G01 X3.9661 Y-7.8338
G01 X3.9770 Y-7.8217
G01 X4.0117 Y-7.7870
G01 X4.0301 Y-7.7709
G01 X4.1154 Y-7.7053
G01 X4.1286 Y-7.6957
G01 X4.1422 Y-7.6868
G01 X4.1848 Y-7.6622
G01 X4.2068 Y-7.6514
G01 X4.3061 Y-7.6102
G01 X4.3213 Y-7.6043
G01 X4.3368 Y-7.5993
G01 X4.3843 Y-7.5866
G01 X4.4083 Y-7.5818
G01 X4.5232 Y-7.5666
G01 X4.5367 Y-7.5651
G01 X4.5667 Y-7.5631
G01 X4.5803 Y-7.5628
G01 X8.8328 Y-7.5628
G01 X8.8328 Y-7.0173
G01 X8.8232 Y-7.0338
G01 X8.8096 Y-7.0541
G01 X8.7391 Y-7.1459
G01 X8.7230 Y-7.1643
G01 X8.6941 Y-7.1934
G01 X8.6823 Y-7.2046
G01 X8.6699 Y-7.2151
G01 X8.5781 Y-7.2856
G01 X8.5578 Y-7.2992
G01 X8.5223 Y-7.3198
G01 X8.5080 Y-7.3276
G01 X8.4932 Y-7.3346
G01 X8.3863 Y-7.3789
G01 X8.3710 Y-7.3843
G01 X8.3553 Y-7.3889
G01 X8.3157 Y-7.3994
G01 X8.2997 Y-7.4028
G01 X8.2837 Y-7.4054
G01 X8.1768 Y-7.4194
G01 X8.1633 Y-7.4209
G01 X8.1333 Y-7.4229
G01 X8.1197 Y-7.4232
G01 X7.9330 Y-7.4232
G01 X7.9178 Y-7.4274
G01 X7.8417 Y-7.4465
G01 X7.8268 Y-7.4498
G01 X7.8117 Y-7.4524
G01 X7.7341 Y-7.4640
G01 X7.7189 Y-7.4658
G01 X7.7037 Y-7.4670
G01 X7.6253 Y-7.4708
G01 X7.6100 Y-7.4712
G01 X7.5947 Y-7.4708
G01 X7.5163 Y-7.4670
G01 X7.5011 Y-7.4658
G01 X7.4859 Y-7.4640
G01 X7.4083 Y-7.4524
G01 X7.3932 Y-7.4498
G01 X7.3783 Y-7.4465
G01 X7.3022 Y-7.4274
G01 X7.2870 Y-7.4232
G01 X5.8605 Y-7.4232
G01 X5.8481 Y-7.4323
G01 X5.8354 Y-7.4408
G01 X5.8012 Y-7.4612
G01 X5.7809 Y-7.4718
G01 X5.7518 Y-7.4855
G01 X5.7377 Y-7.4913
G01 X5.7074 Y-7.5022
G01 X5.6929 Y-7.5070
G01 X5.6782 Y-7.5111
G01 X5.6470 Y-7.5188
G01 X5.6320 Y-7.5218
G01 X5.6002 Y-7.5266
G01 X5.5774 Y-7.5291
G01 X5.5453 Y-7.5308
G01 X5.5300 Y-7.5312
G01 X4.6300 Y-7.5312
G01 X4.5902 Y-7.5296
G01 X4.5674 Y-7.5276
G01 X4.5280 Y-7.5218
G01 X4.5056 Y-7.5171
G01 X4.4671 Y-7.5070
G01 X4.4295 Y-7.4940
G01 X4.4082 Y-7.4855
G01 X4.3722 Y-7.4684
G01 X4.3522 Y-7.4574
G01 X4.3182 Y-7.4366
G01 X4.2860 Y-7.4132
G01 X4.2681 Y-7.3989
G01 X4.2386 Y-7.3722
G01 X4.2226 Y-7.3558
G01 X4.1962 Y-7.3260
G01 X4.1722 Y-7.2943
G01 X4.1592 Y-7.2754
G01 X4.1426 Y-7.2478
G01 X4.1351 Y-7.2345
G01 X4.1282 Y-7.2209
G01 X4.1115 Y-7.1848
G01 X4.0978 Y-7.1474
G01 X4.0930 Y-7.1329
G01 X4.0889 Y-7.1182
G01 X4.0812 Y-7.0870
G01 X4.0782 Y-7.0720
G01 X4.0734 Y-7.0402
G01 X4.0709 Y-7.0174
G01 X4.0689 Y-6.9776
G01 X4.0688 Y-6.9053
G01 X4.0511 Y-6.8623
G01 X4.0457 Y-6.8470
G01 X4.0411 Y-6.8313
G01 X4.0326 Y-6.7996
G01 X4.0288 Y-6.7837
G01 X4.0246 Y-6.7597
G01 X4.0106 Y-6.6528
G01 X4.0091 Y-6.6393
G01 X4.0075 Y-6.6161
G01 X4.0068 Y-6.5957
G01 X4.0068 Y-4.8343
G01 X4.0071 Y-4.8207
G01 X4.0091 Y-4.7907
G01 X4.0106 Y-4.7772
G01 X4.0246 Y-4.6703
G01 X4.0288 Y-4.6463
G01 X4.0326 Y-4.6304
G01 X4.0411 Y-4.5987
G01 X4.0457 Y-4.5830
G01 X4.0511 Y-4.5677
G01 X4.0687 Y-4.5251
G01 X4.0689 Y-4.4520
G01 X4.0709 Y-4.4126
G01 X4.0724 Y-4.3974
G01 X4.0782 Y-4.3580
G01 X4.0812 Y-4.3430
G01 X4.0908 Y-4.3044
G01 X4.0953 Y-4.2898
G01 X4.1060 Y-4.2595
G01 X4.1115 Y-4.2452
G01 X4.1282 Y-4.2091
G01 X4.1388 Y-4.1888
G01 X4.1552 Y-4.1611
G01 X4.1634 Y-4.1482
G01 X4.1722 Y-4.1357
G01 X4.1914 Y-4.1099
G01 X4.2062 Y-4.0924
G01 X4.2332 Y-4.0632
G01 X4.2442 Y-4.0526
G01 X4.2681 Y-4.0311
G01 X4.2799 Y-4.0214
G01 X4.3057 Y-4.0022
G01 X4.3182 Y-3.9934
G01 X4.3311 Y-3.9852
G01 X4.3655 Y-3.9651
G01 X4.3791 Y-3.9582
G01 X4.4152 Y-3.9415
G01 X4.4526 Y-3.9278
G01 X4.4671 Y-3.9230
G01 X4.5056 Y-3.9129
G01 X4.5205 Y-3.9096
G01 X4.5356 Y-3.9070
G01 X4.5674 Y-3.9024
G01 X4.5826 Y-3.9009
G01 X4.6147 Y-3.8992
G01 X4.6300 Y-3.8988
G01 X5.5376 Y-3.8989
G01 X5.5774 Y-3.9009
G01 X5.6002 Y-3.9034
G01 X5.6395 Y-3.9096
G01 X5.6544 Y-3.9129
G01 X5.6856 Y-3.9208
G01 X5.7002 Y-3.9253
G01 X5.7377 Y-3.9387
G01 X5.7518 Y-3.9445
G01 X5.7878 Y-3.9616
G01 X5.8012 Y-3.9688
G01 X5.8354 Y-3.9892
G01 X5.8481 Y-3.9977
G01 X5.8605 Y-4.0068
G01 X5.8909 Y-4.0071
G01 X5.9276 Y-4.0097
G01 X6.0412 Y-4.0246
G01 X6.0573 Y-4.0272
G01 X6.0733 Y-4.0306
G01 X6.1129 Y-4.0411
G01 X6.1285 Y-4.0457
G01 X6.1439 Y-4.0511
G01 X6.2508 Y-4.0954
G01 X6.2727 Y-4.1062
G01 X6.3153 Y-4.1308
G01 X6.3290 Y-4.1397
G01 X6.3422 Y-4.1493
G01 X6.4277 Y-4.2149
G01 X6.4434 Y-4.2278
G01 X6.4658 Y-4.2478
G01 X6.9869 Y-4.7688
G01 X7.0335 Y-4.7688
G00 Z2.0000
G00 X8.9188 Y-5.0050
G01 F59.00
G01 Z-0.1001
G01 F120.00
G01 X8.8906 Y-5.0048
G01 X8.8597 Y-5.0030
G01 X8.8900 Y-5.0425
G01 X8.9188 Y-5.0050
G00 Z2.0000
G00 X9.2387 Y-4.8832
G01 F59.00
G01 Z-0.1001
G01 F120.00
G01 X8.9009 Y-4.8832
G01 X8.8861 Y-4.8828
G01 X8.8713 Y-4.8818
G01 X8.8493 Y-4.8789
G01 X8.8347 Y-4.8761
G01 X8.8203 Y-4.8726
G01 X8.7377 Y-4.8483
G01 X8.7231 Y-4.8432
G01 X8.7017 Y-4.8343
G01 X8.6811 Y-4.8237
G01 X8.6613 Y-4.8117
G01 X8.6424 Y-4.7982
G01 X8.6246 Y-4.7833
G01 X8.6080 Y-4.7672
G01 X8.5976 Y-4.7558
G01 X8.5461 Y-4.6962
G01 X8.5320 Y-4.6778
G01 X8.5194 Y-4.6584
G01 X8.5082 Y-4.6381
G01 X8.4986 Y-4.6170
G01 X8.4931 Y-4.6026
G01 X8.4882 Y-4.5879
G01 X8.4824 Y-4.5654
G01 X8.4794 Y-4.5503
G01 X8.4747 Y-4.5177
G01 X8.4590 Y-4.5365
G01 X8.4063 Y-4.5947
G01 X8.3957 Y-4.6057
G01 X8.3847 Y-4.6163
G01 X8.3208 Y-4.6740
G01 X8.3029 Y-4.6884
G01 X8.2336 Y-4.7396
G01 X8.2209 Y-4.7481
G01 X8.1797 Y-4.7729
G01 X8.2837 Y-4.7866
G01 X8.2997 Y-4.7892
G01 X8.3236 Y-4.7946
G01 X8.3553 Y-4.8031
G01 X8.3710 Y-4.8077
G01 X8.3939 Y-4.8162
G01 X8.4858 Y-4.8542
G01 X8.5006 Y-4.8608
G01 X8.5152 Y-4.8682
G01 X8.5508 Y-4.8887
G01 X8.5647 Y-4.8972
G01 X8.5781 Y-4.9064
G01 X8.6635 Y-4.9718
G01 X8.6762 Y-4.9821
G01 X8.6883 Y-4.9930
G01 X8.7174 Y-5.0219
G01 X8.7286 Y-5.0337
G01 X8.7391 Y-5.0461
G01 X8.8047 Y-5.1314
G01 X8.8143 Y-5.1446
G01 X8.8232 Y-5.1582
G01 X8.8438 Y-5.1937
G01 X8.8552 Y-5.2154
G01 X8.8618 Y-5.2302
G01 X8.8900 Y-5.2983
G01 X8.9182 Y-5.2302
G01 X8.9248 Y-5.2154
G01 X8.9362 Y-5.1937
G01 X8.9568 Y-5.1582
G01 X8.9657 Y-5.1446
G01 X8.9753 Y-5.1314
G01 X9.0358 Y-5.0525
G01 X9.0461 Y-5.0398
G01 X9.0570 Y-5.0277
G01 X9.0859 Y-4.9986
G01 X9.0977 Y-4.9874
G01 X9.1101 Y-4.9769
G01 X9.2019 Y-4.9064
G01 X9.2222 Y-4.8928
G01 X9.2387 Y-4.8832
G00 Z2.0000
G00 X8.5531 Y-7.4410
G01 F59.00
G01 Z-0.1001
G01 F120.00
G01 X8.7110 Y-7.4410
G01 X8.7110 Y-7.3372
G01 X8.6497 Y-7.3841
G01 X8.6310 Y-7.3969
G01 X8.6116 Y-7.4088
G01 X8.5832 Y-7.4252
G01 X8.5733 Y-7.4308
G01 X8.5531 Y-7.4410
G00 Z2.0000
G00 X8.6232 Y-9.6020
G01 F59.00
G01 Z-0.1001
G01 F120.00
G01 X8.6456 Y-9.6020
G01 X8.6648 Y-9.5770
G01 X8.6404 Y-9.5770
G01 X8.6232 Y-9.6020
G00 Z2.0000
G00 X8.3543 Y-9.7237
G01 F59.00
G01 Z-0.1001
G01 F120.00
G01 X8.7069 Y-9.7237
G01 X8.7213 Y-9.7034
G01 X8.7869 Y-9.6181
G01 X8.8030 Y-9.5997
G01 X8.8377 Y-9.5650
G01 X8.8498 Y-9.5541
G01 X8.8625 Y-9.5438
G01 X8.9414 Y-9.4833
G01 X8.9613 Y-9.4692
G01 X8.9847 Y-9.4552
G01 X8.5716 Y-9.4552
G01 X8.5421 Y-9.5044
G01 X8.5339 Y-9.5173
G01 X8.5251 Y-9.5298
G01 X8.4784 Y-9.5929
G01 X8.4690 Y-9.6049
G01 X8.4590 Y-9.6165
G01 X8.4011 Y-9.6803
G01 X8.3903 Y-9.6911
G01 X8.3543 Y-9.7237
G00 Z2.0000
G00 X8.5788 Y-10.8968
G01 F59.00
G01 Z-0.1001
G01 F120.00
G01 X8.5788 Y-10.5963
G01 X8.3323 Y-10.5963
G01 X8.3847 Y-10.6437
G01 X8.3957 Y-10.6543
G01 X8.4063 Y-10.6653
G01 X8.4590 Y-10.7235
G01 X8.4690 Y-10.7351
G01 X8.4784 Y-10.7471
G01 X8.5251 Y-10.8102
G01 X8.5339 Y-10.8227
G01 X8.5421 Y-10.8356
G01 X8.5788 Y-10.8968
G00 Z2.0000
G00 X7.3965 Y-10.4745
G01 F59.00
G01 Z-0.1001
G01 F120.00
G01 X6.6570 Y-10.4745
G01 X6.6288 Y-10.4998
G01 X6.5942 Y-10.5255
G01 X6.5572 Y-10.5476
G01 X6.5225 Y-10.5643
G01 X6.5095 Y-10.5694
G01 X6.4820 Y-10.5792
G01 X6.4731 Y-10.5819
G01 X6.4448 Y-10.5891
G01 X6.4312 Y-10.5920
G01 X6.4023 Y-10.5963
G01 X6.3838 Y-10.5981
G01 X6.3500 Y-10.5995
G01 X5.2679 Y-10.5995
G01 X5.2851 Y-10.6124
G01 X5.2923 Y-10.6183
G01 X5.3140 Y-10.6379
G01 X5.3240 Y-10.6476
G01 X5.3497 Y-10.6762
G01 X5.3727 Y-10.7070
G01 X5.3779 Y-10.7148
G01 X5.3930 Y-10.7398
G01 X5.4017 Y-10.7562
G01 X5.4141 Y-10.7826
G01 X5.4177 Y-10.7912
G01 X5.4276 Y-10.8186
G01 X5.4313 Y-10.8303
G01 X6.8315 Y-10.8303
G01 X6.8423 Y-10.8159
G01 X6.8512 Y-10.8053
G01 X6.9040 Y-10.7471
G01 X6.9171 Y-10.7340
G01 X6.9823 Y-10.6752
G01 X7.0527 Y-10.6227
G01 X7.0642 Y-10.6148
G01 X7.1436 Y-10.5674
G01 X7.2314 Y-10.5259
G01 X7.3228 Y-10.4932
G01 X7.3965 Y-10.4745
G00 Z2.0000
G00 X6.8877 Y-10.5963
G01 F59.00
G01 Z-0.1001
G01 F120.00
G01 X6.7032 Y-10.5963
G01 X6.6743 Y-10.6179
G01 X6.6554 Y-10.6309
G01 X6.6213 Y-10.6514
G01 X6.6010 Y-10.6619
G01 X6.5648 Y-10.6786
G01 X6.5274 Y-10.6924
G01 X6.5056 Y-10.6993
G01 X6.4686 Y-10.7086
G01 X6.7746 Y-10.7086
G01 X6.8137 Y-10.6653
G01 X6.8243 Y-10.6543
G01 X6.8353 Y-10.6437
G01 X6.8877 Y-10.5963
G00 Z2.0000
G00 X5.2695 Y-12.0879
G01 F59.00
G01 Z-0.1001
G01 F120.00
G01 X7.0343 Y-12.0879
G01 X7.0609 Y-12.1117
G01 X7.1266 Y-12.1605
G01 X7.2025 Y-12.2060
G01 X7.2780 Y-12.2416
G01 X7.3550 Y-12.2692
G01 X7.3613 Y-12.2712
G01 X7.4391 Y-12.2906
G01 X7.5250 Y-12.3035
G01 X7.6067 Y-12.3076
G01 X7.6133 Y-12.3076
G01 X7.6950 Y-12.3035
G01 X7.7760 Y-12.2915
G01 X7.7825 Y-12.2903
G01 X7.8603 Y-12.2708
G01 X7.9420 Y-12.2416
G01 X8.0190 Y-12.2052
G01 X8.0920 Y-12.1614
G01 X8.1604 Y-12.1107
G01 X8.2235 Y-12.0535
G01 X8.2807 Y-11.9904
G01 X8.3314 Y-11.9220
G01 X8.3752 Y-11.8490
G01 X8.4116 Y-11.7720
G01 X8.4403 Y-11.6919
G01 X8.4610 Y-11.6093
G01 X8.4735 Y-11.5250
G01 X8.4776 Y-11.4400
G01 X8.4735 Y-11.3550
G01 X8.4610 Y-11.2707
G01 X8.4408 Y-11.1897
G01 X8.4128 Y-11.1111
G01 X8.4103 Y-11.1049
G01 X8.3752 Y-11.0310
G01 X8.3314 Y-10.9580
G01 X8.2827 Y-10.8922
G01 X8.2785 Y-10.8871
G01 X8.2235 Y-10.8265
G01 X8.1604 Y-10.7693
G01 X8.0920 Y-10.7186
G01 X8.0219 Y-10.6764
G01 X8.0160 Y-10.6733
G01 X7.9420 Y-10.6384
G01 X7.8650 Y-10.6108
G01 X7.8587 Y-10.6088
G01 X7.7793 Y-10.5890
G01 X7.6967 Y-10.5767
G01 X7.6133 Y-10.5724
G01 X7.6067 Y-10.5724
G01 X7.5250 Y-10.5765
G01 X7.4440 Y-10.5885
G01 X7.4375 Y-10.5897
G01 X7.3581 Y-10.6097
G01 X7.2811 Y-10.6372
G01 X7.2749 Y-10.6397
G01 X7.2010 Y-10.6748
G01 X7.1308 Y-10.7168
G01 X7.1252 Y-10.7205
G01 X7.0596 Y-10.7693
G01 X6.9989 Y-10.8242
G01 X6.9942 Y-10.8289
G01 X6.9393 Y-10.8896
G01 X6.8928 Y-10.9521
G01 X5.3276 Y-10.9521
G01 X5.3261 Y-10.9239
G01 X5.3221 Y-10.8963
G01 X5.3208 Y-10.8898
G01 X5.3149 Y-10.8660
G01 X5.3129 Y-10.8596
G01 X5.3035 Y-10.8334
G01 X5.2901 Y-10.8053
G01 X5.2741 Y-10.7785
G01 X5.2576 Y-10.7561
G01 X5.2534 Y-10.7510
G01 X5.2369 Y-10.7328
G01 X5.2322 Y-10.7281
G01 X5.2115 Y-10.7095
G01 X5.1865 Y-10.6909
G01 X5.1597 Y-10.6749
G01 X5.1346 Y-10.6629
G01 X5.1285 Y-10.6603
G01 X5.1054 Y-10.6521
G01 X5.0990 Y-10.6501
G01 X5.0720 Y-10.6435
G01 X5.0444 Y-10.6393
G01 X5.0378 Y-10.6386
G01 X5.0117 Y-10.6374
G01 X4.5100 Y-10.6374
G01 X4.4822 Y-10.6386
G01 X4.4756 Y-10.6393
G01 X4.4480 Y-10.6435
G01 X4.4210 Y-10.6501
G01 X4.4146 Y-10.6521
G01 X4.3884 Y-10.6615
G01 X4.3632 Y-10.6734
G01 X4.3574 Y-10.6765
G01 X4.3335 Y-10.6909
G01 X4.3085 Y-10.7095
G01 X4.2878 Y-10.7281
G01 X4.2831 Y-10.7328
G01 X4.2645 Y-10.7535
G01 X4.2478 Y-10.7758
G01 X4.2441 Y-10.7813
G01 X4.2315 Y-10.8024
G01 X4.2284 Y-10.8082
G01 X4.2165 Y-10.8334
G01 X4.2060 Y-10.8628
G01 X4.1985 Y-10.8930
G01 X4.1937 Y-10.9255
G01 X4.1924 Y-10.9550
G01 X4.1924 Y-11.9083
G01 X4.1939 Y-11.9361
G01 X4.1979 Y-11.9637
G01 X4.1992 Y-11.9702
G01 X4.2060 Y-11.9972
G01 X4.2165 Y-12.0266
G01 X4.2284 Y-12.0518
G01 X4.2315 Y-12.0576
G01 X4.2459 Y-12.0815
G01 X4.2645 Y-12.1065
G01 X4.2831 Y-12.1272
G01 X4.2878 Y-12.1319
G01 X4.3085 Y-12.1505
G01 X4.3308 Y-12.1672
G01 X4.3363 Y-12.1709
G01 X4.3603 Y-12.1851
G01 X4.3854 Y-12.1971
G01 X4.3915 Y-12.1997
G01 X4.4178 Y-12.2090
G01 X4.4448 Y-12.2158
G01 X4.4513 Y-12.2171
G01 X4.4789 Y-12.2211
G01 X4.5100 Y-12.2226
G01 X5.0100 Y-12.2226
G01 X5.0411 Y-12.2211
G01 X5.0703 Y-12.2169
G01 X5.1022 Y-12.2090
G01 X5.1316 Y-12.1985
G01 X5.1597 Y-12.1851
G01 X5.1851 Y-12.1700
G01 X5.2115 Y-12.1505
G01 X5.2334 Y-12.1308
G01 X5.2555 Y-12.1065
G01 X5.2695 Y-12.0879
G00 Z2.0000
G00 X5.2938 Y-12.3888
G01 F59.00
G01 Z-0.1001
G01 F120.00
G01 X7.0335 Y-12.3888
G01 X7.0056 Y-12.3721
G01 X6.9927 Y-12.3639
G01 X6.9802 Y-12.3551
G01 X6.9482 Y-12.3314
G01 X5.3746 Y-12.3314
G01 X5.3601 Y-12.3436
G01 X5.3281 Y-12.3673
G01 X5.3154 Y-12.3758
G01 X5.2938 Y-12.3888
G00 Z2.0000
G00 X3.6889 Y-12.2670
G01 F59.00
G01 Z-0.1001
G01 F120.00
G01 X3.9311 Y-12.2670
G01 X3.9182 Y-12.2454
G01 X3.9077 Y-12.2269
G01 X3.8981 Y-12.2080
G01 X3.8876 Y-12.1858
G01 X3.8790 Y-12.1664
G01 X3.8751 Y-12.1565
G01 X3.8597 Y-12.1134
G01 X3.8564 Y-12.1033
G01 X3.8508 Y-12.0828
G01 X3.8448 Y-12.0590
G01 X3.8402 Y-12.0382
G01 X3.8365 Y-12.0173
G01 X3.8315 Y-11.9825
G01 X3.8303 Y-11.9719
G01 X3.8288 Y-11.9507
G01 X3.8276 Y-11.9262
G01 X3.8270 Y-11.9050
G01 X3.8272 Y-10.9444
G01 X3.8294 Y-10.8986
G01 X3.8315 Y-10.8775
G01 X3.8382 Y-10.8322
G01 X3.8436 Y-10.8063
G01 X3.8224 Y-10.7987
G01 X3.8026 Y-10.7911
G01 X3.7688 Y-10.7757
G01 X3.7752 Y-10.8010
G01 X3.7798 Y-10.8218
G01 X3.7835 Y-10.8427
G01 X3.7871 Y-10.8670
G01 X3.7885 Y-10.8775
G01 X3.7906 Y-10.8986
G01 X3.7928 Y-10.9444
G01 X3.7930 Y-11.9050
G01 X3.7924 Y-11.9262
G01 X3.7912 Y-11.9507
G01 X3.7906 Y-11.9614
G01 X3.7885 Y-11.9825
G01 X3.7835 Y-12.0173
G01 X3.7798 Y-12.0382
G01 X3.7752 Y-12.0590
G01 X3.7692 Y-12.0828
G01 X3.7636 Y-12.1033
G01 X3.7603 Y-12.1134
G01 X3.7449 Y-12.1565
G01 X3.7410 Y-12.1664
G01 X3.7324 Y-12.1858
G01 X3.7219 Y-12.2080
G01 X3.7123 Y-12.2269
G01 X3.7018 Y-12.2454
G01 X3.6889 Y-12.2670
G00 Z2.0000
G00 X3.3938 Y-12.3888
G01 F59.00
G01 Z-0.1001
G01 F120.00
G01 X4.2262 Y-12.3888
G01 X4.1982 Y-12.3716
G01 X4.1660 Y-12.3482
G01 X4.1481 Y-12.3339
G01 X4.1186 Y-12.3072
G01 X4.1026 Y-12.2908
G01 X4.0762 Y-12.2610
G01 X4.0522 Y-12.2293
G01 X4.0392 Y-12.2104
G01 X4.0188 Y-12.1762
G01 X4.0116 Y-12.1628
G01 X3.9945 Y-12.1268
G01 X3.9860 Y-12.1055
G01 X3.9730 Y-12.0679
G01 X3.9629 Y-12.0294
G01 X3.9582 Y-12.0070
G01 X3.9524 Y-11.9676
G01 X3.9504 Y-11.9448
G01 X3.9488 Y-11.9050
G01 X3.9488 Y-10.9550
G01 X3.9492 Y-10.9397
G01 X3.9509 Y-10.9076
G01 X3.9524 Y-10.8924
G01 X3.9582 Y-10.8530
G01 X3.9612 Y-10.8380
G01 X3.9708 Y-10.7994
G01 X3.9753 Y-10.7848
G01 X3.9887 Y-10.7473
G01 X3.9945 Y-10.7332
G01 X4.0017 Y-10.7178
G01 X3.9695 Y-10.7131
G01 X3.9545 Y-10.7105
G01 X3.9158 Y-10.7012
G01 X3.8938 Y-10.6948
G01 X3.8634 Y-10.6841
G01 X3.8492 Y-10.6786
G01 X3.8352 Y-10.6724
G01 X3.8062 Y-10.6586
G01 X3.7861 Y-10.6475
G01 X3.7522 Y-10.6267
G01 X3.7397 Y-10.6179
G01 X3.7139 Y-10.5987
G01 X3.6963 Y-10.5839
G01 X3.6671 Y-10.5569
G01 X3.1584 Y-10.0482
G01 X3.1576 Y-10.0664
G01 X3.1526 Y-10.1372
G01 X3.1501 Y-10.1603
G01 X3.1458 Y-10.1831
G01 X3.1421 Y-10.1981
G01 X3.1376 Y-10.2128
G01 X3.1295 Y-10.2346
G01 X3.1232 Y-10.2487
G01 X3.1162 Y-10.2625
G01 X3.1045 Y-10.2825
G01 X3.0959 Y-10.2953
G01 X3.0441 Y-10.3645
G01 X3.0290 Y-10.3821
G01 X3.0178 Y-10.3938
G01 X3.1176 Y-10.3939
G01 X3.1498 Y-10.3954
G01 X3.1650 Y-10.3965
G01 X3.1802 Y-10.3984
G01 X3.2195 Y-10.4046
G01 X3.2344 Y-10.4079
G01 X3.2656 Y-10.4158
G01 X3.2802 Y-10.4203
G01 X3.3177 Y-10.4337
G01 X3.3318 Y-10.4395
G01 X3.3678 Y-10.4566
G01 X3.3812 Y-10.4638
G01 X3.4154 Y-10.4842
G01 X3.4281 Y-10.4927
G01 X3.4601 Y-10.5164
G01 X3.4776 Y-10.5312
G01 X3.5068 Y-10.5582
G01 X3.5174 Y-10.5692
G01 X3.5438 Y-10.5990
G01 X3.5678 Y-10.6307
G01 X3.5766 Y-10.6432
G01 X3.5848 Y-10.6561
G01 X3.6049 Y-10.6905
G01 X3.6118 Y-10.7041
G01 X3.6285 Y-10.7402
G01 X3.6422 Y-10.7776
G01 X3.6470 Y-10.7921
G01 X3.6571 Y-10.8306
G01 X3.6604 Y-10.8455
G01 X3.6666 Y-10.8848
G01 X3.6685 Y-10.9000
G01 X3.6696 Y-10.9152
G01 X3.6712 Y-10.9550
G01 X3.6712 Y-11.9050
G01 X3.6696 Y-11.9448
G01 X3.6685 Y-11.9600
G01 X3.6666 Y-11.9752
G01 X3.6618 Y-12.0070
G01 X3.6571 Y-12.0294
G01 X3.6470 Y-12.0679
G01 X3.6340 Y-12.1055
G01 X3.6285 Y-12.1198
G01 X3.6223 Y-12.1337
G01 X3.6049 Y-12.1695
G01 X3.5848 Y-12.2039
G01 X3.5723 Y-12.2231
G01 X3.5486 Y-12.2551
G01 X3.5389 Y-12.2669
G01 X3.5122 Y-12.2964
G01 X3.4958 Y-12.3124
G01 X3.4719 Y-12.3339
G01 X3.4540 Y-12.3482
G01 X3.4218 Y-12.3716
G01 X3.3938 Y-12.3888
G00 Z2.0000
G00 X2.0264 Y-12.3888
G01 F59.00
G01 Z-0.1001
G01 F120.00
G01 X2.3262 Y-12.3888
G01 X2.2982 Y-12.3716
G01 X2.2660 Y-12.3482
G01 X2.2481 Y-12.3339
G01 X2.2186 Y-12.3072
G01 X2.2026 Y-12.2908
G01 X2.1762 Y-12.2610
G01 X2.1668 Y-12.2490
G01 X2.1451 Y-12.2193
G01 X2.1382 Y-12.2385
G01 X2.1287 Y-12.2597
G01 X2.1178 Y-12.2801
G01 X2.1053 Y-12.2997
G01 X2.0962 Y-12.3122
G01 X2.0815 Y-12.3300
G01 X2.0264 Y-12.3888
G00 Z2.0000
G00 X1.9196 Y-11.1084
G01 F59.00
G01 Z-0.1001
G01 F120.00
G01 X2.2658 Y-11.1084
G01 X1.9399 Y-10.7824
G01 X1.9302 Y-10.8115
G01 X1.9289 Y-10.8177
G01 X1.9198 Y-10.9066
G01 X1.9196 Y-11.1084
G00 Z2.0000
G00 X0.9496 Y-13.1954
G01 F59.00
G01 Z-0.1001
G01 F120.00
G01 X0.9484 Y-13.2163
G01 X0.9484 Y-26.4092
G01 X0.9498 Y-26.4316
G01 X0.9643 Y-26.5416
G01 X0.9658 Y-26.5485
G01 X0.9748 Y-26.5820
G01 X0.9772 Y-26.5887
G01 X1.0159 Y-26.6822
G01 X1.0191 Y-26.6885
G01 X1.0356 Y-26.7170
G01 X1.0394 Y-26.7229
G01 X1.1010 Y-26.8032
G01 X1.1069 Y-26.8099
G01 X1.1301 Y-26.8331
G01 X1.1354 Y-26.8379
G01 X1.2157 Y-26.8995
G01 X1.2230 Y-26.9044
G01 X1.2562 Y-26.9233
G01 X1.3530 Y-26.9635
G01 X1.3597 Y-26.9657
G01 X1.3915 Y-26.9742
G01 X1.3984 Y-26.9757
G01 X1.5084 Y-26.9902
G01 X1.5323 Y-26.9916
G01 X11.9723 Y-26.9916
G01 X11.9974 Y-26.9900
G01 X12.0127 Y-26.9878
G01 X24.5633 Y-26.9878
G01 X24.5786 Y-26.9900
G01 X24.6037 Y-26.9916
G01 X36.3563 Y-26.9916
G01 X36.3831 Y-26.9898
G01 X36.5061 Y-26.9715
G01 X36.5142 Y-26.9696
G01 X36.5512 Y-26.9584
G01 X36.5589 Y-26.9553
G01 X36.6613 Y-26.9068
G01 X36.6685 Y-26.9026
G01 X36.7006 Y-26.8811
G01 X36.7071 Y-26.8760
G01 X36.7911 Y-26.7998
G01 X36.7967 Y-26.7937
G01 X36.8212 Y-26.7639
G01 X36.8259 Y-26.7570
G01 X36.8842 Y-26.6598
G01 X36.8878 Y-26.6523
G01 X36.9026 Y-26.6166
G01 X36.9051 Y-26.6087
G01 X36.9326 Y-26.4987
G01 X36.9339 Y-26.4906
G01 X36.9377 Y-26.4521
G01 X36.9378 Y-26.4438
G01 X36.9322 Y-26.3306
G01 X36.9311 Y-26.3224
G01 X36.9235 Y-26.2845
G01 X36.9212 Y-26.2765
G01 X36.8830 Y-26.1698
G01 X36.8796 Y-26.1622
G01 X36.8613 Y-26.1282
G01 X36.8568 Y-26.1212
G01 X36.7847 Y-26.0240
G01 X36.7672 Y-26.0036
G01 X31.4434 Y-20.6798
G01 X31.4266 Y-20.6650
G01 X31.3385 Y-20.5974
G01 X31.3326 Y-20.5936
G01 X31.3041 Y-20.5771
G01 X31.2978 Y-20.5739
G01 X31.2026 Y-20.5345
G01 X31.1959 Y-20.5323
G01 X31.1641 Y-20.5238
G01 X31.1554 Y-20.5221
G01 X31.0442 Y-20.5076
G01 X31.0233 Y-20.5064
G01 X29.9367 Y-20.5064
G01 X29.9129 Y-20.5078
G01 X29.8046 Y-20.5221
G01 X29.7959 Y-20.5238
G01 X29.7641 Y-20.5323
G01 X29.7574 Y-20.5345
G01 X29.6639 Y-20.5732
G01 X29.6559 Y-20.5771
G01 X29.6229 Y-20.5964
G01 X29.5323 Y-20.6659
G01 X29.5155 Y-20.6808
G01 X24.1928 Y-26.0036
G01 X24.1763 Y-26.0226
G01 X24.1022 Y-26.1226
G01 X24.0979 Y-26.1296
G01 X24.0790 Y-26.1652
G01 X24.0764 Y-26.1713
G01 X24.0373 Y-26.2813
G01 X24.0283 Y-26.3256
G01 X24.0267 Y-26.3522
G01 X12.5493 Y-26.3522
G01 X12.5477 Y-26.3256
G01 X12.5387 Y-26.2813
G01 X12.4996 Y-26.1713
G01 X12.4970 Y-26.1652
G01 X12.4781 Y-26.1296
G01 X12.4738 Y-26.1226
G01 X12.3997 Y-26.0226
G01 X12.3832 Y-26.0036
G01 X10.6154 Y-24.2358
G01 X10.5986 Y-24.2210
G01 X10.5105 Y-24.1534
G01 X10.5046 Y-24.1496
G01 X10.4745 Y-24.1323
G01 X10.4681 Y-24.1292
G01 X10.3746 Y-24.0905
G01 X10.3679 Y-24.0883
G01 X10.3344 Y-24.0794
G01 X10.3274 Y-24.0781
G01 X10.2206 Y-24.0640
G01 X10.1953 Y-24.0624
G01 X5.0565 Y-24.0624
G01 X5.0479 Y-24.0629
G01 X5.0112 Y-24.0678
G01 X4.8983 Y-24.0970
G01 X4.7350 Y-24.1109
G01 X4.3274 Y-24.1109
G01 X4.3093 Y-24.1100
G01 X4.0925 Y-24.0708
G01 X4.0816 Y-24.0678
G01 X4.0399 Y-24.0624
G01 X3.1156 Y-24.0624
G01 X3.1157 Y-15.5616
G01 X5.6598 Y-15.5616
G01 X5.6678 Y-15.5612
G01 X5.7048 Y-15.5559
G01 X5.7115 Y-15.5546
G01 X5.7180 Y-15.5526
G01 X5.7228 Y-15.5507
G01 X5.7318 Y-15.5459
G01 X5.7915 Y-15.5075
G01 X5.7968 Y-15.5038
G01 X5.8050 Y-15.4961
G01 X5.8339 Y-15.4628
G01 X5.9901 Y-15.3401
G01 X6.1667 Y-15.2492
G01 X6.3573 Y-15.1933
G01 X6.5054 Y-15.1791
G01 X6.6557 Y-15.1791
G01 X6.8520 Y-15.2175
G01 X7.0362 Y-15.2917
G01 X7.2030 Y-15.3995
G01 X7.3175 Y-15.5090
G01 X7.3402 Y-15.5271
G01 X7.3455 Y-15.5309
G01 X7.3540 Y-15.5355
G01 X7.3630 Y-15.5389
G01 X7.4327 Y-15.5593
G01 X7.4406 Y-15.5610
G01 X7.4486 Y-15.5616
G01 X9.6972 Y-15.5616
G01 X9.7146 Y-15.5609
G01 X9.7242 Y-15.5594
G01 X9.7335 Y-15.5567
G01 X9.8008 Y-15.5295
G01 X9.8067 Y-15.5268
G01 X9.8149 Y-15.5217
G01 X9.8229 Y-15.5149
G01 X9.9599 Y-15.4301
G01 X10.1132 Y-15.3790
G01 X10.2081 Y-15.3691
G01 X10.8269 Y-15.3691
G01 X10.9206 Y-15.3787
G01 X11.0740 Y-15.4296
G01 X11.2111 Y-15.5142
G01 X11.2205 Y-15.5219
G01 X11.2318 Y-15.5300
G01 X11.2387 Y-15.5341
G01 X11.2491 Y-15.5384
G01 X11.3188 Y-15.5589
G01 X11.3282 Y-15.5610
G01 X11.3379 Y-15.5616
G01 X11.5547 Y-15.5616
G01 X11.5598 Y-15.5611
G01 X11.5664 Y-15.5599
G01 X11.5729 Y-15.5581
G01 X11.5777 Y-15.5563
G01 X11.5838 Y-15.5533
G01 X11.6149 Y-15.5363
G01 X11.6214 Y-15.5339
G01 X11.6288 Y-15.5303
G01 X11.6358 Y-15.5257
G01 X11.6511 Y-15.5135
G01 X11.7823 Y-15.4324
G01 X11.7884 Y-15.4295
G01 X11.9353 Y-15.3805
G01 X11.9415 Y-15.3792
G01 X12.0209 Y-15.3709
G01 X12.0209 Y-15.7480
G01 X11.9878 Y-15.7560
G01 X11.9615 Y-15.7653
G01 X11.9554 Y-15.7679
G01 X11.9332 Y-15.7784
G01 X11.9274 Y-15.7815
G01 X11.9035 Y-15.7959
G01 X11.8785 Y-15.8145
G01 X11.8554 Y-15.8354
G01 X11.8345 Y-15.8585
G01 X11.8159 Y-15.8835
G01 X11.8015 Y-15.9074
G01 X11.7984 Y-15.9132
G01 X11.7879 Y-15.9354
G01 X11.7853 Y-15.9415
G01 X11.7760 Y-15.9678
G01 X11.7685 Y-15.9980
G01 X11.7639 Y-16.0289
G01 X11.7624 Y-16.0583
G01 X11.7624 Y-16.9600
G01 X11.7639 Y-16.9911
G01 X11.7681 Y-17.0203
G01 X11.7760 Y-17.0522
G01 X11.7853 Y-17.0785
G01 X11.7879 Y-17.0846
G01 X11.7999 Y-17.1097
G01 X11.8141 Y-17.1337
G01 X11.8178 Y-17.1392
G01 X11.8345 Y-17.1615
G01 X11.8531 Y-17.1822
G01 X11.8578 Y-17.1869
G01 X11.8785 Y-17.2055
G01 X11.9008 Y-17.2222
G01 X11.9063 Y-17.2259
G01 X11.9303 Y-17.2401
G01 X11.9600 Y-17.2541
G01 X11.9878 Y-17.2640
G01 X12.0180 Y-17.2715
G01 X12.0489 Y-17.2761
G01 X12.0783 Y-17.2776
G01 X12.6067 Y-17.2776
G01 X12.6361 Y-17.2761
G01 X12.6637 Y-17.2721
G01 X12.6702 Y-17.2708
G01 X12.6972 Y-17.2640
G01 X12.7266 Y-17.2535
G01 X12.7547 Y-17.2401
G01 X12.7815 Y-17.2241
G01 X12.8065 Y-17.2055
G01 X12.8296 Y-17.1846
G01 X12.8505 Y-17.1615
G01 X12.8691 Y-17.1365
G01 X12.8851 Y-17.1097
G01 X12.8985 Y-17.0816
G01 X12.9090 Y-17.0522
G01 X12.9165 Y-17.0220
G01 X12.9209 Y-16.9928
G01 X12.9226 Y-16.9600
G01 X12.9226 Y-16.8316
G01 X13.2954 Y-16.8316
G01 X13.2954 Y-17.0054
G01 X13.2861 Y-17.0974
G01 X13.2821 Y-17.1178
G01 X13.2813 Y-17.1277
G01 X13.2820 Y-17.1377
G01 X13.2921 Y-17.2080
G01 X13.2938 Y-17.2162
G01 X13.2972 Y-17.2257
G01 X13.3011 Y-17.2331
G01 X13.3058 Y-17.2401
G01 X13.3556 Y-17.2976
G01 X13.3616 Y-17.3034
G01 X13.3697 Y-17.3094
G01 X13.3786 Y-17.3140
G01 X13.3865 Y-17.3169
G01 X13.4562 Y-17.3373
G01 X13.4625 Y-17.3387
G01 X13.4705 Y-17.3396
G01 X14.0727 Y-17.3396
G01 X14.0810 Y-17.3391
G01 X14.0891 Y-17.3376
G01 X14.1582 Y-17.3186
G01 X14.1687 Y-17.3141
G01 X14.1770 Y-17.3090
G01 X14.1856 Y-17.3015
G01 X14.2372 Y-17.2458
G01 X14.2422 Y-17.2391
G01 X14.2456 Y-17.2332
G01 X14.2484 Y-17.2271
G01 X14.2505 Y-17.2208
G01 X14.2520 Y-17.2142
G01 X14.2646 Y-17.1443
G01 X14.2656 Y-17.1347
G01 X14.2654 Y-17.1267
G01 X14.2637 Y-17.1088
G01 X14.2637 Y-16.7027
G01 X14.6364 Y-16.7027
G01 X14.6364 Y-17.0660
G01 X14.6369 Y-17.0743
G01 X14.6388 Y-17.0840
G01 X14.6428 Y-17.0949
G01 X14.6478 Y-17.1036
G01 X14.6550 Y-17.1126
G01 X14.6624 Y-17.1193
G01 X14.6721 Y-17.1257
G01 X14.6828 Y-17.1302
G01 X14.6924 Y-17.1327
G01 X14.7040 Y-17.1336
G01 X16.3057 Y-17.1336
G01 X16.3156 Y-17.1327
G01 X16.3268 Y-17.1297
G01 X16.3373 Y-17.1249
G01 X16.3469 Y-17.1183
G01 X16.3552 Y-17.1102
G01 X16.3620 Y-17.1008
G01 X16.3671 Y-17.0903
G01 X16.3700 Y-17.0808
G01 X16.3711 Y-17.0743
G01 X16.3716 Y-17.0660
G01 X16.3716 Y-15.4660
G01 X16.3709 Y-15.4561
G01 X16.3692 Y-15.4480
G01 X16.3658 Y-15.4386
G01 X16.3612 Y-15.4298
G01 X16.3552 Y-15.4218
G01 X16.3482 Y-15.4148
G01 X16.3402 Y-15.4088
G01 X16.3314 Y-15.4042
G01 X16.3204 Y-15.4004
G01 X16.3106 Y-15.3987
G01 X16.3040 Y-15.3984
G01 X15.8256 Y-15.3984
G01 X15.8256 Y-15.0256
G01 X16.3468 Y-15.0256
G01 X16.3680 Y-15.0276
G01 X16.3795 Y-15.0270
G01 X16.4503 Y-15.0155
G01 X16.4597 Y-15.0128
G01 X16.4686 Y-15.0088
G01 X16.4742 Y-15.0054
G01 X16.4794 Y-15.0015
G01 X16.5356 Y-14.9529
G01 X16.5392 Y-14.9493
G01 X16.5435 Y-14.9442
G01 X16.5474 Y-14.9387
G01 X16.5506 Y-14.9328
G01 X16.5527 Y-14.9282
G01 X16.5549 Y-14.9219
G01 X16.5753 Y-14.8522
G01 X16.5770 Y-14.8444
G01 X16.5776 Y-14.8347
G01 X16.5776 Y-13.6792
G01 X16.5760 Y-13.6554
G01 X16.5614 Y-13.5451
G01 X16.5517 Y-13.5081
G01 X16.5495 Y-13.5014
G01 X16.5108 Y-13.4079
G01 X16.5077 Y-13.4015
G01 X16.4904 Y-13.3714
G01 X16.4866 Y-13.3655
G01 X16.4181 Y-13.2763
G01 X16.4032 Y-13.2595
G01 X15.8147 Y-12.6710
G01 X15.8123 Y-12.6611
G01 X15.8078 Y-12.6505
G01 X15.8015 Y-12.6408
G01 X15.7937 Y-12.6323
G01 X15.7873 Y-12.6271
G01 X15.7737 Y-12.6183
G01 X15.7645 Y-12.6142
G01 X15.7548 Y-12.6115
G01 X15.7481 Y-12.6105
G01 X15.7431 Y-12.6102
G01 X15.6689 Y-12.6085
G01 X15.6609 Y-12.6091
G01 X15.6546 Y-12.6104
G01 X15.5516 Y-12.6379
G01 X15.5516 Y-12.2454
G01 X15.5651 Y-12.2403
G01 X15.6390 Y-12.2052
G01 X15.7120 Y-12.1614
G01 X15.7804 Y-12.1107
G01 X15.8411 Y-12.0558
G01 X15.8458 Y-12.0511
G01 X15.8985 Y-11.9929
G01 X15.9027 Y-11.9878
G01 X15.9514 Y-11.9220
G01 X15.9936 Y-11.8519
G01 X15.9967 Y-11.8460
G01 X16.0316 Y-11.7720
G01 X16.0592 Y-11.6950
G01 X16.0612 Y-11.6887
G01 X16.0803 Y-11.6125
G01 X16.0815 Y-11.6060
G01 X16.0935 Y-11.5250
G01 X16.0976 Y-11.4400
G01 X16.0937 Y-11.3583
G01 X16.0931 Y-11.3517
G01 X16.0810 Y-11.2707
G01 X16.0612 Y-11.1913
G01 X16.0592 Y-11.1850
G01 X16.0328 Y-11.1111
G01 X16.0303 Y-11.1049
G01 X15.9952 Y-11.0310
G01 X15.9514 Y-10.9580
G01 X15.9007 Y-10.8896
G01 X15.8458 Y-10.8289
G01 X15.8411 Y-10.8242
G01 X15.7829 Y-10.7715
G01 X15.7778 Y-10.7673
G01 X15.7120 Y-10.7186
G01 X15.6390 Y-10.6748
G01 X15.5620 Y-10.6384
G01 X15.4850 Y-10.6108
G01 X15.4787 Y-10.6088
G01 X15.4025 Y-10.5897
G01 X15.3960 Y-10.5885
G01 X15.3150 Y-10.5765
G01 X15.2317 Y-10.5724
G01 X15.1483 Y-10.5763
G01 X15.1417 Y-10.5769
G01 X15.0607 Y-10.5890
G01 X14.9781 Y-10.6097
G01 X14.8980 Y-10.6384
G01 X14.8240 Y-10.6733
G01 X14.8181 Y-10.6764
G01 X14.7480 Y-10.7186
G01 X14.6822 Y-10.7673
G01 X14.6771 Y-10.7715
G01 X14.6165 Y-10.8265
G01 X14.5593 Y-10.8896
G01 X14.5086 Y-10.9580
G01 X14.4664 Y-11.0281
G01 X14.4633 Y-11.0340
G01 X14.4297 Y-11.1049
G01 X14.4246 Y-11.1184
G01 X14.0321 Y-11.1184
G01 X14.0593 Y-11.0166
G01 X14.0611 Y-11.0119
G01 X14.1506 Y-10.8198
G01 X14.1532 Y-10.8154
G01 X14.2747 Y-10.6418
G01 X14.2780 Y-10.6379
G01 X14.4279 Y-10.4880
G01 X14.4318 Y-10.4847
G01 X14.6054 Y-10.3632
G01 X14.6098 Y-10.3606
G01 X14.6432 Y-10.3450
G01 X14.6520 Y-10.3398
G01 X14.6574 Y-10.3356
G01 X14.7132 Y-10.2870
G01 X14.7176 Y-10.2821
G01 X14.7225 Y-10.2753
G01 X14.7257 Y-10.2696
G01 X14.7290 Y-10.2620
G01 X14.7510 Y-10.1892
G01 X14.7527 Y-10.1810
G01 X14.7534 Y-10.1710
G01 X14.7529 Y-10.1626
G01 X14.7513 Y-10.1544
G01 X14.7304 Y-10.0812
G01 X14.7272 Y-10.0735
G01 X14.7231 Y-10.0662
G01 X14.7181 Y-10.0594
G01 X14.7135 Y-10.0545
G01 X14.6578 Y-10.0053
G01 X14.6514 Y-10.0004
G01 X14.6431 Y-9.9955
G01 X14.6072 Y-9.9787
G01 X14.4294 Y-9.8542
G01 X14.2758 Y-9.7006
G01 X14.1513 Y-9.5228
G01 X14.0595 Y-9.3260
G01 X14.0033 Y-9.1163
G01 X13.9844 Y-8.9000
G01 X14.0033 Y-8.6837
G01 X14.0595 Y-8.4740
G01 X14.1253 Y-8.3328
G01 X14.1275 Y-8.3266
G01 X14.1388 Y-8.2881
G01 X14.1403 Y-8.2801
G01 X14.1408 Y-8.2720
G01 X14.1401 Y-8.2623
G01 X14.1298 Y-8.1904
G01 X14.1273 Y-8.1806
G01 X14.1235 Y-8.1713
G01 X14.1202 Y-8.1654
G01 X14.1153 Y-8.1586
G01 X14.0677 Y-8.1037
G01 X14.0605 Y-8.0966
G01 X14.0524 Y-8.0906
G01 X14.0450 Y-8.0866
G01 X14.0356 Y-8.0831
G01 X13.9659 Y-8.0627
G01 X13.9581 Y-8.0610
G01 X13.9500 Y-8.0604
G01 X13.1697 Y-8.0604
G01 X13.1474 Y-8.0620
G01 X13.0406 Y-8.0761
G01 X13.0319 Y-8.0778
G01 X13.0001 Y-8.0863
G01 X12.9934 Y-8.0885
G01 X12.8999 Y-8.1272
G01 X12.8919 Y-8.1311
G01 X12.8634 Y-8.1476
G01 X12.8575 Y-8.1514
G01 X12.7694 Y-8.2190
G01 X12.7526 Y-8.2338
G01 X11.4020 Y-9.5844
G01 X9.4063 Y-9.5844
G01 X9.3824 Y-9.5858
G01 X9.2724 Y-9.6003
G01 X9.2655 Y-9.6018
G01 X9.2337 Y-9.6103
G01 X9.2270 Y-9.6125
G01 X9.1334 Y-9.6512
G01 X9.1270 Y-9.6543
G01 X9.0970 Y-9.6716
G01 X9.0911 Y-9.6754
G01 X9.0067 Y-9.7404
G01 X8.9809 Y-9.7661
G01 X8.9761 Y-9.7714
G01 X8.9114 Y-9.8560
G01 X8.8907 Y-9.8922
G01 X8.8594 Y-9.9673
G01 X6.6023 Y-9.9673
G01 X6.5946 Y-9.9571
G01 X6.5759 Y-9.9365
G01 X6.5529 Y-9.9154
G01 X6.5265 Y-9.8958
G01 X6.5013 Y-9.8805
G01 X6.4716 Y-9.8664
G01 X6.4422 Y-9.8559
G01 X6.4120 Y-9.8483
G01 X6.3844 Y-9.8442
G01 X6.3778 Y-9.8435
G01 X6.3500 Y-9.8422
G01 X4.1956 Y-9.8422
G01 X3.6198 Y-9.2664
G01 X3.6198 Y-4.1956
G01 X4.4187 Y-3.3967
G01 X4.4298 Y-3.4066
G01 X4.4549 Y-3.4250
G01 X4.4803 Y-3.4401
G01 X4.5069 Y-3.4528
G01 X4.5378 Y-3.4640
G01 X4.5648 Y-3.4708
G01 X4.5713 Y-3.4721
G01 X4.6005 Y-3.4763
G01 X4.6300 Y-3.4776
G01 X5.5300 Y-3.4776
G01 X5.5611 Y-3.4761
G01 X5.5903 Y-3.4719
G01 X5.6222 Y-3.4640
G01 X5.6516 Y-3.4535
G01 X5.6797 Y-3.4401
G01 X5.7065 Y-3.4241
G01 X5.7315 Y-3.4055
G01 X5.7546 Y-3.3846
G01 X5.7755 Y-3.3615
G01 X5.7932 Y-3.3378
G01 X5.8101 Y-3.3097
G01 X5.8235 Y-3.2816
G01 X5.8340 Y-3.2522
G01 X5.8408 Y-3.2252
G01 X5.8421 Y-3.2187
G01 X5.8457 Y-3.1944
G01 X5.8464 Y-3.1878
G01 X5.8476 Y-3.1617
G01 X5.8476 Y-3.1118
G01 X6.1824 Y-3.1118
G01 X6.7541 Y-3.6835
G01 X6.7465 Y-3.7350
G01 X6.7424 Y-3.8183
G01 X6.7464 Y-3.9034
G01 X6.7590 Y-3.9893
G01 X6.7802 Y-4.0734
G01 X6.8072 Y-4.1489
G01 X6.8097 Y-4.1551
G01 X6.8448 Y-4.2290
G01 X6.8868 Y-4.2992
G01 X6.8905 Y-4.3048
G01 X6.9393 Y-4.3704
G01 X6.9942 Y-4.4311
G01 X6.9989 Y-4.4358
G01 X7.0596 Y-4.4907
G01 X7.1252 Y-4.5395
G01 X7.1308 Y-4.5432
G01 X7.2010 Y-4.5852
G01 X7.2749 Y-4.6203
G01 X7.2811 Y-4.6228
G01 X7.3581 Y-4.6503
G01 X7.4375 Y-4.6703
G01 X7.4440 Y-4.6715
G01 X7.5250 Y-4.6835
G01 X7.6067 Y-4.6876
G01 X7.6133 Y-4.6876
G01 X7.6950 Y-4.6835
G01 X7.7760 Y-4.6715
G01 X7.7825 Y-4.6703
G01 X7.8603 Y-4.6508
G01 X7.9389 Y-4.6228
G01 X7.9451 Y-4.6203
G01 X8.0190 Y-4.5852
G01 X8.0920 Y-4.5414
G01 X8.1604 Y-4.4907
G01 X8.2211 Y-4.4358
G01 X8.2258 Y-4.4311
G01 X8.2785 Y-4.3729
G01 X8.2827 Y-4.3678
G01 X8.3314 Y-4.3020
G01 X8.3752 Y-4.2290
G01 X8.4116 Y-4.1520
G01 X8.4392 Y-4.0750
G01 X8.4412 Y-4.0687
G01 X8.4603 Y-3.9925
G01 X8.4615 Y-3.9860
G01 X8.4735 Y-3.9050
G01 X8.4776 Y-3.8233
G01 X8.4776 Y-3.8167
G01 X8.4737 Y-3.7383
G01 X8.4731 Y-3.7317
G01 X8.4610 Y-3.6507
G01 X8.4403 Y-3.5681
G01 X8.4116 Y-3.4880
G01 X8.3767 Y-3.4140
G01 X8.3736 Y-3.4081
G01 X8.3314 Y-3.3380
G01 X8.2827 Y-3.2722
G01 X8.2785 Y-3.2671
G01 X8.2235 Y-3.2065
G01 X8.1604 Y-3.1493
G01 X8.0920 Y-3.0986
G01 X8.0219 Y-3.0564
G01 X8.0160 Y-3.0533
G01 X7.9405 Y-3.0178
G01 X7.8650 Y-2.9908
G01 X7.8587 Y-2.9888
G01 X7.7793 Y-2.9690
G01 X7.6983 Y-2.9569
G01 X7.6917 Y-2.9563
G01 X7.6100 Y-2.9524
G01 X7.5233 Y-2.9567
G01 X7.4407 Y-2.9690
G01 X7.3613 Y-2.9888
G01 X7.3550 Y-2.9908
G01 X7.2795 Y-3.0178
G01 X7.1995 Y-3.0556
G01 X7.1294 Y-3.0977
G01 X7.0935 Y-3.1241
G01 X6.5363 Y-2.5670
G01 X6.5181 Y-2.5505
G01 X6.5130 Y-2.5463
G01 X6.4905 Y-2.5298
G01 X6.4667 Y-2.5154
G01 X6.4608 Y-2.5123
G01 X6.4356 Y-2.5004
G01 X6.4078 Y-2.4904
G01 X6.3792 Y-2.4831
G01 X6.3727 Y-2.4818
G01 X6.3451 Y-2.4778
G01 X6.3157 Y-2.4762
G01 X5.8048 Y-2.4762
G01 X5.7941 Y-2.4585
G01 X5.7776 Y-2.4361
G01 X5.7734 Y-2.4310
G01 X5.7558 Y-2.4116
G01 X5.7315 Y-2.3895
G01 X5.7051 Y-2.3700
G01 X5.6826 Y-2.3565
G01 X5.6768 Y-2.3534
G01 X5.6516 Y-2.3415
G01 X5.6254 Y-2.3321
G01 X5.6190 Y-2.3301
G01 X5.5920 Y-2.3235
G01 X5.5611 Y-2.3189
G01 X5.5300 Y-2.3174
G01 X4.6300 Y-2.3174
G01 X4.5989 Y-2.3189
G01 X4.5697 Y-2.3231
G01 X4.5410 Y-2.3301
G01 X4.5346 Y-2.3321
G01 X4.5084 Y-2.3415
G01 X4.4803 Y-2.3549
G01 X4.4563 Y-2.3691
G01 X4.4508 Y-2.3728
G01 X4.4285 Y-2.3895
G01 X4.4054 Y-2.4104
G01 X4.3845 Y-2.4335
G01 X4.3659 Y-2.4585
G01 X4.3499 Y-2.4853
G01 X4.3372 Y-2.5119
G01 X4.3260 Y-2.5428
G01 X4.3188 Y-2.5714
G01 X4.3141 Y-2.6022
G01 X4.3130 Y-2.6206
G01 X4.2920 Y-2.6333
G01 X4.2695 Y-2.6498
G01 X4.2644 Y-2.6540
G01 X4.2438 Y-2.6728
G01 X3.0773 Y-3.8393
G01 X3.0553 Y-3.8637
G01 X3.0378 Y-3.8875
G01 X3.0217 Y-3.9142
G01 X3.0084 Y-3.9424
G01 X2.9989 Y-3.9686
G01 X2.9970 Y-3.9750
G01 X2.9911 Y-3.9988
G01 X2.9898 Y-4.0053
G01 X2.9858 Y-4.0329
G01 X2.9842 Y-4.0623
G01 X2.9842 Y-9.3980
G01 X2.9858 Y-9.4291
G01 X2.9903 Y-9.4600
G01 X2.9979 Y-9.4902
G01 X3.0084 Y-9.5196
G01 X3.0203 Y-9.5448
G01 X3.0234 Y-9.5507
G01 X3.0360 Y-9.5717
G01 X3.0397 Y-9.5773
G01 X3.0564 Y-9.5996
G01 X3.0773 Y-9.6227
G01 X3.8417 Y-10.3870
G01 X3.8624 Y-10.4056
G01 X3.8847 Y-10.4223
G01 X3.8903 Y-10.4260
G01 X3.9142 Y-10.4403
G01 X3.9424 Y-10.4536
G01 X3.9686 Y-10.4631
G01 X3.9750 Y-10.4650
G01 X3.9988 Y-10.4709
G01 X4.0053 Y-10.4722
G01 X4.0329 Y-10.4762
G01 X4.0640 Y-10.4778
G01 X6.3517 Y-10.4778
G01 X6.3811 Y-10.4762
G01 X6.4087 Y-10.4722
G01 X6.4152 Y-10.4709
G01 X6.4422 Y-10.4641
G01 X6.4685 Y-10.4548
G01 X6.4746 Y-10.4522
G01 X6.4983 Y-10.4410
G01 X6.5265 Y-10.4242
G01 X6.5529 Y-10.4046
G01 X6.5759 Y-10.3835
G01 X6.5946 Y-10.3629
G01 X6.6023 Y-10.3527
G01 X8.8224 Y-10.3527
G01 X8.8224 Y-11.1466
G01 X8.8229 Y-11.1536
G01 X8.8278 Y-11.1897
G01 X8.8367 Y-11.2237
G01 X8.8556 Y-11.4400
G01 X8.8367 Y-11.6563
G01 X8.8278 Y-11.6903
G01 X8.8229 Y-11.7264
G01 X8.8224 Y-11.7334
G01 X8.8224 Y-12.6324
G01 X7.9763 Y-12.6324
G01 X7.9384 Y-12.6372
G01 X7.9315 Y-12.6385
G01 X7.8263 Y-12.6667
G01 X7.6100 Y-12.6856
G01 X7.3937 Y-12.6667
G01 X7.2868 Y-12.6381
G01 X7.2490 Y-12.6329
G01 X7.2401 Y-12.6324
G01 X1.5323 Y-12.6324
G01 X1.5114 Y-12.6336
G01 X1.3966 Y-12.6486
G01 X1.3597 Y-12.6583
G01 X1.3513 Y-12.6612
G01 X1.2578 Y-12.6999
G01 X1.2515 Y-12.7031
G01 X1.2230 Y-12.7196
G01 X1.2157 Y-12.7245
G01 X1.1368 Y-12.7850
G01 X1.1301 Y-12.7909
G01 X1.1069 Y-12.8141
G01 X1.1021 Y-12.8194
G01 X1.0405 Y-12.8997
G01 X1.0356 Y-12.9070
G01 X1.0191 Y-12.9355
G01 X1.0159 Y-12.9418
G01 X0.9765 Y-13.0370
G01 X0.9743 Y-13.0437
G01 X0.9658 Y-13.0755
G01 X0.9641 Y-13.0841
G01 X0.9496 Y-13.1954
G00 Z2.0000
G00 X0.7066 Y-13.1795
G01 F59.00
G01 Z-0.1001
G01 F120.00
G01 X0.7051 Y-13.2027
G01 X0.7048 Y-13.2163
G01 X0.7048 Y-26.4077
G01 X0.7051 Y-26.4213
G01 X0.7077 Y-26.4581
G01 X0.7238 Y-26.5797
G01 X0.7286 Y-26.6037
G01 X0.7413 Y-26.6512
G01 X0.7463 Y-26.6667
G01 X0.7522 Y-26.6819
G01 X0.7902 Y-26.7738
G01 X0.7968 Y-26.7886
G01 X0.8042 Y-26.8032
G01 X0.8247 Y-26.8388
G01 X0.8332 Y-26.8527
G01 X0.8424 Y-26.8661
G01 X0.9129 Y-26.9579
G01 X0.9234 Y-26.9703
G01 X0.9346 Y-26.9821
G01 X0.9637 Y-27.0110
G01 X0.9758 Y-27.0219
G01 X0.9885 Y-27.0322
G01 X1.0674 Y-27.0927
G01 X1.0806 Y-27.1023
G01 X1.0942 Y-27.1112
G01 X1.1297 Y-27.1318
G01 X1.1514 Y-27.1432
G01 X1.1662 Y-27.1498
G01 X1.2581 Y-27.1878
G01 X1.2810 Y-27.1963
G01 X1.2967 Y-27.2009
G01 X1.3363 Y-27.2114
G01 X1.3603 Y-27.2162
G01 X1.4819 Y-27.2323
G01 X1.5119 Y-27.2345
G01 X1.5323 Y-27.2352
G01 X11.9723 Y-27.2352
G01 X11.9952 Y-27.2343
G01 X12.0301 Y-27.2313
G01 X24.5459 Y-27.2313
G01 X24.5808 Y-27.2343
G01 X24.6037 Y-27.2352
G01 X36.3639 Y-27.2351
G01 X36.3977 Y-27.2330
G01 X36.4204 Y-27.2305
G01 X36.5478 Y-27.2115
G01 X36.5627 Y-27.2085
G01 X36.5776 Y-27.2048
G01 X36.6276 Y-27.1896
G01 X36.6490 Y-27.1816
G01 X36.6630 Y-27.1754
G01 X36.7708 Y-27.1243
G01 X36.7843 Y-27.1171
G01 X36.7974 Y-27.1093
G01 X36.8345 Y-27.0846
G01 X36.8531 Y-27.0712
G01 X36.8706 Y-27.0564
G01 X36.9534 Y-26.9814
G01 X36.9645 Y-26.9709
G01 X36.9750 Y-26.9598
G01 X36.9850 Y-26.9482
G01 X37.0132 Y-26.9137
G01 X37.0223 Y-26.9014
G01 X37.0348 Y-26.8822
G01 X37.0961 Y-26.7798
G01 X37.1033 Y-26.7663
G01 X37.1098 Y-26.7525
G01 X37.1270 Y-26.7114
G01 X37.1349 Y-26.6899
G01 X37.1413 Y-26.6679
G01 X37.1685 Y-26.5595
G01 X37.1718 Y-26.5446
G01 X37.1744 Y-26.5296
G01 X37.1763 Y-26.5144
G01 X37.1806 Y-26.4700
G01 X37.1814 Y-26.4471
G01 X37.1810 Y-26.4319
G01 X37.1755 Y-26.3203
G01 X37.1744 Y-26.3051
G01 X37.1713 Y-26.2824
G01 X37.1627 Y-26.2386
G01 X37.1594 Y-26.2237
G01 X37.1530 Y-26.2017
G01 X37.1317 Y-26.1417
G01 X37.9793 Y-26.9894
G01 X37.9891 Y-26.9988
G01 X38.0066 Y-27.0142
G01 X38.0223 Y-27.0271
G01 X38.1143 Y-27.0976
G01 X38.1278 Y-27.1068
G01 X38.1417 Y-27.1153
G01 X38.1773 Y-27.1358
G01 X38.1918 Y-27.1432
G01 X38.2067 Y-27.1498
G01 X38.2985 Y-27.1878
G01 X38.3137 Y-27.1937
G01 X38.3292 Y-27.1987
G01 X38.3688 Y-27.2094
G01 X38.3927 Y-27.2148
G01 X38.4088 Y-27.2174
G01 X38.5156 Y-27.2314
G01 X38.5291 Y-27.2329
G01 X38.5591 Y-27.2349
G01 X38.5727 Y-27.2352
G01 X42.9177 Y-27.2352
G01 X42.9381 Y-27.2345
G01 X42.9681 Y-27.2323
G01 X43.0817 Y-27.2174
G01 X43.0977 Y-27.2148
G01 X43.1216 Y-27.2094
G01 X43.1612 Y-27.1987
G01 X43.1767 Y-27.1937
G01 X43.1919 Y-27.1878
G01 X43.2912 Y-27.1466
G01 X43.3060 Y-27.1396
G01 X43.3203 Y-27.1318
G01 X43.3558 Y-27.1112
G01 X43.3694 Y-27.1023
G01 X43.3826 Y-27.0927
G01 X43.4615 Y-27.0322
G01 X43.4742 Y-27.0219
G01 X43.4863 Y-27.0110
G01 X43.5154 Y-26.9821
G01 X43.5319 Y-26.9642
G01 X43.5422 Y-26.9515
G01 X43.6027 Y-26.8726
G01 X43.6168 Y-26.8527
G01 X43.6253 Y-26.8388
G01 X43.6418 Y-26.8103
G01 X43.6532 Y-26.7886
G01 X43.6598 Y-26.7738
G01 X43.6978 Y-26.6819
G01 X43.7063 Y-26.6590
G01 X43.7109 Y-26.6433
G01 X43.7214 Y-26.6037
G01 X43.7262 Y-26.5797
G01 X43.7423 Y-26.4581
G01 X43.7445 Y-26.4281
G01 X43.7452 Y-26.4077
G01 X43.7451 Y-1.5255
G01 X43.7434 Y-1.4955
G01 X43.7423 Y-1.4819
G01 X43.7262 Y-1.3603
G01 X43.7214 Y-1.3363
G01 X43.7087 Y-1.2888
G01 X43.7037 Y-1.2733
G01 X43.6978 Y-1.2581
G01 X43.6598 Y-1.1662
G01 X43.6532 Y-1.1514
G01 X43.6458 Y-1.1368
G01 X43.6253 Y-1.1012
G01 X43.6168 Y-1.0873
G01 X43.6076 Y-1.0739
G01 X43.5371 Y-0.9821
G01 X43.5266 Y-0.9697
G01 X43.5154 Y-0.9579
G01 X43.4863 Y-0.9290
G01 X43.4742 Y-0.9181
G01 X43.4615 Y-0.9078
G01 X43.3826 Y-0.8473
G01 X43.3694 Y-0.8377
G01 X43.3558 Y-0.8288
G01 X43.3203 Y-0.8082
G01 X43.2986 Y-0.7968
G01 X43.2838 Y-0.7902
G01 X43.1919 Y-0.7522
G01 X43.1690 Y-0.7437
G01 X43.1533 Y-0.7391
G01 X43.1137 Y-0.7286
G01 X43.0897 Y-0.7238
G01 X42.9681 Y-0.7077
G01 X42.9381 Y-0.7055
G01 X42.9177 Y-0.7048
G01 X1.5323 Y-0.7048
G01 X1.5119 Y-0.7055
G01 X1.4819 Y-0.7077
G01 X1.3603 Y-0.7238
G01 X1.3363 Y-0.7286
G01 X1.2888 Y-0.7413
G01 X1.2733 Y-0.7463
G01 X1.2581 Y-0.7522
G01 X1.1662 Y-0.7902
G01 X1.1514 Y-0.7968
G01 X1.1368 Y-0.8042
G01 X1.1012 Y-0.8247
G01 X1.0873 Y-0.8332
G01 X1.0739 Y-0.8424
G01 X0.9821 Y-0.9129
G01 X0.9697 Y-0.9234
G01 X0.9579 Y-0.9346
G01 X0.9290 Y-0.9637
G01 X0.9181 Y-0.9758
G01 X0.9078 Y-0.9885
G01 X0.8473 Y-1.0674
G01 X0.8377 Y-1.0806
G01 X0.8288 Y-1.0942
G01 X0.8082 Y-1.1297
G01 X0.7968 Y-1.1514
G01 X0.7902 Y-1.1662
G01 X0.7522 Y-1.2581
G01 X0.7437 Y-1.2810
G01 X0.7391 Y-1.2967
G01 X0.7286 Y-1.3363
G01 X0.7238 Y-1.3603
G01 X0.7077 Y-1.4819
G01 X0.7051 Y-1.5187
G01 X0.7048 Y-1.5323
G01 X0.7048 Y-11.6757
G01 X0.7051 Y-11.6893
G01 X0.7077 Y-11.7261
G01 X0.7238 Y-11.8477
G01 X0.7286 Y-11.8717
G01 X0.7413 Y-11.9192
G01 X0.7463 Y-11.9347
G01 X0.7522 Y-11.9499
G01 X0.7902 Y-12.0418
G01 X0.7968 Y-12.0566
G01 X0.8082 Y-12.0783
G01 X0.8288 Y-12.1138
G01 X0.8377 Y-12.1274
G01 X0.8473 Y-12.1406
G01 X0.9078 Y-12.2195
G01 X0.9181 Y-12.2322
G01 X0.9290 Y-12.2443
G01 X0.9579 Y-12.2734
G01 X0.9697 Y-12.2846
G01 X0.9821 Y-12.2951
G01 X1.0674 Y-12.3607
G01 X1.0806 Y-12.3703
G01 X1.0942 Y-12.3792
G01 X1.1297 Y-12.3998
G01 X1.1514 Y-12.4112
G01 X1.1662 Y-12.4178
G01 X1.2343 Y-12.4460
G01 X1.1662 Y-12.4742
G01 X1.1514 Y-12.4808
G01 X1.1297 Y-12.4922
G01 X1.0942 Y-12.5128
G01 X1.0806 Y-12.5217
G01 X1.0674 Y-12.5313
G01 X0.9821 Y-12.5969
G01 X0.9697 Y-12.6074
G01 X0.9579 Y-12.6186
G01 X0.9290 Y-12.6477
G01 X0.9181 Y-12.6598
G01 X0.9078 Y-12.6725
G01 X0.8424 Y-12.7579
G01 X0.8332 Y-12.7713
G01 X0.8247 Y-12.7852
G01 X0.8042 Y-12.8208
G01 X0.7968 Y-12.8354
G01 X0.7902 Y-12.8502
G01 X0.7522 Y-12.9421
G01 X0.7437 Y-12.9650
G01 X0.7391 Y-12.9807
G01 X0.7306 Y-13.0124
G01 X0.7252 Y-13.0363
G01 X0.7226 Y-13.0523
G01 X0.7086 Y-13.1592
G01 X0.7066 Y-13.1795
G00 Z2.0000
G00 X0.5850 Y-13.1715
G01 F59.00
G01 Z-0.1001
G01 F120.00
G01 X0.5835 Y-13.1974
G01 X0.5830 Y-13.2163
G01 X0.5830 Y-26.4077
G01 X0.5835 Y-26.4266
G01 X0.5850 Y-26.4525
G01 X0.5867 Y-26.4713
G01 X0.6035 Y-26.5988
G01 X0.6076 Y-26.6211
G01 X0.6101 Y-26.6321
G01 X0.6215 Y-26.6749
G01 X0.6279 Y-26.6966
G01 X0.6355 Y-26.7180
G01 X0.6397 Y-26.7285
G01 X0.6777 Y-26.8204
G01 X0.6869 Y-26.8411
G01 X0.6972 Y-26.8613
G01 X0.7192 Y-26.8996
G01 X0.7311 Y-26.9190
G01 X0.7439 Y-26.9377
G01 X0.8182 Y-27.0345
G01 X0.8329 Y-27.0518
G01 X0.8485 Y-27.0682
G01 X0.8799 Y-27.0994
G01 X0.8968 Y-27.1145
G01 X0.9144 Y-27.1288
G01 X0.9933 Y-27.1893
G01 X1.0116 Y-27.2027
G01 X1.0306 Y-27.2150
G01 X1.0787 Y-27.2428
G01 X1.0989 Y-27.2531
G01 X1.1196 Y-27.2623
G01 X1.2115 Y-27.3003
G01 X1.2220 Y-27.3045
G01 X1.2434 Y-27.3121
G01 X1.2651 Y-27.3185
G01 X1.3079 Y-27.3299
G01 X1.3189 Y-27.3324
G01 X1.3412 Y-27.3365
G01 X1.4687 Y-27.3533
G01 X1.5039 Y-27.3560
G01 X1.5323 Y-27.3570
G01 X11.9723 Y-27.3570
G01 X11.9935 Y-27.3564
G01 X12.0371 Y-27.3531
G01 X24.5389 Y-27.3531
G01 X24.5825 Y-27.3564
G01 X24.6037 Y-27.3570
G01 X36.3669 Y-27.3568
G01 X36.3881 Y-27.3558
G01 X36.4172 Y-27.3535
G01 X36.4278 Y-27.3523
G01 X36.5581 Y-27.3331
G01 X36.5790 Y-27.3295
G01 X36.5894 Y-27.3273
G01 X36.6100 Y-27.3221
G01 X36.6556 Y-27.3085
G01 X36.6658 Y-27.3052
G01 X36.6858 Y-27.2981
G01 X36.7054 Y-27.2900
G01 X36.8160 Y-27.2378
G01 X36.8350 Y-27.2282
G01 X36.8443 Y-27.2231
G01 X36.8625 Y-27.2122
G01 X36.9022 Y-27.1858
G01 X36.9196 Y-27.1736
G01 X36.9363 Y-27.1605
G01 X36.9445 Y-27.1537
G01 X37.0430 Y-27.0644
G01 X37.0506 Y-27.0570
G01 X37.0652 Y-27.0416
G01 X37.0791 Y-27.0255
G01 X37.1092 Y-26.9886
G01 X37.1219 Y-26.9715
G01 X37.1279 Y-26.9628
G01 X37.1392 Y-26.9448
G01 X37.2020 Y-26.8398
G01 X37.2120 Y-26.8211
G01 X37.2211 Y-26.8019
G01 X37.2395 Y-26.7580
G01 X37.2471 Y-26.7381
G01 X37.2538 Y-26.7180
G01 X37.2594 Y-26.6975
G01 X37.2866 Y-26.5891
G01 X37.2912 Y-26.5684
G01 X37.2949 Y-26.5474
G01 X37.2963 Y-26.5369
G01 X37.3016 Y-26.4839
G01 X37.8932 Y-27.0755
G01 X37.9139 Y-27.0949
G01 X37.9408 Y-27.1179
G01 X38.0337 Y-27.1893
G01 X38.0520 Y-27.2027
G01 X38.0614 Y-27.2089
G01 X38.0808 Y-27.2208
G01 X38.1093 Y-27.2372
G01 X38.1292 Y-27.2481
G01 X38.1393 Y-27.2531
G01 X38.1601 Y-27.2623
G01 X38.2519 Y-27.3003
G01 X38.2731 Y-27.3085
G01 X38.2946 Y-27.3155
G01 X38.3373 Y-27.3271
G01 X38.3594 Y-27.3324
G01 X38.3817 Y-27.3365
G01 X38.5091 Y-27.3533
G01 X38.5444 Y-27.3560
G01 X38.5727 Y-27.3570
G01 X42.9272 Y-27.3569
G01 X42.9625 Y-27.3550
G01 X42.9813 Y-27.3533
G01 X43.1088 Y-27.3365
G01 X43.1199 Y-27.3346
G01 X43.1421 Y-27.3299
G01 X43.1958 Y-27.3155
G01 X43.2173 Y-27.3085
G01 X43.2385 Y-27.3003
G01 X43.3304 Y-27.2623
G01 X43.3511 Y-27.2531
G01 X43.3713 Y-27.2428
G01 X43.4096 Y-27.2208
G01 X43.4290 Y-27.2089
G01 X43.4477 Y-27.1961
G01 X43.5445 Y-27.1218
G01 X43.5618 Y-27.1071
G01 X43.5782 Y-27.0915
G01 X43.6094 Y-27.0601
G01 X43.6245 Y-27.0432
G01 X43.6388 Y-27.0256
G01 X43.6993 Y-26.9467
G01 X43.7127 Y-26.9284
G01 X43.7250 Y-26.9094
G01 X43.7528 Y-26.8613
G01 X43.7631 Y-26.8411
G01 X43.7723 Y-26.8204
G01 X43.8103 Y-26.7285
G01 X43.8185 Y-26.7073
G01 X43.8221 Y-26.6966
G01 X43.8285 Y-26.6749
G01 X43.8399 Y-26.6321
G01 X43.8446 Y-26.6099
G01 X43.8465 Y-26.5988
G01 X43.8633 Y-26.4713
G01 X43.8660 Y-26.4361
G01 X43.8670 Y-26.4077
G01 X43.8669 Y-1.5228
G01 X43.8650 Y-1.4875
G01 X43.8633 Y-1.4687
G01 X43.8465 Y-1.3412
G01 X43.8424 Y-1.3189
G01 X43.8399 Y-1.3079
G01 X43.8255 Y-1.2542
G01 X43.8185 Y-1.2327
G01 X43.8103 Y-1.2115
G01 X43.7723 Y-1.1196
G01 X43.7631 Y-1.0989
G01 X43.7528 Y-1.0787
G01 X43.7308 Y-1.0404
G01 X43.7189 Y-1.0210
G01 X43.7061 Y-1.0023
G01 X43.6318 Y-0.9055
G01 X43.6171 Y-0.8882
G01 X43.6015 Y-0.8718
G01 X43.5701 Y-0.8406
G01 X43.5532 Y-0.8255
G01 X43.5356 Y-0.8112
G01 X43.4567 Y-0.7507
G01 X43.4384 Y-0.7373
G01 X43.4194 Y-0.7250
G01 X43.3713 Y-0.6972
G01 X43.3511 Y-0.6869
G01 X43.3304 Y-0.6777
G01 X43.2385 Y-0.6397
G01 X43.2280 Y-0.6355
G01 X43.2066 Y-0.6279
G01 X43.1849 Y-0.6215
G01 X43.1421 Y-0.6101
G01 X43.1199 Y-0.6054
G01 X43.1088 Y-0.6035
G01 X42.9813 Y-0.5867
G01 X42.9461 Y-0.5840
G01 X42.9177 Y-0.5830
G01 X1.5323 Y-0.5830
G01 X1.5039 Y-0.5840
G01 X1.4687 Y-0.5867
G01 X1.3412 Y-0.6035
G01 X1.3301 Y-0.6054
G01 X1.3079 Y-0.6101
G01 X1.2542 Y-0.6245
G01 X1.2327 Y-0.6315
G01 X1.2115 Y-0.6397
G01 X1.1196 Y-0.6777
G01 X1.0989 Y-0.6869
G01 X1.0787 Y-0.6972
G01 X1.0404 Y-0.7192
G01 X1.0210 Y-0.7311
G01 X1.0023 Y-0.7439
G01 X0.9055 Y-0.8182
G01 X0.8882 Y-0.8329
G01 X0.8718 Y-0.8485
G01 X0.8406 Y-0.8799
G01 X0.8255 Y-0.8968
G01 X0.8112 Y-0.9144
G01 X0.7507 Y-0.9933
G01 X0.7373 Y-1.0116
G01 X0.7250 Y-1.0306
G01 X0.6972 Y-1.0787
G01 X0.6869 Y-1.0989
G01 X0.6777 Y-1.1196
G01 X0.6397 Y-1.2115
G01 X0.6355 Y-1.2220
G01 X0.6279 Y-1.2434
G01 X0.6215 Y-1.2651
G01 X0.6101 Y-1.3079
G01 X0.6054 Y-1.3301
G01 X0.6035 Y-1.3412
G01 X0.5867 Y-1.4687
G01 X0.5850 Y-1.4875
G01 X0.5835 Y-1.5134
G01 X0.5830 Y-1.5323
G01 X0.5830 Y-11.6757
G01 X0.5835 Y-11.6946
G01 X0.5850 Y-11.7205
G01 X0.5867 Y-11.7393
G01 X0.6019 Y-11.8555
G01 X0.6054 Y-11.8779
G01 X0.6076 Y-11.8891
G01 X0.6129 Y-11.9111
G01 X0.6245 Y-11.9538
G01 X0.6279 Y-11.9646
G01 X0.6355 Y-11.9860
G01 X0.6777 Y-12.0884
G01 X0.6822 Y-12.0988
G01 X0.6919 Y-12.1192
G01 X0.7028 Y-12.1392
G01 X0.7192 Y-12.1676
G01 X0.7250 Y-12.1774
G01 X0.7373 Y-12.1964
G01 X0.7507 Y-12.2147
G01 X0.8112 Y-12.2936
G01 X0.8255 Y-12.3112
G01 X0.8406 Y-12.3281
G01 X0.8485 Y-12.3362
G01 X0.8718 Y-12.3595
G01 X0.8882 Y-12.3751
G01 X0.9055 Y-12.3898
G01 X0.9144 Y-12.3968
G01 X0.9785 Y-12.4460
G01 X0.9144 Y-12.4952
G01 X0.8968 Y-12.5095
G01 X0.8799 Y-12.5246
G01 X0.8718 Y-12.5325
G01 X0.8485 Y-12.5558
G01 X0.8329 Y-12.5722
G01 X0.8182 Y-12.5895
G01 X0.8112 Y-12.5984
G01 X0.7439 Y-12.6863
G01 X0.7373 Y-12.6956
G01 X0.7250 Y-12.7146
G01 X0.6972 Y-12.7627
G01 X0.6919 Y-12.7728
G01 X0.6822 Y-12.7932
G01 X0.6397 Y-12.8955
G01 X0.6315 Y-12.9167
G01 X0.6245 Y-12.9382
G01 X0.6215 Y-12.9491
G01 X0.6101 Y-12.9919
G01 X0.6054 Y-13.0141
G01 X0.6035 Y-13.0252
G01 X0.5878 Y-13.1433
G01 X0.5850 Y-13.1715
G00 Z2.0000
G00 X0.4635 Y-13.1635
G01 F59.00
G01 Z-0.1001
G01 F120.00
G01 X0.4618 Y-13.1921
G01 X0.4613 Y-13.2163
G01 X0.4613 Y-26.4077
G01 X0.4618 Y-26.4319
G01 X0.4635 Y-26.4605
G01 X0.4656 Y-26.4846
G01 X0.4832 Y-26.6178
G01 X0.4885 Y-26.6464
G01 X0.4917 Y-26.6605
G01 X0.5038 Y-26.7064
G01 X0.5121 Y-26.7342
G01 X0.5218 Y-26.7616
G01 X0.5272 Y-26.7751
G01 X0.5652 Y-26.8670
G01 X0.5709 Y-26.8803
G01 X0.5834 Y-26.9065
G01 X0.5973 Y-26.9320
G01 X0.6212 Y-26.9730
G01 X0.6370 Y-26.9974
G01 X0.6541 Y-27.0209
G01 X0.7146 Y-27.0997
G01 X0.7329 Y-27.1223
G01 X0.7523 Y-27.1439
G01 X0.7857 Y-27.1776
G01 X0.8068 Y-27.1976
G01 X0.8288 Y-27.2164
G01 X0.9308 Y-27.2946
G01 X0.9547 Y-27.3111
G01 X0.9795 Y-27.3262
G01 X1.0206 Y-27.3498
G01 X1.0465 Y-27.3630
G01 X1.0730 Y-27.3748
G01 X1.1649 Y-27.4128
G01 X1.1920 Y-27.4233
G01 X1.2058 Y-27.4279
G01 X1.2336 Y-27.4362
G01 X1.2795 Y-27.4483
G01 X1.2936 Y-27.4515
G01 X1.3222 Y-27.4568
G01 X1.4554 Y-27.4744
G01 X1.4960 Y-27.4775
G01 X1.5202 Y-27.4786
G01 X1.5323 Y-27.4787
G01 X11.9723 Y-27.4787
G01 X11.9995 Y-27.4781
G01 X12.0433 Y-27.4749
G01 X24.5327 Y-27.4749
G01 X24.5765 Y-27.4781
G01 X24.6037 Y-27.4787
G01 X36.3699 Y-27.4786
G01 X36.3971 Y-27.4772
G01 X36.4292 Y-27.4747
G01 X36.4427 Y-27.4732
G01 X36.5894 Y-27.4514
G01 X36.6161 Y-27.4461
G01 X36.6425 Y-27.4395
G01 X36.7040 Y-27.4209
G01 X36.7296 Y-27.4117
G01 X36.7547 Y-27.4013
G01 X36.8803 Y-27.3419
G01 X36.9043 Y-27.3290
G01 X36.9277 Y-27.3150
G01 X36.9698 Y-27.2871
G01 X36.9921 Y-27.2714
G01 X37.0136 Y-27.2546
G01 X37.0342 Y-27.2369
G01 X37.1170 Y-27.1619
G01 X37.1367 Y-27.1431
G01 X37.1554 Y-27.1234
G01 X37.1732 Y-27.1027
G01 X37.2052 Y-27.0635
G01 X37.2214 Y-27.0417
G01 X37.2291 Y-27.0304
G01 X37.2437 Y-27.0074
G01 X37.3011 Y-26.9116
G01 X37.3145 Y-26.8879
G01 X37.3208 Y-26.8758
G01 X37.3324 Y-26.8512
G01 X37.3570 Y-26.7919
G01 X37.3662 Y-26.7663
G01 X37.3703 Y-26.7533
G01 X37.3765 Y-26.7310
G01 X37.8158 Y-27.1701
G01 X37.8460 Y-27.1973
G01 X37.8645 Y-27.2129
G01 X37.9712 Y-27.2946
G01 X37.9831 Y-27.3030
G01 X38.0074 Y-27.3188
G01 X38.0484 Y-27.3427
G01 X38.0739 Y-27.3566
G01 X38.1001 Y-27.3691
G01 X38.1135 Y-27.3748
G01 X38.2053 Y-27.4128
G01 X38.2324 Y-27.4233
G01 X38.2462 Y-27.4279
G01 X38.2740 Y-27.4362
G01 X38.3058 Y-27.4447
G01 X38.3341 Y-27.4515
G01 X38.3483 Y-27.4543
G01 X38.3770 Y-27.4588
G01 X38.4958 Y-27.4744
G01 X38.5364 Y-27.4775
G01 X38.5606 Y-27.4786
G01 X38.5727 Y-27.4787
G01 X42.9298 Y-27.4786
G01 X42.9705 Y-27.4765
G01 X42.9946 Y-27.4744
G01 X43.1278 Y-27.4568
G01 X43.1421 Y-27.4543
G01 X43.1705 Y-27.4483
G01 X43.2164 Y-27.4362
G01 X43.2442 Y-27.4279
G01 X43.2716 Y-27.4182
G01 X43.2851 Y-27.4128
G01 X43.3770 Y-27.3748
G01 X43.4035 Y-27.3630
G01 X43.4294 Y-27.3498
G01 X43.4705 Y-27.3262
G01 X43.4953 Y-27.3111
G01 X43.5192 Y-27.2946
G01 X43.6212 Y-27.2164
G01 X43.6432 Y-27.1976
G01 X43.6643 Y-27.1776
G01 X43.6977 Y-27.1439
G01 X43.7171 Y-27.1223
G01 X43.7354 Y-27.0997
G01 X43.7959 Y-27.0209
G01 X43.8130 Y-26.9974
G01 X43.8288 Y-26.9730
G01 X43.8527 Y-26.9320
G01 X43.8666 Y-26.9065
G01 X43.8791 Y-26.8803
G01 X43.8848 Y-26.8670
G01 X43.9228 Y-26.7751
G01 X43.9333 Y-26.7480
G01 X43.9379 Y-26.7342
G01 X43.9462 Y-26.7064
G01 X43.9583 Y-26.6605
G01 X43.9615 Y-26.6464
G01 X43.9668 Y-26.6178
G01 X43.9844 Y-26.4846
G01 X43.9875 Y-26.4440
G01 X43.9882 Y-26.4319
G01 X43.9887 Y-26.4077
G01 X43.9886 Y-1.5202
G01 X43.9865 Y-1.4795
G01 X43.9844 Y-1.4554
G01 X43.9668 Y-1.3222
G01 X43.9643 Y-1.3079
G01 X43.9583 Y-1.2795
G01 X43.9462 Y-1.2336
G01 X43.9379 Y-1.2058
G01 X43.9333 Y-1.1920
G01 X43.9228 Y-1.1649
G01 X43.8848 Y-1.0730
G01 X43.8730 Y-1.0465
G01 X43.8598 Y-1.0206
G01 X43.8362 Y-0.9795
G01 X43.8211 Y-0.9547
G01 X43.8046 Y-0.9308
G01 X43.7264 Y-0.8288
G01 X43.7076 Y-0.8068
G01 X43.6876 Y-0.7857
G01 X43.6539 Y-0.7523
G01 X43.6323 Y-0.7329
G01 X43.6097 Y-0.7146
G01 X43.5309 Y-0.6541
G01 X43.5074 Y-0.6370
G01 X43.4830 Y-0.6212
G01 X43.4420 Y-0.5973
G01 X43.4165 Y-0.5834
G01 X43.4035 Y-0.5770
G01 X43.3770 Y-0.5652
G01 X43.2851 Y-0.5272
G01 X43.2716 Y-0.5218
G01 X43.2442 Y-0.5121
G01 X43.2164 Y-0.5038
G01 X43.1705 Y-0.4917
G01 X43.1421 Y-0.4857
G01 X43.1278 Y-0.4832
G01 X42.9946 Y-0.4656
G01 X42.9540 Y-0.4625
G01 X42.9298 Y-0.4614
G01 X42.9177 Y-0.4613
G01 X1.5323 Y-0.4613
G01 X1.5081 Y-0.4618
G01 X1.4960 Y-0.4625
G01 X1.4554 Y-0.4656
G01 X1.3222 Y-0.4832
G01 X1.3079 Y-0.4857
G01 X1.2795 Y-0.4917
G01 X1.2196 Y-0.5078
G01 X1.1920 Y-0.5167
G01 X1.1649 Y-0.5272
G01 X1.0730 Y-0.5652
G01 X1.0465 Y-0.5770
G01 X1.0206 Y-0.5902
G01 X0.9795 Y-0.6138
G01 X0.9547 Y-0.6289
G01 X0.9308 Y-0.6454
G01 X0.8288 Y-0.7236
G01 X0.8068 Y-0.7424
G01 X0.7857 Y-0.7624
G01 X0.7523 Y-0.7961
G01 X0.7329 Y-0.8177
G01 X0.7146 Y-0.8403
G01 X0.6541 Y-0.9191
G01 X0.6370 Y-0.9426
G01 X0.6212 Y-0.9670
G01 X0.5973 Y-1.0080
G01 X0.5834 Y-1.0335
G01 X0.5770 Y-1.0465
G01 X0.5652 Y-1.0730
G01 X0.5272 Y-1.1649
G01 X0.5167 Y-1.1920
G01 X0.5121 Y-1.2058
G01 X0.5038 Y-1.2336
G01 X0.4917 Y-1.2795
G01 X0.4885 Y-1.2936
G01 X0.4832 Y-1.3222
G01 X0.4656 Y-1.4554
G01 X0.4625 Y-1.4960
G01 X0.4614 Y-1.5202
G01 X0.4613 Y-1.5323
G01 X0.4614 Y-11.6878
G01 X0.4635 Y-11.7285
G01 X0.4645 Y-11.7405
G01 X0.4671 Y-11.7646
G01 X0.4832 Y-11.8858
G01 X0.4885 Y-11.9144
G01 X0.4917 Y-11.9285
G01 X0.5078 Y-11.9884
G01 X0.5167 Y-12.0160
G01 X0.5272 Y-12.0431
G01 X0.5652 Y-12.1350
G01 X0.5709 Y-12.1483
G01 X0.5834 Y-12.1745
G01 X0.5973 Y-12.2000
G01 X0.6212 Y-12.2410
G01 X0.6370 Y-12.2654
G01 X0.6454 Y-12.2772
G01 X0.7146 Y-12.3677
G01 X0.7329 Y-12.3903
G01 X0.7523 Y-12.4119
G01 X0.7861 Y-12.4460
G01 X0.7523 Y-12.4801
G01 X0.7329 Y-12.5017
G01 X0.7146 Y-12.5243
G01 X0.6454 Y-12.6148
G01 X0.6289 Y-12.6387
G01 X0.6212 Y-12.6510
G01 X0.5973 Y-12.6920
G01 X0.5834 Y-12.7175
G01 X0.5709 Y-12.7437
G01 X0.5272 Y-12.8489
G01 X0.5167 Y-12.8760
G01 X0.5078 Y-12.9036
G01 X0.4953 Y-12.9494
G01 X0.4885 Y-12.9776
G01 X0.4832 Y-13.0062
G01 X0.4671 Y-13.1274
G01 X0.4656 Y-13.1394
G01 X0.4635 Y-13.1635
G00 Z2.0000
G00 X3.3592 Y-16.0967
G01 F59.00
G01 Z-0.1001
G01 F120.00
G01 X3.3688 Y-16.0802
G01 X3.3824 Y-16.0599
G01 X3.4478 Y-15.9745
G01 X3.4581 Y-15.9618
G01 X3.4690 Y-15.9497
G01 X3.4979 Y-15.9206
G01 X3.5097 Y-15.9094
G01 X3.5221 Y-15.8989
G01 X3.6074 Y-15.8333
G01 X3.6273 Y-15.8192
G01 X3.6507 Y-15.8052
G01 X3.3592 Y-15.8052
G01 X3.3592 Y-16.0967
G00 Z2.0000
G00 X3.3681 Y-16.4894
G01 F59.00
G01 Z-0.1001
G01 F120.00
G01 X3.3666 Y-16.5183
G01 X3.3666 Y-18.2839
G01 X3.3688 Y-18.3168
G01 X3.3841 Y-18.4327
G01 X3.3870 Y-18.4473
G01 X3.3941 Y-18.4742
G01 X3.3982 Y-18.5012
G01 X3.4000 Y-18.5103
G01 X3.4082 Y-18.5431
G01 X3.4124 Y-18.5564
G01 X3.4240 Y-18.5882
G01 X3.4425 Y-18.6271
G01 X3.4646 Y-18.6641
G01 X3.4846 Y-18.6914
G01 X3.4933 Y-18.7023
G01 X3.5129 Y-18.7240
G01 X3.5226 Y-18.7340
G01 X3.5477 Y-18.7567
G01 X3.5573 Y-18.7644
G01 X3.5840 Y-18.7912
G01 X3.5949 Y-18.8013
G01 X3.6026 Y-18.8076
G01 X3.6895 Y-18.8739
G01 X3.7021 Y-18.8819
G01 X3.7306 Y-18.8983
G01 X3.7393 Y-18.9031
G01 X3.7483 Y-18.9073
G01 X3.8447 Y-18.9473
G01 X3.8540 Y-18.9509
G01 X3.8634 Y-18.9540
G01 X3.9047 Y-18.9650
G01 X3.9193 Y-18.9679
G01 X4.0311 Y-18.9827
G01 X4.0599 Y-18.9850
G01 X4.0723 Y-18.9854
G01 X9.4333 Y-18.9854
G01 X9.4457 Y-18.9850
G01 X9.4704 Y-18.9832
G01 X9.5862 Y-18.9679
G01 X9.6008 Y-18.9650
G01 X9.6374 Y-18.9553
G01 X9.6516 Y-18.9509
G01 X9.6609 Y-18.9473
G01 X9.7573 Y-18.9073
G01 X9.7706 Y-18.9008
G01 X9.8035 Y-18.8819
G01 X9.8160 Y-18.8739
G01 X9.8241 Y-18.8681
G01 X9.9096 Y-18.8025
G01 X9.9160 Y-18.7973
G01 X9.9346 Y-18.7810
G01 X10.9013 Y-17.8146
G01 X10.9098 Y-17.8055
G01 X10.9260 Y-17.7868
G01 X10.9941 Y-17.6981
G01 X10.9999 Y-17.6900
G01 X11.0079 Y-17.6775
G01 X11.0268 Y-17.6446
G01 X11.0333 Y-17.6313
G01 X11.0752 Y-17.5303
G01 X11.0785 Y-17.5209
G01 X11.0813 Y-17.5114
G01 X11.0898 Y-17.4796
G01 X11.0931 Y-17.4651
G01 X11.1087 Y-17.3485
G01 X11.1099 Y-17.3362
G01 X11.1114 Y-17.3115
G01 X11.1114 Y-17.2482
G01 X11.1197 Y-17.2388
G01 X11.1254 Y-17.2314
G01 X11.1427 Y-17.2080
G01 X11.1479 Y-17.2002
G01 X11.1675 Y-17.1671
G01 X11.1860 Y-17.1282
G01 X11.2005 Y-17.0876
G01 X11.2089 Y-17.0548
G01 X11.2126 Y-17.0366
