(G-CODE GENERATED BY FLATCAM v8.994 - www.flatcam.org - Version Date: 2020/11/7)

(Name: pwm_gen_board.drl_edit_cnc)
(Type: G-code from Geometry)
(Units: MM)

(Created on Thursday, 31 March 2022 at 00:53)

(This preprocessor is the default preprocessor used by FlatCAM.)
(It is made to work with MACH3 compatible motion controllers.)


(TOOLS DIAMETER: )
(Tool: 1 -> Dia: 0.7)
(Tool: 2 -> Dia: 0.8)
(Tool: 3 -> Dia: 1.0)
(Tool: 4 -> Dia: 1.2)
(Tool: 5 -> Dia: 1.5)

(FEEDRATE Z: )
(Tool: 1 -> Feedrate: 300)
(Tool: 2 -> Feedrate: 300)
(Tool: 3 -> Feedrate: 300)
(Tool: 4 -> Feedrate: 300)
(Tool: 5 -> Feedrate: 300)

(FEEDRATE RAPIDS: )
(Tool: 1 -> Feedrate Rapids: 1500)
(Tool: 2 -> Feedrate Rapids: 1500)
(Tool: 3 -> Feedrate Rapids: 1500)
(Tool: 4 -> Feedrate Rapids: 1500)
(Tool: 5 -> Feedrate Rapids: 1500)

(Z_CUT: )
(Tool: 1 -> Z_Cut: -1.7)
(Tool: 2 -> Z_Cut: -1.7)
(Tool: 3 -> Z_Cut: -1.7)
(Tool: 4 -> Z_Cut: -1.7)
(Tool: 5 -> Z_Cut: -1.7)

(Tools Offset: )
(Tool: 1 -> Offset Z: 0.0)
(Tool: 2 -> Offset Z: 0.0)
(Tool: 3 -> Offset Z: 0.0)
(Tool: 4 -> Offset Z: 0.0)
(Tool: 5 -> Offset Z: 0.0)

(Z_MOVE: )
(Tool: 1 -> Z_Move: 1.0)
(Tool: 2 -> Z_Move: 1.0)
(Tool: 3 -> Z_Move: 1.0)
(Tool: 4 -> Z_Move: 1.0)
(Tool: 5 -> Z_Move: 1.0)

(Z Toolchange: 30.0 mm)
(X,Y Toolchange: 0.0000, 0.0000 mm)
(Z Start: None mm)
(Z End: 30.0 mm)
(X,Y End: None mm)
(Steps per circle: 64)
(Preprocessor Excellon: default)

(X range:    4.0550 ...   38.8500  mm)
(Y range:  -24.2860 ...   -3.3100  mm)

(Spindle Speed: 0 RPM)
G21
G90
G94

G01 F300.00

M5
G00 Z30.0000
T1
G00 X0.0000 Y0.0000                
M6
(MSG, Change to Tool Dia = 0.7000 ||| Total drills for tool T1 = 3)
M0
G00 Z30.0000

G01 F300.00
M03
G00 X28.0880 Y-9.3980
G01 Z-1.7000
G01 Z0
G00 Z1.0000
G00 X29.3580 Y-10.6680
G01 Z-1.7000
G01 Z0
G00 Z1.0000
G00 X28.0880 Y-11.9380
G01 Z-1.7000
G01 Z0
G00 Z1.0000
G01 F300.00

M5
G00 Z30.0000
T2
G00 X0.0000 Y0.0000                
M6
(MSG, Change to Tool Dia = 0.8000 ||| Total drills for tool T2 = 16)
M0
G00 Z30.0000

G01 F300.00
M03
G00 X7.6100 Y-3.8200
G01 Z-1.7000
G01 Z0
G00 Z1.0000
G00 X7.6100 Y-6.3600
G01 Z-1.7000
G01 Z0
G00 Z1.0000
G00 X7.6100 Y-8.9000
G01 Z-1.7000
G01 Z0
G00 Z1.0000
G00 X7.6100 Y-11.4400
G01 Z-1.7000
G01 Z0
G00 Z1.0000
G00 X15.5040 Y-23.8860
G01 Z-1.7000
G01 Z0
G00 Z1.0000
G00 X18.0440 Y-23.8860
G01 Z-1.7000
G01 Z0
G00 Z1.0000
G00 X20.5840 Y-23.8860
G01 Z-1.7000
G01 Z0
G00 Z1.0000
G00 X23.1240 Y-23.8860
G01 Z-1.7000
G01 Z0
G00 Z1.0000
G00 X23.1240 Y-16.2660
G01 Z-1.7000
G01 Z0
G00 Z1.0000
G00 X20.5840 Y-16.2660
G01 Z-1.7000
G01 Z0
G00 Z1.0000
G00 X18.0440 Y-16.2660
G01 Z-1.7000
G01 Z0
G00 Z1.0000
G00 X15.5040 Y-16.2660
G01 Z-1.7000
G01 Z0
G00 Z1.0000
G00 X15.2300 Y-11.4400
G01 Z-1.7000
G01 Z0
G00 Z1.0000
G00 X15.2300 Y-8.9000
G01 Z-1.7000
G01 Z0
G00 Z1.0000
G00 X15.2300 Y-6.3600
G01 Z-1.7000
G01 Z0
G00 Z1.0000
G00 X15.2300 Y-3.8200
G01 Z-1.7000
G01 Z0
G00 Z1.0000
G01 F300.00

M5
G00 Z30.0000
T3
G00 X0.0000 Y0.0000                
M6
(MSG, Change to Tool Dia = 1.0000 ||| Total drills for tool T3 = 9)
M0
G00 Z30.0000

G01 F300.00
M03
G00 X4.5550 Y-17.8200
G01 Z-1.7000
G01 Z0
G00 Z1.0000
G00 X4.5550 Y-20.3200
G01 Z-1.7000
G01 Z0
G00 Z1.0000
G00 X4.5550 Y-22.8200
G01 Z-1.7000
G01 Z0
G00 Z1.0000
G00 X30.1550 Y-21.5900
G01 Z-1.7000
G01 Z0
G00 Z1.0000
G00 X30.1550 Y-19.0500
G01 Z-1.7000
G01 Z0
G00 Z1.0000
G00 X30.1550 Y-16.5100
G01 Z-1.7000
G01 Z0
G00 Z1.0000
G00 X29.2100 Y-3.8100
G01 Z-1.7000
G01 Z0
G00 Z1.0000
G00 X26.6700 Y-3.8100
G01 Z-1.7000
G01 Z0
G00 Z1.0000
G00 X24.1300 Y-3.8100
G01 Z-1.7000
G01 Z0
G00 Z1.0000
G01 F300.00

M5
G00 Z30.0000
T4
G00 X0.0000 Y0.0000                
M6
(MSG, Change to Tool Dia = 1.2000 ||| Total drills for tool T4 = 1)
M0
G00 Z30.0000

G01 F300.00
M03
G00 X6.5550 Y-16.2200
G01 Z-1.7000
G01 Z0
G00 Z1.0000
G01 F300.00

M5
G00 Z30.0000
T5
G00 X0.0000 Y0.0000                
M6
(MSG, Change to Tool Dia = 1.5000 ||| Total drills for tool T5 = 4)
M0
G00 Z30.0000

G01 F300.00
M03
G00 X38.1000 Y-21.5900
G01 Z-1.7000
G01 Z0
G00 Z1.0000
G00 X38.1000 Y-16.5100
G01 Z-1.7000
G01 Z0
G00 Z1.0000
G00 X38.1000 Y-11.4300
G01 Z-1.7000
G01 Z0
G00 Z1.0000
G00 X38.1000 Y-6.3500
G01 Z-1.7000
G01 Z0
G00 Z1.0000
M05
G00 Z30.00


