(G-CODE GENERATED BY FLATCAM v8.994 - www.flatcam.org - Version Date: 2020/11/7)

(Name: pwm_gen_board-Edge_Cuts.gbr_cutout_cnc)
(Type: G-code from Geometry)
(Units: MM)

(Created on Thursday, 31 March 2022 at 01:06)

(This preprocessor is the default preprocessor used by FlatCAM.)
(It is made to work with MACH3 compatible motion controllers.)

(TOOL DIAMETER: 1.5 mm)
(Feedrate_XY: 60.0 mm/min)
(Feedrate_Z: 40.0 mm/min)
(Feedrate rapids 1500.0 mm/min)

(Z_Cut: -1.7000000000000004 mm)
(Z_Move: 2.0 mm)
(Z Start: None mm)
(Z End: 30.0 mm)
(X,Y End: None mm)
(Steps per circle: 64)
(Preprocessor Geometry: default)

(X range:   -0.8000 ...   45.2500  mm)
(Y range:  -28.7400 ...    0.8000  mm)

(Spindle Speed: 3600.0 RPM)
G21
G90
G94

G01 F60.00

M5
G00 Z15.0000
G00 X0.0000 Y0.0000
T1
M6    
(MSG, Change to Tool Dia = 1.5000)
M0
G00 Z15.0000

M03 S3600.0
G01 F60.00
G00 X-0.7991 Y-27.9768
G01 F40.00
G01 Z-1.7000
G01 F60.00
G01 X-0.8000 Y-27.9400
G01 X-0.8000 Y-0.0000
G01 X-0.7989 Y0.0417
G01 X-0.7917 Y0.1150
G01 X-0.7754 Y0.1968
G01 X-0.7524 Y0.2718
G01 X-0.7242 Y0.3398
G01 X-0.6874 Y0.4092
G01 X-0.6440 Y0.4746
G01 X-0.5911 Y0.5390
G01 X-0.5390 Y0.5911
G01 X-0.4785 Y0.6411
G01 X-0.4134 Y0.6849
G01 X-0.3398 Y0.7242
G01 X-0.2672 Y0.7540
G01 X-0.1968 Y0.7754
G01 X-0.1150 Y0.7917
G01 X-0.0417 Y0.7989
G01 X0.0000 Y0.8000
G01 X44.4500 Y0.8000
G01 X44.4917 Y0.7989
G01 X44.5650 Y0.7917
G01 X44.6468 Y0.7754
G01 X44.7218 Y0.7524
G01 X44.7898 Y0.7242
G01 X44.8592 Y0.6874
G01 X44.9246 Y0.6440
G01 X44.9890 Y0.5911
G01 X45.0411 Y0.5390
G01 X45.0911 Y0.4785
G01 X45.1349 Y0.4134
G01 X45.1742 Y0.3398
G01 X45.2040 Y0.2672
G01 X45.2254 Y0.1968
G01 X45.2417 Y0.1150
G01 X45.2489 Y0.0417
G01 X45.2500 Y-0.0000
G01 X45.2500 Y-27.9400
G01 X45.2489 Y-27.9817
G01 X45.2417 Y-28.0550
G01 X45.2254 Y-28.1368
G01 X45.2024 Y-28.2118
G01 X45.1742 Y-28.2798
G01 X45.1374 Y-28.3492
G01 X45.0940 Y-28.4146
G01 X45.0411 Y-28.4790
G01 X44.9890 Y-28.5311
G01 X44.9285 Y-28.5811
G01 X44.8634 Y-28.6249
G01 X44.7898 Y-28.6642
G01 X44.7172 Y-28.6940
G01 X44.6468 Y-28.7154
G01 X44.5650 Y-28.7317
G01 X44.4917 Y-28.7389
G01 X44.4500 Y-28.7400
G01 X0.0000 Y-28.7400
G01 X-0.0417 Y-28.7389
G01 X-0.1198 Y-28.7309
G01 X-0.1968 Y-28.7154
G01 X-0.2718 Y-28.6924
G01 X-0.3442 Y-28.6621
G01 X-0.4134 Y-28.6249
G01 X-0.4785 Y-28.5811
G01 X-0.5390 Y-28.5311
G01 X-0.5944 Y-28.4754
G01 X-0.6440 Y-28.4146
G01 X-0.6874 Y-28.3492
G01 X-0.7242 Y-28.2798
G01 X-0.7540 Y-28.2072
G01 X-0.7766 Y-28.1320
G01 X-0.7917 Y-28.0550
G01 X-0.7991 Y-27.9768
G00 Z2.0000
M05
G00 Z2.0000
G00 Z30.00


