%
(1001)
(MACHINE)
(  VENDOR AUTODESK)
(  MODEL GENERIC 3-AXIS)
(  DESCRIPTION THIS MACHINE HAS XY AXIS ON THE TABLE AND Z AXIS ON THE HEAD)
(T2 D=1.6 CR=0. TAPER=118DEG - ZMIN=-3.681 - DRILL)
N10 G90 G94 G17 G91.1
N15 G21
N20 G28 G91 Z0.
N25 G90
(DRILL_1P6)
N30 T2 M6
N35 S9600 M3
N40 G17 G90 G94
N45 G54
N50 M8
N55 G0 X9.19 Y-84.217
N60 G43 Z15. H2
N65 G0 Z5.
N70 G98 G81 X9.19 Y-84.217 Z-3.681 R2. F320.
N75 X27.99
N80 X46.99
N85 X65.99
N90 X84.99
N95 X103.99
N100 X122.79
N105 X110.69 Y-63.263
N110 X113.17 Y-51.085
N115 X118.77
N120 X126.756 Y-56.909
N125 X121.77 Y-25.671
N130 X85.106 Y-17.905
N135 X77.17 Y-12.081
N140 X68.504 Y-11.783
N145 X60.322 Y-17.6
N150 X23.899 Y-26.481
N155 X5.294
N160 Y-47.081
N165 X9.19 Y-63.617
N170 X21.722 Y-63.107
N175 X34.69
N180 X32.504 Y-50.78
N185 X26.904
N190 X53.69 Y-63.107
N195 X59.29
N200 X78.29 Y-63.302
N205 G80
N210 G0 Z15.
N215 M9
N220 G28 G91 Z0.
N225 G90
N230 G28 G91 X0. Y0.
N235 G90
N240 M30
%
