(G-CODE GENERATED BY FLATCAM v8.994 - www.flatcam.org - Version Date: 2020/11/7)

(Name: ch552_usbc-B_Cu.gbr_iso_combined_cnc)
(Type: G-code from Geometry)
(Units: MM)

(Created on Saturday, 16 March 2024 at 05:16)

(This preprocessor is the default preprocessor used by FlatCAM.)
(It is made to work with MACH3 compatible motion controllers.)

(TOOL DIAMETER: 0.1969 mm)
(Feedrate_XY: 240.0 mm/min)
(Feedrate_Z: 60.0 mm/min)
(Feedrate rapids 1500.0 mm/min)

(Z_Cut: -0.15 mm)
(Z_Move: 2.0 mm)
(Z Start: None mm)
(Z End: 45.0 mm)
(X,Y End: None mm)
(Steps per circle: 64)
(Preprocessor Geometry: default)

(X range:   -0.6965 ...   36.2565  mm)
(Y range:  -24.8265 ...    0.6965  mm)

(Spindle Speed: 12000.0 RPM)
G21
G90
G94

G01 F240.00

M5
G00 Z15.0000
G00 X0.0000 Y0.0000
T2
M6    
(MSG, Change to Tool Dia = 0.1969)
M0
G00 Z15.0000

M03 S12000.0
G01 F240.00
G00 X1.3687 Y-4.7969
G01 F60.00
G01 Z-0.1500
G01 F240.00
G01 X1.5935 Y-5.0217
G01 X1.6626 Y-4.9892
G01 X1.7595 Y-4.9544
G01 X1.7688 Y-4.9516
G01 X1.8663 Y-4.9272
G01 X1.8735 Y-4.9258
G01 X1.9753 Y-4.9108
G01 X2.0830 Y-4.9056
G01 X2.1907 Y-4.9108
G01 X2.2925 Y-4.9258
G01 X2.2997 Y-4.9272
G01 X2.3972 Y-4.9516
G01 X2.4065 Y-4.9544
G01 X2.5034 Y-4.9892
G01 X2.5725 Y-5.0217
G01 X2.7973 Y-4.7969
G01 X2.6479 Y-4.7161
G01 X2.4282 Y-4.6407
G01 X2.1991 Y-4.6024
G01 X1.9669 Y-4.6024
G01 X1.7378 Y-4.6407
G01 X1.5181 Y-4.7161
G01 X1.3687 Y-4.7969
G00 Z2.0000
G00 X1.6220 Y-4.8386
G01 F60.00
G01 Z-0.1500
G01 F240.00
G01 X1.6265 Y-4.8430
G01 X1.7091 Y-4.8135
G01 X1.7207 Y-4.8096
G01 X1.7324 Y-4.8064
G01 X1.8276 Y-4.7826
G01 X1.8455 Y-4.7788
G01 X1.9486 Y-4.7634
G01 X1.9607 Y-4.7619
G01 X1.9728 Y-4.7610
G01 X2.0708 Y-4.7562
G01 X2.0830 Y-4.7559
G01 X2.0952 Y-4.7562
G01 X2.1932 Y-4.7610
G01 X2.2053 Y-4.7619
G01 X2.2174 Y-4.7634
G01 X2.3205 Y-4.7788
G01 X2.3384 Y-4.7826
G01 X2.4336 Y-4.8064
G01 X2.4453 Y-4.8096
G01 X2.4569 Y-4.8135
G01 X2.5395 Y-4.8430
G01 X2.5440 Y-4.8386
G01 X2.3914 Y-4.7862
G01 X2.1867 Y-4.7521
G01 X1.9793 Y-4.7521
G01 X1.7746 Y-4.7862
G01 X1.6220 Y-4.8386
G00 Z2.0000
G00 X3.0653 Y-5.5145
G01 F60.00
G01 Z-0.1500
G01 F240.00
G01 X3.0978 Y-5.5836
G01 X3.1326 Y-5.6805
G01 X3.1354 Y-5.6898
G01 X3.1598 Y-5.7873
G01 X3.1612 Y-5.7945
G01 X3.1762 Y-5.8963
G01 X3.1814 Y-6.0040
G01 X3.1762 Y-6.1117
G01 X3.1612 Y-6.2135
G01 X3.1598 Y-6.2207
G01 X3.1354 Y-6.3182
G01 X3.1326 Y-6.3275
G01 X3.0978 Y-6.4244
G01 X3.0653 Y-6.4935
G01 X3.2903 Y-6.7185
G01 X3.3199 Y-6.6733
G01 X3.4132 Y-6.4606
G01 X3.4702 Y-6.2355
G01 X3.4894 Y-6.0040
G01 X3.4702 Y-5.7725
G01 X3.4132 Y-5.5474
G01 X3.3199 Y-5.3346
G01 X3.2903 Y-5.2895
G01 X3.0653 Y-5.5145
G00 Z2.0000
G00 X3.2480 Y-6.4646
G01 F60.00
G01 Z-0.1500
G01 F240.00
G01 X3.2711 Y-6.4119
G01 X3.3221 Y-6.2108
G01 X3.3392 Y-6.0040
G01 X3.3221 Y-5.7972
G01 X3.2711 Y-5.5961
G01 X3.2480 Y-5.5434
G01 X3.2440 Y-5.5475
G01 X3.2735 Y-5.6301
G01 X3.2774 Y-5.6417
G01 X3.2806 Y-5.6534
G01 X3.3044 Y-5.7486
G01 X3.3082 Y-5.7665
G01 X3.3236 Y-5.8696
G01 X3.3251 Y-5.8817
G01 X3.3260 Y-5.8938
G01 X3.3308 Y-5.9918
G01 X3.3311 Y-6.0040
G01 X3.3308 Y-6.0162
G01 X3.3260 Y-6.1142
G01 X3.3251 Y-6.1263
G01 X3.3236 Y-6.1384
G01 X3.3082 Y-6.2415
G01 X3.3044 Y-6.2594
G01 X3.2806 Y-6.3546
G01 X3.2774 Y-6.3663
G01 X3.2735 Y-6.3779
G01 X3.2440 Y-6.4605
G01 X3.2480 Y-6.4646
G00 Z2.0000
G00 X2.0808 Y-7.7874
G01 F60.00
G01 Z-0.1500
G01 F240.00
G01 X2.0861 Y-7.7928
G01 X2.0936 Y-7.7991
G01 X2.1016 Y-7.8047
G01 X2.1080 Y-7.8083
G01 X2.1146 Y-7.8115
G01 X2.1811 Y-7.8400
G01 X2.1902 Y-7.8432
G01 X2.2021 Y-7.8458
G01 X2.2118 Y-7.8469
G01 X2.2326 Y-7.8479
G01 X8.4334 Y-7.8479
G01 X8.4405 Y-7.8477
G01 X8.4475 Y-7.8469
G01 X8.4589 Y-7.8446
G01 X8.5282 Y-7.8243
G01 X8.5375 Y-7.8211
G01 X8.5485 Y-7.8158
G01 X8.5547 Y-7.8120
G01 X8.5607 Y-7.8077
G01 X8.5699 Y-7.7996
G01 X8.5808 Y-7.7874
G01 X8.5879 Y-7.7945
G01 X8.5955 Y-7.8006
G01 X8.6037 Y-7.8060
G01 X8.6124 Y-7.8105
G01 X8.6833 Y-7.8409
G01 X8.6949 Y-7.8444
G01 X8.7069 Y-7.8465
G01 X8.7326 Y-7.8479
G01 X9.0900 Y-7.8479
G01 X9.1388 Y-7.8506
G01 X9.1599 Y-7.8528
G01 X9.2011 Y-7.8595
G01 X9.3202 Y-7.9039
G01 X9.3690 Y-7.9306
G01 X9.4731 Y-8.0085
G01 X9.6557 Y-8.1911
G01 X9.6925 Y-8.2327
G01 X9.7074 Y-8.2516
G01 X9.7348 Y-8.2915
G01 X9.7841 Y-8.4083
G01 X9.8018 Y-8.4756
G01 X9.8063 Y-8.5087
G01 X9.8114 Y-8.5307
G01 X9.8124 Y-8.5446
G01 X9.8167 Y-8.5736
G01 X9.8241 Y-8.6045
G01 X9.8270 Y-8.6138
G01 X9.8370 Y-8.6414
G01 X9.8494 Y-8.6680
G01 X9.8540 Y-8.6765
G01 X9.8691 Y-8.7016
G01 X9.8866 Y-8.7253
G01 X9.8927 Y-8.7328
G01 X9.9108 Y-8.7527
G01 X10.2025 Y-9.0445
G01 X10.2260 Y-9.0771
G01 X10.2789 Y-9.1928
G01 X10.2946 Y-9.2463
G01 X10.3131 Y-9.3748
G01 X10.3131 Y-9.5004
G01 X10.2970 Y-9.6202
G01 X10.2834 Y-9.6704
G01 X10.2392 Y-9.7753
G01 X10.1622 Y-9.8715
G01 X10.1291 Y-9.9026
G01 X10.1243 Y-9.9077
G01 X10.1198 Y-9.9131
G01 X10.1133 Y-9.9228
G01 X10.0779 Y-9.9831
G01 X10.0745 Y-9.9893
G01 X10.0707 Y-9.9980
G01 X10.0684 Y-10.0047
G01 X10.0666 Y-10.0116
G01 X10.0650 Y-10.0209
G01 X10.0607 Y-10.0584
G01 X10.0606 Y-11.1895
G01 X10.0610 Y-11.1989
G01 X10.0619 Y-11.2058
G01 X10.0639 Y-11.2150
G01 X10.0849 Y-11.2866
G01 X10.0894 Y-11.2980
G01 X10.0952 Y-11.3087
G01 X10.0993 Y-11.3148
G01 X10.1039 Y-11.3205
G01 X10.1124 Y-11.3293
G01 X10.1689 Y-11.3783
G01 X10.1748 Y-11.3828
G01 X10.1810 Y-11.3868
G01 X10.1874 Y-11.3903
G01 X10.1941 Y-11.3934
G01 X10.2011 Y-11.3959
G01 X10.2082 Y-11.3979
G01 X10.2644 Y-11.4102
G01 X10.2736 Y-11.4115
G01 X10.2830 Y-11.4119
G01 X12.5700 Y-11.4119
G01 X12.7082 Y-11.5502
G01 X12.7319 Y-11.5715
G01 X12.7614 Y-11.5931
G01 X12.7887 Y-11.6094
G01 X12.8153 Y-11.6221
G01 X12.8241 Y-11.6258
G01 X12.8518 Y-11.6356
G01 X12.8803 Y-11.6428
G01 X12.8898 Y-11.6447
G01 X12.9188 Y-11.6489
G01 X12.9482 Y-11.6505
G01 X15.4310 Y-11.6506
G01 X15.4652 Y-11.6489
G01 X15.4990 Y-11.6439
G01 X15.5275 Y-11.6369
G01 X15.5368 Y-11.6340
G01 X15.5644 Y-11.6240
G01 X15.5910 Y-11.6116
G01 X15.5995 Y-11.6070
G01 X15.6246 Y-11.5919
G01 X15.6483 Y-11.5744
G01 X15.6558 Y-11.5683
G01 X15.6775 Y-11.5485
G01 X16.3778 Y-10.8480
G01 X16.3975 Y-10.8261
G01 X16.4178 Y-10.7987
G01 X16.4354 Y-10.7693
G01 X16.4491 Y-10.7405
G01 X16.4616 Y-10.7062
G01 X16.4694 Y-10.6754
G01 X16.4746 Y-10.6416
G01 X16.4755 Y-10.6295
G01 X16.4846 Y-10.6170
G01 X16.4947 Y-10.6003
G01 X16.4982 Y-10.5940
G01 X16.5066 Y-10.5763
G01 X16.5158 Y-10.5511
G01 X16.5221 Y-10.5251
G01 X16.5253 Y-10.5034
G01 X16.5264 Y-10.4790
G01 X16.5264 Y-10.1122
G01 X16.5786 Y-9.7992
G01 X16.5825 Y-9.7868
G01 X16.5930 Y-9.7440
G01 X16.5994 Y-9.7004
G01 X16.6016 Y-9.6564
G01 X16.6016 Y-5.0790
G01 X16.5994 Y-5.0326
G01 X16.5925 Y-4.9866
G01 X16.5812 Y-4.9415
G01 X16.5673 Y-4.9023
G01 X16.5636 Y-4.8933
G01 X16.5457 Y-4.8557
G01 X16.5244 Y-4.8199
G01 X16.5190 Y-4.8119
G01 X16.4941 Y-4.7785
G01 X16.4646 Y-4.7458
G01 X14.4997 Y-2.7809
G01 X13.8262 Y-1.5342
G01 X13.7895 Y-1.4569
G01 X13.7416 Y-1.3771
G01 X13.6891 Y-1.3061
G01 X13.6830 Y-1.2987
G01 X13.6237 Y-1.2333
G01 X13.5547 Y-1.1708
G01 X13.4799 Y-1.1154
G01 X13.4043 Y-1.0699
G01 X13.3958 Y-1.0654
G01 X13.3204 Y-1.0297
G01 X13.3137 Y-1.0268
G01 X13.3014 Y-1.0224
G01 X13.3014 Y-0.7017
G01 X13.3827 Y-0.7234
G01 X13.5812 Y-0.8160
G01 X13.7199 Y-0.9131
G01 X13.7278 Y-0.9181
G01 X13.7362 Y-0.9224
G01 X13.7449 Y-0.9258
G01 X13.8111 Y-0.9481
G01 X13.8229 Y-0.9513
G01 X13.8326 Y-0.9528
G01 X13.8423 Y-0.9533
G01 X13.8521 Y-0.9528
G01 X13.8618 Y-0.9514
G01 X13.9367 Y-0.9327
G01 X13.9460 Y-0.9296
G01 X13.9549 Y-0.9256
G01 X13.9613 Y-0.9220
G01 X13.9674 Y-0.9180
G01 X13.9732 Y-0.9135
G01 X13.9787 Y-0.9087
G01 X14.0300 Y-0.8542
G01 X14.0348 Y-0.8487
G01 X14.0391 Y-0.8429
G01 X14.0443 Y-0.8346
G01 X14.0476 Y-0.8281
G01 X14.0504 Y-0.8213
G01 X14.0527 Y-0.8144
G01 X14.0678 Y-0.7515
G01 X14.0693 Y-0.7424
G01 X14.0698 Y-0.7355
G01 X14.0699 Y-0.1222
G01 X14.0689 Y-0.1105
G01 X14.0666 Y-0.0990
G01 X14.0448 Y-0.0251
G01 X14.0411 Y-0.0160
G01 X14.0353 Y-0.0053
G01 X14.0297 Y0.0028
G01 X14.0233 Y0.0102
G01 X14.0163 Y0.0169
G01 X13.9616 Y0.0643
G01 X13.9537 Y0.0702
G01 X13.9431 Y0.0763
G01 X13.9318 Y0.0811
G01 X13.9223 Y0.0839
G01 X13.8661 Y0.0962
G01 X13.8592 Y0.0973
G01 X13.8498 Y0.0979
G01 X12.0562 Y0.0979
G01 X12.0445 Y0.0969
G01 X12.0330 Y0.0946
G01 X11.9591 Y0.0728
G01 X11.9500 Y0.0691
G01 X11.9414 Y0.0646
G01 X11.9332 Y0.0592
G01 X11.9238 Y0.0513
G01 X11.9171 Y0.0443
G01 X11.8697 Y-0.0104
G01 X11.8625 Y-0.0204
G01 X11.8577 Y-0.0289
G01 X11.8529 Y-0.0402
G01 X11.8501 Y-0.0497
G01 X11.8378 Y-0.1059
G01 X11.8367 Y-0.1128
G01 X11.8362 Y-0.1198
G01 X11.8363 Y-0.7379
G01 X11.8374 Y-0.7472
G01 X11.8394 Y-0.7564
G01 X11.8612 Y-0.8303
G01 X11.8649 Y-0.8394
G01 X11.8694 Y-0.8481
G01 X11.8748 Y-0.8562
G01 X11.8810 Y-0.8638
G01 X11.8897 Y-0.8724
G01 X11.9463 Y-0.9212
G01 X11.9522 Y-0.9255
G01 X11.9585 Y-0.9294
G01 X11.9650 Y-0.9327
G01 X11.9717 Y-0.9356
G01 X11.9810 Y-0.9387
G01 X11.9906 Y-0.9408
G01 X12.0646 Y-0.9514
G01 X12.0743 Y-0.9521
G01 X12.0816 Y-0.9520
G01 X12.0913 Y-0.9509
G01 X12.0984 Y-0.9495
G01 X12.1101 Y-0.9461
G01 X12.1659 Y-0.9240
G01 X12.1738 Y-0.9205
G01 X12.1801 Y-0.9170
G01 X12.3248 Y-0.8160
G01 X12.5233 Y-0.7234
G01 X12.6046 Y-0.7017
G01 X12.6046 Y-1.0224
G01 X12.5878 Y-1.0287
G01 X12.5059 Y-1.0675
G01 X12.4261 Y-1.1154
G01 X12.3513 Y-1.1708
G01 X12.2858 Y-1.2300
G01 X12.2790 Y-1.2368
G01 X12.2230 Y-1.2987
G01 X12.2169 Y-1.3061
G01 X12.1644 Y-1.3771
G01 X12.1189 Y-1.4527
G01 X12.1144 Y-1.4612
G01 X12.0767 Y-1.5410
G01 X12.0468 Y-1.6245
G01 X12.0441 Y-1.6333
G01 X12.0228 Y-1.7190
G01 X12.0097 Y-1.8062
G01 X12.0088 Y-1.8159
G01 X12.0046 Y-1.9040
G01 X12.0088 Y-1.9921
G01 X12.0097 Y-2.0018
G01 X12.0219 Y-2.0843
G01 X12.0238 Y-2.0937
G01 X12.0454 Y-2.1793
G01 X12.0767 Y-2.2670
G01 X12.1165 Y-2.3511
G01 X12.1618 Y-2.4268
G01 X12.1658 Y-2.4329
G01 X12.2198 Y-2.5057
G01 X12.2823 Y-2.5747
G01 X12.3513 Y-2.6372
G01 X12.4221 Y-2.6898
G01 X12.4302 Y-2.6952
G01 X12.5059 Y-2.7405
G01 X12.5857 Y-2.7783
G01 X13.8299 Y-3.4507
G01 X15.6544 Y-5.2752
G01 X15.6544 Y-9.6564
G01 X15.6566 Y-9.7004
G01 X15.6630 Y-9.7440
G01 X15.6735 Y-9.7868
G01 X15.6774 Y-9.7992
G01 X15.7296 Y-10.1121
G01 X15.7296 Y-10.4790
G01 X15.7305 Y-10.5009
G01 X15.7314 Y-10.5086
G01 X15.2866 Y-10.9534
G01 X13.0974 Y-10.9534
G01 X13.0333 Y-10.8893
G01 X13.0263 Y-10.8659
G01 X13.0227 Y-10.8570
G01 X13.0194 Y-10.8505
G01 X13.0129 Y-10.8403
G01 X13.0015 Y-10.8254
G01 X12.9273 Y-10.7000
G01 X12.8878 Y-10.5638
G01 X12.8859 Y-10.5408
G01 X12.8859 Y-10.0361
G01 X12.8855 Y-10.0266
G01 X12.8836 Y-10.0150
G01 X12.8722 Y-9.9629
G01 X12.8697 Y-9.9537
G01 X12.8664 Y-9.9449
G01 X12.8473 Y-9.9036
G01 X12.8109 Y-9.7385
G01 X12.8109 Y-8.0307
G01 X12.8099 Y-8.0190
G01 X12.8076 Y-8.0075
G01 X12.7873 Y-7.9382
G01 X12.7832 Y-7.9269
G01 X12.7801 Y-7.9203
G01 X12.7765 Y-7.9140
G01 X12.7695 Y-7.9042
G01 X12.7512 Y-7.8815
G01 X12.7458 Y-7.8757
G01 X10.3134 Y-5.4433
G01 X10.3047 Y-5.4355
G01 X10.2970 Y-5.4301
G01 X10.2253 Y-5.3908
G01 X10.2140 Y-5.3862
G01 X10.2022 Y-5.3830
G01 X10.1901 Y-5.3813
G01 X10.1779 Y-5.3811
G01 X10.1058 Y-5.3862
G01 X10.0961 Y-5.3874
G01 X10.0865 Y-5.3896
G01 X10.0772 Y-5.3926
G01 X10.0683 Y-5.3966
G01 X10.0619 Y-5.4002
G01 X10.0538 Y-5.4056
G01 X9.9959 Y-5.4490
G01 X9.9903 Y-5.4537
G01 X9.9851 Y-5.4589
G01 X9.9773 Y-5.4683
G01 X9.9707 Y-5.4786
G01 X9.9655 Y-5.4896
G01 X9.9386 Y-5.5620
G01 X9.9361 Y-5.5714
G01 X9.9349 Y-5.5786
G01 X9.9342 Y-5.5859
G01 X9.9340 Y-5.5932
G01 X9.9378 Y-5.6397
G01 X9.9395 Y-5.6508
G01 X9.9702 Y-5.7725
G01 X9.9894 Y-6.0040
G01 X9.9702 Y-6.2355
G01 X9.9132 Y-6.4606
G01 X9.8199 Y-6.6733
G01 X9.7904 Y-6.7184
G01 X9.5653 Y-6.4934
G01 X9.5978 Y-6.4244
G01 X9.6342 Y-6.3229
G01 X9.6603 Y-6.2183
G01 X9.6756 Y-6.1165
G01 X9.6765 Y-6.1068
G01 X9.6813 Y-6.0088
G01 X9.6813 Y-5.9992
G01 X9.6762 Y-5.8963
G01 X9.6608 Y-5.7921
G01 X9.6354 Y-5.6898
G01 X9.6326 Y-5.6805
G01 X9.5978 Y-5.5836
G01 X9.5517 Y-5.4862
G01 X9.4989 Y-5.3978
G01 X9.4935 Y-5.3898
G01 X9.4321 Y-5.3072
G01 X9.3597 Y-5.2273
G01 X9.2798 Y-5.1549
G01 X9.1972 Y-5.0935
G01 X9.1892 Y-5.0881
G01 X9.1008 Y-5.0353
G01 X9.0034 Y-4.9892
G01 X8.9065 Y-4.9544
G01 X8.8972 Y-4.9516
G01 X8.7949 Y-4.9262
G01 X8.6907 Y-4.9108
G01 X8.5878 Y-4.9057
G01 X8.5782 Y-4.9057
G01 X8.4802 Y-4.9105
G01 X8.4705 Y-4.9114
G01 X8.3687 Y-4.9267
G01 X8.2641 Y-4.9528
G01 X8.1626 Y-4.9892
G01 X8.0935 Y-5.0217
G01 X7.8687 Y-4.7969
G01 X8.0181 Y-4.7161
G01 X8.2378 Y-4.6407
G01 X8.4669 Y-4.6024
G01 X8.6991 Y-4.6024
G01 X8.9413 Y-4.6429
G01 X8.9534 Y-4.6441
G01 X8.9606 Y-4.6442
G01 X8.9678 Y-4.6437
G01 X8.9813 Y-4.6413
G01 X9.0274 Y-4.6394
G01 X9.0395 Y-4.6376
G01 X9.0512 Y-4.6343
G01 X9.0625 Y-4.6295
G01 X9.0731 Y-4.6234
G01 X9.1324 Y-4.5821
G01 X9.1382 Y-4.5776
G01 X9.1472 Y-4.5693
G01 X9.1551 Y-4.5600
G01 X9.1605 Y-4.5519
G01 X9.1661 Y-4.5410
G01 X9.1954 Y-4.4696
G01 X9.1988 Y-4.4578
G01 X9.2006 Y-4.4458
G01 X9.2010 Y-4.4336
G01 X9.1999 Y-4.4214
G01 X9.1869 Y-4.3503
G01 X9.1839 Y-4.3385
G01 X9.1815 Y-4.3316
G01 X9.1785 Y-4.3249
G01 X9.1726 Y-4.3143
G01 X9.1452 Y-4.2763
G01 X9.1366 Y-4.2665
G01 X8.6025 Y-3.7324
G01 X8.5936 Y-3.7245
G01 X8.5610 Y-3.7003
G01 X8.5509 Y-3.6940
G01 X7.3647 Y-3.0531
G01 X7.3216 Y-3.0285
G01 X7.2446 Y-2.9924
G01 X7.0651 Y-2.8668
G01 X6.9102 Y-2.7119
G01 X6.7846 Y-2.5324
G01 X6.7305 Y-2.4168
G01 X6.7243 Y-2.4068
G01 X6.6952 Y-2.3656
G01 X6.6886 Y-2.3584
G01 X6.4474 Y-2.1172
G01 X6.4473 Y-0.1198
G01 X6.4461 Y-0.1082
G01 X6.4441 Y-0.0990
G01 X6.4238 Y-0.0297
G01 X6.4196 Y-0.0182
G01 X6.4141 Y-0.0074
G01 X6.4072 Y0.0028
G01 X6.4025 Y0.0084
G01 X6.3974 Y0.0136
G01 X6.3410 Y0.0627
G01 X6.3332 Y0.0688
G01 X6.3249 Y0.0740
G01 X6.3161 Y0.0784
G01 X6.3046 Y0.0827
G01 X6.2436 Y0.0962
G01 X6.2344 Y0.0975
G01 X6.2250 Y0.0979
G01 X0.1245 Y0.0979
G01 X0.1128 Y0.0973
G01 X0.1013 Y0.0952
G01 X0.0297 Y0.0743
G01 X0.0182 Y0.0701
G01 X0.0074 Y0.0646
G01 X-0.0008 Y0.0592
G01 X-0.0084 Y0.0530
G01 X-0.0153 Y0.0461
G01 X-0.0643 Y-0.0104
G01 X-0.0702 Y-0.0183
G01 X-0.0763 Y-0.0289
G01 X-0.0803 Y-0.0379
G01 X-0.0839 Y-0.0497
G01 X-0.0962 Y-0.1059
G01 X-0.0975 Y-0.1151
G01 X-0.0979 Y-0.1222
G01 X-0.0979 Y-7.6255
G01 X-0.0973 Y-7.6372
G01 X-0.0952 Y-7.6487
G01 X-0.0743 Y-7.7203
G01 X-0.0711 Y-7.7295
G01 X-0.0669 Y-7.7384
G01 X-0.0620 Y-7.7468
G01 X-0.0562 Y-7.7547
G01 X-0.0479 Y-7.7636
G01 X0.0104 Y-7.8143
G01 X0.0183 Y-7.8202
G01 X0.0289 Y-7.8263
G01 X0.0402 Y-7.8311
G01 X0.0497 Y-7.8339
G01 X0.1059 Y-7.8462
G01 X0.1175 Y-7.8477
G01 X1.9358 Y-7.8479
G01 X1.9475 Y-7.8469
G01 X1.9589 Y-7.8446
G01 X2.0282 Y-7.8243
G01 X2.0375 Y-7.8211
G01 X2.0485 Y-7.8158
G01 X2.0547 Y-7.8120
G01 X2.0607 Y-7.8077
G01 X2.0699 Y-7.7996
G01 X2.0808 Y-7.7874
G00 Z2.0000
G00 X1.6220 Y-7.1694
G01 F60.00
G01 Z-0.1500
G01 F240.00
G01 X1.7746 Y-7.2218
G01 X2.0020 Y-7.2598
G01 X2.0298 Y-7.2662
G01 X2.0474 Y-7.2714
G01 X2.0646 Y-7.2779
G01 X2.0758 Y-7.2829
G01 X2.0865 Y-7.2884
G01 X2.1094 Y-7.2774
G01 X2.1257 Y-7.2706
G01 X2.1425 Y-7.2651
G01 X2.1597 Y-7.2607
G01 X2.1713 Y-7.2585
G01 X2.3914 Y-7.2218
G01 X2.5440 Y-7.1694
G01 X2.5395 Y-7.1649
G01 X2.4569 Y-7.1945
G01 X2.4453 Y-7.1984
G01 X2.4336 Y-7.2016
G01 X2.3384 Y-7.2254
G01 X2.3205 Y-7.2292
G01 X2.2174 Y-7.2446
G01 X2.2053 Y-7.2461
G01 X2.1932 Y-7.2470
G01 X2.0952 Y-7.2518
G01 X2.0830 Y-7.2521
G01 X2.0708 Y-7.2518
G01 X1.9728 Y-7.2470
G01 X1.9607 Y-7.2461
G01 X1.9486 Y-7.2446
G01 X1.8455 Y-7.2292
G01 X1.8276 Y-7.2254
G01 X1.7324 Y-7.2016
G01 X1.7207 Y-7.1984
G01 X1.7091 Y-7.1945
G01 X1.6265 Y-7.1650
G01 X1.6220 Y-7.1694
G00 Z2.0000
G00 X1.3687 Y-7.2111
G01 F60.00
G01 Z-0.1500
G01 F240.00
G01 X1.5181 Y-7.2919
G01 X1.7378 Y-7.3673
G01 X1.9701 Y-7.4061
G01 X1.9974 Y-7.4125
G01 X2.0088 Y-7.4168
G01 X2.0195 Y-7.4224
G01 X2.0815 Y-7.4622
G01 X2.0917 Y-7.4538
G01 X2.0978 Y-7.4497
G01 X2.1042 Y-7.4461
G01 X2.1714 Y-7.4136
G01 X2.1779 Y-7.4109
G01 X2.1845 Y-7.4087
G01 X2.1959 Y-7.4061
G01 X2.4282 Y-7.3673
G01 X2.6479 Y-7.2919
G01 X2.7973 Y-7.2111
G01 X2.5725 Y-6.9863
G01 X2.5034 Y-7.0188
G01 X2.4065 Y-7.0536
G01 X2.3972 Y-7.0564
G01 X2.2997 Y-7.0808
G01 X2.2925 Y-7.0822
G01 X2.1907 Y-7.0972
G01 X2.0830 Y-7.1024
G01 X1.9753 Y-7.0972
G01 X1.8735 Y-7.0822
G01 X1.8663 Y-7.0808
G01 X1.7688 Y-7.0564
G01 X1.7595 Y-7.0536
G01 X1.6626 Y-7.0188
G01 X1.5935 Y-6.9863
G01 X1.3687 Y-7.2111
G00 Z2.0000
G00 X0.8461 Y-6.6734
G01 F60.00
G01 Z-0.1500
G01 F240.00
G01 X0.8757 Y-6.7185
G01 X1.1007 Y-6.4935
G01 X1.0682 Y-6.4244
G01 X1.0334 Y-6.3275
G01 X1.0306 Y-6.3182
G01 X1.0062 Y-6.2207
G01 X1.0048 Y-6.2135
G01 X0.9898 Y-6.1117
G01 X0.9846 Y-6.0040
G01 X0.9898 Y-5.8963
G01 X1.0048 Y-5.7945
G01 X1.0062 Y-5.7873
G01 X1.0306 Y-5.6898
G01 X1.0334 Y-5.6805
G01 X1.0682 Y-5.5836
G01 X1.1007 Y-5.5145
G01 X0.8757 Y-5.2895
G01 X0.8461 Y-5.3346
G01 X0.7528 Y-5.5474
G01 X0.6958 Y-5.7725
G01 X0.6766 Y-6.0040
G01 X0.6958 Y-6.2355
G01 X0.7528 Y-6.4606
G01 X0.8461 Y-6.6734
G00 Z2.0000
G00 X0.9180 Y-6.4646
G01 F60.00
G01 Z-0.1500
G01 F240.00
G01 X0.9220 Y-6.4605
G01 X0.8925 Y-6.3779
G01 X0.8886 Y-6.3663
G01 X0.8854 Y-6.3546
G01 X0.8616 Y-6.2594
G01 X0.8578 Y-6.2415
G01 X0.8424 Y-6.1384
G01 X0.8409 Y-6.1263
G01 X0.8400 Y-6.1142
G01 X0.8352 Y-6.0162
G01 X0.8349 Y-6.0040
G01 X0.8352 Y-5.9918
G01 X0.8400 Y-5.8938
G01 X0.8409 Y-5.8817
G01 X0.8424 Y-5.8696
G01 X0.8578 Y-5.7665
G01 X0.8616 Y-5.7486
G01 X0.8854 Y-5.6534
G01 X0.8886 Y-5.6417
G01 X0.8925 Y-5.6301
G01 X0.9221 Y-5.5475
G01 X0.9180 Y-5.5434
G01 X0.8949 Y-5.5961
G01 X0.8439 Y-5.7972
G01 X0.8268 Y-6.0040
G01 X0.8439 Y-6.2108
G01 X0.8949 Y-6.4119
G01 X0.9180 Y-6.4646
G00 Z2.0000
G00 X1.3687 Y-9.2969
G01 F60.00
G01 Z-0.1500
G01 F240.00
G01 X1.5935 Y-9.5217
G01 X1.6626 Y-9.4892
G01 X1.7595 Y-9.4544
G01 X1.7688 Y-9.4516
G01 X1.8663 Y-9.4272
G01 X1.8735 Y-9.4258
G01 X1.9753 Y-9.4108
G01 X2.0830 Y-9.4056
G01 X2.1907 Y-9.4108
G01 X2.2925 Y-9.4258
G01 X2.2997 Y-9.4272
G01 X2.3972 Y-9.4516
G01 X2.4065 Y-9.4544
G01 X2.5034 Y-9.4892
G01 X2.5725 Y-9.5217
G01 X2.7973 Y-9.2969
G01 X2.6479 Y-9.2161
G01 X2.4282 Y-9.1407
G01 X2.1991 Y-9.1024
G01 X1.9669 Y-9.1024
G01 X1.7378 Y-9.1407
G01 X1.5181 Y-9.2161
G01 X1.3687 Y-9.2969
G00 Z2.0000
G00 X1.6220 Y-9.3386
G01 F60.00
G01 Z-0.1500
G01 F240.00
G01 X1.6265 Y-9.3430
G01 X1.7091 Y-9.3135
G01 X1.7207 Y-9.3096
G01 X1.7324 Y-9.3064
G01 X1.8276 Y-9.2826
G01 X1.8455 Y-9.2788
G01 X1.9486 Y-9.2634
G01 X1.9607 Y-9.2619
G01 X1.9728 Y-9.2610
G01 X2.0708 Y-9.2562
G01 X2.0830 Y-9.2559
G01 X2.0952 Y-9.2562
G01 X2.1932 Y-9.2610
G01 X2.2053 Y-9.2619
G01 X2.2174 Y-9.2634
G01 X2.3205 Y-9.2788
G01 X2.3384 Y-9.2826
G01 X2.4336 Y-9.3064
G01 X2.4453 Y-9.3096
G01 X2.4569 Y-9.3135
G01 X2.5395 Y-9.3430
G01 X2.5440 Y-9.3386
G01 X2.3914 Y-9.2862
G01 X2.1867 Y-9.2521
G01 X1.9793 Y-9.2521
G01 X1.7746 Y-9.2862
G01 X1.6220 Y-9.3386
G00 Z2.0000
G00 X3.0653 Y-10.0145
G01 F60.00
G01 Z-0.1500
G01 F240.00
G01 X3.0978 Y-10.0836
G01 X3.1326 Y-10.1805
G01 X3.1354 Y-10.1898
G01 X3.1598 Y-10.2873
G01 X3.1612 Y-10.2945
G01 X3.1762 Y-10.3963
G01 X3.1814 Y-10.5040
G01 X3.1762 Y-10.6117
G01 X3.1612 Y-10.7135
G01 X3.1598 Y-10.7207
G01 X3.1354 Y-10.8182
G01 X3.1326 Y-10.8275
G01 X3.0978 Y-10.9244
G01 X3.0653 Y-10.9935
G01 X3.2903 Y-11.2185
G01 X3.3199 Y-11.1733
G01 X3.4132 Y-10.9606
G01 X3.4702 Y-10.7355
G01 X3.4894 Y-10.5040
G01 X3.4702 Y-10.2725
G01 X3.4132 Y-10.0474
G01 X3.3199 Y-9.8346
G01 X3.2903 Y-9.7895
G01 X3.0653 Y-10.0145
G00 Z2.0000
G00 X3.2480 Y-10.9646
G01 F60.00
G01 Z-0.1500
G01 F240.00
G01 X3.2711 Y-10.9119
G01 X3.3221 Y-10.7108
G01 X3.3392 Y-10.5040
G01 X3.3221 Y-10.2972
G01 X3.2711 Y-10.0961
G01 X3.2480 Y-10.0434
G01 X3.2440 Y-10.0475
G01 X3.2735 Y-10.1301
G01 X3.2774 Y-10.1417
G01 X3.2806 Y-10.1534
G01 X3.3044 Y-10.2486
G01 X3.3082 Y-10.2665
G01 X3.3236 Y-10.3696
G01 X3.3251 Y-10.3817
G01 X3.3260 Y-10.3938
G01 X3.3308 Y-10.4918
G01 X3.3311 Y-10.5040
G01 X3.3308 Y-10.5162
G01 X3.3260 Y-10.6142
G01 X3.3251 Y-10.6263
G01 X3.3236 Y-10.6384
G01 X3.3082 Y-10.7415
G01 X3.3044 Y-10.7594
G01 X3.2806 Y-10.8546
G01 X3.2774 Y-10.8663
G01 X3.2735 Y-10.8779
G01 X3.2440 Y-10.9605
G01 X3.2480 Y-10.9646
G00 Z2.0000
G00 X2.9483 Y-12.4627
G01 F60.00
G01 Z-0.1500
G01 F240.00
G01 X2.8609 Y-12.4627
G01 X2.8755 Y-12.4731
G01 X2.9274 Y-12.5116
G01 X2.9351 Y-12.4914
G01 X2.9431 Y-12.4733
G01 X2.9483 Y-12.4627
G00 Z2.0000
G00 X2.4378 Y-12.2732
G01 F60.00
G01 Z-0.1500
G01 F240.00
G01 X2.4239 Y-12.2560
G01 X2.4069 Y-12.2318
G01 X2.3965 Y-12.2150
G01 X2.3826 Y-12.1889
G01 X2.3744 Y-12.1709
G01 X2.3671 Y-12.1525
G01 X2.3429 Y-12.0870
G01 X2.3337 Y-12.0588
G01 X2.3266 Y-12.0300
G01 X2.3231 Y-12.0106
G01 X2.3205 Y-11.9910
G01 X2.3190 Y-11.9713
G01 X2.3184 Y-11.9516
G01 X2.3193 Y-11.9220
G01 X2.3211 Y-11.9023
G01 X2.3245 Y-11.8800
G01 X2.2394 Y-11.8926
G01 X2.2200 Y-11.8950
G01 X2.2005 Y-11.8964
G01 X2.1025 Y-11.9013
G01 X2.0830 Y-11.9017
G01 X2.0635 Y-11.9013
G01 X1.9655 Y-11.8964
G01 X1.9460 Y-11.8950
G01 X1.9266 Y-11.8926
G01 X1.8443 Y-11.8804
G01 X1.8461 Y-11.9011
G01 X1.8467 Y-11.9209
G01 X1.8457 Y-11.9505
G01 X1.8439 Y-11.9702
G01 X1.8327 Y-12.0491
G01 X1.8294 Y-12.0686
G01 X1.8251 Y-12.0879
G01 X1.8170 Y-12.1164
G01 X1.8103 Y-12.1350
G01 X1.8028 Y-12.1532
G01 X1.7944 Y-12.1711
G01 X1.7801 Y-12.1971
G01 X1.7639 Y-12.2219
G01 X1.7521 Y-12.2377
G01 X1.7396 Y-12.2530
G01 X1.7204 Y-12.2752
G01 X1.7913 Y-12.2574
G01 X1.8103 Y-12.2531
G01 X1.8295 Y-12.2498
G01 X1.9363 Y-12.2341
G01 X1.9655 Y-12.2316
G01 X2.0635 Y-12.2267
G01 X2.0830 Y-12.2263
G01 X2.1025 Y-12.2267
G01 X2.2005 Y-12.2316
G01 X2.2297 Y-12.2341
G01 X2.3365 Y-12.2498
G01 X2.3557 Y-12.2531
G01 X2.3747 Y-12.2574
G01 X2.4378 Y-12.2732
G00 Z2.0000
G00 X2.1848 Y-12.0810
G01 F60.00
G01 Z-0.1500
G01 F240.00
G01 X2.1801 Y-12.0604
G01 X2.1776 Y-12.0474
G01 X2.1099 Y-12.0507
G01 X2.0830 Y-12.0514
G01 X2.0561 Y-12.0507
G01 X1.9841 Y-12.0472
G01 X1.9791 Y-12.0811
G01 X2.0561 Y-12.0773
G01 X2.0830 Y-12.0766
G01 X2.1099 Y-12.0773
G01 X2.1848 Y-12.0810
G00 Z2.0000
G00 X1.3051 Y-12.4627
G01 F60.00
G01 Z-0.1500
G01 F240.00
G01 X1.0245 Y-12.4627
G01 X1.0223 Y-12.4649
G01 X0.9663 Y-12.6785
G01 X0.9663 Y-12.7853
G01 X0.9964 Y-12.7449
G01 X1.0088 Y-12.7298
G01 X1.0812 Y-12.6498
G01 X1.1016 Y-12.6288
G01 X1.1815 Y-12.5563
G01 X1.1963 Y-12.5435
G01 X1.2117 Y-12.5315
G01 X1.2905 Y-12.4731
G01 X1.3051 Y-12.4627
G00 Z2.0000
G00 X0.6670 Y-12.6399
G01 F60.00
G01 Z-0.1500
G01 F240.00
G01 X0.7533 Y-12.3106
G01 X0.9005 Y-12.1634
G01 X1.3262 Y-12.1634
G01 X1.3332 Y-12.1632
G01 X1.3425 Y-12.1621
G01 X1.3539 Y-12.1595
G01 X1.4233 Y-12.1391
G01 X1.4347 Y-12.1346
G01 X1.4454 Y-12.1288
G01 X1.4554 Y-12.1217
G01 X1.4644 Y-12.1134
G01 X1.5165 Y-12.0532
G01 X1.5221 Y-12.0452
G01 X1.5280 Y-12.0345
G01 X1.5318 Y-12.0255
G01 X1.5346 Y-12.0161
G01 X1.5364 Y-12.0065
G01 X1.5464 Y-11.9374
G01 X1.5474 Y-11.9252
G01 X1.5472 Y-11.9179
G01 X1.5466 Y-11.9106
G01 X1.5453 Y-11.9033
G01 X1.5436 Y-11.8962
G01 X1.5395 Y-11.8847
G01 X1.5074 Y-11.8146
G01 X1.5038 Y-11.8083
G01 X1.4998 Y-11.8022
G01 X1.4953 Y-11.7965
G01 X1.4905 Y-11.7911
G01 X1.4815 Y-11.7830
G01 X1.4468 Y-11.7552
G01 X1.4386 Y-11.7492
G01 X1.4321 Y-11.7454
G01 X1.3687 Y-11.7111
G01 X1.5935 Y-11.4863
G01 X1.6626 Y-11.5188
G01 X1.7595 Y-11.5536
G01 X1.7688 Y-11.5564
G01 X1.8663 Y-11.5808
G01 X1.8735 Y-11.5822
G01 X1.9753 Y-11.5972
G01 X2.0830 Y-11.6024
G01 X2.1907 Y-11.5972
G01 X2.2925 Y-11.5822
G01 X2.2997 Y-11.5808
G01 X2.3972 Y-11.5564
G01 X2.4065 Y-11.5536
G01 X2.5034 Y-11.5188
G01 X2.5725 Y-11.4863
G01 X2.7973 Y-11.7111
G01 X2.7320 Y-11.7464
G01 X2.7260 Y-11.7501
G01 X2.7203 Y-11.7543
G01 X2.7114 Y-11.7621
G01 X2.6618 Y-11.8113
G01 X2.6568 Y-11.8166
G01 X2.6522 Y-11.8224
G01 X2.6468 Y-11.8305
G01 X2.6422 Y-11.8391
G01 X2.6384 Y-11.8481
G01 X2.6356 Y-11.8575
G01 X2.6190 Y-11.9329
G01 X2.6177 Y-11.9450
G01 X2.6179 Y-11.9573
G01 X2.6197 Y-11.9693
G01 X2.6229 Y-11.9811
G01 X2.6497 Y-12.0535
G01 X2.6540 Y-12.0623
G01 X2.6591 Y-12.0707
G01 X2.6650 Y-12.0784
G01 X2.6717 Y-12.0856
G01 X2.6810 Y-12.0935
G01 X2.7367 Y-12.1356
G01 X2.7447 Y-12.1410
G01 X2.7532 Y-12.1457
G01 X2.7644 Y-12.1502
G01 X2.7736 Y-12.1529
G01 X2.8221 Y-12.1619
G01 X2.8297 Y-12.1629
G01 X2.8398 Y-12.1634
G01 X7.8262 Y-12.1634
G01 X7.8379 Y-12.1628
G01 X7.8494 Y-12.1607
G01 X7.9256 Y-12.1383
G01 X7.9369 Y-12.1336
G01 X7.9454 Y-12.1288
G01 X7.9535 Y-12.1232
G01 X7.9626 Y-12.1151
G01 X7.9676 Y-12.1098
G01 X8.0150 Y-12.0551
G01 X8.0208 Y-12.0473
G01 X8.0258 Y-12.0389
G01 X8.0300 Y-12.0300
G01 X8.0326 Y-12.0232
G01 X8.0346 Y-12.0161
G01 X8.0361 Y-12.0089
G01 X8.0467 Y-11.9349
G01 X8.0474 Y-11.9227
G01 X8.0466 Y-11.9106
G01 X8.0453 Y-11.9033
G01 X8.0436 Y-11.8962
G01 X8.0413 Y-11.8892
G01 X8.0385 Y-11.8825
G01 X8.0074 Y-11.8146
G01 X8.0012 Y-11.8042
G01 X7.9938 Y-11.7947
G01 X7.9888 Y-11.7894
G01 X7.9834 Y-11.7846
G01 X7.9468 Y-11.7552
G01 X7.9407 Y-11.7506
G01 X7.9321 Y-11.7454
G01 X7.8687 Y-11.7111
G01 X8.0935 Y-11.4863
G01 X8.1626 Y-11.5188
G01 X8.2641 Y-11.5552
G01 X8.3687 Y-11.5813
G01 X8.4753 Y-11.5972
G01 X8.5830 Y-11.6024
G01 X8.6907 Y-11.5972
G01 X8.7973 Y-11.5813
G01 X8.8995 Y-11.5558
G01 X8.9065 Y-11.5536
G01 X9.0034 Y-11.5188
G01 X9.0965 Y-11.4749
G01 X9.1050 Y-11.4704
G01 X9.1892 Y-11.4199
G01 X9.1972 Y-11.4145
G01 X9.2798 Y-11.3531
G01 X9.3597 Y-11.2807
G01 X9.4321 Y-11.2008
G01 X9.4950 Y-11.1163
G01 X9.5494 Y-11.0260
G01 X9.5539 Y-11.0175
G01 X9.5978 Y-10.9244
G01 X9.6326 Y-10.8275
G01 X9.6354 Y-10.8182
G01 X9.6603 Y-10.7183
G01 X9.6756 Y-10.6165
G01 X9.6764 Y-10.6093
G01 X9.6814 Y-10.5040
G01 X9.6765 Y-10.4012
G01 X9.6756 Y-10.3915
G01 X9.6603 Y-10.2897
G01 X9.6354 Y-10.1898
G01 X9.6326 Y-10.1805
G01 X9.5978 Y-10.0836
G01 X9.5653 Y-10.0145
G01 X9.8687 Y-9.7111
G01 X9.8790 Y-9.7071
G01 X9.8877 Y-9.7025
G01 X9.8959 Y-9.6972
G01 X9.9035 Y-9.6910
G01 X9.9598 Y-9.6381
G01 X9.9677 Y-9.6287
G01 X9.9745 Y-9.6184
G01 X9.9789 Y-9.6096
G01 X9.9832 Y-9.5980
G01 X10.0010 Y-9.5328
G01 X10.0026 Y-9.5258
G01 X10.0037 Y-9.5188
G01 X10.0044 Y-9.5069
G01 X10.0044 Y-9.3677
G01 X10.0038 Y-9.3560
G01 X10.0022 Y-9.3468
G01 X10.0005 Y-9.3400
G01 X9.9785 Y-9.2661
G01 X9.9736 Y-9.2551
G01 X9.9673 Y-9.2447
G01 X9.9429 Y-9.2143
G01 X9.7413 Y-9.0124
G01 X9.7223 Y-8.9959
G01 X9.7085 Y-8.9855
G01 X9.6827 Y-8.9548
G01 X9.6711 Y-8.9422
G01 X9.6522 Y-8.9185
G01 X9.6068 Y-8.8643
G01 X9.6040 Y-8.8600
G01 X9.6027 Y-8.8579
G01 X9.5728 Y-8.7938
G01 X9.5395 Y-8.7274
G01 X9.5378 Y-8.7225
G01 X9.5370 Y-8.7202
G01 X9.5219 Y-8.6474
G01 X9.5056 Y-8.5786
G01 X9.5041 Y-8.5612
G01 X9.5018 Y-8.5455
G01 X9.4828 Y-8.4763
G01 X9.4805 Y-8.4694
G01 X9.4776 Y-8.4627
G01 X9.4717 Y-8.4520
G01 X9.4661 Y-8.4441
G01 X9.4476 Y-8.4204
G01 X9.4397 Y-8.4114
G01 X9.2499 Y-8.2217
G01 X9.2448 Y-8.2169
G01 X9.2393 Y-8.2125
G01 X9.2335 Y-8.2085
G01 X9.2275 Y-8.2049
G01 X9.1662 Y-8.1714
G01 X9.1552 Y-8.1663
G01 X9.1461 Y-8.1632
G01 X9.1367 Y-8.1610
G01 X9.1032 Y-8.1571
G01 X9.0926 Y-8.1566
G01 X0.1222 Y-8.1566
G01 X0.1105 Y-8.1576
G01 X0.1036 Y-8.1588
G01 X0.0968 Y-8.1605
G01 X0.0274 Y-8.1809
G01 X0.0160 Y-8.1854
G01 X0.0074 Y-8.1899
G01 X-0.0028 Y-8.1968
G01 X-0.0084 Y-8.2015
G01 X-0.0136 Y-8.2066
G01 X-0.0627 Y-8.2630
G01 X-0.0702 Y-8.2728
G01 X-0.0752 Y-8.2812
G01 X-0.0784 Y-8.2879
G01 X-0.0811 Y-8.2947
G01 X-0.0833 Y-8.3018
G01 X-0.0962 Y-8.3604
G01 X-0.0975 Y-8.3696
G01 X-0.0979 Y-8.3790
G01 X-0.0979 Y-24.0055
G01 X-0.0977 Y-24.0125
G01 X-0.0969 Y-24.0195
G01 X-0.0957 Y-24.0264
G01 X-0.0940 Y-24.0332
G01 X-0.0728 Y-24.1049
G01 X-0.0691 Y-24.1140
G01 X-0.0633 Y-24.1247
G01 X-0.0592 Y-24.1308
G01 X-0.0546 Y-24.1365
G01 X-0.0496 Y-24.1419
G01 X-0.0443 Y-24.1469
G01 X0.0104 Y-24.1943
G01 X0.0183 Y-24.2002
G01 X0.0289 Y-24.2063
G01 X0.0402 Y-24.2111
G01 X0.0521 Y-24.2145
G01 X0.1059 Y-24.2262
G01 X0.1151 Y-24.2275
G01 X0.1245 Y-24.2279
G01 X24.1330 Y-24.2279
G01 X24.1400 Y-24.2277
G01 X24.1493 Y-24.2266
G01 X24.1585 Y-24.2246
G01 X24.2278 Y-24.2043
G01 X24.2347 Y-24.2020
G01 X24.2437 Y-24.1981
G01 X24.2522 Y-24.1933
G01 X24.2603 Y-24.1877
G01 X24.2677 Y-24.1813
G01 X24.2744 Y-24.1743
G01 X24.3218 Y-24.1196
G01 X24.3277 Y-24.1117
G01 X24.3327 Y-24.1033
G01 X24.3378 Y-24.0921
G01 X24.3408 Y-24.0827
G01 X24.3541 Y-24.0218
G01 X24.3552 Y-24.0125
G01 X24.3554 Y-24.0055
G01 X24.3553 Y-23.2839
G01 X24.3541 Y-23.2722
G01 X24.3521 Y-23.2631
G01 X24.3303 Y-23.1891
G01 X24.3266 Y-23.1801
G01 X24.3233 Y-23.1735
G01 X24.3181 Y-23.1652
G01 X24.3121 Y-23.1575
G01 X24.3071 Y-23.1521
G01 X24.3018 Y-23.1471
G01 X24.2452 Y-23.0982
G01 X24.2393 Y-23.0939
G01 X24.2330 Y-23.0901
G01 X24.2265 Y-23.0867
G01 X24.2198 Y-23.0838
G01 X24.2105 Y-23.0808
G01 X24.2009 Y-23.0787
G01 X24.1245 Y-23.0678
G01 X24.1147 Y-23.0674
G01 X24.1050 Y-23.0679
G01 X24.0953 Y-23.0694
G01 X24.0859 Y-23.0719
G01 X24.0745 Y-23.0763
G01 X24.0109 Y-23.1053
G01 X24.0025 Y-23.1096
G01 X23.9962 Y-23.1136
G01 X23.9884 Y-23.1195
G01 X23.9782 Y-23.1288
G01 X23.9206 Y-23.1864
G01 X23.7412 Y-23.3120
G01 X23.5427 Y-23.4046
G01 X23.4614 Y-23.4263
G01 X23.4614 Y-23.1056
G01 X23.4782 Y-23.0993
G01 X23.5601 Y-23.0605
G01 X23.6399 Y-23.0126
G01 X23.7147 Y-22.9572
G01 X23.7802 Y-22.8980
G01 X23.7870 Y-22.8912
G01 X23.8430 Y-22.8293
G01 X23.8491 Y-22.8219
G01 X23.9016 Y-22.7509
G01 X23.9471 Y-22.6753
G01 X23.9516 Y-22.6668
G01 X23.9893 Y-22.5870
G01 X24.0207 Y-22.4991
G01 X24.0432 Y-22.4090
G01 X24.0569 Y-22.3170
G01 X24.0614 Y-22.2240
G01 X24.0569 Y-22.1310
G01 X24.0432 Y-22.0390
G01 X24.0206 Y-21.9487
G01 X23.9893 Y-21.8610
G01 X23.9495 Y-21.7769
G01 X23.9016 Y-21.6971
G01 X23.8462 Y-21.6223
G01 X23.7837 Y-21.5533
G01 X23.7147 Y-21.4908
G01 X23.6399 Y-21.4354
G01 X23.5601 Y-21.3875
G01 X23.4760 Y-21.3477
G01 X23.3925 Y-21.3178
G01 X23.3837 Y-21.3151
G01 X23.2980 Y-21.2938
G01 X23.2060 Y-21.2801
G01 X23.1130 Y-21.2756
G01 X23.0249 Y-21.2798
G01 X23.0152 Y-21.2807
G01 X22.9280 Y-21.2938
G01 X22.8423 Y-21.3151
G01 X22.8331 Y-21.3179
G01 X22.7546 Y-21.3460
G01 X22.7478 Y-21.3487
G01 X22.7361 Y-21.3542
G01 X22.4769 Y-21.0950
G01 X22.4799 Y-21.0845
G01 X22.4817 Y-21.0749
G01 X22.4894 Y-21.0006
G01 X22.4896 Y-20.9883
G01 X22.4889 Y-20.9810
G01 X22.4878 Y-20.9738
G01 X22.4854 Y-20.9643
G01 X22.4812 Y-20.9529
G01 X22.4476 Y-20.8861
G01 X22.4440 Y-20.8797
G01 X22.4400 Y-20.8736
G01 X22.4356 Y-20.8678
G01 X22.4308 Y-20.8624
G01 X22.4218 Y-20.8541
G01 X22.4140 Y-20.8484
G01 X22.3563 Y-20.8122
G01 X22.3450 Y-20.8065
G01 X22.3355 Y-20.8030
G01 X22.2201 Y-20.7670
G01 X22.2048 Y-20.7581
G01 X22.1981 Y-20.7550
G01 X22.1913 Y-20.7525
G01 X22.1448 Y-20.7394
G01 X22.0675 Y-20.4419
G01 X22.0675 Y-19.3081
G01 X22.1675 Y-18.9228
G01 X22.1758 Y-18.8995
G01 X22.1779 Y-18.8925
G01 X22.1849 Y-18.8640
G01 X22.1901 Y-18.8278
G01 X22.1916 Y-18.7960
G01 X22.1916 Y-17.7800
G01 X22.1901 Y-17.7482
G01 X22.1857 Y-17.7168
G01 X22.1838 Y-17.7073
G01 X22.1766 Y-17.6788
G01 X22.1650 Y-17.6466
G01 X22.1504 Y-17.6157
G01 X22.1354 Y-17.5904
G01 X22.1300 Y-17.5824
G01 X22.1109 Y-17.5570
G01 X22.0895 Y-17.5335
G01 X21.5566 Y-17.0006
G01 X21.5566 Y-15.5780
G01 X21.5659 Y-15.5650
G01 X21.5782 Y-15.5440
G01 X21.5875 Y-15.5241
G01 X21.5950 Y-15.5034
G01 X21.6006 Y-15.4822
G01 X21.6025 Y-15.4727
G01 X21.6053 Y-15.4534
G01 X21.6064 Y-15.4314
G01 X21.6064 Y-13.8095
G01 X22.0004 Y-13.4156
G01 X23.4336 Y-13.4156
G01 X23.4337 Y-13.6558
G01 X23.4352 Y-13.6852
G01 X23.4394 Y-13.7142
G01 X23.4407 Y-13.7213
G01 X23.4473 Y-13.7475
G01 X23.4493 Y-13.7545
G01 X23.4583 Y-13.7798
G01 X23.4620 Y-13.7888
G01 X23.4747 Y-13.8153
G01 X23.4923 Y-13.8446
G01 X23.5126 Y-13.8721
G01 X23.5323 Y-13.8939
G01 X23.5391 Y-13.9007
G01 X23.5628 Y-13.9219
G01 X23.5884 Y-13.9407
G01 X23.6137 Y-13.9560
G01 X23.6221 Y-13.9605
G01 X23.6487 Y-13.9729
G01 X23.6809 Y-13.9844
G01 X23.7093 Y-13.9917
G01 X23.7188 Y-13.9936
G01 X23.7478 Y-13.9978
G01 X23.7820 Y-13.9994
G01 X24.3625 Y-13.9994
G01 X25.0780 Y-14.7148
G01 X25.0999 Y-14.7345
G01 X25.1234 Y-14.7520
G01 X25.1314 Y-14.7574
G01 X25.1567 Y-14.7724
G01 X25.1833 Y-14.7851
G01 X25.1921 Y-14.7888
G01 X25.2198 Y-14.7986
G01 X25.2506 Y-14.8064
G01 X25.2820 Y-14.8113
G01 X25.2917 Y-14.8123
G01 X25.3210 Y-14.8136
G01 X25.3552 Y-14.8119
G01 X25.3842 Y-14.8077
G01 X25.3937 Y-14.8058
G01 X25.4222 Y-14.7986
G01 X25.4505 Y-14.7886
G01 X28.3832 Y-14.7886
G01 X28.3998 Y-14.8008
G01 X28.4144 Y-14.8097
G01 X28.4208 Y-14.8132
G01 X28.4385 Y-14.8215
G01 X28.4568 Y-14.8282
G01 X28.4638 Y-14.8302
G01 X28.4804 Y-14.8342
G01 X28.4997 Y-14.8372
G01 X28.5240 Y-14.8385
G01 X28.9635 Y-14.8385
G01 X28.9704 Y-14.8441
G01 X28.9763 Y-14.8482
G01 X28.9826 Y-14.8518
G01 X28.9913 Y-14.8560
G01 X29.0004 Y-14.8592
G01 X29.0074 Y-14.8611
G01 X29.0146 Y-14.8624
G01 X29.0242 Y-14.8633
G01 X30.1790 Y-14.8634
G01 X30.1862 Y-14.8632
G01 X30.1958 Y-14.8620
G01 X30.2053 Y-14.8599
G01 X30.2122 Y-14.8577
G01 X30.2189 Y-14.8550
G01 X30.2254 Y-14.8518
G01 X30.2357 Y-14.8455
G01 X30.2451 Y-14.8379
G01 X30.2535 Y-14.8293
G01 X30.2609 Y-14.8197
G01 X30.2669 Y-14.8093
G01 X30.2717 Y-14.7982
G01 X30.2751 Y-14.7866
G01 X30.2770 Y-14.7746
G01 X30.2774 Y-14.7650
G01 X30.2774 Y-14.5785
G01 X30.4414 Y-14.5785
G01 X30.4609 Y-14.5774
G01 X30.4802 Y-14.5747
G01 X30.5039 Y-14.5689
G01 X30.5223 Y-14.5624
G01 X30.5290 Y-14.5595
G01 X30.5444 Y-14.5521
G01 X30.5591 Y-14.5434
G01 X30.5652 Y-14.5395
G01 X30.5789 Y-14.5293
G01 X30.5970 Y-14.5130
G01 X31.1154 Y-13.9945
G01 X31.1268 Y-13.9818
G01 X31.1371 Y-13.9681
G01 X31.1412 Y-13.9622
G01 X31.1511 Y-13.9454
G01 X31.1605 Y-13.9255
G01 X31.1664 Y-13.9095
G01 X31.1686 Y-13.9026
G01 X31.1732 Y-13.8836
G01 X31.1764 Y-13.8619
G01 X31.1775 Y-13.8400
G01 X31.1775 Y-10.3085
G01 X31.1766 Y-10.2890
G01 X31.1737 Y-10.2673
G01 X31.1692 Y-10.2483
G01 X31.1664 Y-10.2391
G01 X31.1614 Y-10.2252
G01 X31.1585 Y-10.2186
G01 X31.1511 Y-10.2032
G01 X31.1399 Y-10.1844
G01 X31.1268 Y-10.1667
G01 X31.1137 Y-10.1522
G01 X30.3168 Y-9.3553
G01 X30.3023 Y-9.3422
G01 X30.2886 Y-9.3319
G01 X30.2806 Y-9.3266
G01 X30.2653 Y-9.3176
G01 X30.2595 Y-9.3083
G01 X30.2535 Y-9.3007
G01 X30.2469 Y-9.2937
G01 X30.2396 Y-9.2874
G01 X30.2317 Y-9.2818
G01 X30.2254 Y-9.2782
G01 X30.2167 Y-9.2740
G01 X30.2076 Y-9.2708
G01 X30.2006 Y-9.2689
G01 X30.1934 Y-9.2676
G01 X30.1862 Y-9.2668
G01 X30.1790 Y-9.2666
G01 X29.0266 Y-9.2666
G01 X29.0194 Y-9.2670
G01 X29.0098 Y-9.2684
G01 X29.0027 Y-9.2701
G01 X28.9936 Y-9.2731
G01 X28.9869 Y-9.2760
G01 X28.9784 Y-9.2806
G01 X28.9704 Y-9.2859
G01 X28.9635 Y-9.2915
G01 X28.5240 Y-9.2915
G01 X28.5021 Y-9.2926
G01 X28.4804 Y-9.2958
G01 X28.4638 Y-9.2998
G01 X28.4568 Y-9.3018
G01 X28.4385 Y-9.3085
G01 X28.4208 Y-9.3168
G01 X28.4144 Y-9.3203
G01 X28.3999 Y-9.3291
G01 X28.3822 Y-9.3422
G01 X28.3660 Y-9.3570
G01 X28.3544 Y-9.3695
G01 X28.3497 Y-9.3751
G01 X28.3382 Y-9.3908
G01 X28.3269 Y-9.4096
G01 X28.3195 Y-9.4250
G01 X28.3166 Y-9.4317
G01 X28.3101 Y-9.4501
G01 X28.3053 Y-9.4690
G01 X28.3040 Y-9.4762
G01 X28.3016 Y-9.4931
G01 X28.3006 Y-9.5102
G01 X28.3005 Y-9.5174
G01 X28.3016 Y-9.5369
G01 X28.3053 Y-9.5610
G01 X28.3094 Y-9.5776
G01 X28.3116 Y-9.5845
G01 X28.3175 Y-9.6005
G01 X28.3258 Y-9.6182
G01 X28.3293 Y-9.6246
G01 X28.3395 Y-9.6412
G01 X28.3497 Y-9.6549
G01 X28.3585 Y-9.6650
G01 X28.3497 Y-9.6751
G01 X28.3395 Y-9.6888
G01 X28.3280 Y-9.7075
G01 X28.3175 Y-9.7295
G01 X28.3094 Y-9.7524
G01 X28.3053 Y-9.7690
G01 X28.3040 Y-9.7762
G01 X28.3016 Y-9.7931
G01 X28.3006 Y-9.8102
G01 X28.3005 Y-9.8174
G01 X28.3016 Y-9.8369
G01 X28.3053 Y-9.8610
G01 X28.3094 Y-9.8776
G01 X28.3116 Y-9.8845
G01 X28.3175 Y-9.9005
G01 X28.3247 Y-9.9160
G01 X28.3280 Y-9.9225
G01 X28.3381 Y-9.9391
G01 X28.3512 Y-9.9568
G01 X28.3643 Y-9.9713
G01 X28.3695 Y-9.9764
G01 X28.3822 Y-9.9878
G01 X28.3959 Y-9.9981
G01 X28.4018 Y-10.0022
G01 X28.4186 Y-10.0121
G01 X28.4407 Y-10.0224
G01 X28.4591 Y-10.0289
G01 X28.4804 Y-10.0342
G01 X28.5021 Y-10.0374
G01 X28.5216 Y-10.0385
G01 X28.9635 Y-10.0385
G01 X28.9704 Y-10.0441
G01 X28.9784 Y-10.0494
G01 X28.9847 Y-10.0529
G01 X28.9936 Y-10.0569
G01 X29.0004 Y-10.0592
G01 X29.0098 Y-10.0616
G01 X29.0194 Y-10.0630
G01 X29.0266 Y-10.0634
G01 X30.1838 Y-10.0633
G01 X30.1958 Y-10.0620
G01 X30.2053 Y-10.0599
G01 X30.2144 Y-10.0569
G01 X30.2233 Y-10.0529
G01 X30.2317 Y-10.0482
G01 X30.2396 Y-10.0426
G01 X30.2486 Y-10.0346
G01 X30.2551 Y-10.0275
G01 X30.2609 Y-10.0197
G01 X30.2658 Y-10.0114
G01 X30.2709 Y-10.0004
G01 X30.2739 Y-9.9913
G01 X30.2760 Y-9.9818
G01 X30.2772 Y-9.9722
G01 X30.2774 Y-9.9481
G01 X30.7305 Y-10.4011
G01 X30.7305 Y-13.7474
G01 X30.3464 Y-14.1315
G01 X30.2716 Y-14.1315
G01 X30.2690 Y-14.1251
G01 X30.2658 Y-14.1186
G01 X30.2622 Y-14.1123
G01 X30.2581 Y-14.1064
G01 X30.2535 Y-14.1007
G01 X30.2486 Y-14.0954
G01 X30.2433 Y-14.0905
G01 X30.2376 Y-14.0859
G01 X30.2317 Y-14.0818
G01 X30.2254 Y-14.0782
G01 X30.2189 Y-14.0750
G01 X30.2122 Y-14.0723
G01 X30.2053 Y-14.0701
G01 X30.1982 Y-14.0684
G01 X30.1911 Y-14.0673
G01 X30.1838 Y-14.0667
G01 X29.0290 Y-14.0666
G01 X29.0218 Y-14.0668
G01 X29.0122 Y-14.0680
G01 X29.0027 Y-14.0701
G01 X28.9936 Y-14.0731
G01 X28.9869 Y-14.0760
G01 X28.9784 Y-14.0806
G01 X28.9704 Y-14.0859
G01 X28.9635 Y-14.0915
G01 X28.5240 Y-14.0915
G01 X28.4997 Y-14.0928
G01 X28.4804 Y-14.0958
G01 X28.4638 Y-14.0998
G01 X28.4568 Y-14.1018
G01 X28.4385 Y-14.1085
G01 X28.4208 Y-14.1168
G01 X28.4144 Y-14.1203
G01 X28.3999 Y-14.1291
G01 X28.3832 Y-14.1414
G01 X25.4904 Y-14.1414
G01 X25.0727 Y-13.7237
G01 X25.0746 Y-13.7142
G01 X25.0788 Y-13.6852
G01 X25.0804 Y-13.6510
G01 X25.0804 Y-13.1510
G01 X25.0785 Y-13.1144
G01 X25.0738 Y-13.0830
G01 X25.0654 Y-13.0499
G01 X25.0539 Y-13.0177
G01 X25.0415 Y-12.9911
G01 X25.0369 Y-12.9825
G01 X25.0230 Y-12.9594
G01 X25.0043 Y-12.9338
G01 X24.9982 Y-12.9263
G01 X24.9801 Y-12.9063
G01 X24.9749 Y-12.9013
G01 X24.9531 Y-12.8816
G01 X24.9295 Y-12.8641
G01 X24.9215 Y-12.8587
G01 X24.8962 Y-12.8437
G01 X24.8653 Y-12.8291
G01 X24.8377 Y-12.8191
G01 X24.8285 Y-12.8163
G01 X24.7976 Y-12.8088
G01 X24.7662 Y-12.8042
G01 X24.7320 Y-12.8026
G01 X24.1498 Y-12.8026
G01 X24.1403 Y-12.7946
G01 X24.1146 Y-12.7759
G01 X24.0873 Y-12.7596
G01 X24.0563 Y-12.7449
G01 X24.0242 Y-12.7334
G01 X23.9957 Y-12.7262
G01 X23.9862 Y-12.7243
G01 X23.9548 Y-12.7199
G01 X23.9230 Y-12.7184
G01 X21.8560 Y-12.7184
G01 X21.8267 Y-12.7197
G01 X21.8170 Y-12.7207
G01 X21.7880 Y-12.7251
G01 X21.7571 Y-12.7328
G01 X21.7226 Y-12.7450
G01 X21.6960 Y-12.7574
G01 X21.6875 Y-12.7620
G01 X21.6624 Y-12.7771
G01 X21.6387 Y-12.7946
G01 X21.6312 Y-12.8007
G01 X21.6113 Y-12.8188
G01 X20.9615 Y-13.4685
G01 X20.9385 Y-13.4939
G01 X20.9169 Y-13.5234
G01 X20.9030 Y-13.5465
G01 X20.8984 Y-13.5550
G01 X20.8859 Y-13.5817
G01 X20.8754 Y-13.6107
G01 X20.8644 Y-13.6233
G01 X20.8501 Y-13.6430
G01 X20.8389 Y-13.6619
G01 X20.8285 Y-13.6839
G01 X20.8202 Y-13.7069
G01 X20.8143 Y-13.7305
G01 X20.8107 Y-13.7546
G01 X20.8096 Y-13.7766
G01 X20.8096 Y-15.4314
G01 X20.8107 Y-15.4534
G01 X20.8135 Y-15.4727
G01 X20.8154 Y-15.4822
G01 X20.8210 Y-15.5034
G01 X20.8285 Y-15.5241
G01 X20.8379 Y-15.5442
G01 X20.8501 Y-15.5650
G01 X20.8594 Y-15.5780
G01 X20.8594 Y-16.0626
G01 X20.4986 Y-16.0626
G01 X20.4693 Y-16.0641
G01 X20.4379 Y-16.0688
G01 X20.4071 Y-16.0765
G01 X20.3772 Y-16.0872
G01 X20.3485 Y-16.1007
G01 X20.3254 Y-16.1145
G01 X20.3174 Y-16.1198
G01 X20.2976 Y-16.1346
G01 X20.2921 Y-16.1391
G01 X20.2723 Y-16.1573
G01 X20.2495 Y-16.1827
G01 X20.2321 Y-16.2063
G01 X20.2181 Y-16.2293
G01 X20.2136 Y-16.2378
G01 X20.2022 Y-16.2622
G01 X20.1913 Y-16.2925
G01 X20.1848 Y-16.3182
G01 X20.1829 Y-16.3277
G01 X20.1789 Y-16.3567
G01 X20.1776 Y-16.3860
G01 X20.1776 Y-16.8860
G01 X20.1791 Y-16.9177
G01 X20.1838 Y-16.9491
G01 X20.1902 Y-16.9752
G01 X20.1930 Y-16.9845
G01 X20.2022 Y-17.0098
G01 X20.2136 Y-17.0342
G01 X20.2181 Y-17.0427
G01 X20.2321 Y-17.0657
G01 X20.2510 Y-17.0913
G01 X20.2690 Y-17.1112
G01 X20.2758 Y-17.1180
G01 X20.2958 Y-17.1360
G01 X20.3174 Y-17.1522
G01 X20.3254 Y-17.1575
G01 X20.3485 Y-17.1713
G01 X20.3795 Y-17.1857
G01 X20.4075 Y-17.1957
G01 X20.4379 Y-17.2032
G01 X20.4693 Y-17.2079
G01 X20.4962 Y-17.2093
G01 X20.8655 Y-17.2094
G01 X20.8672 Y-17.2177
G01 X20.8744 Y-17.2462
G01 X20.8842 Y-17.2739
G01 X20.8879 Y-17.2828
G01 X20.9006 Y-17.3093
G01 X20.9156 Y-17.3346
G01 X20.9210 Y-17.3426
G01 X20.9401 Y-17.3680
G01 X20.9615 Y-17.3915
G01 X21.4944 Y-17.9244
G01 X21.4944 Y-18.7960
G01 X21.4961 Y-18.8302
G01 X21.5011 Y-18.8640
G01 X21.5081 Y-18.8925
G01 X21.5102 Y-18.8995
G01 X21.5186 Y-18.9232
G01 X21.6205 Y-19.3084
G01 X21.6205 Y-20.4416
G01 X21.5416 Y-20.7398
G01 X21.4964 Y-20.7526
G01 X21.4897 Y-20.7551
G01 X21.4832 Y-20.7581
G01 X21.4679 Y-20.7670
G01 X21.4029 Y-20.7873
G01 X21.3920 Y-20.7917
G01 X21.3857 Y-20.7950
G01 X21.3797 Y-20.7987
G01 X21.3195 Y-20.8388
G01 X21.3100 Y-20.8465
G01 X21.3047 Y-20.8516
G01 X21.2999 Y-20.8571
G01 X21.2954 Y-20.8629
G01 X21.2915 Y-20.8691
G01 X21.2859 Y-20.8800
G01 X21.2570 Y-20.9462
G01 X21.2537 Y-20.9555
G01 X21.2510 Y-20.9674
G01 X21.2501 Y-20.9747
G01 X21.2497 Y-20.9820
G01 X21.2503 Y-20.9942
G01 X21.2634 Y-21.0751
G01 X21.2653 Y-21.0820
G01 X21.2677 Y-21.0888
G01 X21.2728 Y-21.0996
G01 X21.2937 Y-21.1324
G01 X21.2980 Y-21.1386
G01 X21.4771 Y-21.3509
G01 X21.4954 Y-21.3740
G01 X21.5088 Y-21.3891
G01 X21.5358 Y-21.4161
G01 X21.6653 Y-21.6007
G01 X21.6716 Y-21.6077
G01 X21.6784 Y-21.6140
G01 X21.7348 Y-21.6591
G01 X21.7448 Y-21.6661
G01 X21.7556 Y-21.6719
G01 X21.7670 Y-21.6762
G01 X21.7789 Y-21.6791
G01 X21.7862 Y-21.6801
G01 X21.8581 Y-21.6876
G01 X21.8703 Y-21.6878
G01 X21.8825 Y-21.6864
G01 X21.8944 Y-21.6836
G01 X21.9058 Y-21.6794
G01 X21.9769 Y-21.6434
G01 X21.9869 Y-21.6369
G01 X21.9942 Y-21.6309
G01 X22.0010 Y-21.6241
G01 X22.0099 Y-21.6139
G01 X22.2432 Y-21.8471
G01 X22.2377 Y-21.8588
G01 X22.2350 Y-21.8656
G01 X22.2068 Y-21.9445
G01 X22.2041 Y-21.9533
G01 X22.1828 Y-22.0390
G01 X22.1697 Y-22.1262
G01 X22.1688 Y-22.1359
G01 X22.1646 Y-22.2240
G01 X22.1691 Y-22.3170
G01 X22.1828 Y-22.4090
G01 X22.2041 Y-22.4947
G01 X22.2061 Y-22.5016
G01 X22.2367 Y-22.5870
G01 X22.2744 Y-22.6668
G01 X22.2789 Y-22.6753
G01 X22.3244 Y-22.7509
G01 X22.3769 Y-22.8219
G01 X22.3830 Y-22.8293
G01 X22.4390 Y-22.8912
G01 X22.4458 Y-22.8980
G01 X22.5113 Y-22.9572
G01 X22.5861 Y-23.0126
G01 X22.6659 Y-23.0605
G01 X22.7478 Y-23.0993
G01 X22.7646 Y-23.1056
G01 X22.7646 Y-23.4263
G01 X22.6833 Y-23.4046
G01 X22.4848 Y-23.3120
G01 X22.3054 Y-23.1864
G01 X22.1506 Y-23.0316
G01 X22.0255 Y-22.8529
G01 X22.0183 Y-22.8438
G01 X22.0099 Y-22.8355
G01 X21.9479 Y-22.7859
G01 X21.9375 Y-22.7794
G01 X21.9265 Y-22.7742
G01 X21.9149 Y-22.7704
G01 X21.9029 Y-22.7681
G01 X21.8309 Y-22.7607
G01 X21.8212 Y-22.7601
G01 X21.8114 Y-22.7606
G01 X21.8017 Y-22.7620
G01 X21.7923 Y-22.7644
G01 X21.7808 Y-22.7686
G01 X21.7118 Y-22.8034
G01 X21.7017 Y-22.8097
G01 X21.6924 Y-22.8171
G01 X21.6840 Y-22.8256
G01 X21.6626 Y-22.8509
G01 X21.5358 Y-23.0319
G01 X21.3809 Y-23.1868
G01 X21.2014 Y-23.3124
G01 X21.0029 Y-23.4050
G01 X20.7912 Y-23.4617
G01 X20.5730 Y-23.4808
G01 X20.3548 Y-23.4617
G01 X20.1431 Y-23.4050
G01 X19.9446 Y-23.3124
G01 X19.7651 Y-23.1868
G01 X19.6102 Y-23.0319
G01 X19.4839 Y-22.8515
G01 X19.4764 Y-22.8425
G01 X19.4679 Y-22.8344
G01 X19.4076 Y-22.7864
G01 X19.3972 Y-22.7798
G01 X19.3862 Y-22.7747
G01 X19.3746 Y-22.7709
G01 X19.3626 Y-22.7686
G01 X19.2906 Y-22.7611
G01 X19.2809 Y-22.7606
G01 X19.2711 Y-22.7610
G01 X19.2590 Y-22.7629
G01 X19.2496 Y-22.7655
G01 X19.2405 Y-22.7691
G01 X19.1715 Y-22.8039
G01 X19.1614 Y-22.8101
G01 X19.1521 Y-22.8176
G01 X19.1437 Y-22.8261
G01 X19.1223 Y-22.8513
G01 X18.9958 Y-23.0319
G01 X18.8409 Y-23.1868
G01 X18.6614 Y-23.3124
G01 X18.4629 Y-23.4050
G01 X18.2512 Y-23.4617
G01 X18.0330 Y-23.4808
G01 X17.8148 Y-23.4617
G01 X17.6031 Y-23.4050
G01 X17.4046 Y-23.3124
G01 X17.2251 Y-23.1868
G01 X17.0702 Y-23.0319
G01 X16.9439 Y-22.8515
G01 X16.9364 Y-22.8425
G01 X16.9279 Y-22.8344
G01 X16.8676 Y-22.7864
G01 X16.8572 Y-22.7798
G01 X16.8462 Y-22.7747
G01 X16.8346 Y-22.7709
G01 X16.8226 Y-22.7686
G01 X16.7506 Y-22.7611
G01 X16.7409 Y-22.7606
G01 X16.7311 Y-22.7610
G01 X16.7190 Y-22.7629
G01 X16.7096 Y-22.7655
G01 X16.7005 Y-22.7691
G01 X16.6315 Y-22.8039
G01 X16.6214 Y-22.8101
G01 X16.6121 Y-22.8176
G01 X16.6037 Y-22.8261
G01 X16.5823 Y-22.8513
G01 X16.4558 Y-23.0319
G01 X16.3009 Y-23.1868
G01 X16.1214 Y-23.3124
G01 X15.9229 Y-23.4050
G01 X15.7112 Y-23.4617
G01 X15.4930 Y-23.4808
G01 X15.2748 Y-23.4617
G01 X15.0631 Y-23.4050
G01 X14.8646 Y-23.3124
G01 X14.6851 Y-23.1868
G01 X14.5302 Y-23.0319
G01 X14.4039 Y-22.8515
G01 X14.3964 Y-22.8425
G01 X14.3879 Y-22.8344
G01 X14.3276 Y-22.7864
G01 X14.3172 Y-22.7798
G01 X14.3062 Y-22.7747
G01 X14.2946 Y-22.7709
G01 X14.2826 Y-22.7686
G01 X14.2106 Y-22.7611
G01 X14.2033 Y-22.7606
G01 X14.1911 Y-22.7610
G01 X14.1814 Y-22.7624
G01 X14.1696 Y-22.7655
G01 X14.1605 Y-22.7691
G01 X14.0915 Y-22.8039
G01 X14.0814 Y-22.8101
G01 X14.0721 Y-22.8176
G01 X14.0637 Y-22.8261
G01 X14.0423 Y-22.8513
G01 X13.9158 Y-23.0319
G01 X13.7609 Y-23.1868
G01 X13.5814 Y-23.3124
G01 X13.3829 Y-23.4050
G01 X13.1712 Y-23.4617
G01 X12.9530 Y-23.4808
G01 X12.7348 Y-23.4617
G01 X12.5231 Y-23.4050
G01 X12.3246 Y-23.3124
G01 X12.1451 Y-23.1868
G01 X11.9902 Y-23.0319
G01 X11.8639 Y-22.8515
G01 X11.8564 Y-22.8425
G01 X11.8479 Y-22.8344
G01 X11.7876 Y-22.7864
G01 X11.7772 Y-22.7798
G01 X11.7662 Y-22.7747
G01 X11.7546 Y-22.7709
G01 X11.7426 Y-22.7686
G01 X11.6706 Y-22.7611
G01 X11.6633 Y-22.7606
G01 X11.6511 Y-22.7610
G01 X11.6414 Y-22.7624
G01 X11.6296 Y-22.7655
G01 X11.6205 Y-22.7691
G01 X11.5515 Y-22.8039
G01 X11.5414 Y-22.8101
G01 X11.5321 Y-22.8176
G01 X11.5237 Y-22.8261
G01 X11.5023 Y-22.8513
G01 X11.3758 Y-23.0319
G01 X11.2209 Y-23.1868
G01 X11.0414 Y-23.3124
G01 X10.8429 Y-23.4050
G01 X10.6312 Y-23.4617
G01 X10.4130 Y-23.4808
G01 X10.1948 Y-23.4617
G01 X9.9831 Y-23.4050
G01 X9.7846 Y-23.3124
G01 X9.6051 Y-23.1868
G01 X9.4502 Y-23.0319
G01 X9.3252 Y-22.8534
G01 X9.3179 Y-22.8442
G01 X9.3131 Y-22.8391
G01 X9.3079 Y-22.8344
G01 X9.2495 Y-22.7878
G01 X9.2394 Y-22.7810
G01 X9.2307 Y-22.7766
G01 X9.2216 Y-22.7730
G01 X9.2122 Y-22.7703
G01 X9.2001 Y-22.7683
G01 X9.1258 Y-22.7607
G01 X9.1135 Y-22.7608
G01 X9.1014 Y-22.7624
G01 X9.0896 Y-22.7655
G01 X9.0805 Y-22.7691
G01 X9.0094 Y-22.8050
G01 X8.9994 Y-22.8115
G01 X8.9903 Y-22.8192
G01 X8.9837 Y-22.8261
G01 X8.9623 Y-22.8513
G01 X8.8358 Y-23.0319
G01 X8.6809 Y-23.1868
G01 X8.5014 Y-23.3124
G01 X8.3029 Y-23.4050
G01 X8.0912 Y-23.4617
G01 X7.8730 Y-23.4808
G01 X7.6548 Y-23.4617
G01 X7.4431 Y-23.4050
G01 X7.2446 Y-23.3124
G01 X7.0651 Y-23.1868
G01 X6.9102 Y-23.0319
G01 X6.7846 Y-22.8524
G01 X6.6920 Y-22.6539
G01 X6.6627 Y-22.5448
G01 X6.6596 Y-22.5353
G01 X6.6566 Y-22.5284
G01 X6.6519 Y-22.5197
G01 X6.6155 Y-22.4600
G01 X6.6100 Y-22.4519
G01 X6.6037 Y-22.4444
G01 X6.5949 Y-22.4360
G01 X6.5851 Y-22.4287
G01 X6.5754 Y-22.4232
G01 X6.5754 Y-21.3330
G01 X6.5750 Y-21.3236
G01 X6.5741 Y-21.3167
G01 X6.5721 Y-21.3075
G01 X6.5511 Y-21.2359
G01 X6.5466 Y-21.2245
G01 X6.5408 Y-21.2138
G01 X6.5337 Y-21.2038
G01 X6.5254 Y-21.1949
G01 X6.4690 Y-21.1458
G01 X6.4632 Y-21.1412
G01 X6.4550 Y-21.1357
G01 X6.4464 Y-21.1311
G01 X6.4373 Y-21.1274
G01 X6.4302 Y-21.1252
G01 X6.3716 Y-21.1123
G01 X6.3624 Y-21.1110
G01 X6.3530 Y-21.1106
G01 X3.2656 Y-21.1106
G01 X0.6670 Y-18.5119
G01 X0.6670 Y-12.6399
G00 Z2.0000
G00 X0.8693 Y-11.2088
G01 F60.00
G01 Z-0.1500
G01 F240.00
G01 X1.0955 Y-10.9825
G01 X1.0682 Y-10.9244
G01 X1.0326 Y-10.8252
G01 X1.0306 Y-10.8182
G01 X1.0062 Y-10.7207
G01 X1.0048 Y-10.7135
G01 X0.9898 Y-10.6117
G01 X0.9846 Y-10.5040
G01 X0.9898 Y-10.3963
G01 X1.0048 Y-10.2945
G01 X1.0062 Y-10.2873
G01 X1.0306 Y-10.1898
G01 X1.0334 Y-10.1805
G01 X1.0682 Y-10.0836
G01 X1.1007 Y-10.0145
G01 X0.8757 Y-9.7895
G01 X0.8461 Y-9.8346
G01 X0.7528 Y-10.0474
G01 X0.6958 Y-10.2725
G01 X0.6766 Y-10.5040
G01 X0.6958 Y-10.7355
G01 X0.7528 Y-10.9606
G01 X0.8461 Y-11.1734
G01 X0.8693 Y-11.2088
G00 Z2.0000
G00 X0.9131 Y-10.9534
G01 F60.00
G01 Z-0.1500
G01 F240.00
G01 X0.9178 Y-10.9486
G01 X0.8925 Y-10.8779
G01 X0.8870 Y-10.8605
G01 X0.8616 Y-10.7594
G01 X0.8578 Y-10.7415
G01 X0.8424 Y-10.6384
G01 X0.8409 Y-10.6263
G01 X0.8400 Y-10.6142
G01 X0.8352 Y-10.5162
G01 X0.8349 Y-10.5040
G01 X0.8352 Y-10.4918
G01 X0.8400 Y-10.3938
G01 X0.8409 Y-10.3817
G01 X0.8424 Y-10.3696
G01 X0.8578 Y-10.2665
G01 X0.8616 Y-10.2486
G01 X0.8854 Y-10.1534
G01 X0.8886 Y-10.1417
G01 X0.8925 Y-10.1301
G01 X0.9221 Y-10.0475
G01 X0.9180 Y-10.0434
G01 X0.8949 Y-10.0961
G01 X0.8439 Y-10.2972
G01 X0.8268 Y-10.5040
G01 X0.8439 Y-10.7108
G01 X0.8949 Y-10.9119
G01 X0.9131 Y-10.9534
G00 Z2.0000
G00 X0.9663 Y-14.4627
G01 F60.00
G01 Z-0.1500
G01 F240.00
G01 X0.9663 Y-14.5198
G01 X0.9802 Y-14.5140
G01 X0.9995 Y-14.5069
G01 X0.9663 Y-14.4627
G00 Z2.0000
G00 X1.2675 Y-14.7839
G01 F60.00
G01 Z-0.1500
G01 F240.00
G01 X1.2153 Y-14.7685
G01 X1.2081 Y-14.7671
G01 X1.2008 Y-14.7663
G01 X1.1935 Y-14.7661
G01 X1.1861 Y-14.7664
G01 X1.1765 Y-14.7677
G01 X1.1693 Y-14.7692
G01 X1.0974 Y-14.7898
G01 X1.0860 Y-14.7941
G01 X1.0794 Y-14.7974
G01 X1.0731 Y-14.8012
G01 X1.0633 Y-14.8084
G01 X1.0545 Y-14.8169
G01 X1.0052 Y-14.8729
G01 X0.9994 Y-14.8805
G01 X0.9956 Y-14.8864
G01 X0.9903 Y-14.8970
G01 X0.9877 Y-14.9035
G01 X0.9856 Y-14.9103
G01 X0.9729 Y-14.9673
G01 X0.9710 Y-14.9790
G01 X0.9706 Y-14.9886
G01 X0.9706 Y-15.4960
G01 X0.9708 Y-15.5030
G01 X0.9716 Y-15.5100
G01 X0.9728 Y-15.5169
G01 X0.9745 Y-15.5237
G01 X0.9942 Y-15.5908
G01 X0.9974 Y-15.6000
G01 X1.0016 Y-15.6089
G01 X1.0079 Y-15.6193
G01 X1.0139 Y-15.6270
G01 X1.0206 Y-15.6341
G01 X1.0789 Y-15.6848
G01 X1.0868 Y-15.6907
G01 X1.0952 Y-15.6957
G01 X1.1064 Y-15.7008
G01 X1.1182 Y-15.7044
G01 X1.1721 Y-15.7162
G01 X1.1813 Y-15.7178
G01 X1.1930 Y-15.7184
G01 X8.4566 Y-15.7184
G01 X8.4637 Y-15.7182
G01 X8.4706 Y-15.7174
G01 X8.4776 Y-15.7162
G01 X8.4844 Y-15.7145
G01 X8.5514 Y-15.6948
G01 X8.5628 Y-15.6907
G01 X8.5714 Y-15.6864
G01 X8.5796 Y-15.6813
G01 X8.6061 Y-15.6603
G01 X8.6139 Y-15.6533
G01 X8.8619 Y-15.4053
G01 X8.8667 Y-15.4002
G01 X8.8711 Y-15.3947
G01 X8.8751 Y-15.3889
G01 X8.8787 Y-15.3829
G01 X8.9144 Y-15.3172
G01 X8.9174 Y-15.3105
G01 X8.9198 Y-15.3036
G01 X8.9223 Y-15.2941
G01 X8.9235 Y-15.2869
G01 X8.9242 Y-15.2771
G01 X8.9241 Y-15.2698
G01 X8.9190 Y-15.1976
G01 X8.9182 Y-15.1904
G01 X8.9163 Y-15.1808
G01 X8.9126 Y-15.1691
G01 X8.9086 Y-15.1602
G01 X8.9025 Y-15.1497
G01 X8.8563 Y-15.0878
G01 X8.8481 Y-15.0787
G01 X8.8389 Y-15.0707
G01 X8.8288 Y-15.0638
G01 X8.8179 Y-15.0583
G01 X8.7433 Y-15.0305
G01 X8.7363 Y-15.0285
G01 X8.7267 Y-15.0268
G01 X8.7194 Y-15.0260
G01 X8.7082 Y-15.0256
G01 X8.4669 Y-15.0256
G01 X8.2378 Y-14.9873
G01 X8.0181 Y-14.9119
G01 X7.8687 Y-14.8311
G01 X8.0935 Y-14.6063
G01 X8.1626 Y-14.6388
G01 X8.2641 Y-14.6752
G01 X8.3687 Y-14.7013
G01 X8.4705 Y-14.7166
G01 X8.4802 Y-14.7175
G01 X8.5782 Y-14.7223
G01 X8.5878 Y-14.7223
G01 X8.6907 Y-14.7172
G01 X8.7949 Y-14.7018
G01 X8.8972 Y-14.6764
G01 X8.9065 Y-14.6736
G01 X9.0034 Y-14.6388
G01 X9.1008 Y-14.5927
G01 X9.1892 Y-14.5399
G01 X9.1972 Y-14.5345
G01 X9.2798 Y-14.4731
G01 X9.3597 Y-14.4007
G01 X9.4321 Y-14.3208
G01 X9.4935 Y-14.2382
G01 X9.4989 Y-14.2302
G01 X9.5517 Y-14.1418
G01 X9.5978 Y-14.0444
G01 X9.6326 Y-13.9475
G01 X9.6354 Y-13.9382
G01 X9.6608 Y-13.8359
G01 X9.6762 Y-13.7317
G01 X9.6813 Y-13.6288
G01 X9.6813 Y-13.6192
G01 X9.6765 Y-13.5212
G01 X9.6756 Y-13.5115
G01 X9.6603 Y-13.4097
G01 X9.6342 Y-13.3051
G01 X9.5978 Y-13.2036
G01 X9.5653 Y-13.1345
G01 X9.7903 Y-12.9095
G01 X9.8199 Y-12.9546
G01 X9.9132 Y-13.1674
G01 X9.9702 Y-13.3925
G01 X9.9894 Y-13.6240
G01 X9.9804 Y-13.7322
G01 X9.9801 Y-13.7392
G01 X9.9802 Y-13.7462
G01 X9.9816 Y-13.7579
G01 X9.9962 Y-13.8286
G01 X9.9986 Y-13.8381
G01 X10.0010 Y-13.8450
G01 X10.0051 Y-13.8539
G01 X10.0087 Y-13.8603
G01 X10.0142 Y-13.8683
G01 X10.0205 Y-13.8758
G01 X10.0728 Y-13.9293
G01 X10.0820 Y-13.9372
G01 X10.0922 Y-13.9440
G01 X10.1032 Y-13.9494
G01 X10.1147 Y-13.9535
G01 X10.1875 Y-13.9703
G01 X10.1947 Y-13.9717
G01 X10.2020 Y-13.9725
G01 X10.2093 Y-13.9728
G01 X10.2167 Y-13.9725
G01 X10.2288 Y-13.9709
G01 X10.2406 Y-13.9678
G01 X10.3090 Y-13.9431
G01 X10.3156 Y-13.9405
G01 X10.3240 Y-13.9362
G01 X10.3338 Y-13.9298
G01 X10.3576 Y-13.9096
G01 X11.5968 Y-12.6704
G01 X12.0990 Y-12.6703
G01 X12.1106 Y-12.6691
G01 X12.1198 Y-12.6671
G01 X12.1890 Y-12.6468
G01 X12.1959 Y-12.6445
G01 X12.2026 Y-12.6417
G01 X12.2091 Y-12.6384
G01 X12.2153 Y-12.6347
G01 X12.2231 Y-12.6290
G01 X12.2477 Y-12.6089
G01 X12.4443 Y-12.4126
G01 X17.0494 Y-12.4126
G01 X17.0494 Y-13.6300
G01 X17.0401 Y-13.6430
G01 X17.0278 Y-13.6640
G01 X17.0185 Y-13.6839
G01 X17.0110 Y-13.7046
G01 X17.0054 Y-13.7258
G01 X17.0035 Y-13.7353
G01 X17.0007 Y-13.7546
G01 X16.9996 Y-13.7766
G01 X16.9996 Y-15.4290
G01 X17.0007 Y-15.4534
G01 X17.0039 Y-15.4751
G01 X17.0102 Y-15.5011
G01 X17.0167 Y-15.5196
G01 X17.0204 Y-15.5285
G01 X17.0290 Y-15.5463
G01 X17.0401 Y-15.5650
G01 X17.0530 Y-15.5828
G01 X17.0575 Y-15.5885
G01 X17.0723 Y-15.6047
G01 X17.0867 Y-15.6179
G01 X17.0942 Y-15.6240
G01 X17.1100 Y-15.6356
G01 X17.1267 Y-15.6457
G01 X17.1352 Y-15.6503
G01 X17.1529 Y-15.6585
G01 X17.1713 Y-15.6652
G01 X17.1805 Y-15.6680
G01 X17.2019 Y-15.6731
G01 X17.2236 Y-15.6763
G01 X17.2456 Y-15.6774
G01 X17.5480 Y-15.6774
G01 X17.5748 Y-15.6760
G01 X17.5965 Y-15.6727
G01 X17.6201 Y-15.6668
G01 X17.6431 Y-15.6585
G01 X17.6611 Y-15.6501
G01 X17.6673 Y-15.6469
G01 X17.6840 Y-15.6369
G01 X17.7018 Y-15.6240
G01 X17.7093 Y-15.6179
G01 X17.7220 Y-15.6064
G01 X17.7270 Y-15.6012
G01 X17.7401 Y-15.5866
G01 X17.7546 Y-15.5670
G01 X17.7671 Y-15.5461
G01 X17.7775 Y-15.5241
G01 X17.7858 Y-15.5011
G01 X17.7917 Y-15.4775
G01 X17.7953 Y-15.4534
G01 X17.7963 Y-15.4338
G01 X17.7964 Y-13.7766
G01 X17.7953 Y-13.7546
G01 X17.7925 Y-13.7353
G01 X17.7906 Y-13.7258
G01 X17.7850 Y-13.7045
G01 X17.7775 Y-13.6839
G01 X17.7681 Y-13.6638
G01 X17.7559 Y-13.6430
G01 X17.7466 Y-13.6300
G01 X17.7466 Y-12.0640
G01 X17.7449 Y-12.0298
G01 X17.7402 Y-11.9977
G01 X17.7487 Y-11.9586
G01 X17.7500 Y-11.9494
G01 X17.7504 Y-11.9423
G01 X17.7504 Y-11.5196
G01 X17.9986 Y-11.2715
G01 X28.0280 Y-11.2715
G01 X28.2296 Y-11.4730
G01 X28.2477 Y-11.4893
G01 X28.2634 Y-11.5008
G01 X28.2780 Y-11.5097
G01 X28.2844 Y-11.5132
G01 X28.3021 Y-11.5215
G01 X28.3204 Y-11.5282
G01 X28.3274 Y-11.5302
G01 X28.3440 Y-11.5342
G01 X28.3633 Y-11.5372
G01 X28.3876 Y-11.5385
G01 X28.9635 Y-11.5385
G01 X28.9704 Y-11.5441
G01 X28.9784 Y-11.5494
G01 X28.9847 Y-11.5529
G01 X28.9936 Y-11.5569
G01 X29.0004 Y-11.5592
G01 X29.0098 Y-11.5616
G01 X29.0194 Y-11.5630
G01 X29.0290 Y-11.5634
G01 X30.1814 Y-11.5634
G01 X30.1886 Y-11.5630
G01 X30.1982 Y-11.5616
G01 X30.2053 Y-11.5599
G01 X30.2144 Y-11.5569
G01 X30.2211 Y-11.5540
G01 X30.2296 Y-11.5494
G01 X30.2376 Y-11.5441
G01 X30.2445 Y-11.5385
G01 X30.2805 Y-11.5385
G01 X30.2805 Y-12.0915
G01 X30.2445 Y-12.0915
G01 X30.2376 Y-12.0859
G01 X30.2296 Y-12.0806
G01 X30.2233 Y-12.0771
G01 X30.2144 Y-12.0731
G01 X30.2076 Y-12.0708
G01 X30.1982 Y-12.0684
G01 X30.1886 Y-12.0670
G01 X30.1814 Y-12.0666
G01 X29.0290 Y-12.0666
G01 X29.0218 Y-12.0668
G01 X29.0122 Y-12.0680
G01 X29.0027 Y-12.0701
G01 X28.9936 Y-12.0731
G01 X28.9869 Y-12.0760
G01 X28.9784 Y-12.0806
G01 X28.9704 Y-12.0859
G01 X28.9635 Y-12.0915
G01 X28.5240 Y-12.0915
G01 X28.5045 Y-12.0924
G01 X28.4804 Y-12.0958
G01 X28.4614 Y-12.1004
G01 X28.4545 Y-12.1026
G01 X28.4385 Y-12.1085
G01 X28.4230 Y-12.1157
G01 X28.4165 Y-12.1190
G01 X28.3999 Y-12.1291
G01 X28.3841 Y-12.1407
G01 X28.3785 Y-12.1454
G01 X28.3660 Y-12.1570
G01 X28.3544 Y-12.1695
G01 X28.3497 Y-12.1751
G01 X28.3382 Y-12.1908
G01 X28.3258 Y-12.2118
G01 X28.3175 Y-12.2295
G01 X28.3101 Y-12.2501
G01 X28.3048 Y-12.2714
G01 X28.3016 Y-12.2931
G01 X28.3005 Y-12.3150
G01 X28.3016 Y-12.3369
G01 X28.3048 Y-12.3586
G01 X28.3101 Y-12.3799
G01 X28.3175 Y-12.4005
G01 X28.3269 Y-12.4204
G01 X28.3381 Y-12.4391
G01 X28.3512 Y-12.4568
G01 X28.3660 Y-12.4730
G01 X28.3822 Y-12.4878
G01 X28.3998 Y-12.5008
G01 X28.4208 Y-12.5132
G01 X28.4407 Y-12.5224
G01 X28.4568 Y-12.5282
G01 X28.4638 Y-12.5302
G01 X28.4780 Y-12.5337
G01 X28.4852 Y-12.5350
G01 X28.5021 Y-12.5374
G01 X28.5192 Y-12.5384
G01 X28.9635 Y-12.5385
G01 X28.9704 Y-12.5441
G01 X28.9784 Y-12.5494
G01 X28.9847 Y-12.5529
G01 X28.9936 Y-12.5569
G01 X29.0004 Y-12.5592
G01 X29.0098 Y-12.5616
G01 X29.0194 Y-12.5630
G01 X29.0290 Y-12.5634
G01 X30.1838 Y-12.5633
G01 X30.1934 Y-12.5624
G01 X30.2006 Y-12.5611
G01 X30.2076 Y-12.5592
G01 X30.2167 Y-12.5560
G01 X30.2254 Y-12.5518
G01 X30.2317 Y-12.5482
G01 X30.2376 Y-12.5441
G01 X30.2445 Y-12.5385
G01 X30.4814 Y-12.5385
G01 X30.5009 Y-12.5374
G01 X30.5178 Y-12.5350
G01 X30.5250 Y-12.5337
G01 X30.5439 Y-12.5289
G01 X30.5645 Y-12.5215
G01 X30.5844 Y-12.5121
G01 X30.6011 Y-12.5022
G01 X30.6071 Y-12.4981
G01 X30.6208 Y-12.4878
G01 X30.6335 Y-12.4764
G01 X30.6620 Y-12.4480
G01 X30.6768 Y-12.4318
G01 X30.6912 Y-12.4122
G01 X30.7000 Y-12.3975
G01 X30.7033 Y-12.3910
G01 X30.7105 Y-12.3755
G01 X30.7164 Y-12.3595
G01 X30.7186 Y-12.3526
G01 X30.7232 Y-12.3336
G01 X30.7264 Y-12.3119
G01 X30.7275 Y-12.2900
G01 X30.7275 Y-11.3400
G01 X30.7262 Y-11.3157
G01 X30.7232 Y-11.2964
G01 X30.7179 Y-11.2751
G01 X30.7105 Y-11.2545
G01 X30.7000 Y-11.2325
G01 X30.6899 Y-11.2159
G01 X30.6768 Y-11.1982
G01 X30.6637 Y-11.1837
G01 X30.6370 Y-11.1570
G01 X30.6208 Y-11.1422
G01 X30.6032 Y-11.1292
G01 X30.5844 Y-11.1179
G01 X30.5690 Y-11.1105
G01 X30.5623 Y-11.1076
G01 X30.5485 Y-11.1026
G01 X30.5392 Y-11.0998
G01 X30.5226 Y-11.0958
G01 X30.5009 Y-11.0926
G01 X30.4790 Y-11.0915
G01 X30.2445 Y-11.0915
G01 X30.2376 Y-11.0859
G01 X30.2296 Y-11.0806
G01 X30.2233 Y-11.0771
G01 X30.2144 Y-11.0731
G01 X30.2076 Y-11.0708
G01 X30.1982 Y-11.0684
G01 X30.1886 Y-11.0670
G01 X30.1790 Y-11.0666
G01 X29.0266 Y-11.0666
G01 X29.0194 Y-11.0670
G01 X29.0098 Y-11.0684
G01 X29.0027 Y-11.0701
G01 X28.9936 Y-11.0731
G01 X28.9869 Y-11.0760
G01 X28.9784 Y-11.0806
G01 X28.9704 Y-11.0859
G01 X28.9635 Y-11.0915
G01 X28.4802 Y-11.0915
G01 X28.2787 Y-10.8900
G01 X28.2642 Y-10.8768
G01 X28.2586 Y-10.8722
G01 X28.2448 Y-10.8622
G01 X28.2260 Y-10.8509
G01 X28.2061 Y-10.8415
G01 X28.1901 Y-10.8356
G01 X28.1808 Y-10.8328
G01 X28.1618 Y-10.8283
G01 X28.1425 Y-10.8256
G01 X28.1254 Y-10.8246
G01 X17.9036 Y-10.8245
G01 X17.8841 Y-10.8256
G01 X17.8624 Y-10.8288
G01 X17.8411 Y-10.8341
G01 X17.8227 Y-10.8406
G01 X17.8028 Y-10.8498
G01 X17.7859 Y-10.8596
G01 X17.7779 Y-10.8649
G01 X17.7661 Y-10.8737
G01 X17.7605 Y-10.8784
G01 X17.7480 Y-10.8900
G01 X17.4094 Y-11.2285
G01 X17.3996 Y-11.2332
G01 X17.3892 Y-11.2398
G01 X17.3815 Y-11.2459
G01 X17.3707 Y-11.2561
G01 X16.9113 Y-11.7154
G01 X10.2406 Y-11.7154
G01 X10.2138 Y-11.7126
G01 X10.1926 Y-11.7116
G01 X9.9564 Y-11.7116
G01 X9.9447 Y-11.7122
G01 X9.9354 Y-11.7138
G01 X9.9286 Y-11.7155
G01 X9.8616 Y-11.7352
G01 X9.8502 Y-11.7393
G01 X9.8416 Y-11.7436
G01 X9.8334 Y-11.7487
G01 X9.8049 Y-11.7713
G01 X9.7991 Y-11.7767
G01 X9.4032 Y-12.1726
G01 X9.3957 Y-12.1815
G01 X9.3917 Y-12.1873
G01 X9.3881 Y-12.1933
G01 X9.3535 Y-12.2568
G01 X9.3494 Y-12.2657
G01 X9.3463 Y-12.2750
G01 X9.3437 Y-12.2869
G01 X9.3429 Y-12.2942
G01 X9.3426 Y-12.3015
G01 X9.3470 Y-12.3672
G01 X9.0725 Y-12.6417
G01 X9.0034 Y-12.6092
G01 X8.9019 Y-12.5728
G01 X8.7973 Y-12.5467
G01 X8.6955 Y-12.5314
G01 X8.6858 Y-12.5305
G01 X8.5878 Y-12.5257
G01 X8.5782 Y-12.5257
G01 X8.4753 Y-12.5308
G01 X8.3711 Y-12.5462
G01 X8.2688 Y-12.5716
G01 X8.2595 Y-12.5744
G01 X8.1626 Y-12.6092
G01 X8.0652 Y-12.6553
G01 X7.9768 Y-12.7081
G01 X7.9688 Y-12.7135
G01 X7.8862 Y-12.7749
G01 X7.8063 Y-12.8473
G01 X7.7339 Y-12.9272
G01 X7.6725 Y-13.0098
G01 X7.6671 Y-13.0178
G01 X7.6143 Y-13.1062
G01 X7.5682 Y-13.2036
G01 X7.5334 Y-13.3005
G01 X7.5306 Y-13.3098
G01 X7.5052 Y-13.4121
G01 X7.4898 Y-13.5163
G01 X7.4847 Y-13.6192
G01 X7.4847 Y-13.6288
G01 X7.4895 Y-13.7268
G01 X7.4904 Y-13.7365
G01 X7.5057 Y-13.8383
G01 X7.5318 Y-13.9429
G01 X7.5682 Y-14.0444
G01 X7.6007 Y-14.1135
G01 X7.3757 Y-14.3385
G01 X7.3461 Y-14.2934
G01 X7.2528 Y-14.0806
G01 X7.1958 Y-13.8555
G01 X7.1766 Y-13.6240
G01 X7.1958 Y-13.3925
G01 X7.2528 Y-13.1674
G01 X7.3461 Y-12.9546
G01 X7.4366 Y-12.8162
G01 X7.4403 Y-12.8102
G01 X7.4434 Y-12.8039
G01 X7.4478 Y-12.7930
G01 X7.4686 Y-12.7239
G01 X7.4705 Y-12.7168
G01 X7.4718 Y-12.7096
G01 X7.4727 Y-12.6998
G01 X7.4727 Y-12.6901
G01 X7.4717 Y-12.6803
G01 X7.4697 Y-12.6708
G01 X7.4492 Y-12.5989
G01 X7.4448 Y-12.5875
G01 X7.4391 Y-12.5767
G01 X7.4320 Y-12.5667
G01 X7.4238 Y-12.5576
G01 X7.3660 Y-12.5066
G01 X7.3585 Y-12.5009
G01 X7.3504 Y-12.4960
G01 X7.3420 Y-12.4918
G01 X7.3331 Y-12.4885
G01 X7.3240 Y-12.4860
G01 X7.2693 Y-12.4739
G01 X7.2599 Y-12.4725
G01 X7.2504 Y-12.4721
G01 X3.4156 Y-12.4721
G01 X3.4086 Y-12.4723
G01 X3.4016 Y-12.4731
G01 X3.3901 Y-12.4754
G01 X3.3208 Y-12.4957
G01 X3.3139 Y-12.4980
G01 X3.3071 Y-12.5009
G01 X3.2985 Y-12.5054
G01 X3.2903 Y-12.5108
G01 X3.2846 Y-12.5154
G01 X3.2775 Y-12.5221
G01 X3.2268 Y-12.5804
G01 X3.2197 Y-12.5903
G01 X3.2148 Y-12.5988
G01 X3.2118 Y-12.6055
G01 X3.2085 Y-12.6147
G01 X3.2067 Y-12.6218
G01 X3.2054 Y-12.6290
G01 X3.1949 Y-12.7028
G01 X3.1944 Y-12.7146
G01 X3.1949 Y-12.7217
G01 X3.1958 Y-12.7287
G01 X3.1978 Y-12.7379
G01 X3.2008 Y-12.7469
G01 X3.2202 Y-12.7983
G01 X3.2255 Y-12.8097
G01 X3.2294 Y-12.8162
G01 X3.3199 Y-12.9546
G01 X3.4132 Y-13.1674
G01 X3.4702 Y-13.3925
G01 X3.4894 Y-13.6240
G01 X3.4702 Y-13.8555
G01 X3.4132 Y-14.0806
G01 X3.3199 Y-14.2933
G01 X3.2903 Y-14.3385
G01 X3.0653 Y-14.1135
G01 X3.0978 Y-14.0444
G01 X3.1326 Y-13.9475
G01 X3.1354 Y-13.9382
G01 X3.1603 Y-13.8383
G01 X3.1756 Y-13.7365
G01 X3.1765 Y-13.7268
G01 X3.1814 Y-13.6240
G01 X3.1764 Y-13.5187
G01 X3.1612 Y-13.4145
G01 X3.1593 Y-13.4050
G01 X3.1342 Y-13.3051
G01 X3.0996 Y-13.2081
G01 X3.0959 Y-13.1992
G01 X3.0517 Y-13.1062
G01 X2.9989 Y-13.0178
G01 X2.9935 Y-13.0098
G01 X2.9321 Y-12.9272
G01 X2.8631 Y-12.8508
G01 X2.8562 Y-12.8439
G01 X2.7798 Y-12.7749
G01 X2.6972 Y-12.7135
G01 X2.6892 Y-12.7081
G01 X2.6008 Y-12.6553
G01 X2.5078 Y-12.6111
G01 X2.4989 Y-12.6074
G01 X2.4019 Y-12.5728
G01 X2.3020 Y-12.5477
G01 X2.2925 Y-12.5458
G01 X2.1907 Y-12.5308
G01 X2.0878 Y-12.5257
G01 X2.0782 Y-12.5257
G01 X1.9729 Y-12.5311
G01 X1.8687 Y-12.5467
G01 X1.7688 Y-12.5716
G01 X1.7595 Y-12.5744
G01 X1.6671 Y-12.6074
G01 X1.6582 Y-12.6111
G01 X1.5652 Y-12.6553
G01 X1.4768 Y-12.7081
G01 X1.4688 Y-12.7135
G01 X1.3862 Y-12.7749
G01 X1.3063 Y-12.8473
G01 X1.2339 Y-12.9272
G01 X1.1725 Y-13.0098
G01 X1.1671 Y-13.0178
G01 X1.1143 Y-13.1062
G01 X1.0701 Y-13.1992
G01 X1.0664 Y-13.2081
G01 X1.0334 Y-13.3005
G01 X1.0306 Y-13.3098
G01 X1.0057 Y-13.4097
G01 X0.9898 Y-13.5163
G01 X0.9846 Y-13.6240
G01 X0.9895 Y-13.7268
G01 X0.9904 Y-13.7365
G01 X1.0057 Y-13.8383
G01 X1.0306 Y-13.9382
G01 X1.0334 Y-13.9475
G01 X1.0664 Y-14.0399
G01 X1.0701 Y-14.0488
G01 X1.1143 Y-14.1418
G01 X1.1697 Y-14.2343
G01 X1.2339 Y-14.3208
G01 X1.3063 Y-14.4007
G01 X1.3862 Y-14.4731
G01 X1.4727 Y-14.5373
G01 X1.5652 Y-14.5927
G01 X1.6604 Y-14.6379
G01 X1.6671 Y-14.6406
G01 X1.7641 Y-14.6752
G01 X1.8687 Y-14.7013
G01 X1.9753 Y-14.7172
G01 X2.0782 Y-14.7223
G01 X2.0854 Y-14.7224
G01 X2.1907 Y-14.7172
G01 X2.2925 Y-14.7022
G01 X2.3020 Y-14.7003
G01 X2.3972 Y-14.6764
G01 X2.4065 Y-14.6736
G01 X2.5034 Y-14.6388
G01 X2.5725 Y-14.6063
G01 X2.7973 Y-14.8311
G01 X2.6479 Y-14.9119
G01 X2.4282 Y-14.9873
G01 X2.1991 Y-15.0256
G01 X1.9669 Y-15.0256
G01 X1.7378 Y-14.9873
G01 X1.5181 Y-14.9119
G01 X1.3000 Y-14.7939
G01 X1.2934 Y-14.7909
G01 X1.2843 Y-14.7876
G01 X1.2750 Y-14.7852
G01 X1.2675 Y-14.7839
G00 Z2.0000
G00 X1.2768 Y-16.9624
G01 F60.00
G01 Z-0.1500
G01 F240.00
G01 X1.2889 Y-16.9589
G01 X1.3000 Y-16.9541
G01 X1.5181 Y-16.8361
G01 X1.7378 Y-16.7607
G01 X1.9669 Y-16.7224
G01 X2.1991 Y-16.7224
G01 X2.4282 Y-16.7607
G01 X2.6479 Y-16.8361
G01 X2.7973 Y-16.9169
G01 X2.5725 Y-17.1417
G01 X2.5034 Y-17.1092
G01 X2.4065 Y-17.0744
G01 X2.3972 Y-17.0716
G01 X2.2973 Y-17.0467
G01 X2.1955 Y-17.0314
G01 X2.1858 Y-17.0305
G01 X2.0830 Y-17.0256
G01 X1.9777 Y-17.0306
G01 X1.8735 Y-17.0458
G01 X1.8640 Y-17.0477
G01 X1.7641 Y-17.0728
G01 X1.6671 Y-17.1074
G01 X1.6582 Y-17.1111
G01 X1.5652 Y-17.1553
G01 X1.4768 Y-17.2081
G01 X1.4688 Y-17.2135
G01 X1.3862 Y-17.2749
G01 X1.3098 Y-17.3439
G01 X1.3029 Y-17.3508
G01 X1.2339 Y-17.4272
G01 X1.1725 Y-17.5098
G01 X1.1671 Y-17.5178
G01 X1.1143 Y-17.6062
G01 X1.0701 Y-17.6992
G01 X1.0664 Y-17.7081
G01 X1.0334 Y-17.8005
G01 X1.0306 Y-17.8098
G01 X1.0057 Y-17.9097
G01 X0.9904 Y-18.0115
G01 X0.9895 Y-18.0212
G01 X0.9846 Y-18.1240
G01 X0.9895 Y-18.2268
G01 X0.9904 Y-18.2365
G01 X1.0057 Y-18.3383
G01 X1.0306 Y-18.4382
G01 X1.0334 Y-18.4475
G01 X1.0664 Y-18.5399
G01 X1.0701 Y-18.5488
G01 X1.1143 Y-18.6418
G01 X1.1671 Y-18.7302
G01 X1.1725 Y-18.7382
G01 X1.2339 Y-18.8208
G01 X1.3063 Y-18.9007
G01 X1.3862 Y-18.9731
G01 X1.4688 Y-19.0345
G01 X1.4768 Y-19.0399
G01 X1.5652 Y-19.0927
G01 X1.6582 Y-19.1369
G01 X1.6671 Y-19.1406
G01 X1.7595 Y-19.1736
G01 X1.7688 Y-19.1764
G01 X1.8687 Y-19.2013
G01 X1.9705 Y-19.2166
G01 X1.9802 Y-19.2175
G01 X2.0830 Y-19.2224
G01 X2.1858 Y-19.2175
G01 X2.1955 Y-19.2166
G01 X2.2973 Y-19.2013
G01 X2.3972 Y-19.1764
G01 X2.4065 Y-19.1736
G01 X2.5034 Y-19.1388
G01 X2.5725 Y-19.1063
G01 X2.7973 Y-19.3311
G01 X2.6479 Y-19.4119
G01 X2.4999 Y-19.4627
G01 X2.4872 Y-19.4681
G01 X2.4769 Y-19.4741
G01 X2.4179 Y-19.5159
G01 X2.4102 Y-19.5219
G01 X2.4049 Y-19.5269
G01 X2.3983 Y-19.5342
G01 X2.3939 Y-19.5401
G01 X2.3900 Y-19.5463
G01 X2.3854 Y-19.5549
G01 X2.3565 Y-19.6265
G01 X2.3535 Y-19.6358
G01 X2.3515 Y-19.6454
G01 X2.3506 Y-19.6526
G01 X2.3502 Y-19.6600
G01 X2.3504 Y-19.6673
G01 X2.3515 Y-19.6770
G01 X2.3655 Y-19.7504
G01 X2.3673 Y-19.7575
G01 X2.3696 Y-19.7643
G01 X2.3745 Y-19.7753
G01 X2.3807 Y-19.7857
G01 X2.4064 Y-19.8208
G01 X2.4148 Y-19.8304
G01 X3.3212 Y-20.7368
G01 X3.3281 Y-20.7431
G01 X3.3337 Y-20.7474
G01 X3.3436 Y-20.7536
G01 X3.4049 Y-20.7871
G01 X3.4158 Y-20.7922
G01 X3.4250 Y-20.7953
G01 X3.4368 Y-20.7979
G01 X3.4679 Y-20.8014
G01 X3.4758 Y-20.8019
G01 X6.3477 Y-20.8019
G01 X6.4447 Y-20.8124
G01 X6.4859 Y-20.8213
G01 X6.5717 Y-20.8499
G01 X6.6764 Y-20.9172
G01 X6.7185 Y-20.9537
G01 X6.7407 Y-20.9791
G01 X6.7475 Y-20.9856
G01 X6.7549 Y-20.9914
G01 X6.8196 Y-21.0331
G01 X6.8284 Y-21.0378
G01 X6.8352 Y-21.0408
G01 X6.8446 Y-21.0439
G01 X6.8543 Y-21.0460
G01 X6.8987 Y-21.0522
G01 X6.9503 Y-21.0523
G01 X6.9597 Y-21.0514
G01 X6.9689 Y-21.0497
G01 X7.0404 Y-21.0288
G01 X7.0497 Y-21.0256
G01 X7.0585 Y-21.0214
G01 X7.0669 Y-21.0165
G01 X7.0767 Y-21.0091
G01 X7.0838 Y-21.0024
G01 X7.1329 Y-20.9460
G01 X7.1373 Y-20.9404
G01 X7.1414 Y-20.9346
G01 X7.1461 Y-20.9264
G01 X7.1491 Y-20.9199
G01 X7.1556 Y-20.9034
G01 X7.1651 Y-20.8755
G01 X7.1702 Y-20.8648
G01 X7.2135 Y-20.7969
G01 X7.2531 Y-20.7311
G01 X7.2604 Y-20.7218
G01 X7.3172 Y-20.6648
G01 X7.3701 Y-20.6090
G01 X7.3856 Y-20.5961
G01 X7.3907 Y-20.5913
G01 X7.7570 Y-20.2251
G01 X7.7702 Y-20.2106
G01 X7.8309 Y-20.1512
G01 X8.1787 Y-19.8033
G01 X8.1863 Y-19.7944
G01 X8.1927 Y-19.7846
G01 X8.2285 Y-19.7191
G01 X8.2326 Y-19.7102
G01 X8.2363 Y-19.6985
G01 X8.2383 Y-19.6890
G01 X8.2394 Y-19.6768
G01 X8.2392 Y-19.6670
G01 X8.2342 Y-19.5973
G01 X8.2330 Y-19.5876
G01 X8.2315 Y-19.5805
G01 X8.2294 Y-19.5734
G01 X8.2259 Y-19.5643
G01 X8.2215 Y-19.5556
G01 X8.2176 Y-19.5493
G01 X8.1729 Y-19.4894
G01 X8.1668 Y-19.4820
G01 X8.1617 Y-19.4768
G01 X8.1562 Y-19.4720
G01 X8.1464 Y-19.4650
G01 X8.1038 Y-19.4422
G01 X8.0920 Y-19.4373
G01 X8.0181 Y-19.4119
G01 X7.8687 Y-19.3311
G01 X8.0935 Y-19.1063
G01 X8.1626 Y-19.1388
G01 X8.2595 Y-19.1736
G01 X8.2688 Y-19.1764
G01 X8.3711 Y-19.2018
G01 X8.4753 Y-19.2172
G01 X8.5782 Y-19.2223
G01 X8.5878 Y-19.2223
G01 X8.6931 Y-19.2169
G01 X8.7973 Y-19.2013
G01 X8.8972 Y-19.1764
G01 X8.9065 Y-19.1736
G01 X9.0034 Y-19.1388
G01 X9.1008 Y-19.0927
G01 X9.1892 Y-19.0399
G01 X9.1972 Y-19.0345
G01 X9.2798 Y-18.9731
G01 X9.3597 Y-18.9007
G01 X9.4290 Y-18.8245
G01 X9.4351 Y-18.8170
G01 X9.4935 Y-18.7382
G01 X9.4989 Y-18.7302
G01 X9.5517 Y-18.6418
G01 X9.5978 Y-18.5444
G01 X9.6342 Y-18.4429
G01 X9.6598 Y-18.3407
G01 X9.6756 Y-18.2365
G01 X9.6765 Y-18.2268
G01 X9.6814 Y-18.1240
G01 X9.6765 Y-18.0212
G01 X9.6759 Y-18.0139
G01 X9.6603 Y-17.9097
G01 X9.6342 Y-17.8051
G01 X9.5978 Y-17.7036
G01 X9.5653 Y-17.6346
G01 X9.7904 Y-17.4096
G01 X9.8199 Y-17.4546
G01 X9.9048 Y-17.6483
G01 X9.9100 Y-17.6586
G01 X9.9139 Y-17.6646
G01 X9.9181 Y-17.6703
G01 X9.9646 Y-17.7256
G01 X9.9730 Y-17.7345
G01 X9.9805 Y-17.7407
G01 X9.9865 Y-17.7450
G01 X9.9949 Y-17.7498
G01 X10.0016 Y-17.7529
G01 X10.0108 Y-17.7563
G01 X10.0822 Y-17.7783
G01 X10.0942 Y-17.7806
G01 X10.1064 Y-17.7814
G01 X10.1186 Y-17.7807
G01 X10.1306 Y-17.7785
G01 X10.2027 Y-17.7585
G01 X10.2096 Y-17.7560
G01 X10.2186 Y-17.7520
G01 X10.2251 Y-17.7484
G01 X10.2332 Y-17.7429
G01 X10.2592 Y-17.7224
G01 X10.2658 Y-17.7163
G01 X12.7458 Y-15.2363
G01 X12.7536 Y-15.2275
G01 X12.7590 Y-15.2199
G01 X12.7626 Y-15.2139
G01 X12.7961 Y-15.1525
G01 X12.8012 Y-15.1416
G01 X12.8043 Y-15.1325
G01 X12.8065 Y-15.1230
G01 X12.8106 Y-15.0869
G01 X12.8109 Y-15.0790
G01 X12.8109 Y-14.5619
G01 X12.8246 Y-14.4360
G01 X12.8757 Y-14.2842
G01 X12.8782 Y-14.2731
G01 X12.8855 Y-14.2267
G01 X12.8859 Y-14.2175
G01 X12.8859 Y-13.7172
G01 X12.8878 Y-13.6942
G01 X12.9273 Y-13.5580
G01 X13.0015 Y-13.4326
G01 X13.0067 Y-13.4254
G01 X13.0105 Y-13.4192
G01 X13.0158 Y-13.4084
G01 X13.0195 Y-13.3975
G01 X13.0377 Y-13.3641
G01 X13.0408 Y-13.3575
G01 X13.0434 Y-13.3508
G01 X13.0460 Y-13.3415
G01 X13.0474 Y-13.3344
G01 X13.0513 Y-13.2980
G01 X13.0514 Y-13.2205
G01 X13.0974 Y-13.1746
G01 X16.1654 Y-13.1746
G01 X16.4593 Y-13.3464
G01 X16.5395 Y-13.4266
G01 X16.5395 Y-15.8740
G01 X16.5408 Y-15.8983
G01 X16.5438 Y-15.9176
G01 X16.5478 Y-15.9342
G01 X16.5498 Y-15.9412
G01 X16.5565 Y-15.9595
G01 X16.5648 Y-15.9772
G01 X16.5683 Y-15.9836
G01 X16.5771 Y-15.9981
G01 X16.5902 Y-16.0158
G01 X16.6050 Y-16.0320
G01 X16.9061 Y-16.3332
G01 X16.9051 Y-16.4321
G01 X16.9051 Y-19.0084
G01 X16.9056 Y-19.0244
G01 X16.9093 Y-19.0702
G01 X16.8992 Y-19.1451
G01 X16.8909 Y-19.2216
G01 X16.8882 Y-19.2330
G01 X16.8605 Y-19.3087
G01 X16.8359 Y-19.3815
G01 X16.8308 Y-19.3922
G01 X16.7875 Y-19.4601
G01 X16.7479 Y-19.5259
G01 X16.7406 Y-19.5352
G01 X16.6837 Y-19.5923
G01 X16.6309 Y-19.6480
G01 X16.6154 Y-19.6609
G01 X16.6103 Y-19.6657
G01 X15.6512 Y-20.6247
G01 X15.6449 Y-20.6317
G01 X15.6393 Y-20.6392
G01 X15.6355 Y-20.6451
G01 X15.5998 Y-20.7106
G01 X15.5967 Y-20.7173
G01 X15.5941 Y-20.7241
G01 X15.5920 Y-20.7312
G01 X15.5900 Y-20.7407
G01 X15.5890 Y-20.7505
G01 X15.5890 Y-20.7602
G01 X15.5941 Y-20.8324
G01 X15.5949 Y-20.8397
G01 X15.5968 Y-20.8493
G01 X15.6005 Y-20.8609
G01 X15.6045 Y-20.8698
G01 X15.6093 Y-20.8783
G01 X15.6554 Y-20.9403
G01 X15.6600 Y-20.9460
G01 X15.6669 Y-20.9531
G01 X15.6725 Y-20.9580
G01 X15.6804 Y-20.9638
G01 X15.6890 Y-20.9687
G01 X15.7355 Y-20.9913
G01 X15.7464 Y-20.9956
G01 X15.9229 Y-21.0430
G01 X16.1214 Y-21.1355
G01 X16.3009 Y-21.2612
G01 X16.4558 Y-21.4161
G01 X16.5821 Y-21.5965
G01 X16.5896 Y-21.6055
G01 X16.5981 Y-21.6136
G01 X16.6584 Y-21.6616
G01 X16.6688 Y-21.6682
G01 X16.6798 Y-21.6733
G01 X16.6914 Y-21.6771
G01 X16.7034 Y-21.6794
G01 X16.7802 Y-21.6873
G01 X16.7925 Y-21.6872
G01 X16.8046 Y-21.6856
G01 X16.8164 Y-21.6825
G01 X16.8255 Y-21.6789
G01 X16.8966 Y-21.6430
G01 X16.9066 Y-21.6365
G01 X16.9157 Y-21.6288
G01 X16.9223 Y-21.6219
G01 X16.9437 Y-21.5967
G01 X17.0702 Y-21.4161
G01 X17.2251 Y-21.2612
G01 X17.4046 Y-21.1356
G01 X17.6031 Y-21.0430
G01 X17.8147 Y-20.9863
G01 X18.0330 Y-20.9672
G01 X18.2512 Y-20.9863
G01 X18.3652 Y-21.0168
G01 X18.3721 Y-21.0182
G01 X18.3814 Y-21.0193
G01 X18.3908 Y-21.0195
G01 X18.4679 Y-21.0174
G01 X18.4776 Y-21.0160
G01 X18.4871 Y-21.0136
G01 X18.4963 Y-21.0102
G01 X18.5051 Y-21.0060
G01 X18.5134 Y-21.0010
G01 X18.5753 Y-20.9590
G01 X18.5810 Y-20.9543
G01 X18.5863 Y-20.9493
G01 X18.5943 Y-20.9401
G01 X18.5999 Y-20.9320
G01 X18.6056 Y-20.9213
G01 X18.6351 Y-20.8525
G01 X18.6375 Y-20.8457
G01 X18.6394 Y-20.8387
G01 X18.6408 Y-20.8315
G01 X18.6417 Y-20.8243
G01 X18.6429 Y-20.8013
G01 X18.6429 Y-19.3541
G01 X18.6425 Y-19.3448
G01 X18.6416 Y-19.3378
G01 X18.6396 Y-19.3287
G01 X18.6186 Y-19.2571
G01 X18.6161 Y-19.2503
G01 X18.6132 Y-19.2437
G01 X18.6098 Y-19.2373
G01 X18.6059 Y-19.2312
G01 X18.6000 Y-19.2236
G01 X18.5935 Y-19.2165
G01 X18.5515 Y-19.1757
G01 X18.5458 Y-19.1709
G01 X18.5396 Y-19.1664
G01 X18.4360 Y-19.0627
G01 X18.3604 Y-18.9377
G01 X18.3165 Y-18.7968
G01 X18.3134 Y-18.7624
G01 X18.6240 Y-18.7624
G01 X18.6281 Y-18.7779
G01 X18.6364 Y-18.8010
G01 X18.6392 Y-18.8076
G01 X18.6510 Y-18.8318
G01 X18.6648 Y-18.8548
G01 X18.6793 Y-18.8745
G01 X18.6855 Y-18.8820
G01 X18.7037 Y-18.9017
G01 X18.7237 Y-18.9197
G01 X18.7432 Y-18.9344
G01 X18.7513 Y-18.9397
G01 X18.7723 Y-18.9522
G01 X18.7944 Y-18.9628
G01 X18.8033 Y-18.9665
G01 X18.8264 Y-18.9746
G01 X18.8524 Y-18.9812
G01 X18.8837 Y-18.9860
G01 X18.9106 Y-18.9874
G01 X19.3154 Y-18.9874
G01 X19.3423 Y-18.9860
G01 X19.3712 Y-18.9817
G01 X19.3996 Y-18.9746
G01 X19.4272 Y-18.9647
G01 X19.4537 Y-18.9522
G01 X19.4788 Y-18.9372
G01 X19.5023 Y-18.9197
G01 X19.5205 Y-18.9034
G01 X19.5257 Y-18.8983
G01 X19.5405 Y-18.8820
G01 X19.5467 Y-18.8745
G01 X19.5625 Y-18.8528
G01 X19.5750 Y-18.8318
G01 X19.5784 Y-18.8254
G01 X19.5887 Y-18.8032
G01 X19.5986 Y-18.7756
G01 X19.6057 Y-18.7472
G01 X19.6100 Y-18.7183
G01 X19.6114 Y-18.6890
G01 X19.6114 Y-18.1390
G01 X19.6100 Y-18.1097
G01 X19.6057 Y-18.0808
G01 X19.5986 Y-18.0524
G01 X19.5905 Y-18.0293
G01 X19.5868 Y-18.0204
G01 X19.5773 Y-18.0005
G01 X19.5738 Y-17.9941
G01 X19.5612 Y-17.9732
G01 X19.5467 Y-17.9535
G01 X19.5405 Y-17.9460
G01 X19.5240 Y-17.9280
G01 X19.5023 Y-17.9083
G01 X19.4788 Y-17.8908
G01 X19.4515 Y-17.8747
G01 X19.4250 Y-17.8624
G01 X19.4019 Y-17.8541
G01 X19.3950 Y-17.8521
G01 X19.3712 Y-17.8463
G01 X19.3470 Y-17.8426
G01 X19.3398 Y-17.8418
G01 X19.3178 Y-17.8407
G01 X18.9130 Y-17.8406
G01 X18.8837 Y-17.8420
G01 X18.8572 Y-17.8458
G01 X18.8310 Y-17.8521
G01 X18.8218 Y-17.8549
G01 X18.7988 Y-17.8633
G01 X18.7723 Y-17.8758
G01 X18.7513 Y-17.8883
G01 X18.7432 Y-17.8936
G01 X18.7237 Y-17.9083
G01 X18.7037 Y-17.9263
G01 X18.6855 Y-17.9460
G01 X18.6793 Y-17.9535
G01 X18.6648 Y-17.9732
G01 X18.6510 Y-17.9962
G01 X18.6392 Y-18.0204
G01 X18.6364 Y-18.0270
G01 X18.6281 Y-18.0501
G01 X18.6240 Y-18.0656
G01 X18.3134 Y-18.0656
G01 X18.3165 Y-18.0312
G01 X18.3604 Y-17.8903
G01 X18.4360 Y-17.7653
G01 X18.5325 Y-17.6688
G01 X18.5388 Y-17.6619
G01 X18.5444 Y-17.6544
G01 X18.5492 Y-17.6464
G01 X18.5827 Y-17.5851
G01 X18.5870 Y-17.5763
G01 X18.5903 Y-17.5671
G01 X18.5928 Y-17.5576
G01 X18.5943 Y-17.5480
G01 X18.5948 Y-17.5382
G01 X18.5895 Y-17.4612
G01 X18.5887 Y-17.4538
G01 X18.5874 Y-17.4466
G01 X18.5855 Y-17.4395
G01 X18.5822 Y-17.4302
G01 X18.5791 Y-17.4235
G01 X18.5742 Y-17.4150
G01 X18.5457 Y-17.3706
G01 X18.5388 Y-17.3612
G01 X18.5325 Y-17.3542
G01 X18.4558 Y-17.2776
G01 X18.3788 Y-17.1528
G01 X18.3325 Y-17.0130
G01 X18.3239 Y-16.9293
G01 X18.3240 Y-16.3427
G01 X18.3325 Y-16.2590
G01 X18.3595 Y-16.1775
G01 X18.3613 Y-16.1707
G01 X18.3626 Y-16.1638
G01 X18.3637 Y-16.1521
G01 X18.3662 Y-16.0774
G01 X18.3652 Y-16.0652
G01 X18.3634 Y-16.0556
G01 X18.3598 Y-16.0440
G01 X18.3558 Y-16.0350
G01 X18.3523 Y-16.0286
G01 X18.3153 Y-15.9665
G01 X18.3098 Y-15.9586
G01 X18.3051 Y-15.9530
G01 X18.3001 Y-15.9478
G01 X18.2928 Y-15.9415
G01 X18.2653 Y-15.9211
G01 X18.1716 Y-15.8655
G01 X18.1644 Y-15.8603
G01 X18.1561 Y-15.8553
G01 X18.1451 Y-15.8503
G01 X18.1344 Y-15.8469
G01 X18.1045 Y-15.8306
G01 X18.0933 Y-15.8257
G01 X18.0863 Y-15.8235
G01 X18.0768 Y-15.8213
G01 X18.0671 Y-15.8200
G01 X18.0573 Y-15.8197
G01 X17.9779 Y-15.8254
G01 X17.9658 Y-15.8276
G01 X17.9540 Y-15.8314
G01 X17.9429 Y-15.8365
G01 X17.9208 Y-15.8504
G01 X17.9120 Y-15.8542
G01 X17.9057 Y-15.8577
G01 X17.8944 Y-15.8655
G01 X17.7690 Y-15.9397
G01 X17.6328 Y-15.9792
G01 X17.6098 Y-15.9811
G01 X17.1861 Y-15.9810
G01 X16.9865 Y-15.7814
G01 X16.9865 Y-13.3340
G01 X16.9854 Y-13.3121
G01 X16.9822 Y-13.2904
G01 X16.9769 Y-13.2691
G01 X16.9704 Y-13.2507
G01 X16.9675 Y-13.2440
G01 X16.9601 Y-13.2286
G01 X16.9514 Y-13.2139
G01 X16.9475 Y-13.2078
G01 X16.9373 Y-13.1941
G01 X16.9210 Y-13.1760
G01 X16.7754 Y-13.0303
G01 X16.5742 Y-12.6863
G01 X16.5635 Y-12.6638
G01 X16.5600 Y-12.6575
G01 X16.5449 Y-12.6324
G01 X16.5229 Y-12.6030
G01 X16.5015 Y-12.5795
G01 X16.4761 Y-12.5565
G01 X16.4487 Y-12.5362
G01 X16.4193 Y-12.5186
G01 X16.3883 Y-12.5039
G01 X16.3562 Y-12.4924
G01 X16.3230 Y-12.4841
G01 X16.2892 Y-12.4791
G01 X16.2550 Y-12.4774
G01 X12.9530 Y-12.4774
G01 X12.9188 Y-12.4791
G01 X12.8850 Y-12.4841
G01 X12.8518 Y-12.4924
G01 X12.8241 Y-12.5022
G01 X12.8152 Y-12.5059
G01 X12.7887 Y-12.5186
G01 X12.7614 Y-12.5348
G01 X12.7357 Y-12.5536
G01 X12.7282 Y-12.5597
G01 X12.7065 Y-12.5795
G01 X12.4176 Y-12.8685
G01 X12.3849 Y-12.8920
G01 X12.2692 Y-12.9449
G01 X12.2157 Y-12.9606
G01 X12.0872 Y-12.9791
G01 X11.8639 Y-12.9791
G01 X11.8568 Y-12.9793
G01 X11.8499 Y-12.9801
G01 X11.8429 Y-12.9813
G01 X11.8361 Y-12.9830
G01 X11.7691 Y-13.0027
G01 X11.7577 Y-13.0068
G01 X11.7491 Y-13.0111
G01 X11.7409 Y-13.0162
G01 X11.7124 Y-13.0388
G01 X11.7066 Y-13.0442
G01 X8.7212 Y-16.0296
G01 X1.1930 Y-16.0305
G01 X1.1813 Y-16.0312
G01 X1.1743 Y-16.0323
G01 X1.1675 Y-16.0339
G01 X1.0935 Y-16.0557
G01 X1.0867 Y-16.0583
G01 X1.0801 Y-16.0615
G01 X1.0737 Y-16.0652
G01 X1.0677 Y-16.0693
G01 X1.0601 Y-16.0755
G01 X1.0532 Y-16.0823
G01 X1.0027 Y-16.1408
G01 X0.9983 Y-16.1468
G01 X0.9933 Y-16.1552
G01 X0.9891 Y-16.1641
G01 X0.9858 Y-16.1734
G01 X0.9723 Y-16.2343
G01 X0.9712 Y-16.2413
G01 X0.9706 Y-16.2506
G01 X0.9706 Y-16.7594
G01 X0.9710 Y-16.7688
G01 X0.9719 Y-16.7758
G01 X0.9739 Y-16.7849
G01 X0.9949 Y-16.8566
G01 X0.9994 Y-16.8679
G01 X1.0052 Y-16.8787
G01 X1.0123 Y-16.8886
G01 X1.0172 Y-16.8941
G01 X1.0224 Y-16.8993
G01 X1.0770 Y-16.9466
G01 X1.0827 Y-16.9512
G01 X1.0888 Y-16.9554
G01 X1.0951 Y-16.9591
G01 X1.1040 Y-16.9633
G01 X1.1132 Y-16.9665
G01 X1.1203 Y-16.9684
G01 X1.1966 Y-16.9796
G01 X1.2060 Y-16.9805
G01 X1.2131 Y-16.9806
G01 X1.2202 Y-16.9802
G01 X1.2272 Y-16.9792
G01 X1.2341 Y-16.9778
G01 X1.2432 Y-16.9751
G01 X1.2768 Y-16.9624
G00 Z2.0000
G00 X0.9979 Y-17.2431
G01 F60.00
G01 Z-0.1500
G01 F240.00
G01 X0.9808 Y-17.2361
G01 X0.9663 Y-17.2293
G01 X0.9663 Y-17.2853
G01 X0.9979 Y-17.2431
G00 Z2.0000
G00 X3.0653 Y-17.6345
G01 F60.00
G01 Z-0.1500
G01 F240.00
G01 X3.0978 Y-17.7036
G01 X3.1326 Y-17.8005
G01 X3.1354 Y-17.8098
G01 X3.1598 Y-17.9073
G01 X3.1612 Y-17.9145
G01 X3.1762 Y-18.0163
G01 X3.1814 Y-18.1240
G01 X3.1762 Y-18.2317
G01 X3.1612 Y-18.3335
G01 X3.1598 Y-18.3407
G01 X3.1354 Y-18.4382
G01 X3.1326 Y-18.4475
G01 X3.0978 Y-18.5444
G01 X3.0653 Y-18.6135
G01 X3.2903 Y-18.8385
G01 X3.3199 Y-18.7933
G01 X3.4132 Y-18.5806
G01 X3.4702 Y-18.3555
G01 X3.4894 Y-18.1240
G01 X3.4702 Y-17.8925
G01 X3.4132 Y-17.6674
G01 X3.3199 Y-17.4546
G01 X3.2903 Y-17.4095
G01 X3.0653 Y-17.6345
G00 Z2.0000
G00 X3.2480 Y-18.5846
G01 F60.00
G01 Z-0.1500
G01 F240.00
G01 X3.2711 Y-18.5319
G01 X3.3221 Y-18.3308
G01 X3.3392 Y-18.1240
G01 X3.3221 Y-17.9172
G01 X3.2711 Y-17.7161
G01 X3.2480 Y-17.6634
G01 X3.2440 Y-17.6675
G01 X3.2735 Y-17.7501
G01 X3.2774 Y-17.7617
G01 X3.2806 Y-17.7734
G01 X3.3044 Y-17.8686
G01 X3.3082 Y-17.8865
G01 X3.3236 Y-17.9896
G01 X3.3251 Y-18.0017
G01 X3.3260 Y-18.0138
G01 X3.3308 Y-18.1118
G01 X3.3311 Y-18.1240
G01 X3.3308 Y-18.1362
G01 X3.3260 Y-18.2342
G01 X3.3251 Y-18.2463
G01 X3.3236 Y-18.2584
G01 X3.3082 Y-18.3615
G01 X3.3044 Y-18.3794
G01 X3.2806 Y-18.4746
G01 X3.2774 Y-18.4863
G01 X3.2735 Y-18.4979
G01 X3.2440 Y-18.5805
G01 X3.2480 Y-18.5846
G00 Z2.0000
G00 X7.3461 Y-18.7934
G01 F60.00
G01 Z-0.1500
G01 F240.00
G01 X7.3757 Y-18.8385
G01 X7.6007 Y-18.6135
G01 X7.5682 Y-18.5444
G01 X7.5334 Y-18.4475
G01 X7.5306 Y-18.4382
G01 X7.5062 Y-18.3407
G01 X7.5048 Y-18.3335
G01 X7.4898 Y-18.2317
G01 X7.4846 Y-18.1240
G01 X7.4898 Y-18.0163
G01 X7.5048 Y-17.9145
G01 X7.5062 Y-17.9073
G01 X7.5306 Y-17.8098
G01 X7.5334 Y-17.8005
G01 X7.5682 Y-17.7036
G01 X7.6007 Y-17.6345
G01 X7.3757 Y-17.4095
G01 X7.3461 Y-17.4546
G01 X7.2528 Y-17.6674
G01 X7.1958 Y-17.8925
G01 X7.1766 Y-18.1240
G01 X7.1958 Y-18.3555
G01 X7.2528 Y-18.5806
G01 X7.3461 Y-18.7934
G00 Z2.0000
G00 X7.4180 Y-18.5846
G01 F60.00
G01 Z-0.1500
G01 F240.00
G01 X7.4220 Y-18.5805
G01 X7.3925 Y-18.4979
G01 X7.3886 Y-18.4863
G01 X7.3854 Y-18.4746
G01 X7.3616 Y-18.3794
G01 X7.3578 Y-18.3615
G01 X7.3424 Y-18.2584
G01 X7.3409 Y-18.2463
G01 X7.3400 Y-18.2342
G01 X7.3352 Y-18.1362
G01 X7.3349 Y-18.1240
G01 X7.3352 Y-18.1118
G01 X7.3400 Y-18.0138
G01 X7.3409 Y-18.0017
G01 X7.3424 Y-17.9896
G01 X7.3578 Y-17.8865
G01 X7.3616 Y-17.8686
G01 X7.3854 Y-17.7734
G01 X7.3886 Y-17.7617
G01 X7.3925 Y-17.7501
G01 X7.4221 Y-17.6675
G01 X7.4180 Y-17.6634
G01 X7.3949 Y-17.7161
G01 X7.3439 Y-17.9172
G01 X7.3268 Y-18.1240
G01 X7.3439 Y-18.3308
G01 X7.3949 Y-18.5319
G01 X7.4180 Y-18.5846
G00 Z2.0000
G00 X7.8687 Y-16.9169
G01 F60.00
G01 Z-0.1500
G01 F240.00
G01 X8.0935 Y-17.1417
G01 X8.1626 Y-17.1092
G01 X8.2595 Y-17.0744
G01 X8.2688 Y-17.0716
G01 X8.3663 Y-17.0472
G01 X8.3735 Y-17.0458
G01 X8.4753 Y-17.0308
G01 X8.5830 Y-17.0256
G01 X8.6907 Y-17.0308
G01 X8.7925 Y-17.0458
G01 X8.7997 Y-17.0472
G01 X8.8972 Y-17.0716
G01 X8.9065 Y-17.0744
G01 X9.0034 Y-17.1092
G01 X9.0724 Y-17.1417
G01 X9.2972 Y-16.9169
G01 X9.1479 Y-16.8361
G01 X8.9282 Y-16.7607
G01 X8.6991 Y-16.7224
G01 X8.4669 Y-16.7224
G01 X8.2378 Y-16.7607
G01 X8.0181 Y-16.8361
G01 X7.8687 Y-16.9169
G00 Z2.0000
G00 X8.1220 Y-16.9586
G01 F60.00
G01 Z-0.1500
G01 F240.00
G01 X8.1265 Y-16.9630
G01 X8.2091 Y-16.9335
G01 X8.2207 Y-16.9296
G01 X8.2324 Y-16.9264
G01 X8.3276 Y-16.9026
G01 X8.3455 Y-16.8988
G01 X8.4486 Y-16.8834
G01 X8.4607 Y-16.8819
G01 X8.4728 Y-16.8810
G01 X8.5708 Y-16.8762
G01 X8.5830 Y-16.8759
G01 X8.5952 Y-16.8762
G01 X8.6932 Y-16.8810
G01 X8.7053 Y-16.8819
G01 X8.7174 Y-16.8834
G01 X8.8205 Y-16.8988
G01 X8.8384 Y-16.9026
G01 X8.9336 Y-16.9264
G01 X8.9453 Y-16.9296
G01 X8.9569 Y-16.9335
G01 X9.0394 Y-16.9630
G01 X9.0438 Y-16.9586
G01 X8.8914 Y-16.9062
G01 X8.6867 Y-16.8721
G01 X8.4793 Y-16.8721
G01 X8.2746 Y-16.9062
G01 X8.1220 Y-16.9586
G00 Z2.0000
G00 X9.2091 Y-15.1184
G01 F60.00
G01 Z-0.1500
G01 F240.00
G01 X10.0758 Y-14.2517
G01 X10.0429 Y-14.2441
G01 X10.0145 Y-14.2357
G01 X9.9868 Y-14.2252
G01 X9.9688 Y-14.2170
G01 X9.9426 Y-14.2032
G01 X9.9175 Y-14.1874
G01 X9.8937 Y-14.1699
G01 X9.8760 Y-14.1549
G01 X9.8664 Y-14.1767
G01 X9.8245 Y-14.2655
G01 X9.8157 Y-14.2829
G01 X9.8061 Y-14.2999
G01 X9.7556 Y-14.3840
G01 X9.7452 Y-14.4005
G01 X9.7339 Y-14.4165
G01 X9.6755 Y-14.4953
G01 X9.6635 Y-14.5107
G01 X9.6507 Y-14.5255
G01 X9.5848 Y-14.5982
G01 X9.5713 Y-14.6123
G01 X9.5572 Y-14.6258
G01 X9.4845 Y-14.6917
G01 X9.4697 Y-14.7045
G01 X9.4543 Y-14.7165
G01 X9.3755 Y-14.7749
G01 X9.3595 Y-14.7862
G01 X9.3430 Y-14.7966
G01 X9.2589 Y-14.8471
G01 X9.2419 Y-14.8567
G01 X9.2245 Y-14.8655
G01 X9.1357 Y-14.9074
G01 X9.1179 Y-14.9153
G01 X9.1049 Y-14.9204
G01 X9.1392 Y-14.9663
G01 X9.1507 Y-14.9824
G01 X9.1613 Y-14.9991
G01 X9.1711 Y-15.0162
G01 X9.1841 Y-15.0428
G01 X9.1952 Y-15.0703
G01 X9.2041 Y-15.0985
G01 X9.2091 Y-15.1184
G00 Z2.0000
G00 X7.8051 Y-12.4627
G01 F60.00
G01 Z-0.1500
G01 F240.00
G01 X7.7169 Y-12.4627
G01 X7.7212 Y-12.4725
G01 X7.7285 Y-12.4909
G01 X7.7360 Y-12.5135
G01 X7.7905 Y-12.4731
G01 X7.8051 Y-12.4627
G00 Z2.0000
G00 X8.9834 Y-11.9976
G01 F60.00
G01 Z-0.1500
G01 F240.00
G01 X8.8980 Y-12.0189
G01 X8.8717 Y-12.0241
G01 X8.7613 Y-12.0406
G01 X8.7347 Y-12.0439
G01 X8.7079 Y-12.0459
G01 X8.5964 Y-12.0512
G01 X8.5696 Y-12.0512
G01 X8.4841 Y-12.0472
G01 X8.4791 Y-12.0811
G01 X8.5561 Y-12.0773
G01 X8.5830 Y-12.0766
G01 X8.6099 Y-12.0773
G01 X8.7213 Y-12.0829
G01 X8.7347 Y-12.0841
G01 X8.7613 Y-12.0874
G01 X8.8717 Y-12.1039
G01 X8.8980 Y-12.1091
G01 X8.9262 Y-12.1160
G01 X8.9369 Y-12.0884
G01 X8.9482 Y-12.0637
G01 X8.9606 Y-12.0395
G01 X8.9834 Y-11.9976
G00 Z2.0000
G00 X9.7655 Y-11.2475
G01 F60.00
G01 Z-0.1500
G01 F240.00
G01 X9.7505 Y-11.2724
G01 X9.7397 Y-11.2886
G01 X9.6755 Y-11.3753
G01 X9.6572 Y-11.3982
G01 X9.5848 Y-11.4782
G01 X9.5713 Y-11.4923
G01 X9.5572 Y-11.5058
G01 X9.4772 Y-11.5782
G01 X9.4543 Y-11.5965
G01 X9.3755 Y-11.6549
G01 X9.3595 Y-11.6662
G01 X9.3430 Y-11.6766
G01 X9.2589 Y-11.7271
G01 X9.2419 Y-11.7367
G01 X9.2245 Y-11.7455
G01 X9.1269 Y-11.7915
G01 X9.0997 Y-11.8024
G01 X9.0073 Y-11.8354
G01 X8.9887 Y-11.8416
G01 X8.9699 Y-11.8468
G01 X8.8747 Y-11.8706
G01 X8.8557 Y-11.8749
G01 X8.8365 Y-11.8782
G01 X8.7297 Y-11.8939
G01 X8.7005 Y-11.8964
G01 X8.6025 Y-11.9013
G01 X8.5732 Y-11.9016
G01 X8.4655 Y-11.8964
G01 X8.4460 Y-11.8950
G01 X8.4266 Y-11.8926
G01 X8.3443 Y-11.8804
G01 X8.3461 Y-11.9011
G01 X8.3467 Y-11.9209
G01 X8.3463 Y-11.9406
G01 X8.3439 Y-11.9702
G01 X8.3327 Y-12.0491
G01 X8.3294 Y-12.0686
G01 X8.3251 Y-12.0879
G01 X8.3170 Y-12.1164
G01 X8.3103 Y-12.1350
G01 X8.2987 Y-12.1622
G01 X8.2898 Y-12.1799
G01 X8.2801 Y-12.1971
G01 X8.2639 Y-12.2219
G01 X8.2521 Y-12.2377
G01 X8.2396 Y-12.2530
G01 X8.2204 Y-12.2752
G01 X8.2913 Y-12.2574
G01 X8.3103 Y-12.2531
G01 X8.3295 Y-12.2498
G01 X8.4363 Y-12.2341
G01 X8.4655 Y-12.2316
G01 X8.5635 Y-12.2267
G01 X8.5928 Y-12.2264
G01 X8.7005 Y-12.2316
G01 X8.7200 Y-12.2330
G01 X8.7394 Y-12.2354
G01 X8.8365 Y-12.2498
G01 X8.8557 Y-12.2531
G01 X8.8747 Y-12.2574
G01 X8.9699 Y-12.2812
G01 X8.9887 Y-12.2864
G01 X9.0007 Y-12.2903
G01 X9.0476 Y-12.2433
G01 X9.0495 Y-12.2318
G01 X9.0534 Y-12.2125
G01 X9.0612 Y-12.1839
G01 X9.0710 Y-12.1559
G01 X9.0787 Y-12.1377
G01 X9.0873 Y-12.1199
G01 X9.1254 Y-12.0499
G01 X9.1399 Y-12.0255
G01 X9.1505 Y-12.0098
G01 X9.1619 Y-11.9946
G01 X9.1739 Y-11.9800
G01 X9.1866 Y-11.9660
G01 X9.5874 Y-11.5651
G01 X9.5951 Y-11.5576
G01 X9.6109 Y-11.5434
G01 X9.6474 Y-11.5140
G01 X9.6632 Y-11.5025
G01 X9.6795 Y-11.4918
G01 X9.7050 Y-11.4773
G01 X9.7314 Y-11.4646
G01 X9.7587 Y-11.4540
G01 X9.7773 Y-11.4481
G01 X9.8231 Y-11.4346
G01 X9.8179 Y-11.4240
G01 X9.8101 Y-11.4059
G01 X9.8000 Y-11.3780
G01 X9.7748 Y-11.2924
G01 X9.7704 Y-11.2740
G01 X9.7655 Y-11.2475
G00 Z2.0000
G00 X7.4180 Y-10.9646
G01 F60.00
G01 Z-0.1500
G01 F240.00
G01 X7.4220 Y-10.9605
G01 X7.3925 Y-10.8779
G01 X7.3886 Y-10.8663
G01 X7.3854 Y-10.8546
G01 X7.3616 Y-10.7594
G01 X7.3578 Y-10.7415
G01 X7.3424 Y-10.6384
G01 X7.3409 Y-10.6263
G01 X7.3400 Y-10.6142
G01 X7.3352 Y-10.5162
G01 X7.3349 Y-10.5040
G01 X7.3352 Y-10.4918
G01 X7.3400 Y-10.3938
G01 X7.3409 Y-10.3817
G01 X7.3424 Y-10.3696
G01 X7.3578 Y-10.2665
G01 X7.3616 Y-10.2486
G01 X7.3854 Y-10.1534
G01 X7.3886 Y-10.1417
G01 X7.3925 Y-10.1301
G01 X7.4221 Y-10.0475
G01 X7.4180 Y-10.0434
G01 X7.3949 Y-10.0961
G01 X7.3439 Y-10.2972
G01 X7.3268 Y-10.5040
G01 X7.3439 Y-10.7108
G01 X7.3949 Y-10.9119
G01 X7.4180 Y-10.9646
G00 Z2.0000
G00 X7.3461 Y-11.1734
G01 F60.00
G01 Z-0.1500
G01 F240.00
G01 X7.3757 Y-11.2185
G01 X7.6007 Y-10.9935
G01 X7.5682 Y-10.9244
G01 X7.5334 Y-10.8275
G01 X7.5306 Y-10.8182
G01 X7.5062 Y-10.7207
G01 X7.5048 Y-10.7135
G01 X7.4898 Y-10.6117
G01 X7.4846 Y-10.5040
G01 X7.4898 Y-10.3963
G01 X7.5048 Y-10.2945
G01 X7.5062 Y-10.2873
G01 X7.5306 Y-10.1898
G01 X7.5334 Y-10.1805
G01 X7.5682 Y-10.0836
G01 X7.6007 Y-10.0145
G01 X7.3757 Y-9.7895
G01 X7.3461 Y-9.8346
G01 X7.2528 Y-10.0474
G01 X7.1958 Y-10.2725
G01 X7.1766 Y-10.5040
G01 X7.1958 Y-10.7355
G01 X7.2528 Y-10.9606
G01 X7.3461 Y-11.1734
G00 Z2.0000
G00 X7.8687 Y-9.2969
G01 F60.00
G01 Z-0.1500
G01 F240.00
G01 X8.0935 Y-9.5217
G01 X8.1626 Y-9.4892
G01 X8.2595 Y-9.4544
G01 X8.2688 Y-9.4516
G01 X8.3663 Y-9.4272
G01 X8.3735 Y-9.4258
G01 X8.4753 Y-9.4108
G01 X8.5830 Y-9.4056
G01 X8.6907 Y-9.4108
G01 X8.7925 Y-9.4258
G01 X8.7997 Y-9.4272
G01 X8.8972 Y-9.4516
G01 X8.9065 Y-9.4544
G01 X9.0034 Y-9.4892
G01 X9.0725 Y-9.5217
G01 X9.2973 Y-9.2969
G01 X9.1479 Y-9.2161
G01 X8.9282 Y-9.1407
G01 X8.6991 Y-9.1024
G01 X8.4669 Y-9.1024
G01 X8.2378 Y-9.1407
G01 X8.0181 Y-9.2161
G01 X7.8687 Y-9.2969
G00 Z2.0000
G00 X8.1220 Y-9.3386
G01 F60.00
G01 Z-0.1500
G01 F240.00
G01 X8.1265 Y-9.3430
G01 X8.2091 Y-9.3135
G01 X8.2207 Y-9.3096
G01 X8.2324 Y-9.3064
G01 X8.3276 Y-9.2826
G01 X8.3455 Y-9.2788
G01 X8.4486 Y-9.2634
G01 X8.4607 Y-9.2619
G01 X8.4728 Y-9.2610
G01 X8.5708 Y-9.2562
G01 X8.5830 Y-9.2559
G01 X8.5952 Y-9.2562
G01 X8.6932 Y-9.2610
G01 X8.7053 Y-9.2619
G01 X8.7174 Y-9.2634
G01 X8.8205 Y-9.2788
G01 X8.8384 Y-9.2826
G01 X8.9336 Y-9.3064
G01 X8.9453 Y-9.3096
G01 X8.9569 Y-9.3135
G01 X9.0395 Y-9.3430
G01 X9.0440 Y-9.3386
G01 X8.8914 Y-9.2862
G01 X8.6867 Y-9.2521
G01 X8.4793 Y-9.2521
G01 X8.2746 Y-9.2862
G01 X8.1220 Y-9.3386
G00 Z2.0000
G00 X8.5815 Y-7.4622
G01 F60.00
G01 Z-0.1500
G01 F240.00
G01 X8.5917 Y-7.4538
G01 X8.5978 Y-7.4497
G01 X8.6042 Y-7.4461
G01 X8.6714 Y-7.4136
G01 X8.6779 Y-7.4109
G01 X8.6845 Y-7.4087
G01 X8.6959 Y-7.4061
G01 X8.9282 Y-7.3673
G01 X9.1479 Y-7.2919
G01 X9.2972 Y-7.2111
G01 X9.0724 Y-6.9863
G01 X9.0034 Y-7.0188
G01 X8.9065 Y-7.0536
G01 X8.8972 Y-7.0564
G01 X8.7997 Y-7.0808
G01 X8.7925 Y-7.0822
G01 X8.6907 Y-7.0972
G01 X8.5830 Y-7.1024
G01 X8.4753 Y-7.0972
G01 X8.3735 Y-7.0822
G01 X8.3663 Y-7.0808
G01 X8.2688 Y-7.0564
G01 X8.2595 Y-7.0536
G01 X8.1626 Y-7.0188
G01 X8.0935 Y-6.9863
G01 X7.8687 Y-7.2111
G01 X8.0181 Y-7.2919
G01 X8.2378 Y-7.3673
G01 X8.4701 Y-7.4061
G01 X8.4974 Y-7.4125
G01 X8.5088 Y-7.4168
G01 X8.5195 Y-7.4224
G01 X8.5815 Y-7.4622
G00 Z2.0000
G00 X8.5865 Y-7.2884
G01 F60.00
G01 Z-0.1500
G01 F240.00
G01 X8.6094 Y-7.2774
G01 X8.6257 Y-7.2706
G01 X8.6425 Y-7.2651
G01 X8.6597 Y-7.2607
G01 X8.6713 Y-7.2585
G01 X8.8914 Y-7.2218
G01 X9.0438 Y-7.1694
G01 X9.0394 Y-7.1650
G01 X8.9569 Y-7.1945
G01 X8.9453 Y-7.1984
G01 X8.9336 Y-7.2016
G01 X8.8384 Y-7.2254
G01 X8.8205 Y-7.2292
G01 X8.7174 Y-7.2446
G01 X8.7053 Y-7.2461
G01 X8.6932 Y-7.2470
G01 X8.5952 Y-7.2518
G01 X8.5830 Y-7.2521
G01 X8.5708 Y-7.2518
G01 X8.4728 Y-7.2470
G01 X8.4607 Y-7.2461
G01 X8.4486 Y-7.2446
G01 X8.3455 Y-7.2292
G01 X8.3276 Y-7.2254
G01 X8.2324 Y-7.2016
G01 X8.2207 Y-7.1984
G01 X8.2091 Y-7.1945
G01 X8.1265 Y-7.1650
G01 X8.1220 Y-7.1694
G01 X8.2746 Y-7.2218
G01 X8.5020 Y-7.2598
G01 X8.5298 Y-7.2662
G01 X8.5474 Y-7.2714
G01 X8.5646 Y-7.2779
G01 X8.5758 Y-7.2829
G01 X8.5865 Y-7.2884
G00 Z2.0000
G00 X7.3461 Y-6.6734
G01 F60.00
G01 Z-0.1500
G01 F240.00
G01 X7.3757 Y-6.7185
G01 X7.6007 Y-6.4935
G01 X7.5682 Y-6.4244
G01 X7.5334 Y-6.3275
G01 X7.5306 Y-6.3182
G01 X7.5062 Y-6.2207
G01 X7.5048 Y-6.2135
G01 X7.4898 Y-6.1117
G01 X7.4846 Y-6.0040
G01 X7.4898 Y-5.8963
G01 X7.5048 Y-5.7945
G01 X7.5062 Y-5.7873
G01 X7.5306 Y-5.6898
G01 X7.5334 Y-5.6805
G01 X7.5682 Y-5.5836
G01 X7.6007 Y-5.5145
G01 X7.3757 Y-5.2895
G01 X7.3461 Y-5.3346
G01 X7.2528 Y-5.5474
G01 X7.1958 Y-5.7725
G01 X7.1766 Y-6.0040
G01 X7.1958 Y-6.2355
G01 X7.2528 Y-6.4606
G01 X7.3461 Y-6.6734
G00 Z2.0000
G00 X7.4180 Y-6.4646
G01 F60.00
G01 Z-0.1500
G01 F240.00
G01 X7.4220 Y-6.4605
G01 X7.3925 Y-6.3779
G01 X7.3886 Y-6.3663
G01 X7.3854 Y-6.3546
G01 X7.3616 Y-6.2594
G01 X7.3578 Y-6.2415
G01 X7.3424 Y-6.1384
G01 X7.3409 Y-6.1263
G01 X7.3400 Y-6.1142
G01 X7.3352 Y-6.0162
G01 X7.3349 Y-6.0040
G01 X7.3352 Y-5.9918
G01 X7.3400 Y-5.8938
G01 X7.3409 Y-5.8817
G01 X7.3424 Y-5.8696
G01 X7.3578 Y-5.7665
G01 X7.3616 Y-5.7486
G01 X7.3854 Y-5.6534
G01 X7.3886 Y-5.6417
G01 X7.3925 Y-5.6301
G01 X7.4221 Y-5.5475
G01 X7.4180 Y-5.5434
G01 X7.3949 Y-5.5961
G01 X7.3439 Y-5.7972
G01 X7.3268 Y-6.0040
G01 X7.3439 Y-6.2108
G01 X7.3949 Y-6.4119
G01 X7.4180 Y-6.4646
G00 Z2.0000
G00 X9.4678 Y-4.5944
G01 F60.00
G01 Z-0.1500
G01 F240.00
G01 X9.4439 Y-4.6526
G01 X9.4359 Y-4.6707
G01 X9.4223 Y-4.6970
G01 X9.4068 Y-4.7222
G01 X9.3954 Y-4.7384
G01 X9.3833 Y-4.7539
G01 X9.3636 Y-4.7761
G01 X9.3424 Y-4.7967
G01 X9.3274 Y-4.8096
G01 X9.3185 Y-4.8166
G01 X9.3514 Y-4.8365
G01 X9.3676 Y-4.8473
G01 X9.4621 Y-4.9174
G01 X9.4845 Y-4.9363
G01 X9.5572 Y-5.0022
G01 X9.5713 Y-5.0157
G01 X9.5848 Y-5.0298
G01 X9.6507 Y-5.1025
G01 X9.6696 Y-5.1249
G01 X9.7397 Y-5.2194
G01 X9.7505 Y-5.2356
G01 X9.7637 Y-5.2575
G01 X9.7809 Y-5.2399
G01 X9.8030 Y-5.2201
G01 X9.8185 Y-5.2079
G01 X9.8744 Y-5.1660
G01 X9.8905 Y-5.1546
G01 X9.9072 Y-5.1440
G01 X9.9331 Y-5.1296
G01 X9.9600 Y-5.1172
G01 X9.9824 Y-5.1087
G01 X9.4678 Y-4.5944
G00 Z2.0000
G00 X10.1939 Y-3.1319
G01 F60.00
G01 Z-0.1500
G01 F240.00
G01 X10.2374 Y-3.1753
G01 X10.2438 Y-3.1601
G01 X10.2532 Y-3.1406
G01 X10.1939 Y-3.1319
G00 Z2.0000
G00 X9.5069 Y-1.6241
G01 F60.00
G01 Z-0.1500
G01 F240.00
G01 X9.5041 Y-1.6333
G01 X9.4828 Y-1.7190
G01 X9.4697 Y-1.8062
G01 X9.4688 Y-1.8159
G01 X9.4646 Y-1.9040
G01 X9.4688 Y-1.9921
G01 X9.4697 Y-2.0018
G01 X9.4828 Y-2.0890
G01 X9.5041 Y-2.1747
G01 X9.5069 Y-2.1839
G01 X9.5367 Y-2.2670
G01 X9.5744 Y-2.3468
G01 X9.5789 Y-2.3553
G01 X9.6244 Y-2.4309
G01 X9.6769 Y-2.5019
G01 X9.6814 Y-2.5075
G01 X9.7423 Y-2.5747
G01 X9.8077 Y-2.6340
G01 X9.8151 Y-2.6401
G01 X9.8861 Y-2.6926
G01 X9.9617 Y-2.7381
G01 X9.9702 Y-2.7426
G01 X10.0500 Y-2.7803
G01 X10.1357 Y-2.8110
G01 X10.2233 Y-2.8332
G01 X10.2327 Y-2.8351
G01 X10.3200 Y-2.8479
G01 X10.4106 Y-2.8524
G01 X10.5011 Y-2.8482
G01 X10.5084 Y-2.8476
G01 X10.5980 Y-2.8342
G01 X10.6584 Y-2.8192
G01 X10.8980 Y-3.0588
G01 X10.8427 Y-3.0846
G01 X10.6698 Y-3.1309
G01 X10.6581 Y-3.1349
G01 X10.6513 Y-3.1381
G01 X10.6447 Y-3.1417
G01 X10.5810 Y-3.1807
G01 X10.5751 Y-3.1851
G01 X10.5677 Y-3.1915
G01 X10.5627 Y-3.1968
G01 X10.5580 Y-3.2025
G01 X10.5538 Y-3.2085
G01 X10.5489 Y-3.2170
G01 X10.5172 Y-3.2820
G01 X10.5143 Y-3.2887
G01 X10.5111 Y-3.2980
G01 X10.5089 Y-3.3075
G01 X10.5077 Y-3.3172
G01 X10.5074 Y-3.3269
G01 X10.5080 Y-3.3367
G01 X10.5167 Y-3.4085
G01 X10.5186 Y-3.4182
G01 X10.5206 Y-3.4253
G01 X10.5252 Y-3.4367
G01 X10.5299 Y-3.4454
G01 X10.5589 Y-3.4884
G01 X10.5645 Y-3.4959
G01 X10.5708 Y-3.5029
G01 X14.1087 Y-7.0408
G01 X14.1205 Y-7.0517
G01 X14.1555 Y-7.0815
G01 X14.2013 Y-7.1417
G01 X14.2494 Y-7.2016
G01 X14.2557 Y-7.2116
G01 X14.2896 Y-7.2847
G01 X14.3237 Y-7.3535
G01 X14.3276 Y-7.3647
G01 X14.3450 Y-7.4433
G01 X14.3636 Y-7.5179
G01 X14.3650 Y-7.5296
G01 X14.3651 Y-7.6101
G01 X14.3672 Y-7.6870
G01 X14.3653 Y-7.7070
G01 X14.3651 Y-7.7140
G01 X14.3651 Y-8.0615
G01 X14.3657 Y-8.0708
G01 X14.3678 Y-8.0823
G01 X14.3844 Y-8.1391
G01 X14.3844 Y-9.6564
G01 X14.3866 Y-9.7004
G01 X14.3926 Y-9.7416
G01 X14.3945 Y-9.7511
G01 X14.4048 Y-9.7915
G01 X14.4187 Y-9.8307
G01 X14.4224 Y-9.8397
G01 X14.4403 Y-9.8773
G01 X14.4596 Y-9.9096
G01 X14.4596 Y-10.4814
G01 X14.4605 Y-10.5009
G01 X14.4613 Y-10.5081
G01 X14.4643 Y-10.5275
G01 X14.4690 Y-10.5465
G01 X14.4718 Y-10.5557
G01 X14.4785 Y-10.5741
G01 X14.4869 Y-10.5921
G01 X14.4913 Y-10.6003
G01 X14.5014 Y-10.6170
G01 X14.5144 Y-10.6347
G01 X14.5290 Y-10.6512
G01 X14.5358 Y-10.6580
G01 X14.5504 Y-10.6711
G01 X14.5660 Y-10.6828
G01 X14.5741 Y-10.6882
G01 X14.5909 Y-10.6981
G01 X14.6085 Y-10.7066
G01 X14.6174 Y-10.7103
G01 X14.6359 Y-10.7168
G01 X14.6595 Y-10.7227
G01 X14.6836 Y-10.7263
G01 X14.7080 Y-10.7274
G01 X15.0080 Y-10.7274
G01 X15.0299 Y-10.7265
G01 X15.0565 Y-10.7227
G01 X15.0755 Y-10.7180
G01 X15.0847 Y-10.7152
G01 X15.1031 Y-10.7085
G01 X15.1211 Y-10.7001
G01 X15.1273 Y-10.6969
G01 X15.1440 Y-10.6869
G01 X15.1656 Y-10.6711
G01 X15.1837 Y-10.6547
G01 X15.2001 Y-10.6366
G01 X15.2146 Y-10.6170
G01 X15.2271 Y-10.5961
G01 X15.2375 Y-10.5741
G01 X15.2458 Y-10.5511
G01 X15.2521 Y-10.5251
G01 X15.2553 Y-10.5034
G01 X15.2564 Y-10.4790
G01 X15.2564 Y-9.9096
G01 X15.2757 Y-9.8773
G01 X15.2936 Y-9.8397
G01 X15.2973 Y-9.8307
G01 X15.3112 Y-9.7915
G01 X15.3215 Y-9.7511
G01 X15.3234 Y-9.7416
G01 X15.3294 Y-9.7004
G01 X15.3316 Y-9.6564
G01 X15.3316 Y-8.1372
G01 X15.3479 Y-8.0879
G01 X15.3494 Y-8.0806
G01 X15.3504 Y-8.0731
G01 X15.3509 Y-8.0591
G01 X15.3509 Y-5.4930
G01 X15.3507 Y-5.4860
G01 X15.3499 Y-5.4790
G01 X15.3487 Y-5.4721
G01 X15.3470 Y-5.4653
G01 X15.3258 Y-5.3936
G01 X15.3211 Y-5.3825
G01 X15.3165 Y-5.3740
G01 X15.3095 Y-5.3642
G01 X15.2912 Y-5.3415
G01 X15.2858 Y-5.3357
G01 X13.6825 Y-3.7324
G01 X13.6754 Y-3.7260
G01 X13.6410 Y-3.7003
G01 X13.6309 Y-3.6940
G01 X12.4447 Y-3.0531
G01 X12.4016 Y-3.0285
G01 X12.3246 Y-2.9924
G01 X12.1451 Y-2.8668
G01 X11.9902 Y-2.7119
G01 X11.8635 Y-2.5310
G01 X11.8561 Y-2.5220
G01 X11.8476 Y-2.5140
G01 X11.7912 Y-2.4689
G01 X11.7853 Y-2.4645
G01 X11.7791 Y-2.4606
G01 X11.7726 Y-2.4572
G01 X11.7659 Y-2.4542
G01 X11.7590 Y-2.4518
G01 X11.7495 Y-2.4493
G01 X11.7423 Y-2.4481
G01 X11.6703 Y-2.4407
G01 X11.6630 Y-2.4402
G01 X11.6532 Y-2.4404
G01 X11.6435 Y-2.4416
G01 X11.6340 Y-2.4437
G01 X11.6253 Y-2.4465
G01 X11.3282 Y-2.1494
G01 X11.3432 Y-2.0890
G01 X11.3563 Y-2.0018
G01 X11.3571 Y-1.9946
G01 X11.3614 Y-1.9040
G01 X11.3571 Y-1.8134
G01 X11.3441 Y-1.7237
G01 X11.3422 Y-1.7143
G01 X11.3206 Y-1.6287
G01 X11.2902 Y-1.5433
G01 X11.2873 Y-1.5366
G01 X11.2495 Y-1.4569
G01 X11.2016 Y-1.3771
G01 X11.1462 Y-1.3023
G01 X11.0837 Y-1.2333
