(G-CODE GENERATED BY FLATCAM v8.994 - www.flatcam.org - Version Date: 2020/11/7)

(Name: ch552g_bob-PTH.drl_edit_cnc)
(Type: G-code from Geometry)
(Units: MM)

(Created on Friday, 01 March 2024 at 18:38)

(This preprocessor is the default preprocessor used by FlatCAM.)
(It is made to work with MACH3 compatible motion controllers.)


(TOOLS DIAMETER: )
(Tool: 1 -> Dia: 1.0)

(FEEDRATE Z: )
(Tool: 1 -> Feedrate: 300)

(FEEDRATE RAPIDS: )
(Tool: 1 -> Feedrate Rapids: 1500)

(Z_CUT: )
(Tool: 1 -> Z_Cut: -1.86)

(Tools Offset: )
(Tool: 1 -> Offset Z: 0.0)

(Z_MOVE: )
(Tool: 1 -> Z_Move: 2.0)

(Z Toolchange: 45.0 mm)
(X,Y Toolchange: 0.0000, 0.0000 mm)
(Z Start: None mm)
(Z End: 45.0 mm)
(X,Y End: None mm)
(Steps per circle: 64)
(Preprocessor Excellon: default)

(X range:    9.4060 ...   33.9772  mm)
(Y range:  -22.7250 ...   -1.4050  mm)

(Spindle Speed: 7200 RPM)
G21
G90
G94

G01 F300.00

M5
G00 Z45.0000
T1
G00 X0.0000 Y0.0000                
M6
(MSG, Change to Tool Dia = 1.0000 ||| Total drills for tool T1 = 24)
M0
G00 Z45.0000

G01 F300.00
M03 S7200
G00 X26.9773 Y-18.1254
G01 Z-1.8600
G01 Z0
G00 Z2.0000
G00 X27.6860 Y-22.2250
G01 Z-1.8600
G01 Z0
G00 Z2.0000
G00 X25.1460 Y-22.2250
G01 Z-1.8600
G01 Z0
G00 Z2.0000
G00 X22.6060 Y-22.2250
G01 Z-1.8600
G01 Z0
G00 Z2.0000
G00 X20.0660 Y-22.2250
G01 Z-1.8600
G01 Z0
G00 Z2.0000
G00 X17.5260 Y-22.2250
G01 Z-1.8600
G01 Z0
G00 Z2.0000
G00 X14.9860 Y-22.2250
G01 Z-1.8600
G01 Z0
G00 Z2.0000
G00 X12.4460 Y-22.2250
G01 Z-1.8600
G01 Z0
G00 Z2.0000
G00 X9.9060 Y-22.2250
G01 Z-1.8600
G01 Z0
G00 Z2.0000
G00 X9.9060 Y-1.9050
G01 Z-1.8600
G01 Z0
G00 Z2.0000
G00 X12.4460 Y-1.9050
G01 Z-1.8600
G01 Z0
G00 Z2.0000
G00 X14.9860 Y-1.9050
G01 Z-1.8600
G01 Z0
G00 Z2.0000
G00 X17.5260 Y-1.9050
G01 Z-1.8600
G01 Z0
G00 Z2.0000
G00 X20.0660 Y-1.9050
G01 Z-1.8600
G01 Z0
G00 Z2.0000
G00 X22.6060 Y-1.9050
G01 Z-1.8600
G01 Z0
G00 Z2.0000
G00 X25.1460 Y-1.9050
G01 Z-1.8600
G01 Z0
G00 Z2.0000
G00 X27.6860 Y-1.9050
G01 Z-1.8600
G01 Z0
G00 Z2.0000
G00 X26.9773 Y-6.0071
G01 Z-1.8600
G01 Z0
G00 Z2.0000
G00 X26.9773 Y-10.5054
G01 Z-1.8600
G01 Z0
G00 Z2.0000
G00 X33.4772 Y-6.0071
G01 Z-1.8600
G01 Z0
G00 Z2.0000
G00 X33.4772 Y-10.5054
G01 Z-1.8600
G01 Z0
G00 Z2.0000
G00 X33.4772 Y-13.6271
G01 Z-1.8600
G01 Z0
G00 Z2.0000
G00 X33.4772 Y-18.1254
G01 Z-1.8600
G01 Z0
G00 Z2.0000
G00 X26.9773 Y-13.6271
G01 Z-1.8600
G01 Z0
G00 Z2.0000
M05
G00 Z45.00


M30
