(G-CODE GENERATED BY FLATCAM v8.994 - www.flatcam.org - Version Date: 2020/11/7)

(Name: ch552g_bob-B_Cu.gbr_iso_combined_cnc)
(Type: G-code from Geometry)
(Units: MM)

(Created on Friday, 01 March 2024 at 18:42)

(This preprocessor is the default preprocessor used by FlatCAM.)
(It is made to work with MACH3 compatible motion controllers.)

(TOOL DIAMETER: 0.1969 mm)
(Feedrate_XY: 240.0 mm/min)
(Feedrate_Z: 60.0 mm/min)
(Feedrate rapids 1500.0 mm/min)

(Z_Cut: -0.15 mm)
(Z_Move: 2.0 mm)
(Z Start: None mm)
(Z End: 45.0 mm)
(X,Y End: None mm)
(Steps per circle: 64)
(Preprocessor Geometry: default)

(X range:   -0.5469 ...   36.1069  mm)
(Y range:  -24.6769 ...    0.5469  mm)

(Spindle Speed: 12000.0 RPM)
G21
G90
G94

G01 F240.00

M5
G00 Z15.0000
G00 X0.0000 Y0.0000
T2
M6    
(MSG, Change to Tool Dia = 0.1969)
M0
G00 Z15.0000

M03 S12000.0
G01 F240.00
G00 X-0.0979 Y-4.7377
G01 F60.00
G01 Z-0.1500
G01 F240.00
G01 X-0.0973 Y-4.7494
G01 X-0.0962 Y-4.7564
G01 X-0.0946 Y-4.7632
G01 X-0.0743 Y-4.8325
G01 X-0.0720 Y-4.8395
G01 X-0.0669 Y-4.8506
G01 X-0.0606 Y-4.8610
G01 X-0.0546 Y-4.8688
G01 X-0.0461 Y-4.8775
G01 X0.0123 Y-4.9280
G01 X0.0182 Y-4.9323
G01 X0.0245 Y-4.9362
G01 X0.0355 Y-4.9415
G01 X0.0470 Y-4.9455
G01 X0.0590 Y-4.9480
G01 X0.1306 Y-4.9582
G01 X0.1403 Y-4.9589
G01 X0.1501 Y-4.9586
G01 X0.1574 Y-4.9577
G01 X0.1669 Y-4.9557
G01 X0.1740 Y-4.9536
G01 X0.1808 Y-4.9510
G01 X0.2509 Y-4.9189
G01 X0.2612 Y-4.9128
G01 X0.2706 Y-4.9054
G01 X0.2791 Y-4.8970
G01 X0.3097 Y-4.8607
G01 X0.3138 Y-4.8545
G01 X0.3424 Y-4.8081
G01 X0.4501 Y-4.7004
G01 X0.5798 Y-4.6205
G01 X0.7250 Y-4.5723
G01 X0.8120 Y-4.5635
G01 X1.9586 Y-4.5634
G01 X1.9586 Y-4.8666
G01 X0.8570 Y-4.8666
G01 X0.8228 Y-4.8682
G01 X0.7890 Y-4.8732
G01 X0.7559 Y-4.8816
G01 X0.7237 Y-4.8931
G01 X0.6927 Y-4.9077
G01 X0.6634 Y-4.9253
G01 X0.6359 Y-4.9456
G01 X0.6106 Y-4.9686
G01 X0.5892 Y-4.9921
G01 X0.5701 Y-5.0175
G01 X0.5647 Y-5.0255
G01 X0.5497 Y-5.0507
G01 X0.5351 Y-5.0817
G01 X0.5236 Y-5.1139
G01 X0.5163 Y-5.1423
G01 X0.5144 Y-5.1518
G01 X0.5100 Y-5.1833
G01 X0.5086 Y-5.2150
G01 X0.5086 Y-6.2150
G01 X0.5102 Y-6.2492
G01 X0.5144 Y-6.2782
G01 X0.5157 Y-6.2853
G01 X0.5223 Y-6.3115
G01 X0.5251 Y-6.3207
G01 X0.5351 Y-6.3483
G01 X0.5497 Y-6.3793
G01 X0.5673 Y-6.4086
G01 X0.5876 Y-6.4361
G01 X0.6106 Y-6.4614
G01 X0.6323 Y-6.4812
G01 X0.6398 Y-6.4873
G01 X0.6614 Y-6.5034
G01 X0.6675 Y-6.5073
G01 X0.6927 Y-6.5223
G01 X0.7237 Y-6.5369
G01 X0.7559 Y-6.5484
G01 X0.7843 Y-6.5557
G01 X0.7938 Y-6.5576
G01 X0.8228 Y-6.5618
G01 X0.8570 Y-6.5634
G01 X1.9586 Y-6.5634
G01 X1.9586 Y-6.8666
G01 X0.8120 Y-6.8666
G01 X0.7250 Y-6.8577
G01 X0.5798 Y-6.8095
G01 X0.4501 Y-6.7296
G01 X0.3424 Y-6.6219
G01 X0.3126 Y-6.5735
G01 X0.3071 Y-6.5659
G01 X0.3025 Y-6.5606
G01 X0.2959 Y-6.5540
G01 X0.2383 Y-6.5026
G01 X0.2303 Y-6.4970
G01 X0.2217 Y-6.4922
G01 X0.2128 Y-6.4883
G01 X0.2035 Y-6.4853
G01 X0.1939 Y-6.4833
G01 X0.1177 Y-6.4712
G01 X0.1079 Y-6.4708
G01 X0.0957 Y-6.4717
G01 X0.0837 Y-6.4741
G01 X0.0721 Y-6.4780
G01 X0.0014 Y-6.5088
G01 X-0.0051 Y-6.5123
G01 X-0.0112 Y-6.5163
G01 X-0.0190 Y-6.5223
G01 X-0.0244 Y-6.5273
G01 X-0.0309 Y-6.5345
G01 X-0.0368 Y-6.5423
G01 X-0.0769 Y-6.6024
G01 X-0.0827 Y-6.6129
G01 X-0.0872 Y-6.6240
G01 X-0.0903 Y-6.6355
G01 X-0.0974 Y-6.6823
G01 X-0.0979 Y-6.6923
G01 X-0.0979 Y-17.4377
G01 X-0.0975 Y-17.4471
G01 X-0.0962 Y-17.4564
G01 X-0.0940 Y-17.4655
G01 X-0.0736 Y-17.5348
G01 X-0.0691 Y-17.5462
G01 X-0.0633 Y-17.5570
G01 X-0.0562 Y-17.5669
G01 X-0.0479 Y-17.5759
G01 X0.0104 Y-17.6265
G01 X0.0203 Y-17.6337
G01 X0.0310 Y-17.6396
G01 X0.0423 Y-17.6441
G01 X0.0518 Y-17.6467
G01 X0.0590 Y-17.6480
G01 X0.1306 Y-17.6582
G01 X0.1403 Y-17.6589
G01 X0.1525 Y-17.6584
G01 X0.1622 Y-17.6569
G01 X0.1693 Y-17.6551
G01 X0.1763 Y-17.6528
G01 X0.1830 Y-17.6500
G01 X0.2509 Y-17.6189
G01 X0.2612 Y-17.6128
G01 X0.2706 Y-17.6054
G01 X0.2791 Y-17.5970
G01 X0.3097 Y-17.5607
G01 X0.3138 Y-17.5545
G01 X0.3424 Y-17.5081
G01 X0.4501 Y-17.4004
G01 X0.5798 Y-17.3205
G01 X0.7250 Y-17.2723
G01 X0.8120 Y-17.2635
G01 X1.9586 Y-17.2634
G01 X1.9586 Y-17.5666
G01 X0.8570 Y-17.5666
G01 X0.8228 Y-17.5682
G01 X0.7890 Y-17.5732
G01 X0.7559 Y-17.5816
G01 X0.7237 Y-17.5931
G01 X0.6927 Y-17.6077
G01 X0.6634 Y-17.6253
G01 X0.6359 Y-17.6456
G01 X0.6106 Y-17.6686
G01 X0.5892 Y-17.6921
G01 X0.5701 Y-17.7175
G01 X0.5647 Y-17.7255
G01 X0.5497 Y-17.7507
G01 X0.5351 Y-17.7817
G01 X0.5236 Y-17.8139
G01 X0.5163 Y-17.8423
G01 X0.5144 Y-17.8518
G01 X0.5100 Y-17.8833
G01 X0.5086 Y-17.9150
G01 X0.5086 Y-18.9150
G01 X0.5102 Y-18.9492
G01 X0.5144 Y-18.9782
G01 X0.5157 Y-18.9853
G01 X0.5223 Y-19.0115
G01 X0.5251 Y-19.0207
G01 X0.5351 Y-19.0483
G01 X0.5497 Y-19.0793
G01 X0.5673 Y-19.1086
G01 X0.5876 Y-19.1361
G01 X0.6106 Y-19.1614
G01 X0.6323 Y-19.1812
G01 X0.6398 Y-19.1873
G01 X0.6614 Y-19.2034
G01 X0.6675 Y-19.2073
G01 X0.6927 Y-19.2223
G01 X0.7237 Y-19.2369
G01 X0.7559 Y-19.2484
G01 X0.7843 Y-19.2557
G01 X0.7938 Y-19.2576
G01 X0.8228 Y-19.2618
G01 X0.8570 Y-19.2634
G01 X1.9586 Y-19.2634
G01 X1.9586 Y-19.5666
G01 X0.8120 Y-19.5666
G01 X0.7250 Y-19.5577
G01 X0.5798 Y-19.5095
G01 X0.4501 Y-19.4296
G01 X0.3424 Y-19.3219
G01 X0.3126 Y-19.2735
G01 X0.3071 Y-19.2659
G01 X0.3025 Y-19.2606
G01 X0.2959 Y-19.2540
G01 X0.2383 Y-19.2026
G01 X0.2303 Y-19.1970
G01 X0.2217 Y-19.1922
G01 X0.2128 Y-19.1883
G01 X0.2035 Y-19.1853
G01 X0.1939 Y-19.1833
G01 X0.1201 Y-19.1714
G01 X0.1079 Y-19.1708
G01 X0.0981 Y-19.1714
G01 X0.0861 Y-19.1735
G01 X0.0767 Y-19.1763
G01 X0.0699 Y-19.1789
G01 X0.0036 Y-19.2078
G01 X-0.0051 Y-19.2123
G01 X-0.0132 Y-19.2177
G01 X-0.0190 Y-19.2223
G01 X-0.0244 Y-19.2273
G01 X-0.0294 Y-19.2326
G01 X-0.0354 Y-19.2403
G01 X-0.0782 Y-19.3044
G01 X-0.0837 Y-19.3150
G01 X-0.0879 Y-19.3262
G01 X-0.0907 Y-19.3379
G01 X-0.0968 Y-19.3774
G01 X-0.0977 Y-19.3848
G01 X-0.0979 Y-19.3923
G01 X-0.0979 Y-24.0055
G01 X-0.0973 Y-24.0172
G01 X-0.0962 Y-24.0241
G01 X-0.0946 Y-24.0310
G01 X-0.0743 Y-24.1003
G01 X-0.0701 Y-24.1118
G01 X-0.0658 Y-24.1205
G01 X-0.0606 Y-24.1288
G01 X-0.0546 Y-24.1365
G01 X-0.0461 Y-24.1453
G01 X0.0104 Y-24.1943
G01 X0.0183 Y-24.2002
G01 X0.0289 Y-24.2063
G01 X0.0402 Y-24.2111
G01 X0.0497 Y-24.2139
G01 X0.1059 Y-24.2262
G01 X0.1128 Y-24.2273
G01 X0.1198 Y-24.2278
G01 X5.0119 Y-24.2279
G01 X5.0189 Y-24.2277
G01 X5.0259 Y-24.2269
G01 X5.0373 Y-24.2246
G01 X5.1113 Y-24.2028
G01 X5.1181 Y-24.2001
G01 X5.1247 Y-24.1969
G01 X5.1352 Y-24.1906
G01 X5.1447 Y-24.1830
G01 X5.1517 Y-24.1761
G01 X5.2006 Y-24.1196
G01 X5.2050 Y-24.1139
G01 X5.2089 Y-24.1079
G01 X5.2145 Y-24.0972
G01 X5.2187 Y-24.0860
G01 X5.2309 Y-24.0387
G01 X5.2329 Y-24.0289
G01 X5.2337 Y-24.0214
G01 X5.2429 Y-23.8928
G01 X5.2858 Y-23.7779
G01 X5.3125 Y-23.7289
G01 X5.3903 Y-23.6250
G01 X8.0626 Y-20.9527
G01 X8.0807 Y-20.9362
G01 X8.1891 Y-20.8665
G01 X8.2399 Y-20.8433
G01 X8.3388 Y-20.8142
G01 X8.3455 Y-20.8120
G01 X8.3520 Y-20.8093
G01 X8.3583 Y-20.8062
G01 X8.3643 Y-20.8026
G01 X8.4252 Y-20.7635
G01 X8.4330 Y-20.7576
G01 X8.4401 Y-20.7509
G01 X8.4451 Y-20.7455
G01 X8.4496 Y-20.7398
G01 X8.4561 Y-20.7294
G01 X8.4766 Y-20.6852
G01 X8.4822 Y-20.6769
G01 X8.4876 Y-20.6661
G01 X8.4911 Y-20.6571
G01 X8.4940 Y-20.6460
G01 X8.5393 Y-20.5244
G01 X8.5660 Y-20.4754
G01 X8.6438 Y-20.3715
G01 X11.8484 Y-17.1669
G01 X11.8560 Y-17.1579
G01 X11.8624 Y-17.1482
G01 X11.8971 Y-17.0848
G01 X11.9003 Y-17.0783
G01 X11.9031 Y-17.0716
G01 X11.9053 Y-17.0647
G01 X11.9070 Y-17.0577
G01 X11.9086 Y-17.0481
G01 X11.9119 Y-17.0139
G01 X11.9119 Y-16.8519
G01 X11.9109 Y-16.8402
G01 X11.9086 Y-16.8287
G01 X11.8883 Y-16.7595
G01 X11.8860 Y-16.7525
G01 X11.8831 Y-16.7457
G01 X11.8773 Y-16.7350
G01 X11.8732 Y-16.7289
G01 X11.8686 Y-16.7232
G01 X11.8636 Y-16.7178
G01 X11.8583 Y-16.7128
G01 X11.8036 Y-16.6655
G01 X11.7937 Y-16.6583
G01 X11.7852 Y-16.6535
G01 X11.7785 Y-16.6504
G01 X11.7717 Y-16.6479
G01 X11.7646 Y-16.6459
G01 X11.7574 Y-16.6444
G01 X11.6834 Y-16.6337
G01 X11.6737 Y-16.6331
G01 X11.6639 Y-16.6334
G01 X11.6566 Y-16.6342
G01 X11.6494 Y-16.6356
G01 X11.6424 Y-16.6376
G01 X11.6355 Y-16.6400
G01 X11.5674 Y-16.6710
G01 X11.5609 Y-16.6742
G01 X11.5526 Y-16.6793
G01 X11.5467 Y-16.6837
G01 X11.5322 Y-16.6969
G01 X10.6603 Y-17.5689
G01 X10.6436 Y-17.5877
G01 X10.6375 Y-17.5955
G01 X10.6318 Y-17.6004
G01 X10.6155 Y-17.6163
G01 X10.5974 Y-17.6364
G01 X10.5491 Y-17.6704
G01 X10.5338 Y-17.6826
G01 X10.5163 Y-17.6972
G01 X10.5057 Y-17.7047
G01 X10.4983 Y-17.7086
G01 X10.4777 Y-17.7205
G01 X10.4726 Y-17.7238
G01 X10.4178 Y-17.7458
G01 X10.4020 Y-17.7531
G01 X10.3794 Y-17.7645
G01 X10.3678 Y-17.7691
G01 X10.3594 Y-17.7712
G01 X10.3367 Y-17.7780
G01 X10.3309 Y-17.7801
G01 X10.2725 Y-17.7888
G01 X10.2602 Y-17.7914
G01 X10.2306 Y-17.7984
G01 X10.2189 Y-17.8000
G01 X10.2099 Y-17.8001
G01 X10.1862 Y-17.8015
G01 X10.1801 Y-17.8022
G01 X10.1281 Y-17.7977
G01 X10.1141 Y-17.7971
G01 X6.2867 Y-17.7971
G01 X6.2592 Y-17.7988
G01 X6.2421 Y-17.8012
G01 X6.1994 Y-17.7975
G01 X6.1850 Y-17.7971
G01 X6.1553 Y-17.7936
G01 X6.0834 Y-17.7872
G01 X6.0770 Y-17.7858
G01 X6.0102 Y-17.7615
G01 X5.9401 Y-17.7382
G01 X5.9332 Y-17.7348
G01 X5.8738 Y-17.6958
G01 X5.8109 Y-17.6569
G01 X5.8050 Y-17.6521
G01 X5.7542 Y-17.5984
G01 X5.0450 Y-16.8891
G01 X5.0243 Y-16.8709
G01 X5.0105 Y-16.8605
G01 X4.9829 Y-16.8277
G01 X4.9731 Y-16.8172
G01 X4.9545 Y-16.7938
G01 X4.9088 Y-16.7393
G01 X4.9060 Y-16.7350
G01 X4.9047 Y-16.7329
G01 X4.8734 Y-16.6659
G01 X4.8415 Y-16.6024
G01 X4.8390 Y-16.5951
G01 X4.8246 Y-16.5255
G01 X4.8076 Y-16.4536
G01 X4.8068 Y-16.4460
G01 X4.8089 Y-16.3721
G01 X4.8089 Y-14.7127
G01 X4.8072 Y-14.6852
G01 X4.8048 Y-14.6681
G01 X4.8085 Y-14.6254
G01 X4.8089 Y-14.6110
G01 X4.8124 Y-14.5813
G01 X4.8186 Y-14.5105
G01 X4.8196 Y-14.5054
G01 X4.8202 Y-14.5030
G01 X4.8455 Y-14.4335
G01 X4.8678 Y-14.3661
G01 X4.8712 Y-14.3592
G01 X4.9118 Y-14.2974
G01 X4.9491 Y-14.2369
G01 X4.9539 Y-14.2310
G01 X5.0076 Y-14.1802
G01 X5.5389 Y-13.6490
G01 X5.5571 Y-13.6283
G01 X5.5675 Y-13.6145
G01 X5.6003 Y-13.5869
G01 X5.6108 Y-13.5771
G01 X5.6342 Y-13.5585
G01 X5.6887 Y-13.5128
G01 X5.6930 Y-13.5100
G01 X5.6951 Y-13.5087
G01 X5.7621 Y-13.4774
G01 X5.8256 Y-13.4455
G01 X5.8329 Y-13.4430
G01 X5.9053 Y-13.4280
G01 X5.9812 Y-13.4102
G01 X5.9935 Y-13.4068
G01 X6.0041 Y-13.4029
G01 X6.0625 Y-13.3771
G01 X6.0733 Y-13.3715
G01 X6.0794 Y-13.3675
G01 X6.0852 Y-13.3631
G01 X6.0996 Y-13.3502
G01 X6.1498 Y-13.3000
G01 X6.2264 Y-13.2528
G01 X6.2321 Y-13.2487
G01 X6.2376 Y-13.2443
G01 X6.2459 Y-13.2361
G01 X6.2943 Y-13.1823
G01 X6.3016 Y-13.1725
G01 X6.3066 Y-13.1641
G01 X6.3097 Y-13.1575
G01 X6.3124 Y-13.1507
G01 X6.3146 Y-13.1437
G01 X6.3162 Y-13.1365
G01 X6.3282 Y-13.0627
G01 X6.3290 Y-13.0530
G01 X6.3289 Y-13.0432
G01 X6.3282 Y-13.0359
G01 X6.3269 Y-13.0287
G01 X6.3251 Y-13.0216
G01 X6.3228 Y-13.0146
G01 X6.2931 Y-12.9460
G01 X6.2899 Y-12.9394
G01 X6.2863 Y-12.9331
G01 X6.2822 Y-12.9270
G01 X6.2776 Y-12.9212
G01 X6.2727 Y-12.9159
G01 X6.2337 Y-12.8819
G01 X6.2244 Y-12.8754
G01 X6.1501 Y-12.8296
G01 X6.0424 Y-12.7219
G01 X5.9625 Y-12.5922
G01 X5.9143 Y-12.4470
G01 X5.9109 Y-12.4134
G01 X6.2228 Y-12.4134
G01 X6.2333 Y-12.4438
G01 X6.2370 Y-12.4528
G01 X6.2497 Y-12.4793
G01 X6.2673 Y-12.5086
G01 X6.2876 Y-12.5361
G01 X6.3073 Y-12.5579
G01 X6.3141 Y-12.5647
G01 X6.3341 Y-12.5828
G01 X6.3398 Y-12.5873
G01 X6.3634 Y-12.6047
G01 X6.3927 Y-12.6223
G01 X6.4237 Y-12.6369
G01 X6.4513 Y-12.6469
G01 X6.4582 Y-12.6491
G01 X6.4843 Y-12.6557
G01 X6.4938 Y-12.6576
G01 X6.5228 Y-12.6618
G01 X6.5570 Y-12.6634
G01 X9.5570 Y-12.6634
G01 X9.5887 Y-12.6620
G01 X9.6202 Y-12.6576
G01 X9.6297 Y-12.6557
G01 X9.6581 Y-12.6484
G01 X9.6903 Y-12.6369
G01 X9.7213 Y-12.6223
G01 X9.7465 Y-12.6073
G01 X9.7545 Y-12.6019
G01 X9.7781 Y-12.5844
G01 X9.7999 Y-12.5647
G01 X9.8067 Y-12.5579
G01 X9.8264 Y-12.5361
G01 X9.8467 Y-12.5086
G01 X9.8643 Y-12.4793
G01 X9.8770 Y-12.4528
G01 X9.8807 Y-12.4438
G01 X9.8909 Y-12.4146
G01 X10.2030 Y-12.4144
G01 X10.1997 Y-12.4470
G01 X10.1515 Y-12.5922
G01 X10.0716 Y-12.7219
G01 X9.9639 Y-12.8296
G01 X9.8876 Y-12.8766
G01 X9.8800 Y-12.8821
G01 X9.8747 Y-12.8867
G01 X9.8681 Y-12.8933
G01 X9.8214 Y-12.9453
G01 X9.8152 Y-12.9529
G01 X9.8098 Y-12.9610
G01 X9.8043 Y-12.9719
G01 X9.8008 Y-12.9811
G01 X9.7983 Y-12.9905
G01 X9.7855 Y-13.0691
G01 X9.7849 Y-13.0813
G01 X9.7858 Y-13.0935
G01 X9.7871 Y-13.1007
G01 X9.7889 Y-13.1078
G01 X9.7930 Y-13.1193
G01 X9.8229 Y-13.1878
G01 X9.8290 Y-13.1984
G01 X9.8348 Y-13.2063
G01 X9.8396 Y-13.2118
G01 X9.8449 Y-13.2169
G01 X9.8768 Y-13.2446
G01 X9.8839 Y-13.2503
G01 X9.9642 Y-13.3000
G01 X10.0720 Y-13.4078
G01 X10.1520 Y-13.5376
G01 X10.2002 Y-13.6829
G01 X10.2091 Y-13.7700
G01 X10.2093 Y-14.1218
G01 X10.2104 Y-14.1311
G01 X10.2130 Y-14.1425
G01 X10.2334 Y-14.2119
G01 X10.2369 Y-14.2210
G01 X10.2401 Y-14.2276
G01 X10.2450 Y-14.2361
G01 X10.2493 Y-14.2420
G01 X10.2540 Y-14.2477
G01 X10.2609 Y-14.2546
G01 X10.3174 Y-14.3035
G01 X10.3273 Y-14.3107
G01 X10.3358 Y-14.3155
G01 X10.3425 Y-14.3186
G01 X10.3493 Y-14.3211
G01 X10.3564 Y-14.3231
G01 X10.3636 Y-14.3246
G01 X10.4376 Y-14.3353
G01 X10.4449 Y-14.3359
G01 X10.4522 Y-14.3359
G01 X10.4595 Y-14.3354
G01 X10.4692 Y-14.3339
G01 X10.4786 Y-14.3314
G01 X10.4878 Y-14.3280
G01 X10.5580 Y-14.2959
G01 X10.5684 Y-14.2897
G01 X10.5743 Y-14.2853
G01 X10.5798 Y-14.2805
G01 X10.5888 Y-14.2721
G01 X10.9273 Y-13.9335
G01 X10.9350 Y-13.9245
G01 X10.9402 Y-13.9166
G01 X10.9737 Y-13.8583
G01 X10.9790 Y-13.8477
G01 X10.9829 Y-13.8366
G01 X11.0236 Y-13.6813
G01 X11.0261 Y-13.6688
G01 X11.0301 Y-13.6374
G01 X11.0309 Y-13.6273
G01 X11.0309 Y-13.5416
G01 X11.0289 Y-13.5178
G01 X11.0309 Y-13.4549
G01 X11.0309 Y-13.4284
G01 X11.0321 Y-13.4150
G01 X11.0333 Y-13.3785
G01 X11.0367 Y-13.3662
G01 X11.0412 Y-13.3447
G01 X11.0435 Y-13.3295
G01 X11.0576 Y-13.2934
G01 X11.0609 Y-13.2834
G01 X11.0705 Y-13.2506
G01 X11.0780 Y-13.2373
G01 X11.0877 Y-13.2175
G01 X11.0925 Y-13.2057
G01 X11.1152 Y-13.1742
G01 X11.1208 Y-13.1654
G01 X11.1382 Y-13.1360
G01 X11.1472 Y-13.1269
G01 X11.1615 Y-13.1102
G01 X11.1707 Y-13.0979
G01 X11.1988 Y-13.0747
G01 X11.2082 Y-13.0660
G01 X11.9497 Y-12.3246
G01 X12.3244 Y-12.3245
G01 X12.3562 Y-12.3229
G01 X12.3900 Y-12.3179
G01 X12.4232 Y-12.3096
G01 X12.4509 Y-12.2998
G01 X12.4576 Y-12.2971
G01 X12.4820 Y-12.2856
G01 X12.4905 Y-12.2810
G01 X12.5157 Y-12.2658
G01 X12.5431 Y-12.2455
G01 X12.5668 Y-12.2242
G01 X12.5914 Y-12.1996
G01 X14.2768 Y-12.1995
G01 X14.3062 Y-12.1979
G01 X14.3400 Y-12.1929
G01 X14.3732 Y-12.1846
G01 X14.4076 Y-12.1721
G01 X14.4363 Y-12.1584
G01 X14.4676 Y-12.1395
G01 X14.4950 Y-12.1189
G01 X14.5167 Y-12.0992
G01 X14.5270 Y-12.0889
G01 X15.7557 Y-12.0888
G01 X15.7650 Y-12.0879
G01 X15.7765 Y-12.0856
G01 X15.8458 Y-12.0653
G01 X15.8527 Y-12.0630
G01 X15.8617 Y-12.0591
G01 X15.8723 Y-12.0530
G01 X15.8820 Y-12.0456
G01 X15.8891 Y-12.0389
G01 X15.9398 Y-11.9806
G01 X15.9457 Y-11.9727
G01 X15.9518 Y-11.9621
G01 X15.9558 Y-11.9531
G01 X15.9594 Y-11.9413
G01 X15.9717 Y-11.8851
G01 X15.9732 Y-11.8735
G01 X15.9734 Y-11.0553
G01 X15.9728 Y-11.0436
G01 X15.9704 Y-11.0312
G01 X15.9706 Y-10.5000
G01 X15.9799 Y-10.4870
G01 X15.9922 Y-10.4660
G01 X16.0015 Y-10.4461
G01 X16.0090 Y-10.4254
G01 X16.0146 Y-10.4042
G01 X16.0165 Y-10.3947
G01 X16.0193 Y-10.3754
G01 X16.0204 Y-10.3534
G01 X16.0204 Y-8.6986
G01 X16.0193 Y-8.6766
G01 X16.0165 Y-8.6573
G01 X16.0146 Y-8.6478
G01 X16.0090 Y-8.6266
G01 X16.0015 Y-8.6059
G01 X15.9922 Y-8.5860
G01 X15.9799 Y-8.5650
G01 X15.9706 Y-8.5520
G01 X15.9706 Y-8.4004
G01 X16.3035 Y-8.0674
G01 X16.6090 Y-8.0674
G01 X16.6431 Y-8.0656
G01 X16.6697 Y-8.0617
G01 X16.6768 Y-8.0602
G01 X16.7029 Y-8.0535
G01 X16.7283 Y-8.0446
G01 X16.7372 Y-8.0409
G01 X16.7615 Y-8.0293
G01 X16.7887 Y-8.0129
G01 X16.8142 Y-7.9940
G01 X16.8342 Y-7.9760
G01 X16.8410 Y-7.9692
G01 X16.8590 Y-7.9492
G01 X16.8752 Y-7.9276
G01 X16.8793 Y-7.9217
G01 X16.8919 Y-7.9007
G01 X16.8964 Y-7.8922
G01 X16.9078 Y-7.8678
G01 X16.9185 Y-7.8379
G01 X16.9262 Y-7.8071
G01 X16.9311 Y-7.7733
G01 X16.9324 Y-7.7440
G01 X16.9324 Y-7.2440
G01 X16.9311 Y-7.2147
G01 X16.9271 Y-7.1857
G01 X16.9252 Y-7.1762
G01 X16.9185 Y-7.1501
G01 X16.9096 Y-7.1247
G01 X16.9059 Y-7.1158
G01 X16.8943 Y-7.0915
G01 X16.8766 Y-7.0623
G01 X16.8590 Y-7.0388
G01 X16.8377 Y-7.0153
G01 X16.8142 Y-6.9940
G01 X16.7887 Y-6.9751
G01 X16.7615 Y-6.9587
G01 X16.7328 Y-6.9452
G01 X16.7029 Y-6.9345
G01 X16.6768 Y-6.9278
G01 X16.6673 Y-6.9259
G01 X16.6407 Y-6.9221
G01 X16.6114 Y-6.9206
G01 X16.3035 Y-6.9206
G01 X15.9308 Y-6.5479
G01 X15.8445 Y-6.2186
G01 X15.8445 Y-5.2114
G01 X15.8864 Y-5.0514
G01 X16.3860 Y-5.0514
G01 X16.3930 Y-5.0512
G01 X16.4000 Y-5.0504
G01 X16.4069 Y-5.0492
G01 X16.4137 Y-5.0475
G01 X16.4808 Y-5.0278
G01 X16.4900 Y-5.0246
G01 X16.4989 Y-5.0204
G01 X16.5073 Y-5.0155
G01 X16.5170 Y-5.0081
G01 X16.5241 Y-5.0014
G01 X16.5748 Y-4.9431
G01 X16.5807 Y-4.9352
G01 X16.5857 Y-4.9268
G01 X16.5908 Y-4.9156
G01 X16.5938 Y-4.9062
G01 X16.6067 Y-4.8476
G01 X16.6080 Y-4.8384
G01 X16.6084 Y-4.8290
G01 X16.6084 Y-2.3800
G01 X16.6078 Y-2.3683
G01 X16.6067 Y-2.3613
G01 X16.6051 Y-2.3545
G01 X16.5833 Y-2.2805
G01 X16.5806 Y-2.2737
G01 X16.5774 Y-2.2671
G01 X16.5738 Y-2.2607
G01 X16.5697 Y-2.2547
G01 X16.5635 Y-2.2471
G01 X16.5566 Y-2.2401
G01 X16.5001 Y-2.1912
G01 X16.4943 Y-2.1867
G01 X16.4881 Y-2.1827
G01 X16.4817 Y-2.1792
G01 X16.4750 Y-2.1762
G01 X16.4658 Y-2.1729
G01 X16.4539 Y-2.1701
G01 X16.3824 Y-2.1598
G01 X16.3751 Y-2.1590
G01 X16.3677 Y-2.1588
G01 X16.3556 Y-2.1596
G01 X16.3483 Y-2.1608
G01 X16.3412 Y-2.1626
G01 X16.3297 Y-2.1667
G01 X16.2639 Y-2.1967
G01 X16.2573 Y-2.2000
G01 X16.2511 Y-2.2038
G01 X16.2451 Y-2.2080
G01 X16.2376 Y-2.2143
G01 X16.2324 Y-2.2195
G01 X16.2262 Y-2.2270
G01 X16.2220 Y-2.2330
G01 X16.1805 Y-2.2981
G01 X16.1772 Y-2.3047
G01 X16.1737 Y-2.3137
G01 X16.1676 Y-2.3357
G01 X16.0750 Y-2.5342
G01 X15.9494 Y-2.7136
G01 X15.7946 Y-2.8684
G01 X15.6152 Y-2.9940
G01 X15.5721 Y-3.0141
G01 X15.3429 Y-2.7849
G01 X15.3544 Y-2.7803
G01 X15.4298 Y-2.7446
G01 X15.4383 Y-2.7401
G01 X15.5139 Y-2.6946
G01 X15.5887 Y-2.6392
G01 X15.6542 Y-2.5800
G01 X15.6610 Y-2.5732
G01 X15.7202 Y-2.5077
G01 X15.7756 Y-2.4329
G01 X15.8211 Y-2.3573
G01 X15.8256 Y-2.3488
G01 X15.8633 Y-2.2690
G01 X15.8946 Y-2.1813
G01 X15.9172 Y-2.0910
G01 X15.9303 Y-2.0038
G01 X15.9312 Y-1.9941
G01 X15.9353 Y-1.9108
G01 X15.9353 Y-1.9012
G01 X15.9309 Y-1.8130
G01 X15.9181 Y-1.7257
G01 X15.9162 Y-1.7163
G01 X15.8959 Y-1.6353
G01 X15.8931 Y-1.6261
G01 X15.8633 Y-1.5430
G01 X15.8235 Y-1.4589
G01 X15.7756 Y-1.3791
G01 X15.7231 Y-1.3081
G01 X15.7170 Y-1.3007
G01 X15.6610 Y-1.2388
G01 X15.6542 Y-1.2320
G01 X15.5887 Y-1.1728
G01 X15.5139 Y-1.1174
G01 X15.4341 Y-1.0695
G01 X15.3544 Y-1.0317
G01 X15.3454 Y-1.0280
G01 X15.2600 Y-0.9977
G01 X15.1720 Y-0.9758
G01 X15.0800 Y-0.9621
G01 X14.9870 Y-0.9576
G01 X14.8940 Y-0.9621
G01 X14.8020 Y-0.9758
G01 X14.7117 Y-0.9984
G01 X14.6240 Y-1.0297
G01 X14.5399 Y-1.0695
G01 X14.4601 Y-1.1174
G01 X14.3853 Y-1.1728
G01 X14.3163 Y-1.2353
G01 X14.2538 Y-1.3043
G01 X14.1984 Y-1.3791
G01 X14.1505 Y-1.4589
G01 X14.1107 Y-1.5430
G01 X14.0809 Y-1.6261
G01 X14.0787 Y-1.6330
G01 X14.0568 Y-1.7210
G01 X14.0431 Y-1.8130
G01 X14.0386 Y-1.9060
G01 X14.0431 Y-1.9990
G01 X14.0568 Y-2.0910
G01 X14.0794 Y-2.1813
G01 X14.1107 Y-2.2690
G01 X14.1505 Y-2.3531
G01 X14.1984 Y-2.4329
G01 X14.2538 Y-2.5077
G01 X14.3163 Y-2.5767
G01 X14.3817 Y-2.6360
G01 X14.3891 Y-2.6421
G01 X14.4601 Y-2.6946
G01 X14.5357 Y-2.7401
G01 X14.5442 Y-2.7446
G01 X14.6196 Y-2.7803
G01 X14.6263 Y-2.7832
G01 X14.6384 Y-2.7875
G01 X14.6385 Y-2.9244
G01 X14.6401 Y-2.9562
G01 X14.6447 Y-2.9876
G01 X14.6534 Y-3.0232
G01 X14.6650 Y-3.0554
G01 X14.6796 Y-3.0863
G01 X14.6959 Y-3.1136
G01 X14.7175 Y-3.1431
G01 X14.7388 Y-3.1668
G01 X15.0230 Y-3.4510
G01 X15.0518 Y-3.5026
G01 X15.0558 Y-3.5088
G01 X15.0603 Y-3.5148
G01 X15.0669 Y-3.5222
G01 X15.1416 Y-3.5968
G01 X15.1417 Y-4.2482
G01 X15.1431 Y-4.2606
G01 X15.1509 Y-4.3040
G01 X15.1532 Y-4.3137
G01 X15.1680 Y-4.3539
G01 X15.1877 Y-4.3978
G01 X15.1937 Y-4.4212
G01 X15.1966 Y-4.4613
G01 X15.1991 Y-4.4812
G01 X15.1995 Y-4.5014
G01 X15.2023 Y-4.5414
G01 X15.1994 Y-4.5692
G01 X15.1991 Y-4.5771
G01 X15.1991 Y-4.8290
G01 X15.1995 Y-4.8384
G01 X15.2004 Y-4.8453
G01 X15.2030 Y-4.8567
G01 X15.2242 Y-4.9284
G01 X15.2269 Y-4.9353
G01 X15.2312 Y-4.9440
G01 X15.2350 Y-4.9503
G01 X15.2393 Y-4.9563
G01 X15.2440 Y-4.9619
G01 X15.2509 Y-4.9688
G01 X15.3055 Y-5.0162
G01 X15.3113 Y-5.0208
G01 X15.3195 Y-5.0263
G01 X15.3304 Y-5.0319
G01 X15.3419 Y-5.0362
G01 X15.3522 Y-5.0387
G01 X15.3975 Y-5.2114
G01 X15.3975 Y-6.2186
G01 X15.2965 Y-6.6040
G01 X15.2874 Y-6.6298
G01 X15.2791 Y-6.6630
G01 X15.2741 Y-6.6968
G01 X15.2724 Y-6.7310
G01 X15.2741 Y-6.7652
G01 X15.2787 Y-6.7966
G01 X15.2861 Y-6.8275
G01 X15.2890 Y-6.8368
G01 X15.2990 Y-6.8644
G01 X15.3114 Y-6.8910
G01 X15.3160 Y-6.8995
G01 X15.3312 Y-6.9247
G01 X15.3531 Y-6.9540
G01 X15.3745 Y-6.9775
G01 X15.8356 Y-7.4385
G01 X15.8356 Y-7.5495
G01 X15.3755 Y-8.0095
G01 X15.3541 Y-8.0330
G01 X15.3322 Y-8.0623
G01 X15.3170 Y-8.0875
G01 X15.3124 Y-8.0960
G01 X15.3000 Y-8.1226
G01 X15.2900 Y-8.1502
G01 X15.2871 Y-8.1595
G01 X15.2801 Y-8.1880
G01 X15.2751 Y-8.2218
G01 X15.2735 Y-8.2536
G01 X15.2734 Y-8.5520
G01 X15.2641 Y-8.5650
G01 X15.2518 Y-8.5860
G01 X15.2425 Y-8.6059
G01 X15.2350 Y-8.6266
G01 X15.2294 Y-8.6478
G01 X15.2275 Y-8.6573
G01 X15.2247 Y-8.6766
G01 X15.2236 Y-8.6986
G01 X15.2236 Y-10.3510
G01 X15.2247 Y-10.3754
G01 X15.2287 Y-10.4013
G01 X14.1276 Y-11.5024
G01 X12.4470 Y-11.5024
G01 X12.4152 Y-11.5039
G01 X12.3790 Y-11.5091
G01 X12.3458 Y-11.5174
G01 X12.3136 Y-11.5290
G01 X12.2827 Y-11.5436
G01 X12.2533 Y-11.5612
G01 X12.2278 Y-11.5800
G01 X12.2022 Y-11.6028
G01 X12.1776 Y-11.6274
G01 X10.7475 Y-11.6274
G01 X10.6959 Y-11.6222
G01 X10.5506 Y-11.5740
G01 X10.5437 Y-11.5699
G01 X10.5374 Y-11.5667
G01 X10.5310 Y-11.5640
G01 X10.5243 Y-11.5617
G01 X10.4499 Y-11.5415
G01 X10.4379 Y-11.5396
G01 X10.4305 Y-11.5392
G01 X10.4232 Y-11.5393
G01 X10.4135 Y-11.5403
G01 X10.4015 Y-11.5430
G01 X10.3325 Y-11.5646
G01 X10.3256 Y-11.5671
G01 X10.3189 Y-11.5700
G01 X10.3125 Y-11.5735
G01 X10.3043 Y-11.5788
G01 X10.2985 Y-11.5833
G01 X10.2931 Y-11.5883
G01 X10.2864 Y-11.5955
G01 X10.2587 Y-11.6286
G01 X10.2470 Y-11.6297
G01 X10.2204 Y-11.6337
G01 X10.2133 Y-11.6352
G01 X10.1848 Y-11.6424
G01 X10.1526 Y-11.6540
G01 X10.1217 Y-11.6686
G01 X10.0944 Y-11.6849
G01 X10.0668 Y-11.7050
G01 X10.0537 Y-11.7166
G01 X9.8912 Y-11.7166
G01 X9.8807 Y-11.6862
G01 X9.8770 Y-11.6772
G01 X9.8643 Y-11.6507
G01 X9.8467 Y-11.6214
G01 X9.8264 Y-11.5939
G01 X9.8067 Y-11.5721
G01 X9.7999 Y-11.5653
G01 X9.7781 Y-11.5456
G01 X9.7545 Y-11.5281
G01 X9.7465 Y-11.5227
G01 X9.7213 Y-11.5077
G01 X9.6903 Y-11.4931
G01 X9.6581 Y-11.4816
G01 X9.6297 Y-11.4743
G01 X9.6202 Y-11.4724
G01 X9.5887 Y-11.4680
G01 X9.5570 Y-11.4666
G01 X6.5546 Y-11.4666
G01 X6.5228 Y-11.4682
G01 X6.4938 Y-11.4724
G01 X6.4843 Y-11.4743
G01 X6.4582 Y-11.4809
G01 X6.4513 Y-11.4831
G01 X6.4237 Y-11.4931
G01 X6.3927 Y-11.5077
G01 X6.3634 Y-11.5253
G01 X6.3398 Y-11.5427
G01 X6.3341 Y-11.5472
G01 X6.3141 Y-11.5653
G01 X6.3073 Y-11.5721
G01 X6.2876 Y-11.5939
G01 X6.2673 Y-11.6214
G01 X6.2497 Y-11.6507
G01 X6.2370 Y-11.6772
G01 X6.2333 Y-11.6862
G01 X6.2228 Y-11.7166
G01 X5.9109 Y-11.7166
G01 X5.9143 Y-11.6830
G01 X5.9625 Y-11.5378
G01 X6.0424 Y-11.4081
G01 X6.1501 Y-11.3004
G01 X6.2264 Y-11.2534
G01 X6.2321 Y-11.2493
G01 X6.2376 Y-11.2449
G01 X6.2459 Y-11.2367
G01 X6.2958 Y-11.1810
G01 X6.3016 Y-11.1731
G01 X6.3066 Y-11.1647
G01 X6.3107 Y-11.1558
G01 X6.3146 Y-11.1443
G01 X6.3166 Y-11.1347
G01 X6.3278 Y-11.0657
G01 X6.3287 Y-11.0585
G01 X6.3291 Y-11.0511
G01 X6.3287 Y-11.0414
G01 X6.3274 Y-11.0317
G01 X6.3251 Y-11.0222
G01 X6.3219 Y-11.0129
G01 X6.2911 Y-10.9422
G01 X6.2850 Y-10.9316
G01 X6.2776 Y-10.9218
G01 X6.2727 Y-10.9164
G01 X6.2673 Y-10.9114
G01 X6.2372 Y-10.8854
G01 X6.2301 Y-10.8797
G01 X6.1498 Y-10.8300
G01 X6.0420 Y-10.7222
G01 X5.9620 Y-10.5924
G01 X5.9138 Y-10.4471
G01 X5.9049 Y-10.3600
G01 X5.9049 Y-9.7700
G01 X5.9138 Y-9.6829
G01 X5.9620 Y-9.5376
G01 X6.0420 Y-9.4078
G01 X6.1498 Y-9.3000
G01 X6.2264 Y-9.2528
G01 X6.2321 Y-9.2487
G01 X6.2393 Y-9.2427
G01 X6.2459 Y-9.2361
G01 X6.2926 Y-9.1841
G01 X6.2973 Y-9.1785
G01 X6.3016 Y-9.1725
G01 X6.3066 Y-9.1641
G01 X6.3107 Y-9.1553
G01 X6.3139 Y-9.1460
G01 X6.3157 Y-9.1389
G01 X6.3278 Y-9.0651
G01 X6.3287 Y-9.0579
G01 X6.3291 Y-9.0505
G01 X6.3287 Y-9.0408
G01 X6.3274 Y-9.0311
G01 X6.3251 Y-9.0216
G01 X6.3219 Y-9.0124
G01 X6.2911 Y-8.9416
G01 X6.2850 Y-8.9310
G01 X6.2776 Y-8.9212
G01 X6.2727 Y-8.9159
G01 X6.2673 Y-8.9109
G01 X6.2372 Y-8.8848
G01 X6.2301 Y-8.8791
G01 X6.1501 Y-8.8296
G01 X6.0424 Y-8.7219
G01 X5.9625 Y-8.5922
G01 X5.9143 Y-8.4470
G01 X5.9109 Y-8.4134
G01 X6.2228 Y-8.4134
G01 X6.2333 Y-8.4438
G01 X6.2370 Y-8.4528
G01 X6.2497 Y-8.4793
G01 X6.2673 Y-8.5086
G01 X6.2876 Y-8.5361
G01 X6.3073 Y-8.5579
G01 X6.3141 Y-8.5647
G01 X6.3341 Y-8.5828
G01 X6.3398 Y-8.5873
G01 X6.3634 Y-8.6047
G01 X6.3927 Y-8.6223
G01 X6.4237 Y-8.6369
G01 X6.4513 Y-8.6469
G01 X6.4582 Y-8.6491
G01 X6.4843 Y-8.6557
G01 X6.4938 Y-8.6576
G01 X6.5228 Y-8.6618
G01 X6.5570 Y-8.6634
G01 X9.5570 Y-8.6634
G01 X9.5887 Y-8.6620
G01 X9.6202 Y-8.6576
G01 X9.6297 Y-8.6557
G01 X9.6581 Y-8.6484
G01 X9.6903 Y-8.6369
G01 X9.7213 Y-8.6223
G01 X9.7465 Y-8.6073
G01 X9.7545 Y-8.6019
G01 X9.7781 Y-8.5844
G01 X9.7999 Y-8.5647
G01 X9.8067 Y-8.5579
G01 X9.8264 Y-8.5361
G01 X9.8467 Y-8.5086
G01 X9.8643 Y-8.4793
G01 X9.8770 Y-8.4528
G01 X9.8807 Y-8.4438
G01 X9.8912 Y-8.4136
G01 X10.5213 Y-8.4136
G01 X10.5061 Y-8.4457
G01 X10.4946 Y-8.4779
G01 X10.4862 Y-8.5110
G01 X10.4818 Y-8.5401
G01 X10.4809 Y-8.5497
G01 X10.4796 Y-8.5790
G01 X10.4796 Y-9.0790
G01 X10.4812 Y-9.1132
G01 X10.4854 Y-9.1422
G01 X10.4873 Y-9.1517
G01 X10.4946 Y-9.1801
G01 X10.5061 Y-9.2123
G01 X10.5207 Y-9.2433
G01 X10.5357 Y-9.2685
G01 X10.5411 Y-9.2765
G01 X10.5586 Y-9.3001
G01 X10.5783 Y-9.3219
G01 X10.5833 Y-9.3271
G01 X10.6033 Y-9.3452
G01 X10.6108 Y-9.3513
G01 X10.6344 Y-9.3687
G01 X10.6659 Y-9.3874
G01 X10.6902 Y-9.3990
G01 X10.6992 Y-9.4027
G01 X10.7269 Y-9.4124
G01 X10.7553 Y-9.4197
G01 X10.7648 Y-9.4216
G01 X10.7938 Y-9.4258
G01 X10.8256 Y-9.4274
G01 X11.7780 Y-9.4274
G01 X11.8146 Y-9.4255
G01 X11.8460 Y-9.4208
G01 X11.8745 Y-9.4137
G01 X11.8837 Y-9.4109
G01 X11.9113 Y-9.4009
G01 X11.9379 Y-9.3885
G01 X11.9465 Y-9.3839
G01 X11.9716 Y-9.3687
G01 X11.9952 Y-9.3513
G01 X12.0027 Y-9.3452
G01 X12.0244 Y-9.3254
G01 X12.0442 Y-9.3037
G01 X12.0503 Y-9.2962
G01 X12.0677 Y-9.2726
G01 X12.0829 Y-9.2475
G01 X12.0875 Y-9.2389
G01 X12.0999 Y-9.2123
G01 X12.1114 Y-9.1801
G01 X12.1198 Y-9.1470
G01 X12.1248 Y-9.1132
G01 X12.1263 Y-9.0838
G01 X12.1264 Y-8.5790
G01 X12.1248 Y-8.5448
G01 X12.1198 Y-8.5110
G01 X12.1114 Y-8.4779
G01 X12.0990 Y-8.4434
G01 X12.0853 Y-8.4147
G01 X12.0677 Y-8.3854
G01 X12.0474 Y-8.3579
G01 X12.0277 Y-8.3361
G01 X12.0209 Y-8.3293
G01 X12.0009 Y-8.3112
G01 X11.9755 Y-8.2921
G01 X11.9675 Y-8.2867
G01 X11.9444 Y-8.2729
G01 X11.9379 Y-8.2695
G01 X11.9113 Y-8.2571
G01 X11.8791 Y-8.2456
G01 X11.8460 Y-8.2372
G01 X11.8169 Y-8.2328
G01 X11.8073 Y-8.2319
G01 X11.7804 Y-8.2306
G01 X11.6516 Y-8.2306
G01 X11.6516 Y-7.8740
G01 X11.6501 Y-7.8422
G01 X11.6449 Y-7.8060
G01 X11.6372 Y-7.7751
G01 X11.6259 Y-7.7428
G01 X11.6151 Y-7.7193
G01 X11.6380 Y-7.6942
G01 X11.6542 Y-7.6726
G01 X11.6583 Y-7.6667
G01 X11.6709 Y-7.6457
G01 X11.6754 Y-7.6372
G01 X11.6868 Y-7.6128
G01 X11.6975 Y-7.5829
G01 X11.7052 Y-7.5521
G01 X11.7096 Y-7.5231
G01 X11.7114 Y-7.4890
G01 X11.7114 Y-6.9890
G01 X11.7099 Y-6.9573
G01 X11.7061 Y-6.9307
G01 X11.7042 Y-6.9212
G01 X11.6975 Y-6.8951
G01 X11.6868 Y-6.8652
G01 X11.6754 Y-6.8408
G01 X11.6709 Y-6.8323
G01 X11.6569 Y-6.8093
G01 X11.6410 Y-6.7876
G01 X11.6349 Y-6.7801
G01 X11.6167 Y-6.7603
G01 X11.5969 Y-6.7421
G01 X11.5894 Y-6.7360
G01 X11.5677 Y-6.7201
G01 X11.5447 Y-6.7061
G01 X11.5362 Y-6.7016
G01 X11.5114 Y-6.6900
G01 X11.5114 Y-6.2640
G01 X11.5405 Y-6.2503
G01 X11.5636 Y-6.2365
G01 X11.5716 Y-6.2312
G01 X11.5932 Y-6.2150
G01 X11.6132 Y-6.1970
G01 X11.6200 Y-6.1902
G01 X11.6380 Y-6.1702
G01 X11.6542 Y-6.1486
G01 X11.6595 Y-6.1406
G01 X11.6733 Y-6.1175
G01 X11.6849 Y-6.0932
G01 X11.6886 Y-6.0843
G01 X11.6975 Y-6.0589
G01 X11.7057 Y-6.0257
G01 X11.7099 Y-5.9967
G01 X11.7114 Y-5.9650
G01 X11.7114 Y-5.4650
G01 X11.7102 Y-5.4381
G01 X11.7093 Y-5.4285
G01 X11.7052 Y-5.4019
G01 X11.6975 Y-5.3711
G01 X11.6868 Y-5.3412
G01 X11.6754 Y-5.3168
G01 X11.6709 Y-5.3083
G01 X11.6569 Y-5.2853
G01 X11.6380 Y-5.2598
G01 X11.6200 Y-5.2398
G01 X11.6132 Y-5.2330
G01 X11.5932 Y-5.2150
G01 X11.5677 Y-5.1961
G01 X11.5447 Y-5.1821
G01 X11.5362 Y-5.1776
G01 X11.5114 Y-5.1660
G01 X11.5114 Y-4.8466
G01 X11.5149 Y-4.8470
G01 X11.6546 Y-4.8933
G01 X11.7793 Y-4.9702
G01 X11.7891 Y-4.9790
G01 X11.7948 Y-4.9832
G01 X11.8007 Y-4.9869
G01 X11.8663 Y-5.0227
G01 X11.8774 Y-5.0276
G01 X11.8892 Y-5.0311
G01 X11.9012 Y-5.0331
G01 X11.9085 Y-5.0336
G01 X11.9159 Y-5.0335
G01 X11.9904 Y-5.0282
G01 X12.0002 Y-5.0267
G01 X12.0074 Y-5.0250
G01 X12.0190 Y-5.0210
G01 X12.0257 Y-5.0179
G01 X12.0321 Y-5.0143
G01 X12.0805 Y-4.9832
G01 X12.0862 Y-4.9790
G01 X12.0915 Y-4.9745
G01 X12.0967 Y-4.9694
G01 X12.1014 Y-4.9642
G01 X12.1057 Y-4.9586
G01 X12.1096 Y-4.9527
G01 X12.1476 Y-4.8830
G01 X12.1522 Y-4.8717
G01 X12.1554 Y-4.8599
G01 X12.1571 Y-4.8478
G01 X12.1573 Y-4.8356
G01 X12.1522 Y-4.7635
G01 X12.1505 Y-4.7512
G01 X12.1488 Y-4.7439
G01 X12.1465 Y-4.7368
G01 X12.1397 Y-4.7206
G01 X12.0940 Y-4.5739
G01 X12.0889 Y-4.5182
G01 X12.0889 Y-4.4649
G01 X12.0885 Y-4.4579
G01 X12.0876 Y-4.4509
G01 X12.0850 Y-4.4395
G01 X12.0646 Y-4.3701
G01 X12.0612 Y-4.3611
G01 X12.0569 Y-4.3524
G01 X12.0532 Y-4.3462
G01 X12.0490 Y-4.3403
G01 X12.0308 Y-4.3178
G01 X12.0256 Y-4.3118
G01 X11.7314 Y-4.0176
G01 X11.7224 Y-4.0100
G01 X11.7127 Y-4.0036
G01 X11.6428 Y-3.9657
G01 X11.6315 Y-3.9614
G01 X11.6198 Y-3.9585
G01 X11.5810 Y-3.9542
G01 X11.3643 Y-3.9541
G01 X11.3392 Y-3.9558
G01 X11.3221 Y-3.9582
G01 X11.2794 Y-3.9545
G01 X11.2650 Y-3.9541
G01 X11.2353 Y-3.9506
G01 X11.1645 Y-3.9444
G01 X11.1570 Y-3.9428
G01 X11.0902 Y-3.9185
G01 X11.0201 Y-3.8952
G01 X11.0154 Y-3.8929
G01 X11.0132 Y-3.8918
G01 X10.9514 Y-3.8512
G01 X10.8909 Y-3.8139
G01 X10.8850 Y-3.8091
G01 X10.8342 Y-3.7554
G01 X10.3004 Y-3.2216
G01 X10.2914 Y-3.2140
G01 X10.2817 Y-3.2076
G01 X10.2118 Y-3.1697
G01 X10.2005 Y-3.1654
G01 X10.1888 Y-3.1625
G01 X10.1553 Y-3.1586
G01 X10.1448 Y-3.1581
G01 X9.0144 Y-3.1581
G01 X8.9723 Y-3.1535
G01 X8.8623 Y-3.1125
G01 X8.7698 Y-3.0432
G01 X8.7005 Y-2.9507
G01 X8.6595 Y-2.8407
G01 X8.6550 Y-2.7986
G01 X8.6549 Y-1.0134
G01 X8.6595 Y-0.9713
G01 X8.7005 Y-0.8613
G01 X8.7698 Y-0.7688
G01 X8.8623 Y-0.6995
G01 X8.9723 Y-0.6585
G01 X9.0144 Y-0.6539
G01 X10.6758 Y-0.6539
G01 X10.6875 Y-0.6529
G01 X10.6990 Y-0.6506
G01 X10.7683 Y-0.6303
G01 X10.7752 Y-0.6280
G01 X10.7820 Y-0.6251
G01 X10.7906 Y-0.6206
G01 X10.7968 Y-0.6166
G01 X10.8027 Y-0.6122
G01 X10.8099 Y-0.6056
G01 X10.8149 Y-0.6003
G01 X10.8623 Y-0.5456
G01 X10.8695 Y-0.5356
G01 X10.8754 Y-0.5249
G01 X10.8791 Y-0.5158
G01 X10.8825 Y-0.5039
G01 X10.8942 Y-0.4501
G01 X10.8955 Y-0.4409
G01 X10.8959 Y-0.4338
G01 X10.8959 Y-0.1222
G01 X10.8949 Y-0.1105
G01 X10.8926 Y-0.0990
G01 X10.8723 Y-0.0297
G01 X10.8700 Y-0.0228
G01 X10.8671 Y-0.0160
G01 X10.8638 Y-0.0095
G01 X10.8600 Y-0.0032
G01 X10.8542 Y0.0047
G01 X10.8459 Y0.0136
G01 X10.7895 Y0.0627
G01 X10.7837 Y0.0673
G01 X10.7776 Y0.0715
G01 X10.7669 Y0.0774
G01 X10.7554 Y0.0819
G01 X10.7459 Y0.0845
G01 X10.6921 Y0.0962
G01 X10.6829 Y0.0975
G01 X10.6735 Y0.0979
G01 X0.1245 Y0.0979
G01 X0.1128 Y0.0973
G01 X0.1059 Y0.0962
G01 X0.0990 Y0.0946
G01 X0.0297 Y0.0743
G01 X0.0182 Y0.0701
G01 X0.0095 Y0.0658
G01 X0.0012 Y0.0606
G01 X-0.0047 Y0.0562
G01 X-0.0119 Y0.0496
G01 X-0.0169 Y0.0443
G01 X-0.0643 Y-0.0104
G01 X-0.0688 Y-0.0163
G01 X-0.0728 Y-0.0225
G01 X-0.0763 Y-0.0289
G01 X-0.0794 Y-0.0356
G01 X-0.0819 Y-0.0426
G01 X-0.0839 Y-0.0497
G01 X-0.0962 Y-0.1059
G01 X-0.0973 Y-0.1128
G01 X-0.0979 Y-0.1222
G01 X-0.0979 Y-4.7377
G00 Z2.0000
G00 X2.6554 Y-4.8666
G01 F60.00
G01 Z-0.1500
G01 F240.00
G01 X3.7570 Y-4.8666
G01 X3.7863 Y-4.8679
G01 X3.7959 Y-4.8688
G01 X3.8250 Y-4.8732
G01 X3.8558 Y-4.8809
G01 X3.8903 Y-4.8931
G01 X3.9213 Y-4.9077
G01 X3.9506 Y-4.9253
G01 X3.9781 Y-4.9456
G01 X4.0034 Y-4.9686
G01 X4.0264 Y-4.9939
G01 X4.0467 Y-5.0214
G01 X4.0654 Y-5.0529
G01 X4.0789 Y-5.0817
G01 X4.0904 Y-5.1139
G01 X4.0988 Y-5.1470
G01 X4.1035 Y-5.1784
G01 X4.1054 Y-5.2150
G01 X4.1054 Y-5.3666
G01 X4.4085 Y-5.3666
G01 X4.4085 Y-5.1700
G01 X4.3997 Y-5.0830
G01 X4.3515 Y-4.9378
G01 X4.2716 Y-4.8081
G01 X4.1639 Y-4.7004
G01 X4.0342 Y-4.6205
G01 X3.8890 Y-4.5723
G01 X3.8020 Y-4.5634
G01 X2.6554 Y-4.5634
G01 X2.6554 Y-4.8666
G00 Z2.0000
G00 X2.8051 Y-4.7169
G01 F60.00
G01 Z-0.1500
G01 F240.00
G01 X3.7631 Y-4.7170
G01 X3.8058 Y-4.7193
G01 X3.8422 Y-4.7244
G01 X3.8542 Y-4.7265
G01 X3.8661 Y-4.7291
G01 X3.8957 Y-4.7367
G01 X3.9074 Y-4.7402
G01 X3.9476 Y-4.7548
G01 X3.9864 Y-4.7729
G01 X3.9971 Y-4.7787
G01 X4.0234 Y-4.7943
G01 X4.0337 Y-4.8009
G01 X4.0437 Y-4.8079
G01 X4.0730 Y-4.8300
G01 X4.0822 Y-4.8379
G01 X4.1092 Y-4.8628
G01 X4.1341 Y-4.8898
G01 X4.1420 Y-4.8990
G01 X4.1641 Y-4.9283
G01 X4.1711 Y-4.9383
G01 X4.1777 Y-4.9486
G01 X4.1933 Y-4.9749
G01 X4.1991 Y-4.9856
G01 X4.2172 Y-5.0244
G01 X4.2318 Y-5.0646
G01 X4.2369 Y-5.0821
G01 X4.2443 Y-5.1119
G01 X4.2466 Y-5.1238
G01 X4.2527 Y-5.1662
G01 X4.2548 Y-5.2028
G01 X4.2551 Y-5.2169
G01 X4.2589 Y-5.2169
G01 X4.2589 Y-5.1777
G01 X4.2525 Y-5.1146
G01 X4.2150 Y-5.0014
G01 X4.1534 Y-4.9016
G01 X4.0704 Y-4.8186
G01 X3.9706 Y-4.7570
G01 X3.8574 Y-4.7195
G01 X3.7943 Y-4.7131
G01 X2.8051 Y-4.7131
G01 X2.8051 Y-4.7169
G00 Z2.0000
G00 X4.1054 Y-6.0634
G01 F60.00
G01 Z-0.1500
G01 F240.00
G01 X4.1054 Y-6.2150
G01 X4.1038 Y-6.2492
G01 X4.0996 Y-6.2782
G01 X4.0977 Y-6.2877
G01 X4.0904 Y-6.3161
G01 X4.0798 Y-6.3461
G01 X4.0643 Y-6.3793
G01 X4.0493 Y-6.4045
G01 X4.0454 Y-6.4106
G01 X4.0293 Y-6.4322
G01 X4.0232 Y-6.4397
G01 X4.0034 Y-6.4614
G01 X3.9781 Y-6.4844
G01 X3.9506 Y-6.5047
G01 X3.9234 Y-6.5211
G01 X3.8903 Y-6.5369
G01 X3.8627 Y-6.5469
G01 X3.8535 Y-6.5497
G01 X3.8250 Y-6.5568
G01 X3.7959 Y-6.5612
G01 X3.7863 Y-6.5621
G01 X3.7594 Y-6.5634
G01 X2.6554 Y-6.5634
G01 X2.6554 Y-6.8666
G01 X3.8020 Y-6.8666
G01 X3.8890 Y-6.8577
G01 X4.0342 Y-6.8095
G01 X4.1639 Y-6.7296
G01 X4.2716 Y-6.6219
G01 X4.3515 Y-6.4922
G01 X4.3997 Y-6.3470
G01 X4.4086 Y-6.2600
G01 X4.4086 Y-6.0634
G01 X4.1054 Y-6.0634
G00 Z2.0000
G00 X4.2551 Y-6.2131
G01 F60.00
G01 Z-0.1500
G01 F240.00
G01 X4.2548 Y-6.2272
G01 X4.2532 Y-6.2578
G01 X4.2512 Y-6.2759
G01 X4.2455 Y-6.3122
G01 X4.2369 Y-6.3479
G01 X4.2336 Y-6.3596
G01 X4.2298 Y-6.3712
G01 X4.2172 Y-6.4056
G01 X4.2018 Y-6.4389
G01 X4.1963 Y-6.4498
G01 X4.1903 Y-6.4604
G01 X4.1745 Y-6.4866
G01 X4.1677 Y-6.4967
G01 X4.1420 Y-6.5310
G01 X4.1135 Y-6.5628
G01 X4.1048 Y-6.5715
G01 X4.0822 Y-6.5921
G01 X4.0730 Y-6.6000
G01 X4.0634 Y-6.6075
G01 X4.0337 Y-6.6291
G01 X4.0024 Y-6.6483
G01 X3.9918 Y-6.6543
G01 X3.9809 Y-6.6598
G01 X3.9476 Y-6.6752
G01 X3.9132 Y-6.6878
G01 X3.9016 Y-6.6916
G01 X3.8899 Y-6.6949
G01 X3.8601 Y-6.7023
G01 X3.8482 Y-6.7046
G01 X3.8058 Y-6.7107
G01 X3.7631 Y-6.7130
G01 X2.8051 Y-6.7131
G01 X2.8051 Y-6.7169
G01 X3.7943 Y-6.7169
G01 X3.8574 Y-6.7105
G01 X3.9706 Y-6.6730
G01 X4.0704 Y-6.6114
G01 X4.1534 Y-6.5284
G01 X4.2150 Y-6.4286
G01 X4.2525 Y-6.3154
G01 X4.2589 Y-6.2523
G01 X4.2589 Y-6.2131
G01 X4.2551 Y-6.2131
G00 Z2.0000
G00 X5.9109 Y-7.7166
G01 F60.00
G01 Z-0.1500
G01 F240.00
G01 X6.2228 Y-7.7166
G01 X6.2333 Y-7.6862
G01 X6.2370 Y-7.6772
G01 X6.2497 Y-7.6507
G01 X6.2673 Y-7.6214
G01 X6.2876 Y-7.5939
G01 X6.3073 Y-7.5721
G01 X6.3141 Y-7.5653
G01 X6.3359 Y-7.5456
G01 X6.3595 Y-7.5281
G01 X6.3675 Y-7.5227
G01 X6.3927 Y-7.5077
G01 X6.4237 Y-7.4931
G01 X6.4513 Y-7.4831
G01 X6.4605 Y-7.4803
G01 X6.4890 Y-7.4732
G01 X6.5181 Y-7.4688
G01 X6.5277 Y-7.4679
G01 X6.5570 Y-7.4666
G01 X7.7085 Y-7.4666
G01 X7.7085 Y-7.1635
G01 X6.5120 Y-7.1635
G01 X6.4250 Y-7.1723
G01 X6.2798 Y-7.2205
G01 X6.1501 Y-7.3004
G01 X6.0424 Y-7.4081
G01 X5.9625 Y-7.5378
G01 X5.9143 Y-7.6830
G01 X5.9109 Y-7.7166
G00 Z2.0000
G00 X6.1203 Y-7.5669
G01 F60.00
G01 Z-0.1500
G01 F240.00
G01 X6.1253 Y-7.5669
G01 X6.1429 Y-7.5383
G01 X6.1645 Y-7.5086
G01 X6.1759 Y-7.4944
G01 X6.2005 Y-7.4672
G01 X6.2136 Y-7.4544
G01 X6.2410 Y-7.4300
G01 X6.2753 Y-7.4043
G01 X6.2906 Y-7.3943
G01 X6.3222 Y-7.3757
G01 X6.3553 Y-7.3598
G01 X6.3664 Y-7.3548
G01 X6.3777 Y-7.3504
G01 X6.4124 Y-7.3384
G01 X6.4479 Y-7.3291
G01 X6.4658 Y-7.3254
G01 X6.5082 Y-7.3193
G01 X6.5203 Y-7.3184
G01 X6.5570 Y-7.3169
G01 X7.5589 Y-7.3169
G01 X7.5589 Y-7.3131
G01 X6.5197 Y-7.3131
G01 X6.4565 Y-7.3195
G01 X6.3434 Y-7.3570
G01 X6.2436 Y-7.4186
G01 X6.1606 Y-7.5016
G01 X6.1203 Y-7.5669
G00 Z2.0000
G00 X6.5570 Y-9.4666
G01 F60.00
G01 Z-0.1500
G01 F240.00
G01 X6.5228 Y-9.4682
G01 X6.4890 Y-9.4732
G01 X6.4559 Y-9.4816
G01 X6.4282 Y-9.4913
G01 X6.4192 Y-9.4950
G01 X6.3949 Y-9.5066
G01 X6.3675 Y-9.5227
G01 X6.3595 Y-9.5281
G01 X6.3378 Y-9.5441
G01 X6.3323 Y-9.5488
G01 X6.3106 Y-9.5686
G01 X6.2876 Y-9.5939
G01 X6.2673 Y-9.6214
G01 X6.2497 Y-9.6507
G01 X6.2351 Y-9.6817
G01 X6.2236 Y-9.7139
G01 X6.2152 Y-9.7470
G01 X6.2105 Y-9.7784
G01 X6.2086 Y-9.8150
G01 X6.2086 Y-10.3150
G01 X6.2102 Y-10.3492
G01 X6.2144 Y-10.3782
G01 X6.2163 Y-10.3877
G01 X6.2236 Y-10.4161
G01 X6.2333 Y-10.4438
G01 X6.2360 Y-10.4506
G01 X6.2475 Y-10.4749
G01 X6.2521 Y-10.4835
G01 X6.2673 Y-10.5086
G01 X6.2876 Y-10.5361
G01 X6.3106 Y-10.5614
G01 X6.3323 Y-10.5812
G01 X6.3398 Y-10.5873
G01 X6.3634 Y-10.6047
G01 X6.3885 Y-10.6199
G01 X6.3971 Y-10.6245
G01 X6.4214 Y-10.6360
G01 X6.4559 Y-10.6484
G01 X6.4890 Y-10.6568
G01 X6.5228 Y-10.6618
G01 X6.5570 Y-10.6634
G01 X9.5618 Y-10.6633
G01 X9.5912 Y-10.6618
G01 X9.6202 Y-10.6576
G01 X9.6297 Y-10.6557
G01 X9.6581 Y-10.6484
G01 X9.6858 Y-10.6387
G01 X9.6948 Y-10.6350
G01 X9.7213 Y-10.6223
G01 X9.7465 Y-10.6073
G01 X9.7545 Y-10.6019
G01 X9.7781 Y-10.5844
G01 X9.8051 Y-10.5597
G01 X9.8232 Y-10.5397
G01 X9.8293 Y-10.5322
G01 X9.8467 Y-10.5086
G01 X9.8625 Y-10.4825
G01 X10.3590 Y-10.9788
G01 X10.3828 Y-11.0000
G01 X10.4044 Y-11.0160
G01 X10.4124 Y-11.0214
G01 X10.4356 Y-11.0353
G01 X10.4420 Y-11.0386
G01 X10.4686 Y-11.0510
G01 X10.4890 Y-11.0585
G01 X10.4946 Y-11.0801
G01 X10.5052 Y-11.1101
G01 X10.5080 Y-11.1168
G01 X10.5219 Y-11.1454
G01 X10.5383 Y-11.1726
G01 X10.5557 Y-11.1962
G01 X10.5602 Y-11.2019
G01 X10.5783 Y-11.2219
G01 X10.5851 Y-11.2287
G01 X10.6069 Y-11.2484
G01 X10.6324 Y-11.2674
G01 X10.6595 Y-11.2839
G01 X10.6681 Y-11.2885
G01 X10.6947 Y-11.3009
G01 X10.7269 Y-11.3124
G01 X10.7600 Y-11.3208
G01 X10.7891 Y-11.3252
G01 X10.7987 Y-11.3261
G01 X10.8280 Y-11.3274
G01 X11.4102 Y-11.3274
G01 X11.4197 Y-11.3354
G01 X11.4413 Y-11.3515
G01 X11.4474 Y-11.3554
G01 X11.4727 Y-11.3704
G01 X11.5058 Y-11.3859
G01 X11.5358 Y-11.3966
G01 X11.5690 Y-11.4049
G01 X11.6028 Y-11.4099
G01 X11.6346 Y-11.4115
G01 X13.7040 Y-11.4116
G01 X13.7382 Y-11.4099
G01 X13.7696 Y-11.4053
G01 X13.8005 Y-11.3979
G01 X13.8098 Y-11.3950
G01 X13.8374 Y-11.3850
G01 X13.8683 Y-11.3704
G01 X13.8936 Y-11.3554
G01 X13.9016 Y-11.3500
G01 X13.9251 Y-11.3325
G01 X13.9470 Y-11.3128
G01 X14.5985 Y-10.6615
G01 X14.6215 Y-10.6361
G01 X14.6405 Y-10.6107
G01 X14.6570 Y-10.5835
G01 X14.6616 Y-10.5750
G01 X14.6740 Y-10.5484
G01 X14.6846 Y-10.5193
G01 X14.6956 Y-10.5067
G01 X14.7099 Y-10.4870
G01 X14.7211 Y-10.4681
G01 X14.7315 Y-10.4461
G01 X14.7398 Y-10.4231
G01 X14.7457 Y-10.3995
G01 X14.7493 Y-10.3754
G01 X14.7504 Y-10.3534
G01 X14.7504 Y-8.6986
G01 X14.7493 Y-8.6766
G01 X14.7465 Y-8.6573
G01 X14.7446 Y-8.6478
G01 X14.7390 Y-8.6266
G01 X14.7315 Y-8.6059
G01 X14.7222 Y-8.5860
G01 X14.7099 Y-8.5650
G01 X14.7006 Y-8.5520
G01 X14.7006 Y-8.0674
G01 X15.0614 Y-8.0674
G01 X15.0907 Y-8.0659
G01 X15.1221 Y-8.0612
G01 X15.1529 Y-8.0535
G01 X15.1828 Y-8.0428
G01 X15.2115 Y-8.0293
G01 X15.2346 Y-8.0155
G01 X15.2426 Y-8.0102
G01 X15.2623 Y-7.9955
G01 X15.2679 Y-7.9909
G01 X15.2877 Y-7.9727
G01 X15.3105 Y-7.9473
G01 X15.3279 Y-7.9237
G01 X15.3419 Y-7.9007
G01 X15.3464 Y-7.8922
G01 X15.3578 Y-7.8678
G01 X15.3685 Y-7.8379
G01 X15.3752 Y-7.8118
G01 X15.3771 Y-7.8023
G01 X15.3811 Y-7.7733
G01 X15.3824 Y-7.7440
G01 X15.3824 Y-7.2440
G01 X15.3809 Y-7.2123
G01 X15.3762 Y-7.1809
G01 X15.3698 Y-7.1548
G01 X15.3670 Y-7.1455
G01 X15.3578 Y-7.1202
G01 X15.3464 Y-7.0958
G01 X15.3419 Y-7.0873
G01 X15.3279 Y-7.0643
G01 X15.3090 Y-7.0388
G01 X15.2910 Y-7.0188
G01 X15.2842 Y-7.0120
G01 X15.2642 Y-6.9940
G01 X15.2426 Y-6.9778
G01 X15.2346 Y-6.9725
G01 X15.2115 Y-6.9587
G01 X15.1805 Y-6.9443
G01 X15.1529 Y-6.9345
G01 X15.1221 Y-6.9268
G01 X15.0907 Y-6.9221
G01 X15.0638 Y-6.9207
G01 X14.6945 Y-6.9206
G01 X14.6928 Y-6.9123
G01 X14.6856 Y-6.8838
G01 X14.6758 Y-6.8561
G01 X14.6721 Y-6.8472
G01 X14.6594 Y-6.8207
G01 X14.6444 Y-6.7954
G01 X14.6390 Y-6.7874
G01 X14.6199 Y-6.7620
G01 X14.5985 Y-6.7385
G01 X14.0656 Y-6.2056
G01 X14.0656 Y-5.3340
G01 X14.0639 Y-5.2998
G01 X14.0589 Y-5.2660
G01 X14.0519 Y-5.2375
G01 X14.0498 Y-5.2305
G01 X14.0414 Y-5.2068
G01 X13.9395 Y-4.8216
G01 X13.9395 Y-3.6884
G01 X14.0184 Y-3.3902
G01 X14.0633 Y-3.3775
G01 X14.0701 Y-3.3750
G01 X14.0768 Y-3.3719
G01 X14.0921 Y-3.3630
G01 X14.2005 Y-3.3292
G01 X14.2114 Y-3.3251
G01 X14.2177 Y-3.3220
G01 X14.2238 Y-3.3184
G01 X14.2839 Y-3.2784
G01 X14.2918 Y-3.2726
G01 X14.2990 Y-3.2660
G01 X14.3040 Y-3.2606
G01 X14.3085 Y-3.2549
G01 X14.3127 Y-3.2488
G01 X14.3175 Y-3.2403
G01 X14.3485 Y-3.1696
G01 X14.3510 Y-3.1626
G01 X14.3530 Y-3.1555
G01 X14.3551 Y-3.1434
G01 X14.3557 Y-3.1360
G01 X14.3557 Y-3.1286
G01 X14.3538 Y-3.0833
G01 X14.3526 Y-3.0741
G01 X14.3500 Y-3.0617
G01 X14.3475 Y-3.0517
G01 X14.3453 Y-3.0450
G01 X14.3427 Y-3.0385
G01 X14.3395 Y-3.0322
G01 X14.3026 Y-2.9674
G01 X14.2973 Y-2.9595
G01 X14.2912 Y-2.9521
G01 X14.2827 Y-2.9438
G01 X14.2619 Y-2.9268
G01 X14.1791 Y-2.8688
G01 X14.0242 Y-2.7139
G01 X13.8947 Y-2.5293
G01 X13.8884 Y-2.5223
G01 X13.8816 Y-2.5160
G01 X13.8232 Y-2.4694
G01 X13.8131 Y-2.4626
G01 X13.8021 Y-2.4571
G01 X13.7930 Y-2.4538
G01 X13.7811 Y-2.4509
G01 X13.7738 Y-2.4499
G01 X13.7019 Y-2.4424
G01 X13.6897 Y-2.4422
G01 X13.6775 Y-2.4436
G01 X13.6656 Y-2.4464
G01 X13.6542 Y-2.4506
G01 X13.5832 Y-2.4865
G01 X13.5732 Y-2.4930
G01 X13.5658 Y-2.4991
G01 X13.5590 Y-2.5059
G01 X13.5501 Y-2.5161
G01 X13.3168 Y-2.2829
G01 X13.3223 Y-2.2712
G01 X13.3250 Y-2.2644
G01 X13.3531 Y-2.1859
G01 X13.3559 Y-2.1767
G01 X13.3772 Y-2.0910
G01 X13.3903 Y-2.0038
G01 X13.3912 Y-1.9941
G01 X13.3954 Y-1.9060
G01 X13.3909 Y-1.8130
G01 X13.3772 Y-1.7210
G01 X13.3559 Y-1.6353
G01 X13.3539 Y-1.6284
G01 X13.3233 Y-1.5430
G01 X13.2856 Y-1.4632
G01 X13.2811 Y-1.4547
G01 X13.2382 Y-1.3832
G01 X13.2328 Y-1.3751
G01 X13.1802 Y-1.3043
G01 X13.1210 Y-1.2388
G01 X13.1142 Y-1.2320
G01 X13.0487 Y-1.1728
G01 X12.9739 Y-1.1174
G01 X12.8941 Y-1.0695
G01 X12.8122 Y-1.0307
G01 X12.7954 Y-1.0244
G01 X12.7954 Y-0.7037
G01 X12.8767 Y-0.7254
G01 X13.0752 Y-0.8180
G01 X13.2546 Y-0.9436
G01 X13.4094 Y-1.0984
G01 X13.5345 Y-1.2771
G01 X13.5417 Y-1.2862
G01 X13.5501 Y-1.2945
G01 X13.6121 Y-1.3441
G01 X13.6225 Y-1.3506
G01 X13.6335 Y-1.3558
G01 X13.6451 Y-1.3596
G01 X13.6571 Y-1.3619
G01 X13.7291 Y-1.3693
G01 X13.7413 Y-1.3698
G01 X13.7510 Y-1.3691
G01 X13.7607 Y-1.3675
G01 X13.7701 Y-1.3649
G01 X13.7792 Y-1.3614
G01 X13.8481 Y-1.3266
G01 X13.8583 Y-1.3204
G01 X13.8676 Y-1.3129
G01 X13.8760 Y-1.3044
G01 X13.8974 Y-1.2791
G01 X14.0242 Y-1.0981
G01 X14.1791 Y-0.9432
G01 X14.3586 Y-0.8176
G01 X14.5571 Y-0.7250
G01 X14.7688 Y-0.6683
G01 X14.9870 Y-0.6492
G01 X15.2052 Y-0.6683
G01 X15.4169 Y-0.7250
G01 X15.6154 Y-0.8176
G01 X15.7949 Y-0.9432
G01 X15.9498 Y-1.0981
G01 X16.0761 Y-1.2785
G01 X16.0836 Y-1.2875
G01 X16.0921 Y-1.2956
G01 X16.1524 Y-1.3436
G01 X16.1628 Y-1.3502
G01 X16.1738 Y-1.3553
G01 X16.1854 Y-1.3591
G01 X16.1974 Y-1.3614
G01 X16.2694 Y-1.3689
G01 X16.2791 Y-1.3694
G01 X16.2913 Y-1.3687
G01 X16.3010 Y-1.3671
G01 X16.3104 Y-1.3645
G01 X16.3195 Y-1.3609
G01 X16.3884 Y-1.3262
G01 X16.3986 Y-1.3199
G01 X16.4079 Y-1.3125
G01 X16.4163 Y-1.3039
G01 X16.4377 Y-1.2787
G01 X16.5642 Y-1.0981
G01 X16.7191 Y-0.9432
G01 X16.8986 Y-0.8176
G01 X17.0971 Y-0.7250
G01 X17.3088 Y-0.6683
G01 X17.5270 Y-0.6492
G01 X17.7452 Y-0.6683
G01 X17.9569 Y-0.7250
G01 X18.1554 Y-0.8176
G01 X18.3349 Y-0.9432
G01 X18.4898 Y-1.0981
G01 X18.6161 Y-1.2785
G01 X18.6236 Y-1.2875
G01 X18.6321 Y-1.2956
G01 X18.6924 Y-1.3436
G01 X18.7028 Y-1.3502
G01 X18.7138 Y-1.3553
G01 X18.7254 Y-1.3591
G01 X18.7374 Y-1.3614
G01 X18.8094 Y-1.3689
G01 X18.8191 Y-1.3694
G01 X18.8289 Y-1.3690
G01 X18.8410 Y-1.3671
G01 X18.8504 Y-1.3645
G01 X18.8595 Y-1.3609
G01 X18.9284 Y-1.3262
G01 X18.9386 Y-1.3199
G01 X18.9479 Y-1.3125
G01 X18.9563 Y-1.3039
G01 X18.9777 Y-1.2787
G01 X19.1042 Y-1.0981
G01 X19.2591 Y-0.9432
G01 X19.4386 Y-0.8176
G01 X19.6371 Y-0.7250
G01 X19.8488 Y-0.6683
G01 X20.0670 Y-0.6492
G01 X20.2852 Y-0.6683
G01 X20.4969 Y-0.7250
G01 X20.6954 Y-0.8176
G01 X20.8749 Y-0.9432
G01 X21.0298 Y-1.0981
G01 X21.1561 Y-1.2785
G01 X21.1636 Y-1.2875
G01 X21.1721 Y-1.2956
G01 X21.2324 Y-1.3436
G01 X21.2428 Y-1.3502
G01 X21.2538 Y-1.3553
G01 X21.2654 Y-1.3591
G01 X21.2774 Y-1.3614
G01 X21.3494 Y-1.3689
G01 X21.3591 Y-1.3694
G01 X21.3713 Y-1.3687
G01 X21.3810 Y-1.3671
G01 X21.3904 Y-1.3645
G01 X21.3995 Y-1.3609
G01 X21.4684 Y-1.3262
G01 X21.4786 Y-1.3199
G01 X21.4879 Y-1.3125
G01 X21.4963 Y-1.3039
G01 X21.5177 Y-1.2787
G01 X21.6442 Y-1.0981
G01 X21.7991 Y-0.9432
G01 X21.9786 Y-0.8176
G01 X22.1771 Y-0.7250
G01 X22.3888 Y-0.6683
G01 X22.6070 Y-0.6492
G01 X22.8252 Y-0.6683
G01 X23.0369 Y-0.7250
G01 X23.2354 Y-0.8176
G01 X23.4149 Y-0.9432
G01 X23.5698 Y-1.0981
G01 X23.6961 Y-1.2785
G01 X23.7036 Y-1.2875
G01 X23.7121 Y-1.2956
G01 X23.7724 Y-1.3436
G01 X23.7828 Y-1.3502
G01 X23.7938 Y-1.3553
G01 X23.8054 Y-1.3591
G01 X23.8174 Y-1.3614
G01 X23.8894 Y-1.3689
G01 X23.8991 Y-1.3694
G01 X23.9113 Y-1.3687
G01 X23.9210 Y-1.3671
G01 X23.9304 Y-1.3645
G01 X23.9395 Y-1.3609
G01 X24.0084 Y-1.3262
G01 X24.0186 Y-1.3199
G01 X24.0279 Y-1.3125
G01 X24.0363 Y-1.3039
G01 X24.0577 Y-1.2787
G01 X24.1842 Y-1.0981
G01 X24.3391 Y-0.9432
G01 X24.5186 Y-0.8176
G01 X24.7171 Y-0.7250
G01 X24.9288 Y-0.6683
G01 X25.1470 Y-0.6492
G01 X25.3652 Y-0.6683
G01 X25.5769 Y-0.7250
G01 X25.7754 Y-0.8176
G01 X25.9549 Y-0.9432
G01 X26.1098 Y-1.0981
G01 X26.2361 Y-1.2785
G01 X26.2436 Y-1.2875
G01 X26.2521 Y-1.2956
G01 X26.3124 Y-1.3436
G01 X26.3228 Y-1.3502
G01 X26.3338 Y-1.3553
G01 X26.3454 Y-1.3591
G01 X26.3574 Y-1.3614
G01 X26.4294 Y-1.3689
G01 X26.4391 Y-1.3694
G01 X26.4513 Y-1.3687
G01 X26.4610 Y-1.3671
G01 X26.4704 Y-1.3645
G01 X26.4795 Y-1.3609
G01 X26.5484 Y-1.3262
G01 X26.5586 Y-1.3199
G01 X26.5679 Y-1.3125
G01 X26.5763 Y-1.3039
G01 X26.5977 Y-1.2787
G01 X26.7242 Y-1.0981
G01 X26.8791 Y-0.9432
G01 X27.0586 Y-0.8176
G01 X27.2571 Y-0.7250
G01 X27.4688 Y-0.6683
G01 X27.6870 Y-0.6492
G01 X27.9052 Y-0.6683
G01 X28.1169 Y-0.7250
G01 X28.3154 Y-0.8176
G01 X28.4949 Y-0.9432
G01 X28.6498 Y-1.0981
G01 X28.7754 Y-1.2776
G01 X28.8680 Y-1.4761
G01 X28.8977 Y-1.5868
G01 X28.9008 Y-1.5957
G01 X28.9036 Y-1.6021
G01 X28.9081 Y-1.6103
G01 X28.9445 Y-1.6700
G01 X28.9500 Y-1.6781
G01 X28.9563 Y-1.6856
G01 X28.9651 Y-1.6940
G01 X28.9749 Y-1.7013
G01 X28.9846 Y-1.7068
G01 X28.9846 Y-2.7970
G01 X28.9850 Y-2.8064
G01 X28.9859 Y-2.8133
G01 X28.9879 Y-2.8225
G01 X29.0089 Y-2.8941
G01 X29.0134 Y-2.9055
G01 X29.0192 Y-2.9162
G01 X29.0233 Y-2.9223
G01 X29.0279 Y-2.9280
G01 X29.0364 Y-2.9368
G01 X29.0910 Y-2.9842
G01 X29.0988 Y-2.9903
G01 X29.1071 Y-2.9955
G01 X29.1136 Y-2.9989
G01 X29.1204 Y-3.0018
G01 X29.1298 Y-3.0048
G01 X29.1884 Y-3.0177
G01 X29.1976 Y-3.0190
G01 X29.2070 Y-3.0194
G01 X32.2944 Y-3.0194
G01 X34.8930 Y-5.6181
G01 X34.8930 Y-11.4901
G01 X34.8067 Y-11.8194
G01 X34.6595 Y-11.9666
G01 X34.2338 Y-11.9666
G01 X34.2268 Y-11.9668
G01 X34.2175 Y-11.9679
G01 X34.2061 Y-11.9705
G01 X34.1367 Y-11.9909
G01 X34.1253 Y-11.9954
G01 X34.1146 Y-12.0012
G01 X34.1046 Y-12.0083
G01 X34.0956 Y-12.0166
G01 X34.0435 Y-12.0768
G01 X34.0379 Y-12.0848
G01 X34.0330 Y-12.0933
G01 X34.0282 Y-12.1045
G01 X34.0254 Y-12.1139
G01 X34.0236 Y-12.1235
G01 X34.0136 Y-12.1926
G01 X34.0126 Y-12.2048
G01 X34.0128 Y-12.2121
G01 X34.0134 Y-12.2194
G01 X34.0147 Y-12.2267
G01 X34.0164 Y-12.2338
G01 X34.0205 Y-12.2453
G01 X34.0526 Y-12.3154
G01 X34.0562 Y-12.3217
G01 X34.0602 Y-12.3278
G01 X34.0647 Y-12.3335
G01 X34.0695 Y-12.3389
G01 X34.0785 Y-12.3470
G01 X34.1132 Y-12.3748
G01 X34.1214 Y-12.3808
G01 X34.1279 Y-12.3846
G01 X34.1913 Y-12.4189
G01 X33.9665 Y-12.6437
G01 X33.8974 Y-12.6112
G01 X33.8005 Y-12.5764
G01 X33.7912 Y-12.5736
G01 X33.6937 Y-12.5492
G01 X33.6865 Y-12.5478
G01 X33.5847 Y-12.5328
G01 X33.4770 Y-12.5276
G01 X33.3693 Y-12.5328
G01 X33.2675 Y-12.5478
G01 X33.2603 Y-12.5492
G01 X33.1628 Y-12.5736
G01 X33.1535 Y-12.5764
G01 X33.0566 Y-12.6112
G01 X32.9875 Y-12.6437
G01 X32.7627 Y-12.4189
G01 X32.8281 Y-12.3835
G01 X32.8341 Y-12.3798
G01 X32.8398 Y-12.3757
G01 X32.8486 Y-12.3679
G01 X32.8982 Y-12.3187
G01 X32.9032 Y-12.3134
G01 X32.9078 Y-12.3076
G01 X32.9132 Y-12.2995
G01 X32.9178 Y-12.2909
G01 X32.9216 Y-12.2819
G01 X32.9244 Y-12.2725
G01 X32.9410 Y-12.1971
G01 X32.9423 Y-12.1850
G01 X32.9421 Y-12.1727
G01 X32.9403 Y-12.1607
G01 X32.9371 Y-12.1489
G01 X32.9103 Y-12.0765
G01 X32.9060 Y-12.0677
G01 X32.9009 Y-12.0593
G01 X32.8950 Y-12.0516
G01 X32.8883 Y-12.0444
G01 X32.8790 Y-12.0365
G01 X32.8233 Y-11.9944
G01 X32.8153 Y-11.9890
G01 X32.8068 Y-11.9843
G01 X32.7979 Y-11.9806
G01 X32.7864 Y-11.9771
G01 X32.7379 Y-11.9681
G01 X32.7303 Y-11.9671
G01 X32.7202 Y-11.9666
G01 X27.7338 Y-11.9666
G01 X27.7268 Y-11.9668
G01 X27.7198 Y-11.9676
G01 X27.7083 Y-11.9699
G01 X27.6390 Y-11.9902
G01 X27.6321 Y-11.9925
G01 X27.6209 Y-11.9976
G01 X27.6125 Y-12.0025
G01 X27.6046 Y-12.0083
G01 X27.5974 Y-12.0149
G01 X27.5924 Y-12.0202
G01 X27.5450 Y-12.0749
G01 X27.5392 Y-12.0827
G01 X27.5342 Y-12.0911
G01 X27.5310 Y-12.0977
G01 X27.5282 Y-12.1045
G01 X27.5254 Y-12.1139
G01 X27.5239 Y-12.1211
G01 X27.5133 Y-12.1951
G01 X27.5126 Y-12.2073
G01 X27.5134 Y-12.2194
G01 X27.5147 Y-12.2267
G01 X27.5164 Y-12.2338
G01 X27.5187 Y-12.2408
G01 X27.5215 Y-12.2475
G01 X27.5526 Y-12.3154
G01 X27.5588 Y-12.3258
G01 X27.5662 Y-12.3353
G01 X27.5712 Y-12.3406
G01 X27.5766 Y-12.3454
G01 X27.6132 Y-12.3748
G01 X27.6193 Y-12.3794
G01 X27.6279 Y-12.3846
G01 X27.6913 Y-12.4189
G01 X27.4665 Y-12.6437
G01 X27.3974 Y-12.6112
G01 X27.2959 Y-12.5748
G01 X27.1913 Y-12.5487
G01 X27.0847 Y-12.5328
G01 X26.9770 Y-12.5276
G01 X26.8693 Y-12.5328
G01 X26.7627 Y-12.5487
G01 X26.6605 Y-12.5742
G01 X26.6535 Y-12.5764
G01 X26.5566 Y-12.6112
G01 X26.4635 Y-12.6551
G01 X26.4550 Y-12.6596
G01 X26.3708 Y-12.7101
G01 X26.3628 Y-12.7155
G01 X26.2802 Y-12.7769
G01 X26.2003 Y-12.8493
G01 X26.1279 Y-12.9292
G01 X26.0650 Y-13.0137
G01 X26.0611 Y-13.0198
G01 X26.0083 Y-13.1082
G01 X25.9641 Y-13.2012
G01 X25.9604 Y-13.2101
G01 X25.9258 Y-13.3071
G01 X25.9007 Y-13.4070
G01 X25.8988 Y-13.4165
G01 X25.8836 Y-13.5207
G01 X25.8786 Y-13.6260
G01 X25.8835 Y-13.7288
G01 X25.8844 Y-13.7385
G01 X25.8997 Y-13.8403
G01 X25.9246 Y-13.9402
G01 X25.9274 Y-13.9495
G01 X25.9622 Y-14.0464
G01 X25.9947 Y-14.1155
G01 X25.6913 Y-14.4189
G01 X25.6810 Y-14.4229
G01 X25.6723 Y-14.4275
G01 X25.6641 Y-14.4328
G01 X25.6565 Y-14.4390
G01 X25.6002 Y-14.4919
G01 X25.5953 Y-14.4974
G01 X25.5908 Y-14.5033
G01 X25.5843 Y-14.5138
G01 X25.5801 Y-14.5227
G01 X25.5768 Y-14.5320
G01 X25.5584 Y-14.5995
G01 X25.5563 Y-14.6112
G01 X25.5556 Y-14.6231
G01 X25.5556 Y-14.7623
G01 X25.5558 Y-14.7693
G01 X25.5566 Y-14.7763
G01 X25.5589 Y-14.7878
G01 X25.5799 Y-14.8594
G01 X25.5824 Y-14.8662
G01 X25.5854 Y-14.8728
G01 X25.5900 Y-14.8812
G01 X25.5955 Y-14.8892
G01 X25.6153 Y-14.9138
G01 X25.6207 Y-14.9196
G01 X25.8187 Y-15.1176
G01 X25.8377 Y-15.1341
G01 X25.8515 Y-15.1445
G01 X25.8791 Y-15.1773
G01 X25.8889 Y-15.1878
G01 X25.9075 Y-15.2112
G01 X25.9532 Y-15.2657
G01 X25.9560 Y-15.2700
G01 X25.9573 Y-15.2721
G01 X25.9873 Y-15.3365
G01 X26.0205 Y-15.4026
G01 X26.0222 Y-15.4075
G01 X26.0230 Y-15.4098
G01 X26.0380 Y-15.4823
G01 X26.0544 Y-15.5514
G01 X26.0565 Y-15.5745
G01 X26.0588 Y-15.5870
G01 X26.0787 Y-15.6583
G01 X26.0824 Y-15.6673
G01 X26.0858 Y-15.6738
G01 X26.0896 Y-15.6800
G01 X26.0939 Y-15.6859
G01 X26.1124 Y-15.7096
G01 X26.1187 Y-15.7168
G01 X26.3101 Y-15.9083
G01 X26.3170 Y-15.9146
G01 X26.3226 Y-15.9189
G01 X26.3305 Y-15.9239
G01 X26.3981 Y-15.9608
G01 X26.4048 Y-15.9637
G01 X26.4139 Y-15.9668
G01 X26.4209 Y-15.9685
G01 X26.4305 Y-15.9701
G01 X26.4595 Y-15.9731
G01 X26.4674 Y-15.9734
G01 X35.4355 Y-15.9734
G01 X35.4472 Y-15.9728
G01 X35.4587 Y-15.9707
G01 X35.5326 Y-15.9491
G01 X35.5440 Y-15.9446
G01 X35.5526 Y-15.9401
G01 X35.5608 Y-15.9347
G01 X35.5702 Y-15.9268
G01 X35.5769 Y-15.9198
G01 X35.6227 Y-15.8670
G01 X35.6273 Y-15.8612
G01 X35.6315 Y-15.8551
G01 X35.6352 Y-15.8488
G01 X35.6394 Y-15.8399
G01 X35.6419 Y-15.8329
G01 X35.6439 Y-15.8258
G01 X35.6562 Y-15.7696
G01 X35.6575 Y-15.7604
G01 X35.6579 Y-15.7510
G01 X35.6579 Y-0.1245
G01 X35.6573 Y-0.1128
G01 X35.6552 Y-0.1013
G01 X35.6336 Y-0.0274
G01 X35.6301 Y-0.0182
G01 X35.6246 Y-0.0074
G01 X35.6192 Y0.0008
G01 X35.6113 Y0.0102
G01 X35.6043 Y0.0169
G01 X35.5515 Y0.0627
G01 X35.5457 Y0.0673
G01 X35.5396 Y0.0715
G01 X35.5333 Y0.0752
G01 X35.5244 Y0.0794
G01 X35.5174 Y0.0819
G01 X35.5103 Y0.0839
G01 X35.4541 Y0.0962
G01 X35.4449 Y0.0975
G01 X35.4355 Y0.0979
G01 X11.4270 Y0.0979
G01 X11.4153 Y0.0973
G01 X11.4038 Y0.0952
G01 X11.3299 Y0.0736
G01 X11.3207 Y0.0701
G01 X11.3099 Y0.0646
G01 X11.3017 Y0.0592
G01 X11.2923 Y0.0513
G01 X11.2856 Y0.0443
G01 X11.2398 Y-0.0085
G01 X11.2323 Y-0.0183
G01 X11.2285 Y-0.0246
G01 X11.2241 Y-0.0334
G01 X11.2214 Y-0.0402
G01 X11.2192 Y-0.0473
G01 X11.2063 Y-0.1059
G01 X11.2048 Y-0.1175
G01 X11.2047 Y-0.8461
G01 X11.2059 Y-0.8578
G01 X11.2079 Y-0.8669
G01 X11.2282 Y-0.9362
G01 X11.2305 Y-0.9432
G01 X11.2356 Y-0.9543
G01 X11.2405 Y-0.9627
G01 X11.2463 Y-0.9706
G01 X11.2529 Y-0.9779
G01 X11.2582 Y-0.9829
G01 X11.3148 Y-1.0318
G01 X11.3207 Y-1.0361
G01 X11.3270 Y-1.0399
G01 X11.3357 Y-1.0443
G01 X11.3425 Y-1.0470
G01 X11.3495 Y-1.0492
G01 X11.3591 Y-1.0513
G01 X11.4355 Y-1.0622
G01 X11.4453 Y-1.0626
G01 X11.4550 Y-1.0621
G01 X11.4647 Y-1.0606
G01 X11.4741 Y-1.0581
G01 X11.4855 Y-1.0537
G01 X11.5491 Y-1.0247
G01 X11.5577 Y-1.0202
G01 X11.5639 Y-1.0163
G01 X11.5717 Y-1.0104
G01 X11.5818 Y-1.0012
G01 X11.6394 Y-0.9436
G01 X11.8188 Y-0.8180
G01 X12.0173 Y-0.7254
G01 X12.0986 Y-0.7037
G01 X12.0986 Y-1.0244
G01 X12.0818 Y-1.0307
G01 X11.9999 Y-1.0695
G01 X11.9201 Y-1.1174
G01 X11.8453 Y-1.1728
G01 X11.7798 Y-1.2320
G01 X11.7730 Y-1.2388
G01 X11.7138 Y-1.3043
G01 X11.6612 Y-1.3751
G01 X11.6558 Y-1.3832
G01 X11.6129 Y-1.4547
G01 X11.6084 Y-1.4632
G01 X11.5707 Y-1.5430
G01 X11.5394 Y-1.6307
G01 X11.5168 Y-1.7210
G01 X11.5031 Y-1.8130
G01 X11.4986 Y-1.9060
G01 X11.5031 Y-1.9990
G01 X11.5168 Y-2.0910
G01 X11.5394 Y-2.1813
G01 X11.5707 Y-2.2690
G01 X11.6084 Y-2.3488
G01 X11.6117 Y-2.3552
G01 X11.6584 Y-2.4329
G01 X11.7138 Y-2.5077
G01 X11.7763 Y-2.5767
G01 X11.8453 Y-2.6392
G01 X11.9201 Y-2.6946
G01 X11.9999 Y-2.7425
G01 X12.0840 Y-2.7823
G01 X12.1671 Y-2.8121
G01 X12.1763 Y-2.8149
G01 X12.2620 Y-2.8362
G01 X12.3540 Y-2.8499
G01 X12.4470 Y-2.8544
G01 X12.5351 Y-2.8502
G01 X12.5448 Y-2.8493
G01 X12.6320 Y-2.8362
G01 X12.7177 Y-2.8149
G01 X12.7269 Y-2.8121
G01 X12.8054 Y-2.7840
G01 X12.8122 Y-2.7813
G01 X12.8239 Y-2.7758
G01 X13.0831 Y-3.0350
G01 X13.0801 Y-3.0455
G01 X13.0783 Y-3.0551
G01 X13.0706 Y-3.1294
G01 X13.0704 Y-3.1417
G01 X13.0711 Y-3.1490
G01 X13.0722 Y-3.1562
G01 X13.0746 Y-3.1657
G01 X13.0788 Y-3.1771
G01 X13.1124 Y-3.2439
G01 X13.1160 Y-3.2503
G01 X13.1200 Y-3.2564
G01 X13.1244 Y-3.2622
G01 X13.1292 Y-3.2676
G01 X13.1382 Y-3.2759
G01 X13.1460 Y-3.2816
G01 X13.2037 Y-3.3178
G01 X13.2150 Y-3.3235
G01 X13.2245 Y-3.3270
G01 X13.3399 Y-3.3630
G01 X13.3552 Y-3.3719
G01 X13.3619 Y-3.3750
G01 X13.3687 Y-3.3775
G01 X13.4152 Y-3.3906
G01 X13.4925 Y-3.6881
G01 X13.4925 Y-4.8219
G01 X13.3925 Y-5.2072
G01 X13.3842 Y-5.2305
G01 X13.3821 Y-5.2375
G01 X13.3751 Y-5.2660
G01 X13.3699 Y-5.3022
G01 X13.3684 Y-5.3340
G01 X13.3684 Y-6.3500
G01 X13.3699 Y-6.3818
G01 X13.3743 Y-6.4132
G01 X13.3762 Y-6.4227
G01 X13.3834 Y-6.4512
G01 X13.3950 Y-6.4834
G01 X13.4096 Y-6.5143
G01 X13.4246 Y-6.5396
G01 X13.4300 Y-6.5476
G01 X13.4491 Y-6.5730
G01 X13.4705 Y-6.5965
G01 X14.0034 Y-7.1294
G01 X14.0034 Y-8.5520
G01 X13.9941 Y-8.5650
G01 X13.9818 Y-8.5860
G01 X13.9725 Y-8.6059
G01 X13.9650 Y-8.6266
G01 X13.9594 Y-8.6478
G01 X13.9575 Y-8.6573
G01 X13.9547 Y-8.6766
G01 X13.9536 Y-8.6986
G01 X13.9536 Y-10.3205
G01 X13.5596 Y-10.7144
G01 X12.1264 Y-10.7144
G01 X12.1263 Y-10.4742
G01 X12.1248 Y-10.4448
G01 X12.1206 Y-10.4158
G01 X12.1187 Y-10.4063
G01 X12.1107 Y-10.3755
G01 X12.0999 Y-10.3457
G01 X12.0853 Y-10.3147
G01 X12.0677 Y-10.2854
G01 X12.0474 Y-10.2579
G01 X12.0244 Y-10.2326
G01 X11.9991 Y-10.2096
G01 X11.9716 Y-10.1893
G01 X11.9401 Y-10.1706
G01 X11.9158 Y-10.1590
G01 X11.9068 Y-10.1553
G01 X11.8791 Y-10.1456
G01 X11.8507 Y-10.1383
G01 X11.8412 Y-10.1364
G01 X11.8122 Y-10.1322
G01 X11.7804 Y-10.1306
G01 X10.8232 Y-10.1307
G01 X10.7938 Y-10.1322
G01 X10.7600 Y-10.1372
G01 X10.7269 Y-10.1456
G01 X10.6947 Y-10.1571
G01 X10.6637 Y-10.1717
G01 X10.6364 Y-10.1880
G01 X10.6088 Y-10.2081
G01 X10.5904 Y-10.2245
G01 X10.1845 Y-9.8185
G01 X10.1572 Y-9.7940
G01 X10.1317 Y-9.7752
G01 X10.1023 Y-9.7576
G01 X10.0714 Y-9.7430
G01 X10.0392 Y-9.7314
G01 X10.0060 Y-9.7231
G01 X9.9722 Y-9.7181
G01 X9.9404 Y-9.7165
G01 X9.8912 Y-9.7164
G01 X9.8807 Y-9.6862
G01 X9.8770 Y-9.6772
G01 X9.8643 Y-9.6507
G01 X9.8493 Y-9.6255
G01 X9.8439 Y-9.6175
G01 X9.8264 Y-9.5939
G01 X9.8067 Y-9.5721
G01 X9.7999 Y-9.5653
G01 X9.7781 Y-9.5456
G01 X9.7545 Y-9.5281
G01 X9.7465 Y-9.5227
G01 X9.7213 Y-9.5077
G01 X9.6948 Y-9.4950
G01 X9.6858 Y-9.4913
G01 X9.6581 Y-9.4816
G01 X9.6273 Y-9.4737
G01 X9.5912 Y-9.4682
G01 X9.5570 Y-9.4666
G01 X6.5570 Y-9.4666
G00 Z2.0000
G00 X6.6187 Y-10.9627
G01 F60.00
G01 Z-0.1500
G01 F240.00
G01 X6.6232 Y-10.9860
G01 X6.6259 Y-11.0055
G01 X6.6276 Y-11.0252
G01 X6.6284 Y-11.0548
G01 X6.6276 Y-11.0746
G01 X6.6259 Y-11.0942
G01 X6.6232 Y-11.1138
G01 X6.6145 Y-11.1673
G01 X9.5570 Y-11.1673
G01 X9.5765 Y-11.1677
G01 X9.6108 Y-11.1695
G01 X9.6302 Y-11.1715
G01 X9.6738 Y-11.1779
G01 X9.6929 Y-11.1817
G01 X9.7357 Y-11.1924
G01 X9.7543 Y-11.1981
G01 X9.7958 Y-11.2129
G01 X9.8139 Y-11.2204
G01 X9.8537 Y-11.2393
G01 X9.8709 Y-11.2485
G01 X9.9087 Y-11.2711
G01 X9.9249 Y-11.2819
G01 X9.9603 Y-11.3082
G01 X9.9754 Y-11.3206
G01 X10.0080 Y-11.3502
G01 X10.0218 Y-11.3640
G01 X10.0353 Y-11.3786
G01 X10.0471 Y-11.3738
G01 X10.0794 Y-11.3622
G01 X10.1069 Y-11.3534
G01 X10.1287 Y-11.3365
G01 X10.1449 Y-11.3253
G01 X10.1618 Y-11.3149
G01 X10.1791 Y-11.3054
G01 X10.1968 Y-11.2967
G01 X10.2150 Y-11.2890
G01 X10.2335 Y-11.2821
G01 X10.2524 Y-11.2761
G01 X10.2512 Y-11.2736
G01 X10.2421 Y-11.2677
G01 X10.2261 Y-11.2564
G01 X10.2064 Y-11.2418
G01 X10.1910 Y-11.2298
G01 X10.1762 Y-11.2171
G01 X10.1509 Y-11.1939
G01 X9.8495 Y-10.8928
G01 X9.8139 Y-10.9096
G01 X9.7867 Y-10.9205
G01 X9.7636 Y-10.9287
G01 X9.7450 Y-10.9348
G01 X9.7262 Y-10.9401
G01 X9.7024 Y-10.9460
G01 X9.6738 Y-10.9521
G01 X9.6302 Y-10.9585
G01 X9.6108 Y-10.9605
G01 X9.5668 Y-10.9626
G01 X6.6187 Y-10.9627
G00 Z2.0000
G00 X6.6144 Y-13.1673
G01 F60.00
G01 Z-0.1500
G01 F240.00
G01 X9.4953 Y-13.1673
G01 X9.4908 Y-13.1441
G01 X9.4881 Y-13.1245
G01 X9.4859 Y-13.0949
G01 X9.4856 Y-13.0752
G01 X9.4864 Y-13.0554
G01 X9.4881 Y-13.0358
G01 X9.4908 Y-13.0162
G01 X9.4995 Y-12.9627
G01 X6.6188 Y-12.9627
G01 X6.6232 Y-12.9854
G01 X6.6259 Y-13.0049
G01 X6.6281 Y-13.0345
G01 X6.6284 Y-13.0542
G01 X6.6276 Y-13.0740
G01 X6.6259 Y-13.0937
G01 X6.6232 Y-13.1132
G01 X6.6144 Y-13.1673
G00 Z2.0000
G00 X6.2871 Y-15.0650
G01 F60.00
G01 Z-0.1500
G01 F240.00
G01 X6.2643 Y-15.0567
G01 X6.2585 Y-15.0543
G01 X6.2585 Y-15.0757
G01 X6.2871 Y-15.0650
G00 Z2.0000
G00 X6.5570 Y-15.4666
G01 F60.00
G01 Z-0.1500
G01 F240.00
G01 X6.5228 Y-15.4682
G01 X6.4890 Y-15.4732
G01 X6.4559 Y-15.4816
G01 X6.4282 Y-15.4913
G01 X6.4192 Y-15.4950
G01 X6.3949 Y-15.5066
G01 X6.3675 Y-15.5227
G01 X6.3595 Y-15.5281
G01 X6.3378 Y-15.5441
G01 X6.3323 Y-15.5488
G01 X6.3106 Y-15.5686
G01 X6.2876 Y-15.5939
G01 X6.2673 Y-15.6214
G01 X6.2497 Y-15.6507
G01 X6.2351 Y-15.6817
G01 X6.2236 Y-15.7139
G01 X6.2152 Y-15.7470
G01 X6.2105 Y-15.7784
G01 X6.2086 Y-15.8150
G01 X6.2086 Y-16.3174
G01 X6.2099 Y-16.3443
G01 X6.2108 Y-16.3539
G01 X6.2152 Y-16.3830
G01 X6.2223 Y-16.4115
G01 X6.2251 Y-16.4207
G01 X6.2351 Y-16.4483
G01 X6.2497 Y-16.4793
G01 X6.2673 Y-16.5086
G01 X6.2847 Y-16.5322
G01 X6.2908 Y-16.5397
G01 X6.3089 Y-16.5597
G01 X6.3141 Y-16.5647
G01 X6.3359 Y-16.5844
G01 X6.3595 Y-16.6019
G01 X6.3675 Y-16.6073
G01 X6.3927 Y-16.6223
G01 X6.4259 Y-16.6378
G01 X6.4559 Y-16.6484
G01 X6.4890 Y-16.6568
G01 X6.5228 Y-16.6618
G01 X6.5570 Y-16.6634
G01 X9.5570 Y-16.6634
G01 X9.5863 Y-16.6621
G01 X9.5959 Y-16.6612
G01 X9.6250 Y-16.6568
G01 X9.6558 Y-16.6491
G01 X9.6903 Y-16.6369
G01 X9.7169 Y-16.6245
G01 X9.7255 Y-16.6199
G01 X9.7506 Y-16.6047
G01 X9.7742 Y-16.5873
G01 X9.7817 Y-16.5812
G01 X9.8034 Y-16.5614
G01 X9.8264 Y-16.5361
G01 X9.8439 Y-16.5125
G01 X9.8493 Y-16.5045
G01 X9.8654 Y-16.4771
G01 X9.8789 Y-16.4483
G01 X9.8904 Y-16.4161
G01 X9.8983 Y-16.3853
G01 X9.9021 Y-16.3611
G01 X9.9127 Y-16.3545
G01 X9.9362 Y-16.3370
G01 X9.9635 Y-16.3125
G01 X11.8045 Y-14.4715
G01 X11.8243 Y-14.4498
G01 X11.8304 Y-14.4423
G01 X11.8478 Y-14.4187
G01 X11.8654 Y-14.3893
G01 X11.8800 Y-14.3584
G01 X11.8916 Y-14.3262
G01 X11.8999 Y-14.2930
G01 X11.9049 Y-14.2592
G01 X11.9066 Y-14.2250
G01 X11.9053 Y-14.1957
G01 X11.9043 Y-14.1860
G01 X11.9003 Y-14.1594
G01 X11.8929 Y-14.1285
G01 X11.8908 Y-14.1215
G01 X11.8825 Y-14.0980
G01 X11.7815 Y-13.7126
G01 X11.7815 Y-13.5542
G01 X12.4962 Y-12.8395
G01 X16.5960 Y-12.8395
G01 X16.6131 Y-12.8388
G01 X16.6203 Y-12.8382
G01 X16.6372 Y-12.8357
G01 X16.6586 Y-12.8306
G01 X16.6793 Y-12.8234
G01 X16.6970 Y-12.8153
G01 X16.7035 Y-12.8120
G01 X16.7202 Y-12.8018
G01 X16.7340 Y-12.7918
G01 X16.7409 Y-12.7862
G01 X17.0262 Y-12.6417
G01 X17.0542 Y-12.6285
G01 X17.0836 Y-12.6111
G01 X17.1131 Y-12.5895
G01 X17.1350 Y-12.5698
G01 X17.1418 Y-12.5630
G01 X17.1615 Y-12.5411
G01 X17.1790 Y-12.5176
G01 X17.1844 Y-12.5096
G01 X17.1994 Y-12.4843
G01 X17.2140 Y-12.4534
G01 X17.2240 Y-12.4258
G01 X17.2269 Y-12.4165
G01 X17.2339 Y-12.3880
G01 X17.2383 Y-12.3590
G01 X17.2391 Y-12.3518
G01 X17.2405 Y-12.3248
G01 X17.2406 Y-10.5000
G01 X17.2499 Y-10.4870
G01 X17.2622 Y-10.4660
G01 X17.2715 Y-10.4461
G01 X17.2790 Y-10.4254
G01 X17.2846 Y-10.4042
G01 X17.2865 Y-10.3947
G01 X17.2893 Y-10.3754
G01 X17.2904 Y-10.3510
G01 X17.2904 Y-8.6986
G01 X17.2893 Y-8.6766
G01 X17.2865 Y-8.6573
G01 X17.2846 Y-8.6478
G01 X17.2798 Y-8.6289
G01 X17.2733 Y-8.6104
G01 X17.2696 Y-8.6015
G01 X17.2611 Y-8.5839
G01 X17.2499 Y-8.5650
G01 X17.2341 Y-8.5434
G01 X17.2177 Y-8.5253
G01 X17.1996 Y-8.5089
G01 X17.1800 Y-8.4944
G01 X17.1591 Y-8.4819
G01 X17.1371 Y-8.4715
G01 X17.1141 Y-8.4632
G01 X17.0905 Y-8.4573
G01 X17.0664 Y-8.4537
G01 X17.0420 Y-8.4526
G01 X16.7420 Y-8.4526
G01 X16.7152 Y-8.4540
G01 X16.6935 Y-8.4573
G01 X16.6722 Y-8.4626
G01 X16.6514 Y-8.4697
G01 X16.6425 Y-8.4734
G01 X16.6249 Y-8.4819
G01 X16.6040 Y-8.4944
G01 X16.5844 Y-8.5089
G01 X16.5698 Y-8.5220
G01 X16.5630 Y-8.5288
G01 X16.5515 Y-8.5415
G01 X16.5470 Y-8.5472
G01 X16.5354 Y-8.5630
G01 X16.5229 Y-8.5839
G01 X16.5125 Y-8.6059
G01 X16.5058 Y-8.6243
G01 X16.5030 Y-8.6335
G01 X16.4983 Y-8.6525
G01 X16.4947 Y-8.6766
G01 X16.4936 Y-8.7010
G01 X16.4936 Y-10.3534
G01 X16.4947 Y-10.3754
G01 X16.4975 Y-10.3947
G01 X16.4994 Y-10.4042
G01 X16.5050 Y-10.4254
G01 X16.5125 Y-10.4461
G01 X16.5218 Y-10.4660
G01 X16.5341 Y-10.4870
G01 X16.5434 Y-10.5000
G01 X16.5434 Y-12.2387
G01 X16.4656 Y-12.3925
G01 X12.4036 Y-12.3925
G01 X12.3817 Y-12.3936
G01 X12.3648 Y-12.3960
G01 X12.3576 Y-12.3973
G01 X12.3387 Y-12.4021
G01 X12.3181 Y-12.4095
G01 X12.3004 Y-12.4178
G01 X12.2940 Y-12.4213
G01 X12.2794 Y-12.4302
G01 X12.2656 Y-12.4402
G01 X12.2600 Y-12.4448
G01 X12.2473 Y-12.4563
G01 X11.4000 Y-13.3036
G01 X11.3852 Y-13.3198
G01 X11.3722 Y-13.3374
G01 X11.3620 Y-13.3541
G01 X11.3587 Y-13.3606
G01 X11.3515 Y-13.3761
G01 X11.3456 Y-13.3921
G01 X11.3434 Y-13.3990
G01 X11.3388 Y-13.4180
G01 X11.3356 Y-13.4397
G01 X11.3345 Y-13.4616
G01 X11.3345 Y-13.7126
G01 X11.2482 Y-14.0419
G01 X9.7588 Y-15.5312
G01 X9.7486 Y-15.5240
G01 X9.7191 Y-15.5066
G01 X9.6903 Y-15.4931
G01 X9.6605 Y-15.4823
G01 X9.6297 Y-15.4743
G01 X9.6202 Y-15.4724
G01 X9.5912 Y-15.4682
G01 X9.5594 Y-15.4666
G01 X6.5570 Y-15.4666
G00 Z2.0000
G00 X5.1125 Y-14.6442
G01 F60.00
G01 Z-0.1500
G01 F240.00
G01 X5.1124 Y-16.3830
G01 X5.1141 Y-16.4172
G01 X5.1183 Y-16.4462
G01 X5.1202 Y-16.4557
G01 X5.1282 Y-16.4865
G01 X5.1372 Y-16.5119
G01 X5.1409 Y-16.5208
G01 X5.1536 Y-16.5473
G01 X5.1686 Y-16.5726
G01 X5.1740 Y-16.5806
G01 X5.1915 Y-16.6041
G01 X5.2128 Y-16.6278
G01 X5.9765 Y-17.3915
G01 X5.9982 Y-17.4113
G01 X6.0057 Y-17.4174
G01 X6.0293 Y-17.4348
G01 X6.0566 Y-17.4513
G01 X6.0896 Y-17.4670
G01 X6.1172 Y-17.4770
G01 X6.1265 Y-17.4799
G01 X6.1550 Y-17.4869
G01 X6.1840 Y-17.4913
G01 X6.1937 Y-17.4923
G01 X6.2230 Y-17.4936
G01 X10.1382 Y-17.4936
G01 X10.1610 Y-17.4946
G01 X10.1952 Y-17.4929
G01 X10.2290 Y-17.4879
G01 X10.2575 Y-17.4809
G01 X10.2668 Y-17.4780
G01 X10.2944 Y-17.4680
G01 X10.3253 Y-17.4534
G01 X10.3506 Y-17.4384
G01 X10.3586 Y-17.4330
G01 X10.3821 Y-17.4155
G01 X10.4058 Y-17.3942
G01 X12.4395 Y-15.3605
G01 X12.4625 Y-15.3351
G01 X12.4841 Y-15.3056
G01 X12.5004 Y-15.2783
G01 X12.5131 Y-15.2518
G01 X12.5168 Y-15.2429
G01 X12.5266 Y-15.2152
G01 X12.5349 Y-15.1820
G01 X12.5393 Y-15.1530
G01 X12.5403 Y-15.1433
G01 X12.5415 Y-15.1164
G01 X12.5415 Y-15.1092
G01 X12.5396 Y-15.0774
G01 X12.5357 Y-15.0508
G01 X12.5338 Y-15.0413
G01 X12.5266 Y-15.0128
G01 X12.5175 Y-14.9870
G01 X12.4165 Y-14.6016
G01 X12.4165 Y-13.8067
G01 X12.9177 Y-13.3055
G01 X17.6540 Y-13.3055
G01 X17.6759 Y-13.3044
G01 X17.6928 Y-13.3020
G01 X17.7023 Y-13.3002
G01 X17.7212 Y-13.2952
G01 X17.7395 Y-13.2885
G01 X17.7572 Y-13.2802
G01 X17.7741 Y-13.2704
G01 X17.7802 Y-13.2665
G01 X17.7958 Y-13.2548
G01 X17.8085 Y-13.2434
G01 X18.1506 Y-12.9015
G01 X18.1606 Y-12.8966
G01 X18.1709 Y-12.8901
G01 X18.1785 Y-12.8840
G01 X18.1893 Y-12.8739
G01 X18.6487 Y-12.4146
G01 X25.3194 Y-12.4146
G01 X25.3495 Y-12.4178
G01 X25.3640 Y-12.4184
G01 X25.6036 Y-12.4184
G01 X25.6153 Y-12.4178
G01 X25.6268 Y-12.4157
G01 X25.6984 Y-12.3948
G01 X25.7098 Y-12.3907
G01 X25.7184 Y-12.3864
G01 X25.7266 Y-12.3813
G01 X25.7551 Y-12.3587
G01 X25.7609 Y-12.3533
G01 X26.1584 Y-11.9557
G01 X26.1657 Y-11.9466
G01 X26.1719 Y-11.9367
G01 X26.2065 Y-11.8732
G01 X26.2106 Y-11.8643
G01 X26.2137 Y-11.8550
G01 X26.2163 Y-11.8431
G01 X26.2171 Y-11.8358
G01 X26.2174 Y-11.8285
G01 X26.2130 Y-11.7628
G01 X26.4875 Y-11.4883
G01 X26.5566 Y-11.5208
G01 X26.6581 Y-11.5572
G01 X26.7627 Y-11.5833
G01 X26.8645 Y-11.5986
G01 X26.8742 Y-11.5995
G01 X26.9722 Y-11.6043
G01 X26.9818 Y-11.6043
G01 X27.0847 Y-11.5992
G01 X27.1889 Y-11.5838
G01 X27.2912 Y-11.5584
G01 X27.3005 Y-11.5556
G01 X27.3974 Y-11.5208
G01 X27.4948 Y-11.4747
G01 X27.5873 Y-11.4193
G01 X27.6700 Y-11.3581
G01 X27.6775 Y-11.3520
G01 X27.7554 Y-11.2810
G01 X27.8261 Y-11.2028
G01 X27.8875 Y-11.1202
G01 X27.8929 Y-11.1122
G01 X27.9457 Y-11.0238
G01 X27.9918 Y-10.9264
G01 X28.0266 Y-10.8295
G01 X28.0294 Y-10.8202
G01 X28.0548 Y-10.7179
G01 X28.0702 Y-10.6137
G01 X28.0753 Y-10.5108
G01 X28.0753 Y-10.5012
G01 X28.0705 Y-10.4032
G01 X28.0696 Y-10.3935
G01 X28.0543 Y-10.2917
G01 X28.0282 Y-10.1871
G01 X27.9918 Y-10.0856
G01 X27.9593 Y-10.0165
G01 X28.1843 Y-9.7915
G01 X28.2139 Y-9.8366
G01 X28.3072 Y-10.0494
G01 X28.3642 Y-10.2745
G01 X28.3834 Y-10.5060
G01 X28.3642 Y-10.7375
G01 X28.3072 Y-10.9626
G01 X28.2139 Y-11.1754
G01 X28.1234 Y-11.3138
G01 X28.1197 Y-11.3198
G01 X28.1166 Y-11.3261
G01 X28.1122 Y-11.3370
G01 X28.0914 Y-11.4061
G01 X28.0895 Y-11.4132
G01 X28.0882 Y-11.4204
G01 X28.0873 Y-11.4302
G01 X28.0873 Y-11.4399
G01 X28.0883 Y-11.4497
G01 X28.0903 Y-11.4592
G01 X28.1108 Y-11.5311
G01 X28.1152 Y-11.5425
G01 X28.1209 Y-11.5533
G01 X28.1280 Y-11.5633
G01 X28.1362 Y-11.5724
G01 X28.1940 Y-11.6234
G01 X28.2015 Y-11.6291
G01 X28.2096 Y-11.6340
G01 X28.2180 Y-11.6382
G01 X28.2269 Y-11.6415
G01 X28.2360 Y-11.6440
G01 X28.2907 Y-11.6561
G01 X28.3001 Y-11.6575
G01 X28.3096 Y-11.6579
G01 X32.1444 Y-11.6579
G01 X32.1561 Y-11.6573
G01 X32.1630 Y-11.6562
G01 X32.1699 Y-11.6546
G01 X32.2392 Y-11.6343
G01 X32.2461 Y-11.6320
G01 X32.2529 Y-11.6291
G01 X32.2615 Y-11.6246
G01 X32.2677 Y-11.6206
G01 X32.2754 Y-11.6146
G01 X32.2825 Y-11.6079
G01 X32.3332 Y-11.5496
G01 X32.3403 Y-11.5397
G01 X32.3452 Y-11.5312
G01 X32.3482 Y-11.5245
G01 X32.3515 Y-11.5153
G01 X32.3533 Y-11.5082
G01 X32.3546 Y-11.5010
G01 X32.3651 Y-11.4272
G01 X32.3656 Y-11.4201
G01 X32.3655 Y-11.4130
G01 X32.3642 Y-11.4013
G01 X32.3622 Y-11.3921
G01 X32.3592 Y-11.3831
G01 X32.3394 Y-11.3307
G01 X32.3343 Y-11.3200
G01 X32.2401 Y-11.1754
G01 X32.1468 Y-10.9626
G01 X32.0898 Y-10.7375
G01 X32.0706 Y-10.5060
G01 X32.0898 Y-10.2745
G01 X32.1468 Y-10.0494
G01 X32.2401 Y-9.8367
G01 X32.2697 Y-9.7915
G01 X32.4947 Y-10.0165
G01 X32.4622 Y-10.0856
G01 X32.4274 Y-10.1825
G01 X32.4246 Y-10.1918
G01 X32.3992 Y-10.2941
G01 X32.3838 Y-10.3983
G01 X32.3787 Y-10.5012
G01 X32.3787 Y-10.5108
G01 X32.3841 Y-10.6161
G01 X32.3997 Y-10.7203
G01 X32.4246 Y-10.8202
G01 X32.4274 Y-10.8295
G01 X32.4622 Y-10.9264
G01 X32.5061 Y-11.0195
G01 X32.5106 Y-11.0280
G01 X32.5637 Y-11.1163
G01 X32.6264 Y-11.2010
G01 X32.6969 Y-11.2792
G01 X32.7038 Y-11.2861
G01 X32.7802 Y-11.3551
G01 X32.8628 Y-11.4165
G01 X32.8708 Y-11.4219
G01 X32.9592 Y-11.4747
G01 X33.0522 Y-11.5189
G01 X33.0611 Y-11.5226
G01 X33.1581 Y-11.5572
G01 X33.2580 Y-11.5823
G01 X33.2675 Y-11.5842
G01 X33.3693 Y-11.5992
G01 X33.4770 Y-11.6044
G01 X33.5798 Y-11.5995
G01 X33.5895 Y-11.5986
G01 X33.6937 Y-11.5828
G01 X33.7959 Y-11.5572
G01 X33.8929 Y-11.5226
G01 X33.9018 Y-11.5189
G01 X33.9948 Y-11.4747
G01 X34.0832 Y-11.4219
G01 X34.0912 Y-11.4165
G01 X34.1700 Y-11.3581
G01 X34.1775 Y-11.3520
G01 X34.2537 Y-11.2827
G01 X34.3261 Y-11.2028
G01 X34.3903 Y-11.1163
G01 X34.4457 Y-11.0238
G01 X34.4918 Y-10.9264
G01 X34.5282 Y-10.8249
G01 X34.5543 Y-10.7203
G01 X34.5696 Y-10.6185
G01 X34.5705 Y-10.6088
G01 X34.5754 Y-10.5060
G01 X34.5705 Y-10.4032
G01 X34.5696 Y-10.3935
G01 X34.5552 Y-10.2965
G01 X34.5533 Y-10.2870
G01 X34.5282 Y-10.1871
G01 X34.4918 Y-10.0856
G01 X34.4457 Y-9.9882
G01 X34.3903 Y-9.8957
G01 X34.3261 Y-9.8092
G01 X34.2537 Y-9.7293
G01 X34.1738 Y-9.6569
G01 X34.0873 Y-9.5927
G01 X33.9948 Y-9.5373
G01 X33.8996 Y-9.4921
G01 X33.8929 Y-9.4894
G01 X33.7959 Y-9.4548
G01 X33.6913 Y-9.4287
G01 X33.5847 Y-9.4128
G01 X33.4818 Y-9.4077
G01 X33.4746 Y-9.4076
G01 X33.3693 Y-9.4128
G01 X33.2675 Y-9.4278
G01 X33.2580 Y-9.4297
G01 X33.1628 Y-9.4536
G01 X33.1535 Y-9.4564
G01 X33.0566 Y-9.4912
G01 X32.9875 Y-9.5237
G01 X32.7627 Y-9.2989
G01 X32.9121 Y-9.2181
G01 X33.1318 Y-9.1427
G01 X33.3609 Y-9.1044
G01 X33.5931 Y-9.1044
G01 X33.8222 Y-9.1427
G01 X34.0419 Y-9.2181
G01 X34.2622 Y-9.3372
G01 X34.2688 Y-9.3401
G01 X34.2757 Y-9.3424
G01 X34.2850 Y-9.3448
G01 X34.2925 Y-9.3461
G01 X34.3399 Y-9.3604
G01 X34.3495 Y-9.3625
G01 X34.3616 Y-9.3638
G01 X34.3714 Y-9.3637
G01 X34.3835 Y-9.3623
G01 X34.3931 Y-9.3601
G01 X34.4672 Y-9.3387
G01 X34.4784 Y-9.3337
G01 X34.4869 Y-9.3288
G01 X34.4948 Y-9.3231
G01 X34.5021 Y-9.3166
G01 X34.5533 Y-9.2589
G01 X34.5578 Y-9.2534
G01 X34.5619 Y-9.2476
G01 X34.5655 Y-9.2415
G01 X34.5687 Y-9.2352
G01 X34.5715 Y-9.2287
G01 X34.5737 Y-9.2220
G01 X34.5880 Y-9.1581
G01 X34.5892 Y-9.1486
G01 X34.5894 Y-9.1414
G01 X34.5894 Y-8.6340
G01 X34.5890 Y-8.6246
G01 X34.5877 Y-8.6154
G01 X34.5855 Y-8.6063
G01 X34.5658 Y-8.5392
G01 X34.5626 Y-8.5300
G01 X34.5584 Y-8.5211
G01 X34.5521 Y-8.5107
G01 X34.5445 Y-8.5011
G01 X34.5376 Y-8.4942
G01 X34.4811 Y-8.4452
G01 X34.4732 Y-8.4393
G01 X34.4626 Y-8.4332
G01 X34.4513 Y-8.4284
G01 X34.4418 Y-8.4256
G01 X34.3856 Y-8.4133
G01 X34.3764 Y-8.4120
G01 X34.3693 Y-8.4116
G01 X27.1034 Y-8.4116
G01 X27.0940 Y-8.4120
G01 X27.0847 Y-8.4133
G01 X27.0756 Y-8.4155
G01 X27.0086 Y-8.4352
G01 X26.9972 Y-8.4393
G01 X26.9886 Y-8.4436
G01 X26.9804 Y-8.4487
G01 X26.9539 Y-8.4697
G01 X26.9461 Y-8.4767
G01 X26.6981 Y-8.7247
G01 X26.6933 Y-8.7298
G01 X26.6889 Y-8.7353
G01 X26.6849 Y-8.7411
G01 X26.6813 Y-8.7471
G01 X26.6456 Y-8.8128
G01 X26.6426 Y-8.8195
G01 X26.6395 Y-8.8288
G01 X26.6377 Y-8.8359
G01 X26.6365 Y-8.8431
G01 X26.6359 Y-8.8504
G01 X26.6359 Y-8.8602
G01 X26.6410 Y-8.9324
G01 X26.6418 Y-8.9396
G01 X26.6443 Y-8.9516
G01 X26.6474 Y-8.9609
G01 X26.6514 Y-8.9698
G01 X26.6575 Y-8.9803
G01 X26.7037 Y-9.0422
G01 X26.7119 Y-9.0513
G01 X26.7211 Y-9.0593
G01 X26.7312 Y-9.0662
G01 X26.7421 Y-9.0717
G01 X26.8167 Y-9.0995
G01 X26.8237 Y-9.1015
G01 X26.8333 Y-9.1032
G01 X26.8406 Y-9.1040
G01 X26.8518 Y-9.1044
G01 X27.0931 Y-9.1044
G01 X27.3222 Y-9.1427
G01 X27.5419 Y-9.2181
G01 X27.6913 Y-9.2989
G01 X27.4665 Y-9.5237
G01 X27.3974 Y-9.4912
G01 X27.2959 Y-9.4548
G01 X27.1913 Y-9.4287
G01 X27.0895 Y-9.4134
G01 X27.0798 Y-9.4125
G01 X26.9818 Y-9.4077
G01 X26.9722 Y-9.4077
G01 X26.8693 Y-9.4128
G01 X26.7651 Y-9.4282
G01 X26.6628 Y-9.4536
G01 X26.6535 Y-9.4564
G01 X26.5566 Y-9.4912
G01 X26.4592 Y-9.5373
G01 X26.3667 Y-9.5927
G01 X26.2840 Y-9.6539
G01 X26.2765 Y-9.6600
G01 X26.2003 Y-9.7293
G01 X26.1310 Y-9.8055
G01 X26.1249 Y-9.8130
G01 X26.0637 Y-9.8957
G01 X26.0083 Y-9.9882
G01 X25.9622 Y-10.0856
G01 X25.9274 Y-10.1825
G01 X25.9246 Y-10.1918
G01 X25.8992 Y-10.2941
G01 X25.8838 Y-10.3983
G01 X25.8787 Y-10.5012
G01 X25.8787 Y-10.5108
G01 X25.8835 Y-10.6088
G01 X25.8844 Y-10.6185
G01 X25.8997 Y-10.7203
G01 X25.9258 Y-10.8249
G01 X25.9622 Y-10.9264
G01 X25.9947 Y-10.9955
G01 X25.7697 Y-11.2205
G01 X25.7401 Y-11.1754
G01 X25.6468 Y-10.9626
G01 X25.5898 Y-10.7375
G01 X25.5706 Y-10.5060
G01 X25.5796 Y-10.3978
G01 X25.5799 Y-10.3908
G01 X25.5798 Y-10.3838
G01 X25.5784 Y-10.3721
G01 X25.5638 Y-10.3014
G01 X25.5621 Y-10.2943
G01 X25.5590 Y-10.2850
G01 X25.5560 Y-10.2783
G01 X25.5513 Y-10.2697
G01 X25.5458 Y-10.2617
G01 X25.5395 Y-10.2542
G01 X25.4872 Y-10.2007
G01 X25.4780 Y-10.1928
G01 X25.4678 Y-10.1860
G01 X25.4568 Y-10.1806
G01 X25.4453 Y-10.1765
G01 X25.3725 Y-10.1597
G01 X25.3653 Y-10.1583
G01 X25.3580 Y-10.1575
G01 X25.3507 Y-10.1572
G01 X25.3433 Y-10.1575
G01 X25.3312 Y-10.1591
G01 X25.3194 Y-10.1622
G01 X25.2447 Y-10.1894
G01 X25.2362 Y-10.1937
G01 X25.2263 Y-10.2001
G01 X25.2024 Y-10.2204
G01 X23.9632 Y-11.4596
G01 X23.4610 Y-11.4597
G01 X23.4494 Y-11.4609
G01 X23.4402 Y-11.4629
G01 X23.3710 Y-11.4832
G01 X23.3641 Y-11.4855
G01 X23.3574 Y-11.4883
G01 X23.3509 Y-11.4916
G01 X23.3447 Y-11.4953
G01 X23.3369 Y-11.5010
G01 X23.3123 Y-11.5211
G01 X23.1157 Y-11.7174
G01 X18.5106 Y-11.7174
G01 X18.5106 Y-10.5000
G01 X18.5199 Y-10.4870
G01 X18.5322 Y-10.4660
G01 X18.5415 Y-10.4461
G01 X18.5490 Y-10.4254
G01 X18.5546 Y-10.4042
G01 X18.5565 Y-10.3947
G01 X18.5593 Y-10.3754
G01 X18.5604 Y-10.3534
G01 X18.5604 Y-8.7010
G01 X18.5593 Y-8.6766
G01 X18.5561 Y-8.6549
G01 X18.5546 Y-8.6478
G01 X18.5490 Y-8.6266
G01 X18.5415 Y-8.6059
G01 X18.5333 Y-8.5882
G01 X18.5287 Y-8.5797
G01 X18.5186 Y-8.5630
G01 X18.5070 Y-8.5472
G01 X18.5009 Y-8.5397
G01 X18.4877 Y-8.5253
G01 X18.4733 Y-8.5121
G01 X18.4658 Y-8.5060
G01 X18.4500 Y-8.4944
G01 X18.4333 Y-8.4843
G01 X18.4248 Y-8.4797
G01 X18.4071 Y-8.4715
G01 X18.3864 Y-8.4640
G01 X18.3652 Y-8.4584
G01 X18.3557 Y-8.4565
G01 X18.3364 Y-8.4537
G01 X18.3144 Y-8.4526
G01 X18.0096 Y-8.4526
G01 X17.9876 Y-8.4537
G01 X17.9635 Y-8.4573
G01 X17.9399 Y-8.4632
G01 X17.9214 Y-8.4697
G01 X17.9125 Y-8.4734
G01 X17.8970 Y-8.4808
G01 X17.8907 Y-8.4843
G01 X17.8740 Y-8.4944
G01 X17.8544 Y-8.5089
G01 X17.8363 Y-8.5253
G01 X17.8199 Y-8.5434
G01 X17.8054 Y-8.5630
G01 X17.7953 Y-8.5797
G01 X17.7907 Y-8.5882
G01 X17.7834 Y-8.6037
G01 X17.7807 Y-8.6104
G01 X17.7742 Y-8.6289
G01 X17.7683 Y-8.6525
G01 X17.7647 Y-8.6766
G01 X17.7637 Y-8.6962
G01 X17.7636 Y-10.3534
G01 X17.7647 Y-10.3754
G01 X17.7675 Y-10.3947
G01 X17.7694 Y-10.4042
G01 X17.7750 Y-10.4254
G01 X17.7825 Y-10.4461
G01 X17.7918 Y-10.4660
G01 X17.8041 Y-10.4870
G01 X17.8134 Y-10.5000
G01 X17.8134 Y-12.0660
G01 X17.8151 Y-12.1002
G01 X17.8198 Y-12.1323
G01 X17.8113 Y-12.1714
G01 X17.8102 Y-12.1783
G01 X17.8096 Y-12.1877
G01 X17.8096 Y-12.6104
G01 X17.5614 Y-12.8585
G01 X12.8251 Y-12.8585
G01 X12.8056 Y-12.8594
G01 X12.7984 Y-12.8602
G01 X12.7815 Y-12.8628
G01 X12.7649 Y-12.8668
G01 X12.7579 Y-12.8688
G01 X12.7396 Y-12.8755
G01 X12.7197 Y-12.8849
G01 X12.7009 Y-12.8962
G01 X12.6871 Y-12.9062
G01 X12.6814 Y-12.9108
G01 X12.6670 Y-12.9240
G01 X12.0350 Y-13.5560
G01 X12.0202 Y-13.5723
G01 X12.0072 Y-13.5899
G01 X11.9959 Y-13.6087
G01 X11.9865 Y-13.6286
G01 X11.9791 Y-13.6492
G01 X11.9738 Y-13.6705
G01 X11.9706 Y-13.6922
G01 X11.9695 Y-13.7117
G01 X11.9695 Y-14.6016
G01 X11.8832 Y-14.9309
G01 X10.0176 Y-16.7964
G01 X6.3674 Y-16.7964
G01 X5.8096 Y-16.2386
G01 X5.8096 Y-14.7934
G01 X6.1894 Y-14.4136
G01 X6.2228 Y-14.4136
G01 X6.2251 Y-14.4207
G01 X6.2351 Y-14.4483
G01 X6.2475 Y-14.4749
G01 X6.2509 Y-14.4814
G01 X6.2647 Y-14.5045
G01 X6.2701 Y-14.5125
G01 X6.2876 Y-14.5361
G01 X6.3106 Y-14.5614
G01 X6.3359 Y-14.5844
G01 X6.3595 Y-14.6019
G01 X6.3675 Y-14.6073
G01 X6.3927 Y-14.6223
G01 X6.4192 Y-14.6350
G01 X6.4282 Y-14.6387
G01 X6.4559 Y-14.6484
G01 X6.4843 Y-14.6557
G01 X6.4938 Y-14.6576
G01 X6.5253 Y-14.6620
G01 X6.5570 Y-14.6634
G01 X9.5570 Y-14.6634
G01 X9.5863 Y-14.6621
G01 X9.5959 Y-14.6612
G01 X9.6250 Y-14.6568
G01 X9.6535 Y-14.6497
G01 X9.6605 Y-14.6477
G01 X9.6858 Y-14.6387
G01 X9.6948 Y-14.6350
G01 X9.7213 Y-14.6223
G01 X9.7506 Y-14.6047
G01 X9.7781 Y-14.5844
G01 X9.7999 Y-14.5647
G01 X9.8067 Y-14.5579
G01 X9.8248 Y-14.5379
G01 X9.8293 Y-14.5322
G01 X9.8467 Y-14.5086
G01 X9.8643 Y-14.4793
G01 X9.8789 Y-14.4483
G01 X9.8889 Y-14.4207
G01 X9.8911 Y-14.4138
G01 X9.8977 Y-14.3877
G01 X9.8996 Y-14.3782
G01 X9.9038 Y-14.3492
G01 X9.9054 Y-14.3174
G01 X9.9054 Y-13.8126
G01 X9.9041 Y-13.7857
G01 X9.9032 Y-13.7761
G01 X9.8988 Y-13.7470
G01 X9.8917 Y-13.7185
G01 X9.8889 Y-13.7093
G01 X9.8789 Y-13.6817
G01 X9.8643 Y-13.6507
G01 X9.8467 Y-13.6214
G01 X9.8293 Y-13.5978
G01 X9.8232 Y-13.5903
G01 X9.8051 Y-13.5703
G01 X9.7999 Y-13.5653
G01 X9.7781 Y-13.5456
G01 X9.7545 Y-13.5281
G01 X9.7465 Y-13.5227
G01 X9.7213 Y-13.5077
G01 X9.6926 Y-13.4940
G01 X9.6581 Y-13.4816
G01 X9.6250 Y-13.4732
G01 X9.5912 Y-13.4682
G01 X9.5570 Y-13.4666
G01 X6.5570 Y-13.4666
G01 X6.5277 Y-13.4679
G01 X6.5181 Y-13.4688
G01 X6.4890 Y-13.4732
G01 X6.4605 Y-13.4803
G01 X6.4513 Y-13.4831
G01 X6.4237 Y-13.4931
G01 X6.3971 Y-13.5055
G01 X6.3885 Y-13.5101
G01 X6.3634 Y-13.5253
G01 X6.3398 Y-13.5427
G01 X6.3323 Y-13.5488
G01 X6.3106 Y-13.5686
G01 X6.2908 Y-13.5903
G01 X6.2847 Y-13.5978
G01 X6.2673 Y-13.6214
G01 X6.2521 Y-13.6465
G01 X6.2475 Y-13.6551
G01 X6.2351 Y-13.6817
G01 X6.2251 Y-13.7093
G01 X6.2228 Y-13.7164
G01 X6.0426 Y-13.7165
G01 X6.0108 Y-13.7181
G01 X5.9770 Y-13.7231
G01 X5.9485 Y-13.7301
G01 X5.9392 Y-13.7330
G01 X5.9116 Y-13.7430
G01 X5.8850 Y-13.7554
G01 X5.8765 Y-13.7600
G01 X5.8513 Y-13.7752
G01 X5.8220 Y-13.7971
G01 X5.7985 Y-13.8185
G01 X5.2145 Y-14.4025
G01 X5.1915 Y-14.4279
G01 X5.1712 Y-14.4553
G01 X5.1560 Y-14.4805
G01 X5.1514 Y-14.4890
G01 X5.1399 Y-14.5134
G01 X5.1372 Y-14.5201
G01 X5.1274 Y-14.5478
G01 X5.1191 Y-14.5810
G01 X5.1141 Y-14.6148
G01 X5.1125 Y-14.6442
G00 Z2.0000
G00 X2.8051 Y-17.4169
G01 F60.00
G01 Z-0.1500
G01 F240.00
G01 X3.7631 Y-17.4170
G01 X3.8058 Y-17.4193
G01 X3.8422 Y-17.4244
G01 X3.8542 Y-17.4265
G01 X3.8661 Y-17.4291
G01 X3.8957 Y-17.4367
G01 X3.9074 Y-17.4402
G01 X3.9476 Y-17.4548
G01 X3.9864 Y-17.4729
G01 X3.9971 Y-17.4787
G01 X4.0234 Y-17.4943
G01 X4.0337 Y-17.5009
G01 X4.0437 Y-17.5079
G01 X4.0730 Y-17.5300
G01 X4.0822 Y-17.5379
G01 X4.1092 Y-17.5628
G01 X4.1341 Y-17.5898
G01 X4.1420 Y-17.5990
G01 X4.1641 Y-17.6283
G01 X4.1711 Y-17.6383
G01 X4.1777 Y-17.6486
G01 X4.1933 Y-17.6749
G01 X4.1991 Y-17.6856
G01 X4.2172 Y-17.7244
G01 X4.2318 Y-17.7646
G01 X4.2369 Y-17.7821
G01 X4.2443 Y-17.8119
G01 X4.2466 Y-17.8238
G01 X4.2527 Y-17.8662
G01 X4.2548 Y-17.9028
G01 X4.2551 Y-17.9169
G01 X4.2589 Y-17.9169
G01 X4.2589 Y-17.8777
G01 X4.2525 Y-17.8146
G01 X4.2150 Y-17.7014
G01 X4.1534 Y-17.6016
G01 X4.0704 Y-17.5186
G01 X3.9706 Y-17.4570
G01 X3.8574 Y-17.4195
G01 X3.7943 Y-17.4131
G01 X2.8051 Y-17.4131
G01 X2.8051 Y-17.4169
G00 Z2.0000
G00 X2.6554 Y-17.5666
G01 F60.00
G01 Z-0.1500
G01 F240.00
G01 X3.7570 Y-17.5666
G01 X3.7863 Y-17.5679
G01 X3.7959 Y-17.5688
G01 X3.8250 Y-17.5732
G01 X3.8558 Y-17.5809
G01 X3.8903 Y-17.5931
G01 X3.9213 Y-17.6077
G01 X3.9506 Y-17.6253
G01 X3.9781 Y-17.6456
G01 X4.0034 Y-17.6686
G01 X4.0264 Y-17.6939
G01 X4.0467 Y-17.7214
G01 X4.0654 Y-17.7529
G01 X4.0789 Y-17.7817
G01 X4.0904 Y-17.8139
G01 X4.0988 Y-17.8470
G01 X4.1035 Y-17.8784
G01 X4.1054 Y-17.9150
G01 X4.1054 Y-18.0666
G01 X4.4085 Y-18.0666
G01 X4.4085 Y-17.8700
G01 X4.3997 Y-17.7830
G01 X4.3515 Y-17.6378
G01 X4.2716 Y-17.5081
G01 X4.1639 Y-17.4004
G01 X4.0342 Y-17.3205
G01 X3.8890 Y-17.2723
G01 X3.8020 Y-17.2634
G01 X2.6554 Y-17.2634
G01 X2.6554 Y-17.5666
G00 Z2.0000
G00 X4.1054 Y-18.7634
G01 F60.00
G01 Z-0.1500
G01 F240.00
G01 X4.1054 Y-18.9150
G01 X4.1038 Y-18.9492
G01 X4.0996 Y-18.9782
G01 X4.0977 Y-18.9877
G01 X4.0904 Y-19.0161
G01 X4.0798 Y-19.0461
G01 X4.0643 Y-19.0793
G01 X4.0493 Y-19.1045
G01 X4.0454 Y-19.1106
G01 X4.0293 Y-19.1322
G01 X4.0232 Y-19.1397
G01 X4.0034 Y-19.1614
G01 X3.9781 Y-19.1844
G01 X3.9506 Y-19.2047
G01 X3.9234 Y-19.2211
G01 X3.8903 Y-19.2369
G01 X3.8627 Y-19.2469
G01 X3.8535 Y-19.2497
G01 X3.8250 Y-19.2568
G01 X3.7959 Y-19.2612
G01 X3.7863 Y-19.2621
G01 X3.7594 Y-19.2634
G01 X2.6554 Y-19.2634
G01 X2.6554 Y-19.5666
G01 X3.8020 Y-19.5666
G01 X3.8890 Y-19.5577
G01 X4.0342 Y-19.5095
G01 X4.1639 Y-19.4296
G01 X4.2716 Y-19.3219
G01 X4.3515 Y-19.1922
G01 X4.3997 Y-19.0470
G01 X4.4086 Y-18.9600
G01 X4.4086 Y-18.7634
G01 X4.1054 Y-18.7634
G00 Z2.0000
G00 X4.2551 Y-18.9131
G01 F60.00
G01 Z-0.1500
G01 F240.00
G01 X4.2548 Y-18.9272
G01 X4.2532 Y-18.9578
G01 X4.2512 Y-18.9759
G01 X4.2455 Y-19.0122
G01 X4.2369 Y-19.0479
G01 X4.2336 Y-19.0596
G01 X4.2298 Y-19.0712
G01 X4.2172 Y-19.1056
G01 X4.2018 Y-19.1389
G01 X4.1963 Y-19.1498
G01 X4.1903 Y-19.1604
G01 X4.1745 Y-19.1866
G01 X4.1677 Y-19.1967
G01 X4.1420 Y-19.2310
G01 X4.1135 Y-19.2628
G01 X4.1048 Y-19.2715
G01 X4.0822 Y-19.2921
G01 X4.0730 Y-19.3000
G01 X4.0634 Y-19.3075
G01 X4.0337 Y-19.3291
G01 X4.0024 Y-19.3483
G01 X3.9918 Y-19.3543
G01 X3.9809 Y-19.3598
G01 X3.9476 Y-19.3752
G01 X3.9132 Y-19.3878
G01 X3.9016 Y-19.3916
G01 X3.8899 Y-19.3949
G01 X3.8601 Y-19.4023
G01 X3.8482 Y-19.4046
G01 X3.8058 Y-19.4107
G01 X3.7631 Y-19.4130
G01 X2.8051 Y-19.4131
G01 X2.8051 Y-19.4169
G01 X3.7943 Y-19.4169
G01 X3.8574 Y-19.4105
G01 X3.9706 Y-19.3730
G01 X4.0704 Y-19.3114
G01 X4.1534 Y-19.2284
G01 X4.2150 Y-19.1286
G01 X4.2525 Y-19.0154
G01 X4.2589 Y-18.9523
G01 X4.2589 Y-18.9131
G01 X4.2551 Y-18.9131
G00 Z2.0000
G00 X5.5533 Y-23.9320
G01 F60.00
G01 Z-0.1500
G01 F240.00
G01 X5.5481 Y-23.9430
G01 X5.5457 Y-23.9499
G01 X5.5438 Y-23.9570
G01 X5.5418 Y-23.9691
G01 X5.5413 Y-23.9764
G01 X5.5414 Y-23.9837
G01 X5.5465 Y-24.0559
G01 X5.5477 Y-24.0656
G01 X5.5505 Y-24.0774
G01 X5.5538 Y-24.0867
G01 X5.5580 Y-24.0955
G01 X5.5630 Y-24.1038
G01 X5.6108 Y-24.1676
G01 X5.6157 Y-24.1731
G01 X5.6209 Y-24.1782
G01 X5.6266 Y-24.1828
G01 X5.6326 Y-24.1871
G01 X5.6410 Y-24.1920
G01 X5.6499 Y-24.1961
G01 X5.7199 Y-24.2222
G01 X5.7269 Y-24.2244
G01 X5.7340 Y-24.2260
G01 X5.7412 Y-24.2270
G01 X5.7485 Y-24.2276
G01 X5.7609 Y-24.2279
G01 X10.4193 Y-24.2279
G01 X10.4310 Y-24.2269
G01 X10.4379 Y-24.2257
G01 X10.4447 Y-24.2240
G01 X10.5141 Y-24.2036
G01 X10.5255 Y-24.1991
G01 X10.5341 Y-24.1946
G01 X10.5403 Y-24.1906
G01 X10.5462 Y-24.1862
G01 X10.5551 Y-24.1779
G01 X10.6042 Y-24.1215
G01 X10.6088 Y-24.1157
G01 X10.6143 Y-24.1075
G01 X10.6178 Y-24.1011
G01 X10.6218 Y-24.0921
G01 X10.6248 Y-24.0827
G01 X10.6377 Y-24.0241
G01 X10.6390 Y-24.0149
G01 X10.6394 Y-24.0055
G01 X10.6392 Y-23.6930
G01 X10.6381 Y-23.6837
G01 X10.6361 Y-23.6745
G01 X10.6158 Y-23.6052
G01 X10.6135 Y-23.5983
G01 X10.6084 Y-23.5871
G01 X10.6021 Y-23.5767
G01 X10.5961 Y-23.5690
G01 X10.5876 Y-23.5602
G01 X10.5330 Y-23.5128
G01 X10.5272 Y-23.5082
G01 X10.5211 Y-23.5040
G01 X10.5148 Y-23.5003
G01 X10.5059 Y-23.4961
G01 X10.4989 Y-23.4936
G01 X10.4894 Y-23.4910
G01 X10.4379 Y-23.4798
G01 X10.4310 Y-23.4786
G01 X10.4240 Y-23.4778
G01 X10.2554 Y-23.4776
G01 X10.2554 Y-23.1744
G01 X10.7570 Y-23.1744
G01 X10.7691 Y-23.1737
G01 X10.7762 Y-23.1726
G01 X10.7833 Y-23.1709
G01 X10.7902 Y-23.1687
G01 X10.7969 Y-23.1660
G01 X10.8076 Y-23.1604
G01 X10.8137 Y-23.1565
G01 X10.8195 Y-23.1521
G01 X10.8249 Y-23.1473
G01 X10.8299 Y-23.1421
G01 X10.8346 Y-23.1366
G01 X10.8389 Y-23.1307
G01 X10.8427 Y-23.1245
G01 X10.8460 Y-23.1181
G01 X10.8505 Y-23.1069
G01 X10.8525 Y-23.0999
G01 X10.8540 Y-23.0928
G01 X10.8552 Y-23.0832
G01 X10.8554 Y-23.0760
G01 X10.8554 Y-21.3760
G01 X10.8552 Y-21.3688
G01 X10.8544 Y-21.3616
G01 X10.8525 Y-21.3521
G01 X10.8505 Y-21.3451
G01 X10.8470 Y-21.3361
G01 X10.8438 Y-21.3296
G01 X10.8389 Y-21.3213
G01 X10.8346 Y-21.3154
G01 X10.8299 Y-21.3099
G01 X10.8249 Y-21.3047
G01 X10.8176 Y-21.2984
G01 X10.8117 Y-21.2941
G01 X10.8055 Y-21.2903
G01 X10.7991 Y-21.2870
G01 X10.7924 Y-21.2841
G01 X10.7833 Y-21.2811
G01 X10.7762 Y-21.2794
G01 X10.7666 Y-21.2780
G01 X10.7570 Y-21.2776
G01 X10.3806 Y-21.2776
G01 X10.3806 Y-20.9744
G01 X10.7996 Y-20.9744
G01 X10.8416 Y-20.9790
G01 X10.9514 Y-21.0199
G01 X11.0439 Y-21.0891
G01 X11.1131 Y-21.1816
G01 X11.1572 Y-21.2999
G01 X11.1599 Y-21.3064
G01 X11.1630 Y-21.3127
G01 X11.1666 Y-21.3187
G01 X11.1706 Y-21.3245
G01 X11.2140 Y-21.3823
G01 X11.2221 Y-21.3914
G01 X11.2294 Y-21.3980
G01 X11.2353 Y-21.4024
G01 X11.2414 Y-21.4063
G01 X11.2479 Y-21.4098
G01 X11.2546 Y-21.4128
G01 X11.3247 Y-21.4389
G01 X11.3364 Y-21.4421
G01 X11.3461 Y-21.4437
G01 X11.3534 Y-21.4442
G01 X11.3607 Y-21.4442
G01 X11.3729 Y-21.4429
G01 X11.4460 Y-21.4272
G01 X11.4555 Y-21.4246
G01 X11.4671 Y-21.4200
G01 X11.4779 Y-21.4140
G01 X11.4840 Y-21.4098
G01 X11.5178 Y-21.3842
G01 X11.6391 Y-21.2632
G01 X11.8186 Y-21.1376
G01 X11.9096 Y-21.0950
G01 X11.9354 Y-21.0797
G01 X11.9437 Y-21.0742
G01 X13.1249 Y-20.4360
G01 X13.1350 Y-20.4297
G01 X13.1676 Y-20.4055
G01 X13.1748 Y-20.3993
G01 X13.5130 Y-20.0609
G01 X13.5204 Y-20.0518
G01 X13.5254 Y-20.0439
G01 X13.5601 Y-19.9805
G01 X13.5652 Y-19.9696
G01 X13.5689 Y-19.9581
G01 X13.5705 Y-19.9510
G01 X13.5716 Y-19.9439
G01 X13.5746 Y-19.9149
G01 X13.5749 Y-19.9070
G01 X13.5749 Y-16.0709
G01 X13.5743 Y-16.0592
G01 X13.5722 Y-16.0477
G01 X13.5556 Y-15.9909
G01 X13.5556 Y-14.4736
G01 X13.5534 Y-14.4296
G01 X13.5474 Y-14.3884
G01 X13.5455 Y-14.3789
G01 X13.5352 Y-14.3385
G01 X13.5213 Y-14.2993
G01 X13.5176 Y-14.2903
G01 X13.4997 Y-14.2527
G01 X13.4804 Y-14.2204
G01 X13.4804 Y-13.6510
G01 X13.4793 Y-13.6266
G01 X13.4761 Y-13.6049
G01 X13.4698 Y-13.5789
G01 X13.4624 Y-13.5582
G01 X13.4522 Y-13.5360
G01 X13.4412 Y-13.5171
G01 X13.4372 Y-13.5110
G01 X13.4256 Y-13.4953
G01 X13.4110 Y-13.4788
G01 X13.4042 Y-13.4720
G01 X13.3915 Y-13.4605
G01 X13.3858 Y-13.4560
G01 X13.3700 Y-13.4444
G01 X13.3533 Y-13.4343
G01 X13.3448 Y-13.4297
G01 X13.3271 Y-13.4215
G01 X13.3041 Y-13.4132
G01 X13.2852 Y-13.4084
G01 X13.2757 Y-13.4065
G01 X13.2564 Y-13.4037
G01 X13.2320 Y-13.4026
G01 X12.9320 Y-13.4026
G01 X12.9076 Y-13.4037
G01 X12.8859 Y-13.4069
G01 X12.8788 Y-13.4084
G01 X12.8576 Y-13.4140
G01 X12.8369 Y-13.4215
G01 X12.8192 Y-13.4297
G01 X12.8107 Y-13.4343
G01 X12.7940 Y-13.4444
G01 X12.7782 Y-13.4560
G01 X12.7707 Y-13.4621
G01 X12.7563 Y-13.4753
G01 X12.7431 Y-13.4897
G01 X12.7370 Y-13.4972
G01 X12.7254 Y-13.5130
G01 X12.7153 Y-13.5297
G01 X12.7107 Y-13.5382
G01 X12.7025 Y-13.5559
G01 X12.6942 Y-13.5789
G01 X12.6894 Y-13.5978
G01 X12.6875 Y-13.6073
G01 X12.6847 Y-13.6266
G01 X12.6836 Y-13.6486
G01 X12.6836 Y-14.2204
G01 X12.6643 Y-14.2527
G01 X12.6464 Y-14.2903
G01 X12.6427 Y-14.2993
G01 X12.6288 Y-14.3385
G01 X12.6185 Y-14.3789
G01 X12.6166 Y-14.3884
G01 X12.6106 Y-14.4296
G01 X12.6085 Y-14.4712
G01 X12.6084 Y-15.7689
G01 X12.5794 Y-15.7616
G01 X12.5698 Y-15.7599
G01 X12.5625 Y-15.7593
G01 X12.5552 Y-15.7592
G01 X12.5478 Y-15.7596
G01 X12.5406 Y-15.7606
G01 X12.5334 Y-15.7622
G01 X12.5264 Y-15.7642
G01 X12.4578 Y-15.7872
G01 X12.4510 Y-15.7900
G01 X12.4444 Y-15.7933
G01 X12.4340 Y-15.7998
G01 X12.4281 Y-15.8043
G01 X12.4065 Y-15.8227
G01 X12.2857 Y-15.9434
G01 X12.2794 Y-15.9504
G01 X12.2751 Y-15.9559
G01 X12.2701 Y-15.9638
G01 X12.2354 Y-16.0272
G01 X12.2303 Y-16.0381
G01 X12.2266 Y-16.0496
G01 X12.2250 Y-16.0567
G01 X12.2239 Y-16.0638
G01 X12.2209 Y-16.0928
G01 X12.2206 Y-16.1007
G01 X12.2206 Y-17.2312
G01 X8.8571 Y-20.5947
G01 X8.8493 Y-20.6035
G01 X8.8426 Y-20.6131
G01 X8.8056 Y-20.6806
G01 X8.8007 Y-20.6918
G01 X8.7973 Y-20.7035
G01 X8.7955 Y-20.7131
G01 X8.7947 Y-20.7253
G01 X8.7950 Y-20.7327
G01 X8.8002 Y-20.8048
G01 X8.8021 Y-20.8169
G01 X8.8055 Y-20.8286
G01 X8.8104 Y-20.8398
G01 X8.8165 Y-20.8503
G01 X8.8643 Y-20.9141
G01 X8.8709 Y-20.9213
G01 X8.8801 Y-20.9293
G01 X8.8902 Y-20.9362
G01 X8.8989 Y-20.9407
G01 X8.9056 Y-20.9435
G01 X8.9757 Y-20.9695
G01 X8.9875 Y-20.9725
G01 X8.9996 Y-20.9740
G01 X9.0144 Y-20.9744
G01 X9.4334 Y-20.9744
G01 X9.4334 Y-21.2776
G01 X9.0522 Y-21.2777
G01 X9.0449 Y-21.2783
G01 X9.0378 Y-21.2794
G01 X9.0307 Y-21.2811
G01 X9.0216 Y-21.2841
G01 X9.0149 Y-21.2870
G01 X9.0085 Y-21.2903
G01 X9.0023 Y-21.2941
G01 X8.9964 Y-21.2984
G01 X8.9891 Y-21.3047
G01 X8.9825 Y-21.3117
G01 X8.9765 Y-21.3193
G01 X8.9702 Y-21.3296
G01 X8.9660 Y-21.3383
G01 X8.9621 Y-21.3497
G01 X8.9600 Y-21.3592
G01 X8.9588 Y-21.3688
G01 X8.9586 Y-21.3760
G01 X8.9586 Y-21.8776
G01 X8.6554 Y-21.8776
G01 X8.6553 Y-21.3287
G01 X8.6541 Y-21.3170
G01 X8.6515 Y-21.3056
G01 X8.6311 Y-21.2362
G01 X8.6286 Y-21.2294
G01 X8.6256 Y-21.2227
G01 X8.6221 Y-21.2162
G01 X8.6167 Y-21.2081
G01 X8.6121 Y-21.2023
G01 X8.6071 Y-21.1969
G01 X8.6018 Y-21.1919
G01 X8.5471 Y-21.1446
G01 X8.5372 Y-21.1374
G01 X8.5265 Y-21.1315
G01 X8.5152 Y-21.1270
G01 X8.5033 Y-21.1239
G01 X8.4245 Y-21.1126
G01 X8.4123 Y-21.1122
G01 X8.4001 Y-21.1134
G01 X8.3882 Y-21.1160
G01 X8.3767 Y-21.1201
G01 X8.3087 Y-21.1511
G01 X8.3023 Y-21.1546
G01 X8.2961 Y-21.1585
G01 X8.2883 Y-21.1644
G01 X8.2757 Y-21.1761
G01 X5.6036 Y-23.8482
G01 X5.5958 Y-23.8570
G01 X5.5891 Y-23.8666
G01 X5.5533 Y-23.9320
G00 Z2.0000
G00 X8.8089 Y-23.0760
G01 F60.00
G01 Z-0.1500
G01 F240.00
G01 X8.8089 Y-22.7241
G01 X8.8051 Y-22.7241
G01 X8.8051 Y-23.1105
G01 X8.8067 Y-23.1259
G01 X8.8336 Y-23.1980
G01 X8.8770 Y-23.2560
G01 X8.9350 Y-23.2994
G01 X9.0071 Y-23.3263
G01 X9.0225 Y-23.3279
G01 X9.4089 Y-23.3279
G01 X9.4089 Y-23.3241
G01 X9.0570 Y-23.3241
G01 X9.0448 Y-23.3238
G01 X9.0327 Y-23.3229
G01 X9.0206 Y-23.3214
G01 X9.0026 Y-23.3181
G01 X8.9908 Y-23.3151
G01 X8.9792 Y-23.3116
G01 X8.9621 Y-23.3052
G01 X8.9455 Y-23.2976
G01 X8.9295 Y-23.2888
G01 X8.9141 Y-23.2788
G01 X8.8996 Y-23.2678
G01 X8.8859 Y-23.2557
G01 X8.8732 Y-23.2426
G01 X8.8614 Y-23.2286
G01 X8.8507 Y-23.2138
G01 X8.8411 Y-23.1983
G01 X8.8327 Y-23.1821
G01 X8.8255 Y-23.1653
G01 X8.8196 Y-23.1480
G01 X8.8149 Y-23.1304
G01 X8.8116 Y-23.1124
G01 X8.8096 Y-23.0943
G01 X8.8089 Y-23.0760
G00 Z2.0000
G00 X8.9586 Y-23.0760
G01 F60.00
G01 Z-0.1500
G01 F240.00
G01 X8.9586 Y-22.5744
G01 X8.6554 Y-22.5744
G01 X8.6554 Y-23.1186
G01 X8.6600 Y-23.1606
G01 X8.7009 Y-23.2704
G01 X8.7701 Y-23.3629
G01 X8.8626 Y-23.4321
G01 X8.9724 Y-23.4730
G01 X9.0144 Y-23.4776
G01 X9.5586 Y-23.4776
G01 X9.5586 Y-23.1744
G01 X9.0570 Y-23.1744
G01 X9.0498 Y-23.1742
G01 X9.0402 Y-23.1730
G01 X9.0307 Y-23.1709
G01 X9.0238 Y-23.1687
G01 X9.0171 Y-23.1660
G01 X9.0085 Y-23.1617
G01 X9.0003 Y-23.1565
G01 X8.9945 Y-23.1521
G01 X8.9874 Y-23.1456
G01 X8.9809 Y-23.1385
G01 X8.9751 Y-23.1307
G01 X8.9713 Y-23.1245
G01 X8.9670 Y-23.1159
G01 X8.9643 Y-23.1092
G01 X8.9615 Y-23.0999
G01 X8.9600 Y-23.0928
G01 X8.9588 Y-23.0832
G01 X8.9586 Y-23.0760
G00 Z2.0000
G00 X11.1547 Y-23.0723
G01 F60.00
G01 Z-0.1500
G01 F240.00
G01 X11.2021 Y-23.0218
G01 X11.2232 Y-23.0009
G01 X11.2457 Y-22.9817
G01 X11.2697 Y-22.9643
G01 X11.2863 Y-22.9536
G01 X11.3035 Y-22.9438
G01 X11.3301 Y-22.9307
G01 X11.3483 Y-22.9231
G01 X11.3669 Y-22.9165
G01 X11.3858 Y-22.9107
G01 X11.4015 Y-22.9066
G01 X11.3513 Y-22.8227
G01 X11.3378 Y-22.7967
G01 X11.3022 Y-22.7213
G01 X11.2942 Y-22.7035
G01 X11.2872 Y-22.6853
G01 X11.2591 Y-22.6067
G01 X11.2530 Y-22.5882
G01 X11.2478 Y-22.5694
G01 X11.2275 Y-22.4885
G01 X11.2232 Y-22.4694
G01 X11.2199 Y-22.4502
G01 X11.2077 Y-22.3677
G01 X11.2053 Y-22.3483
G01 X11.2038 Y-22.3288
G01 X11.1997 Y-22.2455
G01 X11.1993 Y-22.2260
G01 X11.1997 Y-22.2065
G01 X11.2038 Y-22.1232
G01 X11.2053 Y-22.1037
G01 X11.2077 Y-22.0843
G01 X11.2199 Y-22.0018
G01 X11.2232 Y-21.9826
G01 X11.2275 Y-21.9635
G01 X11.2478 Y-21.8826
G01 X11.2530 Y-21.8638
G01 X11.2591 Y-21.8453
G01 X11.2872 Y-21.7667
G01 X11.2942 Y-21.7485
G01 X11.2982 Y-21.7392
G01 X11.2843 Y-21.7369
G01 X11.2650 Y-21.7328
G01 X11.2364 Y-21.7249
G01 X11.2178 Y-21.7185
G01 X11.1547 Y-21.6950
G01 X11.1547 Y-23.0723
G00 Z2.0000
G00 X11.3326 Y-24.0055
G01 F60.00
G01 Z-0.1500
G01 F240.00
G01 X11.3332 Y-24.0172
G01 X11.3353 Y-24.0287
G01 X11.3577 Y-24.1049
G01 X11.3624 Y-24.1162
G01 X11.3672 Y-24.1247
G01 X11.3728 Y-24.1328
G01 X11.3809 Y-24.1419
G01 X11.3862 Y-24.1469
G01 X11.4409 Y-24.1943
G01 X11.4488 Y-24.2002
G01 X11.4594 Y-24.2063
G01 X11.4707 Y-24.2111
G01 X11.4802 Y-24.2139
G01 X11.5364 Y-24.2262
G01 X11.5480 Y-24.2277
G01 X13.3438 Y-24.2279
G01 X13.3555 Y-24.2269
G01 X13.3670 Y-24.2246
G01 X13.4363 Y-24.2043
G01 X13.4432 Y-24.2020
G01 X13.4544 Y-24.1969
G01 X13.4628 Y-24.1920
G01 X13.4725 Y-24.1846
G01 X13.4796 Y-24.1779
G01 X13.5303 Y-24.1196
G01 X13.5375 Y-24.1096
G01 X13.5423 Y-24.1011
G01 X13.5463 Y-24.0921
G01 X13.5499 Y-24.0803
G01 X13.5622 Y-24.0241
G01 X13.5633 Y-24.0172
G01 X13.5638 Y-24.0102
G01 X13.5638 Y-23.3944
G01 X13.5629 Y-23.3851
G01 X13.5606 Y-23.3736
G01 X13.5403 Y-23.3043
G01 X13.5380 Y-23.2974
G01 X13.5351 Y-23.2906
G01 X13.5293 Y-23.2799
G01 X13.5222 Y-23.2699
G01 X13.5139 Y-23.2609
G01 X13.4575 Y-23.2119
G01 X13.4518 Y-23.2073
G01 X13.4457 Y-23.2031
G01 X13.4394 Y-23.1994
G01 X13.4328 Y-23.1962
G01 X13.4213 Y-23.1920
G01 X13.4094 Y-23.1892
G01 X13.3354 Y-23.1786
G01 X13.3282 Y-23.1780
G01 X13.3184 Y-23.1780
G01 X13.3112 Y-23.1787
G01 X13.3039 Y-23.1799
G01 X13.2968 Y-23.1817
G01 X13.2876 Y-23.1848
G01 X13.2320 Y-23.2068
G01 X13.2197 Y-23.2131
G01 X13.0752 Y-23.3140
G01 X12.8767 Y-23.4066
G01 X12.7954 Y-23.4283
G01 X12.7954 Y-23.1076
G01 X12.8122 Y-23.1013
G01 X12.8941 Y-23.0625
G01 X12.9698 Y-23.0172
G01 X12.9779 Y-23.0118
G01 X13.0487 Y-22.9592
G01 X13.1142 Y-22.9000
G01 X13.1210 Y-22.8932
G01 X13.1770 Y-22.8313
G01 X13.1831 Y-22.8239
G01 X13.2356 Y-22.7529
G01 X13.2835 Y-22.6731
G01 X13.3202 Y-22.5958
G01 X13.9937 Y-21.3491
G01 X14.6902 Y-20.6524
G01 X14.7150 Y-20.6251
G01 X14.7211 Y-20.6177
G01 X14.7458 Y-20.5841
G01 X14.7673 Y-20.5485
G01 X14.7719 Y-20.5400
G01 X14.7896 Y-20.5023
G01 X14.8052 Y-20.4585
G01 X14.8165 Y-20.4134
G01 X14.8228 Y-20.3722
G01 X14.8237 Y-20.3626
G01 X14.8256 Y-20.3210
G01 X14.8256 Y-14.4736
G01 X14.8234 Y-14.4296
G01 X14.8174 Y-14.3884
G01 X14.8155 Y-14.3789
G01 X14.8052 Y-14.3385
G01 X14.7913 Y-14.2993
G01 X14.7876 Y-14.2903
G01 X14.7697 Y-14.2527
G01 X14.7504 Y-14.2204
G01 X14.7504 Y-13.6510
G01 X14.7493 Y-13.6266
G01 X14.7452 Y-13.6002
G01 X14.7398 Y-13.5789
G01 X14.7333 Y-13.5604
G01 X14.7296 Y-13.5515
G01 X14.7211 Y-13.5339
G01 X14.7112 Y-13.5171
G01 X14.7058 Y-13.5090
G01 X14.6941 Y-13.4934
G01 X14.6810 Y-13.4788
G01 X14.6742 Y-13.4720
G01 X14.6596 Y-13.4589
G01 X14.6440 Y-13.4472
G01 X14.6359 Y-13.4418
G01 X14.6191 Y-13.4319
G01 X14.6015 Y-13.4234
G01 X14.5926 Y-13.4197
G01 X14.5741 Y-13.4132
G01 X14.5552 Y-13.4084
G01 X14.5457 Y-13.4065
G01 X14.5264 Y-13.4037
G01 X14.5044 Y-13.4026
G01 X14.2020 Y-13.4026
G01 X14.1776 Y-13.4037
G01 X14.1583 Y-13.4065
G01 X14.1488 Y-13.4084
