(G-CODE GENERATED BY FLATCAM v8.994 - www.flatcam.org - Version Date: 2020/11/7)

(Name: ch422_demo-PTH.drl_cnc)
(Type: G-code from Geometry)
(Units: MM)

(Created on Friday, 24 November 2023 at 23:39)

(This preprocessor is the default preprocessor used by FlatCAM.)
(It is made to work with MACH3 compatible motion controllers.)


(TOOLS DIAMETER: )
(Tool: 1 -> Dia: 0.8000999999999999)
(Tool: 2 -> Dia: 0.89916)
(Tool: 3 -> Dia: 1.0007599999999999)

(FEEDRATE Z: )
(Tool: 1 -> Feedrate: 200.0)
(Tool: 2 -> Feedrate: 200.0)
(Tool: 3 -> Feedrate: 200.0)

(FEEDRATE RAPIDS: )
(Tool: 1 -> Feedrate Rapids: 1500)
(Tool: 2 -> Feedrate Rapids: 1500)
(Tool: 3 -> Feedrate Rapids: 1500)

(Z_CUT: )
(Tool: 1 -> Z_Cut: -1.82)
(Tool: 2 -> Z_Cut: -1.84)
(Tool: 3 -> Z_Cut: -1.86)

(Tools Offset: )
(Tool: 3 -> Offset Z: 0.0)

(Z_MOVE: )
(Tool: 1 -> Z_Move: 2)
(Tool: 2 -> Z_Move: 2.0)
(Tool: 3 -> Z_Move: 2)

(Z Toolchange: 40.0 mm)
(X,Y Toolchange: 0.0000, 0.0000 mm)
(Z Start: None mm)
(Z End: 40.0 mm)
(X,Y End: None mm)
(Steps per circle: 64)
(Preprocessor Excellon: default)

(X range:    2.1209 ...   33.5013  mm)
(Y range:  -24.6278 ...   -3.3579  mm)

(Spindle Speed: 7200 RPM)
G21
G90
G94

G01 F200.00

M5
G00 Z40.0000
T3
G00 X0.0000 Y0.0000                
M6
(MSG, Change to Tool Dia = 1.0008 ||| Total drills for tool T3 = 4)
M0
G00 Z40.0000

G01 F200.00
M03 S7200
G00 X33.0010 Y-16.5075
G01 Z-1.8600
G01 Z0
G00 Z2.0000
G00 X33.0010 Y-19.0475
G01 Z-1.8600
G01 Z0
G00 Z2.0000
G00 X33.0010 Y-21.5875
G01 Z-1.8600
G01 Z0
G00 Z2.0000
G00 X33.0010 Y-24.1275
G01 Z-1.8600
G01 Z0
G00 Z2.0000
M05
G00 Z40.00


M30
