(G-CODE GENERATED BY FLATCAM v8.994 - www.flatcam.org - Version Date: 2020/11/7)

(Name: ch422_demo-B_Cu.gbr_iso_combined_cnc)
(Type: G-code from Geometry)
(Units: MM)

(Created on Friday, 24 November 2023 at 23:58)

(This preprocessor is the default preprocessor used by FlatCAM.)
(It is made to work with MACH3 compatible motion controllers.)

(TOOL DIAMETER: 0.1529 mm)
(Feedrate_XY: 240.0 mm/min)
(Feedrate_Z: 60.0 mm/min)
(Feedrate rapids 1500.0 mm/min)

(Z_Cut: -0.15 mm)
(Z_Move: 2.0 mm)
(Z Start: None mm)
(Z End: 15.0 mm)
(X,Y End: None mm)
(Steps per circle: 64)
(Preprocessor Geometry: default)

(X range:   -0.5653 ...   35.3437  mm)
(Y range:  -26.4717 ...    0.5652  mm)

(Spindle Speed: 12000.0 RPM)
G21
G90
G94

G01 F240.00

M5
G00 Z15.0000
G00 X0.0000 Y0.0000
T2
M6    
(MSG, Change to Tool Dia = 0.1529)
M0
G00 Z15.0000

M03 S12000.0
G01 F240.00
G00 X1.5586 Y-4.7569
G01 F60.00
G01 Z-0.1500
G01 F240.00
G01 X1.9243 Y-4.7569
G01 X1.9037 Y-4.7444
G01 X1.8906 Y-4.7357
G01 X1.8211 Y-4.6843
G01 X1.8027 Y-4.6695
G01 X1.7386 Y-4.6116
G01 X1.7272 Y-4.6007
G01 X1.7163 Y-4.5893
G01 X1.6760 Y-4.5449
G01 X1.6736 Y-4.5589
G01 X1.6702 Y-4.5745
G01 X1.6660 Y-4.5899
G01 X1.6610 Y-4.6050
G01 X1.6522 Y-4.6273
G01 X1.6454 Y-4.6417
G01 X1.6379 Y-4.6557
G01 X1.6253 Y-4.6761
G01 X1.6113 Y-4.6955
G01 X1.6011 Y-4.7078
G01 X1.5586 Y-4.7569
G00 Z2.0000
G00 X2.5162 Y-4.6844
G01 F60.00
G01 Z-0.1500
G01 F240.00
G01 X2.5237 Y-4.6844
G01 X2.6058 Y-4.6802
G01 X2.6909 Y-4.6676
G01 X2.7744 Y-4.6467
G01 X2.8553 Y-4.6177
G01 X2.9331 Y-4.5810
G01 X3.0069 Y-4.5367
G01 X3.0759 Y-4.4855
G01 X3.1397 Y-4.4277
G01 X3.1974 Y-4.3640
G01 X3.2487 Y-4.2949
G01 X3.2929 Y-4.2212
G01 X3.3297 Y-4.1434
G01 X3.3586 Y-4.0624
G01 X3.3795 Y-3.9790
G01 X3.3922 Y-3.8939
G01 X3.3964 Y-3.8080
G01 X3.3922 Y-3.7221
G01 X3.3795 Y-3.6370
G01 X3.3586 Y-3.5536
G01 X3.3297 Y-3.4726
G01 X3.2929 Y-3.3948
G01 X3.2487 Y-3.3211
G01 X3.1974 Y-3.2520
G01 X3.1397 Y-3.1883
G01 X3.0759 Y-3.1305
G01 X3.0069 Y-3.0793
G01 X2.9331 Y-3.0350
G01 X2.8553 Y-2.9983
G01 X2.7744 Y-2.9693
G01 X2.6909 Y-2.9484
G01 X2.6058 Y-2.9358
G01 X2.5199 Y-2.9316
G01 X2.4340 Y-2.9358
G01 X2.3489 Y-2.9484
G01 X2.2655 Y-2.9693
G01 X2.1845 Y-2.9983
G01 X2.1068 Y-3.0350
G01 X2.0330 Y-3.0793
G01 X1.9639 Y-3.1305
G01 X1.9002 Y-3.1883
G01 X1.8424 Y-3.2520
G01 X1.7912 Y-3.3211
G01 X1.7470 Y-3.3948
G01 X1.7102 Y-3.4726
G01 X1.6812 Y-3.5536
G01 X1.6603 Y-3.6370
G01 X1.6477 Y-3.7221
G01 X1.6435 Y-3.8080
G01 X1.6477 Y-3.8939
G01 X1.6603 Y-3.9790
G01 X1.6812 Y-4.0624
G01 X1.7102 Y-4.1434
G01 X1.7470 Y-4.2212
G01 X1.7912 Y-4.2949
G01 X1.8424 Y-4.3640
G01 X1.9002 Y-4.4277
G01 X1.9639 Y-4.4855
G01 X2.0330 Y-4.5367
G01 X2.1068 Y-4.5810
G01 X2.1845 Y-4.6177
G01 X2.2655 Y-4.6467
G01 X2.3489 Y-4.6676
G01 X2.4340 Y-4.6802
G01 X2.5162 Y-4.6844
G00 Z2.0000
G00 X3.0283 Y-4.8066
G01 F60.00
G01 Z-0.1500
G01 F240.00
G01 X3.0875 Y-4.8419
G01 X3.1076 Y-4.8549
G01 X3.1204 Y-4.8644
G01 X3.1327 Y-4.8745
G01 X3.1445 Y-4.8852
G01 X3.1558 Y-4.8965
G01 X3.1665 Y-4.9083
G01 X3.1766 Y-4.9207
G01 X3.1861 Y-4.9335
G01 X3.1949 Y-4.9468
G01 X3.2069 Y-4.9675
G01 X3.2380 Y-5.0298
G01 X3.3438 Y-4.7759
G01 X3.3438 Y-4.5670
G01 X3.3182 Y-4.5951
G01 X3.3070 Y-4.6062
G01 X3.2372 Y-4.6695
G01 X3.2187 Y-4.6843
G01 X3.1557 Y-4.7311
G01 X3.1362 Y-4.7444
G01 X3.0553 Y-4.7929
G01 X3.0414 Y-4.8003
G01 X3.0283 Y-4.8066
G00 Z2.0000
G00 X3.5884 Y-4.8249
G01 F60.00
G01 Z-0.1500
G01 F240.00
G01 X3.2571 Y-5.6194
G01 X3.2381 Y-5.6726
G01 X3.2240 Y-5.7293
G01 X3.2160 Y-5.7835
G01 X3.2133 Y-5.8362
G01 X3.2133 Y-5.8438
G01 X3.2160 Y-5.8965
G01 X3.2237 Y-5.9488
G01 X3.2251 Y-5.9562
G01 X3.2371 Y-6.0038
G01 X3.2392 Y-6.0110
G01 X3.2571 Y-6.0607
G01 X3.2813 Y-6.1119
G01 X3.3104 Y-6.1604
G01 X3.3441 Y-6.2059
G01 X3.3821 Y-6.2478
G01 X7.3191 Y-10.1848
G01 X7.3582 Y-10.2203
G01 X7.3640 Y-10.2251
G01 X7.4035 Y-10.2543
G01 X7.4097 Y-10.2585
G01 X7.4551 Y-10.2856
G01 X7.5045 Y-10.3091
G01 X7.5144 Y-10.3128
G01 X8.3023 Y-10.6373
G01 X8.6684 Y-11.0035
G01 X8.6684 Y-12.2900
G01 X8.6694 Y-12.3098
G01 X8.6717 Y-12.3256
G01 X8.6727 Y-12.3311
G01 X8.6766 Y-12.3467
G01 X8.6831 Y-12.3654
G01 X8.6914 Y-12.3833
G01 X8.7004 Y-12.3988
G01 X8.7034 Y-12.4035
G01 X8.7130 Y-12.4164
G01 X8.7249 Y-12.4298
G01 X8.7751 Y-12.4801
G01 X8.9514 Y-12.7816
G01 X8.9515 Y-16.5118
G01 X8.9529 Y-16.5400
G01 X8.9570 Y-16.5680
G01 X8.9585 Y-16.5754
G01 X8.9654 Y-16.6028
G01 X8.9762 Y-16.6330
G01 X8.9882 Y-16.6586
G01 X8.9918 Y-16.6652
G01 X9.0044 Y-16.6863
G01 X9.0086 Y-16.6925
G01 X9.0255 Y-16.7152
G01 X9.0444 Y-16.7362
G01 X9.0497 Y-16.7415
G01 X9.0679 Y-16.7580
G01 X9.0737 Y-16.7628
G01 X9.0965 Y-16.7795
G01 X9.1240 Y-16.7960
G01 X9.1530 Y-16.8097
G01 X9.1764 Y-16.8182
G01 X9.1764 Y-18.8764
G01 X9.0756 Y-18.9773
G01 X8.4473 Y-19.2334
G01 X8.3529 Y-19.2334
G01 X8.3258 Y-19.2347
G01 X8.3027 Y-19.2381
G01 X8.2953 Y-19.2395
G01 X8.2727 Y-19.2453
G01 X8.2506 Y-19.2531
G01 X8.2437 Y-19.2560
G01 X8.2226 Y-19.2660
G01 X8.1993 Y-19.2800
G01 X8.1776 Y-19.2962
G01 X8.1561 Y-19.3157
G01 X8.1392 Y-19.3345
G01 X8.1231 Y-19.3563
G01 X8.1091 Y-19.3795
G01 X8.0990 Y-19.4006
G01 X8.0962 Y-19.4076
G01 X8.0890 Y-19.4278
G01 X8.0874 Y-19.4332
G01 X8.0818 Y-19.4559
G01 X8.0778 Y-19.4828
G01 X8.0765 Y-19.5099
G01 X8.0765 Y-20.0599
G01 X8.0778 Y-20.0869
G01 X8.0812 Y-20.1101
G01 X8.0826 Y-20.1174
G01 X8.0884 Y-20.1401
G01 X8.0975 Y-20.1656
G01 X8.1074 Y-20.1868
G01 X8.1110 Y-20.1934
G01 X8.1231 Y-20.2134
G01 X8.1369 Y-20.2323
G01 X8.1417 Y-20.2381
G01 X8.1575 Y-20.2553
G01 X8.1776 Y-20.2736
G01 X8.1993 Y-20.2897
G01 X8.2194 Y-20.3018
G01 X8.2260 Y-20.3053
G01 X8.2471 Y-20.3153
G01 X8.2727 Y-20.3244
G01 X8.2990 Y-20.3310
G01 X8.3258 Y-20.3350
G01 X8.3492 Y-20.3362
G01 X8.7567 Y-20.3362
G01 X8.7800 Y-20.3350
G01 X8.8032 Y-20.3316
G01 X8.8087 Y-20.3306
G01 X8.8296 Y-20.3254
G01 X8.8367 Y-20.3232
G01 X8.8587 Y-20.3153
G01 X8.8849 Y-20.3028
G01 X8.9034 Y-20.2917
G01 X8.9096 Y-20.2876
G01 X8.9283 Y-20.2736
G01 X8.9457 Y-20.2579
G01 X8.9510 Y-20.2526
G01 X8.9666 Y-20.2352
G01 X8.9806 Y-20.2165
G01 X8.9848 Y-20.2103
G01 X8.9967 Y-20.1902
G01 X9.0083 Y-20.1656
G01 X9.0175 Y-20.1401
G01 X9.0244 Y-20.1119
G01 X9.0281 Y-20.0869
G01 X9.0294 Y-20.0617
G01 X9.0294 Y-19.9676
G01 X9.3591 Y-19.2637
G01 X9.5204 Y-19.1023
G01 X9.5349 Y-19.0862
G01 X9.5455 Y-19.0718
G01 X9.5538 Y-19.0581
G01 X9.5573 Y-19.0515
G01 X9.5641 Y-19.0370
G01 X9.5696 Y-19.0219
G01 X9.5718 Y-19.0147
G01 X9.5756 Y-18.9992
G01 X9.5783 Y-18.9815
G01 X9.5794 Y-18.9599
G01 X9.5794 Y-16.6334
G01 X9.5904 Y-16.6028
G01 X9.5982 Y-16.5717
G01 X9.6029 Y-16.5400
G01 X9.6045 Y-16.5080
G01 X9.6045 Y-12.6980
G01 X9.6029 Y-12.6660
G01 X9.5982 Y-12.6343
G01 X9.5904 Y-12.6032
G01 X9.5796 Y-12.5730
G01 X9.5659 Y-12.5441
G01 X9.5495 Y-12.5166
G01 X9.5304 Y-12.4908
G01 X9.5075 Y-12.4658
G01 X9.4851 Y-12.4456
G01 X9.4624 Y-12.4286
G01 X9.4562 Y-12.4245
G01 X9.4319 Y-12.4100
G01 X9.4069 Y-12.3981
G01 X9.0714 Y-12.2018
G01 X9.0714 Y-10.9200
G01 X9.0705 Y-10.9002
G01 X9.0676 Y-10.8807
G01 X9.0638 Y-10.8651
G01 X9.0616 Y-10.8579
G01 X9.0561 Y-10.8429
G01 X9.0493 Y-10.8284
G01 X9.0458 Y-10.8217
G01 X9.0375 Y-10.8080
G01 X9.0245 Y-10.7907
G01 X9.0124 Y-10.7775
G01 X8.7234 Y-10.4885
G01 X9.2881 Y-10.4884
G01 X9.2954 Y-10.4877
G01 X9.3043 Y-10.4858
G01 X9.3731 Y-10.4657
G01 X9.3804 Y-10.4631
G01 X9.3891 Y-10.4589
G01 X9.3982 Y-10.4531
G01 X9.5256 Y-10.3639
G01 X9.7197 Y-10.2734
G01 X9.8920 Y-10.2272
G01 X9.9007 Y-10.2243
G01 X9.9073 Y-10.2213
G01 X9.9120 Y-10.2186
G01 X9.9717 Y-10.1823
G01 X9.9780 Y-10.1780
G01 X9.9838 Y-10.1731
G01 X9.9891 Y-10.1677
G01 X9.9949 Y-10.1602
G01 X9.9989 Y-10.1538
G01 X10.0320 Y-10.0858
G01 X10.0348 Y-10.0788
G01 X10.0369 Y-10.0715
G01 X10.0386 Y-10.0602
G01 X10.0387 Y-10.0488
G01 X10.0300 Y-9.9757
G01 X10.0288 Y-9.9681
G01 X10.0254 Y-9.9572
G01 X10.0232 Y-9.9519
G01 X10.0195 Y-9.9451
G01 X9.9901 Y-9.9016
G01 X9.9856 Y-9.8958
G01 X9.9819 Y-9.8918
G01 X5.3093 Y-5.2194
G01 X5.3050 Y-5.2158
G01 X5.2989 Y-5.2115
G01 X5.2512 Y-5.1814
G01 X5.2411 Y-5.1763
G01 X4.6529 Y-4.9666
G01 X4.6397 Y-4.9626
G01 X4.6288 Y-4.9581
G01 X4.6138 Y-4.9526
G01 X4.5587 Y-4.9272
G01 X4.5369 Y-4.9147
G01 X4.4456 Y-4.8721
G01 X4.2701 Y-4.7493
G01 X4.1187 Y-4.5978
G01 X4.0771 Y-4.5384
G01 X4.0700 Y-4.5301
G01 X4.0632 Y-4.5240
G01 X4.0072 Y-4.4793
G01 X3.9993 Y-4.4740
G01 X3.9914 Y-4.4700
G01 X3.9914 Y-3.3835
G01 X4.6354 Y-2.7395
G01 X6.2465 Y-2.7395
G01 X6.3140 Y-2.8070
G01 X6.7624 Y-4.0660
G01 X6.7909 Y-4.1451
G01 X6.8270 Y-4.2212
G01 X6.8712 Y-4.2949
G01 X6.9224 Y-4.3640
G01 X6.9815 Y-4.4291
G01 X7.0439 Y-4.4855
G01 X7.1130 Y-4.5367
G01 X7.1868 Y-4.5810
G01 X7.2645 Y-4.6177
G01 X8.6009 Y-5.0939
G01 X9.2354 Y-5.7285
G01 X9.2473 Y-5.7393
G01 X9.2629 Y-5.7514
G01 X9.2691 Y-5.7556
G01 X9.2846 Y-5.7646
G01 X9.3026 Y-5.7729
G01 X9.3194 Y-5.7788
G01 X9.3386 Y-5.7836
G01 X9.3582 Y-5.7865
G01 X9.3742 Y-5.7874
G01 X13.1586 Y-5.7875
G01 X13.1784 Y-5.7865
G01 X13.1942 Y-5.7843
G01 X13.2016 Y-5.7828
G01 X13.2171 Y-5.7788
G01 X13.2322 Y-5.7735
G01 X13.2392 Y-5.7707
G01 X13.2536 Y-5.7637
G01 X13.2706 Y-5.7536
G01 X13.2835 Y-5.7441
G01 X13.2893 Y-5.7393
G01 X13.3011 Y-5.7285
G01 X14.3974 Y-4.6322
G01 X14.4107 Y-4.6175
G01 X14.4214 Y-4.6032
G01 X14.4335 Y-4.5830
G01 X14.4411 Y-4.5668
G01 X14.4466 Y-4.5518
G01 X14.4488 Y-4.5446
G01 X14.4526 Y-4.5290
G01 X14.4556 Y-4.5076
G01 X14.4564 Y-4.4897
G01 X14.4564 Y-4.0677
G01 X16.7934 Y-1.7307
G01 X25.5577 Y-1.7307
G01 X26.6340 Y-2.8070
G01 X27.0824 Y-4.0660
G01 X27.1088 Y-4.1399
G01 X27.1117 Y-4.1468
G01 X27.1470 Y-4.2212
G01 X27.1892 Y-4.2918
G01 X27.1934 Y-4.2980
G01 X27.2424 Y-4.3640
G01 X27.3002 Y-4.4277
G01 X27.3611 Y-4.4831
G01 X27.3669 Y-4.4878
G01 X27.4346 Y-4.5378
G01 X27.5068 Y-4.5810
G01 X27.5811 Y-4.6162
G01 X27.5880 Y-4.6191
G01 X27.6655 Y-4.6467
G01 X27.7453 Y-4.6668
G01 X27.7526 Y-4.6683
G01 X27.8340 Y-4.6802
G01 X27.9162 Y-4.6844
G01 X27.9237 Y-4.6844
G01 X28.0058 Y-4.6802
G01 X28.0872 Y-4.6683
G01 X28.0946 Y-4.6668
G01 X28.1744 Y-4.6467
G01 X28.2518 Y-4.6191
G01 X28.2588 Y-4.6162
G01 X28.3331 Y-4.5810
G01 X28.4069 Y-4.5367
G01 X28.4730 Y-4.4878
G01 X28.4788 Y-4.4831
G01 X28.5397 Y-4.4277
G01 X28.5950 Y-4.3669
G01 X28.5997 Y-4.3611
G01 X28.6487 Y-4.2949
G01 X28.6910 Y-4.2244
G01 X28.6946 Y-4.2178
G01 X28.7297 Y-4.1434
G01 X28.7575 Y-4.0660
G01 X28.7596 Y-4.0588
G01 X28.7795 Y-3.9790
G01 X28.7917 Y-3.8976
G01 X28.7924 Y-3.8902
G01 X28.7963 Y-3.8118
G01 X28.7963 Y-3.8042
G01 X28.7922 Y-3.7221
G01 X28.7802 Y-3.6407
G01 X28.7787 Y-3.6334
G01 X28.7596 Y-3.5572
G01 X28.7575 Y-3.5500
G01 X28.7297 Y-3.4726
G01 X28.6946 Y-3.3982
G01 X28.6910 Y-3.3916
G01 X28.6487 Y-3.3211
G01 X28.5974 Y-3.2520
G01 X28.5397 Y-3.1883
G01 X28.4745 Y-3.1293
G01 X28.4069 Y-3.0793
G01 X28.3364 Y-3.0369
G01 X28.3297 Y-3.0334
G01 X28.2536 Y-2.9976
G01 X26.9190 Y-2.5221
G01 X25.7823 Y-1.3854
G01 X25.7690 Y-1.3734
G01 X25.7562 Y-1.3638
G01 X25.7499 Y-1.3596
G01 X25.7361 Y-1.3515
G01 X25.7182 Y-1.3430
G01 X25.7032 Y-1.3375
G01 X25.6960 Y-1.3354
G01 X25.6804 Y-1.3316
G01 X25.6609 Y-1.3287
G01 X25.6411 Y-1.3277
G01 X16.7062 Y-1.3278
G01 X16.6902 Y-1.3287
G01 X16.6706 Y-1.3316
G01 X16.6514 Y-1.3364
G01 X16.6328 Y-1.3430
G01 X16.6149 Y-1.3515
G01 X16.5980 Y-1.3616
G01 X16.5821 Y-1.3734
G01 X16.5688 Y-1.3854
G01 X14.1124 Y-3.8417
G01 X14.1016 Y-3.8535
G01 X14.0895 Y-3.8692
G01 X14.0854 Y-3.8754
G01 X14.0772 Y-3.8892
G01 X14.0688 Y-3.9071
G01 X14.0633 Y-3.9221
G01 X14.0611 Y-3.9293
G01 X14.0573 Y-3.9449
G01 X14.0544 Y-3.9645
G01 X14.0534 Y-3.9842
G01 X14.0534 Y-4.4062
G01 X13.0752 Y-5.3845
G01 X9.4614 Y-5.3845
G01 X8.8859 Y-4.8090
G01 X8.4097 Y-3.4726
G01 X8.3729 Y-3.3948
G01 X8.3287 Y-3.3211
G01 X8.2774 Y-3.2520
G01 X8.2197 Y-3.1883
G01 X8.1559 Y-3.1305
G01 X8.0869 Y-3.0793
G01 X8.0131 Y-3.0350
G01 X7.9353 Y-2.9983
G01 X6.5990 Y-2.5221
G01 X6.4711 Y-2.3942
G01 X6.4578 Y-2.3822
G01 X6.4450 Y-2.3726
G01 X6.4387 Y-2.3684
G01 X6.4233 Y-2.3594
G01 X6.4070 Y-2.3518
G01 X6.3920 Y-2.3463
G01 X6.3848 Y-2.3442
G01 X6.3692 Y-2.3404
G01 X6.3534 Y-2.3379
G01 X6.3459 Y-2.3372
G01 X6.3299 Y-2.3365
G01 X4.5501 Y-2.3365
G01 X4.5322 Y-2.3375
G01 X4.5126 Y-2.3404
G01 X4.4934 Y-2.3452
G01 X4.4766 Y-2.3511
G01 X4.4586 Y-2.3594
G01 X4.4431 Y-2.3684
G01 X4.4271 Y-2.3799
G01 X4.4213 Y-2.3847
G01 X4.4094 Y-2.3955
G01 X3.6461 Y-3.1589
G01 X3.6330 Y-3.1736
G01 X3.6234 Y-3.1865
G01 X3.6204 Y-3.1912
G01 X3.6122 Y-3.2050
G01 X3.6053 Y-3.2195
G01 X3.6031 Y-3.2246
G01 X3.5977 Y-3.2397
G01 X3.5931 Y-3.2570
G01 X3.5917 Y-3.2644
G01 X3.5894 Y-3.2802
G01 X3.5884 Y-3.3000
G01 X3.5884 Y-4.8249
G00 Z2.0000
G00 X4.8058 Y-4.6468
G01 F60.00
G01 Z-0.1500
G01 F240.00
G01 X5.6660 Y-4.9533
G01 X5.6607 Y-5.0072
G01 X5.6612 Y-5.0185
G01 X5.6634 Y-5.0297
G01 X5.6658 Y-5.0369
G01 X5.6680 Y-5.0421
G01 X5.7013 Y-5.1079
G01 X5.7075 Y-5.1176
G01 X5.7111 Y-5.1221
G01 X5.7165 Y-5.1277
G01 X10.2286 Y-9.6399
G01 X10.2852 Y-9.7084
G01 X10.3074 Y-9.7413
G01 X10.3473 Y-9.8144
G01 X10.3808 Y-9.9393
G01 X10.3823 Y-9.9472
G01 X10.3843 Y-9.9542
G01 X10.4146 Y-10.0251
G01 X10.4179 Y-10.0316
G01 X10.4218 Y-10.0377
G01 X10.4263 Y-10.0434
G01 X10.4380 Y-10.0562
G01 X10.7145 Y-10.3327
G01 X10.7205 Y-10.3381
G01 X10.7444 Y-10.3570
G01 X10.8850 Y-10.4552
G01 X10.8914 Y-10.4586
G01 X10.8981 Y-10.4614
G01 X10.9679 Y-10.4849
G01 X10.9754 Y-10.4869
G01 X10.9812 Y-10.4878
G01 X10.9939 Y-10.4884
G01 X11.2084 Y-10.4884
G01 X11.2084 Y-12.2586
G01 X11.1680 Y-12.2773
G01 X11.1602 Y-12.2822
G01 X11.1516 Y-12.2893
G01 X11.1466 Y-12.2947
G01 X11.1431 Y-12.2991
G01 X11.1072 Y-12.3504
G01 X11.1032 Y-12.3569
G01 X11.0999 Y-12.3636
G01 X10.8263 Y-13.0872
G01 X10.8232 Y-13.0986
G01 X10.8152 Y-13.1425
G01 X10.8142 Y-13.1503
G01 X10.8142 Y-15.6716
G01 X10.8150 Y-15.6788
G01 X10.8166 Y-15.6859
G01 X10.8368 Y-15.7547
G01 X10.8400 Y-15.7637
G01 X10.8453 Y-15.7737
G01 X10.8508 Y-15.7814
G01 X10.8586 Y-15.7897
G01 X10.9129 Y-15.8367
G01 X10.9201 Y-15.8423
G01 X10.9280 Y-15.8469
G01 X10.9381 Y-15.8512
G01 X10.9854 Y-15.8640
G01 X10.9945 Y-15.8656
G01 X11.0241 Y-15.8683
G01 X11.1699 Y-15.9137
G01 X11.1838 Y-15.9221
G01 X11.1903 Y-15.9254
G01 X11.1988 Y-15.9287
G01 X11.2084 Y-15.9313
G01 X11.2084 Y-16.2444
G01 X11.2096 Y-16.2642
G01 X11.2119 Y-16.2800
G01 X11.2131 Y-16.2855
G01 X11.2177 Y-16.3028
G01 X11.2245 Y-16.3214
G01 X11.2331 Y-16.3392
G01 X11.2414 Y-16.3529
G01 X11.2445 Y-16.3576
G01 X11.2542 Y-16.3704
G01 X11.2661 Y-16.3837
G01 X11.3354 Y-16.4530
G01 X11.3354 Y-17.6262
G01 X11.1442 Y-18.1376
G01 X11.1359 Y-18.1614
G01 X11.1306 Y-18.1823
G01 X11.1292 Y-18.1896
G01 X11.1258 Y-18.2128
G01 X11.1245 Y-18.2399
G01 X11.1245 Y-18.7899
G01 X11.1258 Y-18.8169
G01 X11.1292 Y-18.8401
G01 X11.1306 Y-18.8474
G01 X11.1364 Y-18.8701
G01 X11.1442 Y-18.8921
G01 X11.1470 Y-18.8991
G01 X11.1571 Y-18.9202
G01 X11.1691 Y-18.9403
G01 X11.1732 Y-18.9465
G01 X11.1872 Y-18.9652
G01 X11.2055 Y-18.9853
G01 X11.2227 Y-19.0011
G01 X11.2285 Y-19.0059
G01 X11.2473 Y-19.0197
G01 X11.2674 Y-19.0318
G01 X11.2740 Y-19.0353
G01 X11.2951 Y-19.0453
G01 X11.3207 Y-19.0544
G01 X11.3433 Y-19.0602
G01 X11.3507 Y-19.0616
G01 X11.3738 Y-19.0650
G01 X11.3991 Y-19.0663
G01 X11.8047 Y-19.0662
G01 X11.8280 Y-19.0650
G01 X11.8530 Y-19.0613
G01 X11.8776 Y-19.0554
G01 X11.8847 Y-19.0532
G01 X11.9067 Y-19.0453
G01 X11.9313 Y-19.0337
G01 X11.9545 Y-19.0197
G01 X11.9734 Y-19.0059
G01 X11.9792 Y-19.0011
G01 X11.9951 Y-18.9866
G01 X11.9990 Y-18.9826
G01 X12.0146 Y-18.9652
G01 X12.0308 Y-18.9434
G01 X12.0429 Y-18.9234
G01 X12.0464 Y-18.9168
G01 X12.0563 Y-18.8956
G01 X12.0649 Y-18.8719
G01 X12.0712 Y-18.8474
G01 X12.0727 Y-18.8401
G01 X12.0761 Y-18.8169
G01 X12.0774 Y-18.7917
G01 X12.0774 Y-18.2380
G01 X12.0763 Y-18.2165
G01 X12.0756 Y-18.2090
G01 X12.0721 Y-18.1859
G01 X12.0665 Y-18.1632
G01 X12.0643 Y-18.1560
G01 X12.0563 Y-18.1341
G01 X12.0447 Y-18.1095
G01 X12.0308 Y-18.0863
G01 X12.0169 Y-18.0674
G01 X12.0116 Y-18.0610
G01 X11.7384 Y-17.6183
G01 X11.7384 Y-16.3695
G01 X11.7375 Y-16.3498
G01 X11.7346 Y-16.3302
G01 X11.7308 Y-16.3147
G01 X11.7286 Y-16.3075
G01 X11.7231 Y-16.2924
G01 X11.7163 Y-16.2779
G01 X11.7128 Y-16.2713
G01 X11.7045 Y-16.2576
G01 X11.6927 Y-16.2417
G01 X11.6807 Y-16.2284
G01 X11.6114 Y-16.1591
G01 X11.6114 Y-10.2993
G01 X11.6746 Y-10.2520
G01 X11.7902 Y-10.2089
G01 X11.8361 Y-10.2040
G01 X13.2004 Y-10.2039
G01 X13.2095 Y-10.2034
G01 X13.2202 Y-10.2013
G01 X13.2908 Y-10.1806
G01 X13.2997 Y-10.1772
G01 X13.3096 Y-10.1716
G01 X13.3186 Y-10.1646
G01 X13.3252 Y-10.1579
G01 X13.3722 Y-10.1036
G01 X13.3768 Y-10.0975
G01 X13.3807 Y-10.0909
G01 X13.3847 Y-10.0822
G01 X13.3875 Y-10.0731
G01 X13.3995 Y-10.0180
G01 X13.4005 Y-10.0108
G01 X13.4009 Y-10.0035
G01 X13.4009 Y-6.6847
G01 X13.3988 Y-6.6589
G01 X13.4008 Y-6.5946
G01 X13.4009 Y-6.5675
G01 X13.4021 Y-6.5541
G01 X13.4033 Y-6.5154
G01 X13.4072 Y-6.5016
G01 X13.4116 Y-6.4806
G01 X13.4139 Y-6.4644
G01 X13.4285 Y-6.4273
G01 X14.8474 Y-5.0084
G01 X14.8607 Y-4.9937
G01 X14.8725 Y-4.9778
G01 X14.8808 Y-4.9641
G01 X14.8843 Y-4.9575
G01 X14.8911 Y-4.9430
G01 X14.8978 Y-4.9244
G01 X14.9018 Y-4.9089
G01 X14.9032 Y-4.9015
G01 X14.9055 Y-4.8856
G01 X14.9064 Y-4.8696
G01 X14.9064 Y-4.2541
G01 X16.9798 Y-2.1807
G01 X23.4677 Y-2.1807
G01 X24.0940 Y-2.8070
G01 X24.2167 Y-3.1515
G01 X24.2204 Y-3.1602
G01 X24.2231 Y-3.1651
G01 X24.2290 Y-3.1742
G01 X24.2361 Y-3.1829
G01 X24.2771 Y-3.2239
G01 X24.3037 Y-3.2464
G01 X24.3201 Y-3.2748
G01 X24.3391 Y-3.3021
G01 X24.3434 Y-3.3139
G01 X24.3476 Y-3.3225
G01 X24.3534 Y-3.3549
G01 X24.3619 Y-3.3870
G01 X24.3590 Y-3.4218
G01 X24.3590 Y-3.5356
G01 X24.3598 Y-3.5468
G01 X24.3624 Y-3.5598
G01 X24.5688 Y-4.1399
G01 X24.5717 Y-4.1468
G01 X24.6061 Y-4.2195
G01 X24.6492 Y-4.2918
G01 X24.6534 Y-4.2980
G01 X24.7024 Y-4.3640
G01 X24.7602 Y-4.4277
G01 X24.8211 Y-4.4831
G01 X24.8269 Y-4.4878
G01 X24.8930 Y-4.5367
G01 X24.9651 Y-4.5801
G01 X25.0411 Y-4.6162
G01 X25.0480 Y-4.6191
G01 X25.1255 Y-4.6467
G01 X25.2053 Y-4.6668
G01 X25.2126 Y-4.6683
G01 X25.2940 Y-4.6802
G01 X25.3762 Y-4.6844
G01 X25.3837 Y-4.6844
G01 X25.4658 Y-4.6802
G01 X25.5472 Y-4.6683
G01 X25.5546 Y-4.6668
G01 X25.6344 Y-4.6467
G01 X25.7118 Y-4.6191
G01 X25.7188 Y-4.6162
G01 X25.7931 Y-4.5810
G01 X25.8637 Y-4.5387
G01 X25.8699 Y-4.5346
G01 X25.9359 Y-4.4855
G01 X25.9970 Y-4.4303
G01 X26.0023 Y-4.4250
G01 X26.0574 Y-4.3640
G01 X26.1065 Y-4.2980
G01 X26.1107 Y-4.2918
G01 X26.1529 Y-4.2212
G01 X26.1881 Y-4.1468
G01 X26.1910 Y-4.1399
G01 X26.2186 Y-4.0624
G01 X26.2387 Y-3.9826
G01 X26.2402 Y-3.9753
G01 X26.2522 Y-3.8939
G01 X26.2563 Y-3.8118
G01 X26.2563 Y-3.8042
G01 X26.2522 Y-3.7221
G01 X26.2402 Y-3.6407
G01 X26.2387 Y-3.6334
G01 X26.2196 Y-3.5572
G01 X26.2175 Y-3.5500
G01 X26.1897 Y-3.4726
G01 X26.1546 Y-3.3982
G01 X26.1510 Y-3.3916
G01 X26.1087 Y-3.3211
G01 X26.0574 Y-3.2520
G01 X25.9997 Y-3.1883
G01 X25.9388 Y-3.1329
G01 X25.9330 Y-3.1282
G01 X25.8669 Y-3.0793
G01 X25.7964 Y-3.0369
G01 X25.7897 Y-3.0334
G01 X25.7136 Y-2.9976
G01 X24.3790 Y-2.5221
G01 X23.6923 Y-1.8354
G01 X23.6790 Y-1.8234
G01 X23.6662 Y-1.8138
G01 X23.6599 Y-1.8096
G01 X23.6461 Y-1.8015
G01 X23.6317 Y-1.7945
G01 X23.6247 Y-1.7917
G01 X23.6096 Y-1.7864
G01 X23.5923 Y-1.7819
G01 X23.5709 Y-1.7787
G01 X23.5511 Y-1.7777
G01 X16.8926 Y-1.7778
G01 X16.8766 Y-1.7787
G01 X16.8570 Y-1.7816
G01 X16.8378 Y-1.7864
G01 X16.8192 Y-1.7930
G01 X16.8013 Y-1.8015
G01 X16.7844 Y-1.8116
G01 X16.7685 Y-1.8234
G01 X16.7552 Y-1.8354
G01 X14.5624 Y-4.0281
G01 X14.5504 Y-4.0413
G01 X14.5395 Y-4.0556
G01 X14.5354 Y-4.0618
G01 X14.5272 Y-4.0756
G01 X14.5188 Y-4.0935
G01 X14.5121 Y-4.1121
G01 X14.5081 Y-4.1276
G01 X14.5067 Y-4.1350
G01 X14.5042 Y-4.1527
G01 X14.5034 Y-4.1706
G01 X14.5034 Y-4.7824
G01 X13.1492 Y-6.1366
G01 X13.1374 Y-6.1355
G01 X13.1262 Y-6.1351
G01 X9.4607 Y-6.1351
G01 X9.4349 Y-6.1371
G01 X9.3705 Y-6.1351
G01 X9.3434 Y-6.1351
G01 X9.3301 Y-6.1338
G01 X9.2914 Y-6.1326
G01 X9.2756 Y-6.1283
G01 X9.2546 Y-6.1239
G01 X9.2403 Y-6.1220
G01 X9.2026 Y-6.1072
G01 X9.1936 Y-6.1042
G01 X9.1581 Y-6.0939
G01 X9.1439 Y-6.0858
G01 X9.1247 Y-6.0764
G01 X9.1113 Y-6.0710
G01 X9.0814 Y-6.0492
G01 X9.0736 Y-6.0440
G01 X9.0387 Y-6.0233
G01 X9.0270 Y-6.0119
G01 X9.0107 Y-5.9980
G01 X8.9991 Y-5.9894
G01 X8.9744 Y-5.9596
G01 X8.9668 Y-5.9513
G01 X8.4494 Y-5.4340
G01 X8.4452 Y-5.4303
G01 X8.4392 Y-5.4258
G01 X8.3866 Y-5.3928
G01 X8.3763 Y-5.3882
G01 X7.1929 Y-4.9666
G01 X7.1797 Y-4.9626
G01 X7.1688 Y-4.9581
G01 X7.1538 Y-4.9526
G01 X7.0987 Y-4.9272
G01 X7.0769 Y-4.9147
G01 X6.9856 Y-4.8721
G01 X6.8101 Y-4.7493
G01 X6.6587 Y-4.5978
G01 X6.6434 Y-4.5761
G01 X6.6361 Y-4.5680
G01 X6.6306 Y-4.5632
G01 X6.5746 Y-4.5184
G01 X6.5670 Y-4.5133
G01 X6.5571 Y-4.5084
G01 X6.5502 Y-4.5060
G01 X6.5431 Y-4.5042
G01 X6.4943 Y-4.4947
G01 X6.4850 Y-4.4936
G01 X6.2335 Y-4.4936
G01 X5.8704 Y-3.4743
G01 X5.8329 Y-3.3948
G01 X5.7897 Y-3.3226
G01 X5.7374 Y-3.2520
G01 X5.6797 Y-3.1883
G01 X5.6159 Y-3.1305
G01 X5.5469 Y-3.0793
G01 X5.4731 Y-3.0350
G01 X5.3953 Y-2.9983
G01 X5.3144 Y-2.9693
G01 X5.2291 Y-2.9480
G01 X5.1458 Y-2.9358
G01 X5.0599 Y-2.9316
G01 X4.9740 Y-2.9358
G01 X4.8889 Y-2.9484
G01 X4.8055 Y-2.9693
G01 X4.7245 Y-2.9983
G01 X4.6468 Y-3.0350
G01 X4.5730 Y-3.0793
G01 X4.5039 Y-3.1305
G01 X4.4402 Y-3.1883
G01 X4.3824 Y-3.2520
G01 X4.3312 Y-3.3211
G01 X4.2870 Y-3.3948
G01 X4.2502 Y-3.4726
G01 X4.2212 Y-3.5536
G01 X4.2011 Y-3.6334
G01 X4.1997 Y-3.6407
G01 X4.1877 Y-3.7221
G01 X4.1835 Y-3.8080
G01 X4.1877 Y-3.8939
G01 X4.1997 Y-3.9753
G01 X4.2011 Y-3.9826
G01 X4.2202 Y-4.0588
G01 X4.2224 Y-4.0660
G01 X4.2502 Y-4.1434
G01 X4.2853 Y-4.2178
G01 X4.2888 Y-4.2244
G01 X4.3312 Y-4.2949
G01 X4.3824 Y-4.3640
G01 X4.4402 Y-4.4277
G01 X4.5039 Y-4.4855
G01 X4.5730 Y-4.5367
G01 X4.6468 Y-4.5810
G01 X4.7245 Y-4.6177
G01 X4.8058 Y-4.6468
G00 Z2.0000
G00 X4.1502 Y-3.3977
G01 F60.00
G01 Z-0.1500
G01 F240.00
G01 X4.1138 Y-3.4341
G01 X4.1138 Y-3.4905
G01 X4.1354 Y-3.4303
G01 X4.1391 Y-3.4213
G01 X4.1502 Y-3.3977
G00 Z2.0000
G00 X4.7425 Y-2.8618
G01 F60.00
G01 Z-0.1500
G01 F240.00
G01 X4.6861 Y-2.8618
G01 X4.6496 Y-2.8983
G01 X4.6732 Y-2.8872
G01 X4.6823 Y-2.8834
G01 X4.7425 Y-2.8618
G00 Z2.0000
G00 X6.5752 Y-4.2612
G01 F60.00
G01 Z-0.1500
G01 F240.00
G01 X6.5673 Y-4.2443
G01 X6.5585 Y-4.2223
G01 X6.1174 Y-2.9842
G01 X5.8189 Y-2.9842
G01 X5.8470 Y-3.0098
G01 X5.8582 Y-3.0209
G01 X5.9215 Y-3.0908
G01 X5.9362 Y-3.1092
G01 X5.9876 Y-3.1787
G01 X6.0005 Y-3.1985
G01 X6.0409 Y-3.2658
G01 X6.0486 Y-3.2795
G01 X6.0557 Y-3.2936
G01 X6.0893 Y-3.3646
G01 X6.0957 Y-3.3790
G01 X6.1014 Y-3.3937
G01 X6.4061 Y-4.2489
G01 X6.4813 Y-4.2489
G01 X6.5047 Y-4.2498
G01 X6.5202 Y-4.2513
G01 X6.5357 Y-4.2535
G01 X6.5752 Y-4.2612
G00 Z2.0000
G00 X8.9000 Y-3.7273
G01 F60.00
G01 Z-0.1500
G01 F240.00
G01 X8.8903 Y-3.7278
G01 X8.8988 Y-3.7517
G01 X8.9000 Y-3.7273
G00 Z2.0000
G00 X9.0455 Y-3.5671
G01 F60.00
G01 Z-0.1500
G01 F240.00
G01 X9.0307 Y-3.5720
G01 X8.9638 Y-3.5922
G01 X8.9407 Y-3.5983
G01 X8.9250 Y-3.6014
G01 X8.9093 Y-3.6037
G01 X8.8934 Y-3.6052
G01 X8.8775 Y-3.6059
G01 X8.8535 Y-3.6055
G01 X8.8376 Y-3.6042
G01 X8.8218 Y-3.6022
G01 X8.8061 Y-3.5994
G01 X8.7829 Y-3.5937
G01 X8.7046 Y-3.5711
G01 X9.0978 Y-4.6749
G01 X9.5627 Y-5.1398
G01 X10.5407 Y-5.1398
G01 X9.7995 Y-4.8759
G01 X9.7256 Y-4.8494
G01 X9.7037 Y-4.8406
G01 X9.6255 Y-4.8038
G01 X9.6115 Y-4.7967
G01 X9.5977 Y-4.7889
G01 X9.5304 Y-4.7486
G01 X9.5171 Y-4.7402
G01 X9.5042 Y-4.7311
G01 X9.4411 Y-4.6843
G01 X9.4287 Y-4.6746
G01 X9.4168 Y-4.6643
G01 X9.3586 Y-4.6116
G01 X9.3417 Y-4.5951
G01 X9.2784 Y-4.5252
G01 X9.2636 Y-4.5068
G01 X9.2169 Y-4.4437
G01 X9.2078 Y-4.4308
G01 X9.1993 Y-4.4175
G01 X9.1590 Y-4.3502
G01 X9.1512 Y-4.3365
G01 X9.1441 Y-4.3224
G01 X9.1106 Y-4.2514
G01 X9.1042 Y-4.2370
G01 X9.0985 Y-4.2223
G01 X9.0721 Y-4.1484
G01 X9.0649 Y-4.1259
G01 X9.0420 Y-4.0344
G01 X9.0377 Y-4.0112
G01 X9.0262 Y-3.9335
G01 X9.0242 Y-3.9179
G01 X9.0231 Y-3.9022
G01 X9.0189 Y-3.8159
G01 X9.0192 Y-3.7922
G01 X9.0231 Y-3.7138
G01 X9.0242 Y-3.6981
G01 X9.0262 Y-3.6825
G01 X9.0389 Y-3.5970
G01 X9.0420 Y-3.5816
G01 X9.0455 Y-3.5671
G00 Z2.0000
G00 X9.4076 Y-4.8117
G01 F60.00
G01 Z-0.1500
G01 F240.00
G01 X9.6134 Y-5.0175
G01 X9.8327 Y-5.0175
G01 X9.6742 Y-4.9608
G01 X9.6641 Y-4.9568
G01 X9.6442 Y-4.9479
G01 X9.5732 Y-4.9144
G01 X9.5635 Y-4.9096
G01 X9.5443 Y-4.8993
G01 X9.4583 Y-4.8478
G01 X9.4402 Y-4.8357
G01 X9.4076 Y-4.8117
G00 Z2.0000
G00 X9.8858 Y-4.6468
G01 F60.00
G01 Z-0.1500
G01 F240.00
G01 X11.1409 Y-5.0939
G01 X11.2674 Y-5.2205
G01 X11.2836 Y-5.2349
G01 X11.2964 Y-5.2445
G01 X11.3011 Y-5.2476
G01 X11.3149 Y-5.2557
G01 X11.3294 Y-5.2627
G01 X11.3363 Y-5.2655
G01 X11.3514 Y-5.2708
G01 X11.3706 Y-5.2756
G01 X11.3902 Y-5.2785
G01 X11.4099 Y-5.2795
G01 X13.0009 Y-5.2795
G01 X13.0207 Y-5.2785
G01 X13.0365 Y-5.2763
G01 X13.0439 Y-5.2748
G01 X13.0594 Y-5.2708
G01 X13.0745 Y-5.2655
G01 X13.0798 Y-5.2634
G01 X13.0943 Y-5.2566
G01 X13.1097 Y-5.2476
G01 X13.1159 Y-5.2434
G01 X13.1288 Y-5.2338
G01 X13.1434 Y-5.2205
G01 X13.9474 Y-4.4165
G01 X13.9607 Y-4.4018
G01 X13.9725 Y-4.3859
G01 X13.9808 Y-4.3722
G01 X13.9843 Y-4.3656
G01 X13.9911 Y-4.3511
G01 X13.9966 Y-4.3360
G01 X13.9988 Y-4.3289
G01 X14.0026 Y-4.3133
G01 X14.0056 Y-4.2919
G01 X14.0064 Y-4.2740
G01 X14.0064 Y-3.8813
G01 X16.6070 Y-1.2807
G01 X26.8857 Y-1.2807
G01 X28.9884 Y-3.3835
G01 X28.9884 Y-4.2833
G01 X28.3953 Y-4.8765
G01 X24.9554 Y-4.8765
G01 X24.3114 Y-4.2325
G01 X24.3114 Y-3.4071
G01 X24.3105 Y-3.3892
G01 X24.3082 Y-3.3734
G01 X24.3068 Y-3.3660
G01 X24.3028 Y-3.3505
G01 X24.2975 Y-3.3354
G01 X24.2946 Y-3.3285
G01 X24.2877 Y-3.3140
G01 X24.2785 Y-3.2986
G01 X24.2657 Y-3.2812
G01 X24.2524 Y-3.2665
G01 X23.4251 Y-2.4392
G01 X23.4132 Y-2.4284
G01 X23.4088 Y-2.4249
G01 X23.3959 Y-2.4154
G01 X23.3822 Y-2.4071
G01 X23.3756 Y-2.4036
G01 X23.3610 Y-2.3968
G01 X23.3424 Y-2.3902
G01 X23.3232 Y-2.3854
G01 X23.3074 Y-2.3829
G01 X23.2999 Y-2.3822
G01 X23.2839 Y-2.3815
G01 X17.2525 Y-2.3815
G01 X17.2328 Y-2.3825
G01 X17.2132 Y-2.3854
G01 X17.1940 Y-2.3902
G01 X17.1754 Y-2.3968
G01 X17.1575 Y-2.4053
G01 X17.1406 Y-2.4154
G01 X17.1247 Y-2.4272
G01 X17.1100 Y-2.4405
G01 X16.3924 Y-3.1581
G01 X16.3816 Y-3.1699
G01 X16.3769 Y-3.1757
G01 X16.3674 Y-3.1886
G01 X16.3572 Y-3.2056
G01 X16.3488 Y-3.2235
G01 X16.3433 Y-3.2385
G01 X16.3411 Y-3.2457
G01 X16.3373 Y-3.2613
G01 X16.3349 Y-3.2771
G01 X16.3342 Y-3.2827
G01 X16.3334 Y-3.2987
G01 X16.3334 Y-3.9335
G01 X13.8061 Y-6.4609
G01 X13.7942 Y-6.4742
G01 X13.7824 Y-6.4900
G01 X13.7722 Y-6.5070
G01 X13.7653 Y-6.5215
G01 X13.7583 Y-6.5399
G01 X13.7561 Y-6.5471
G01 X13.7519 Y-6.5645
G01 X13.7492 Y-6.5841
G01 X13.7484 Y-6.6020
G01 X13.7484 Y-15.0418
G01 X13.7494 Y-15.0615
G01 X13.7527 Y-15.0829
G01 X13.7571 Y-15.1002
G01 X13.7624 Y-15.1154
G01 X13.7653 Y-15.1223
G01 X13.7722 Y-15.1367
G01 X13.7804 Y-15.1505
G01 X13.7845 Y-15.1568
G01 X13.7942 Y-15.1696
G01 X13.8049 Y-15.1815
G01 X14.2330 Y-15.6098
G01 X14.2433 Y-15.7842
G01 X14.2387 Y-15.8022
G01 X14.2372 Y-15.8095
G01 X14.2346 Y-15.8278
G01 X14.2335 Y-15.8481
G01 X14.2335 Y-16.1500
G01 X14.2346 Y-16.1722
G01 X14.2372 Y-16.1905
G01 X14.2387 Y-16.1978
G01 X14.2432 Y-16.2157
G01 X14.2507 Y-16.2367
G01 X14.2602 Y-16.2567
G01 X14.2727 Y-16.2774
G01 X14.2861 Y-16.2951
G01 X14.2985 Y-16.3088
G01 X14.3025 Y-16.3127
G01 X14.3163 Y-16.3250
G01 X14.3311 Y-16.3361
G01 X14.3357 Y-16.3393
G01 X14.3499 Y-16.3479
G01 X14.3565 Y-16.3514
G01 X14.3733 Y-16.3592
G01 X14.3960 Y-16.3672
G01 X14.4158 Y-16.3721
G01 X14.4340 Y-16.3749
G01 X14.4396 Y-16.3755
G01 X14.4581 Y-16.3764
G01 X15.9099 Y-16.3764
G01 X15.9303 Y-16.3755
G01 X15.9541 Y-16.3721
G01 X15.9721 Y-16.3677
G01 X15.9775 Y-16.3661
G01 X15.9931 Y-16.3606
G01 X16.0000 Y-16.3577
G01 X16.0167 Y-16.3497
G01 X16.0357 Y-16.3383
G01 X16.0536 Y-16.3250
G01 X16.0673 Y-16.3127
G01 X16.0726 Y-16.3074
G01 X16.0838 Y-16.2951
G01 X16.0873 Y-16.2907
G01 X16.0982 Y-16.2758
G01 X16.1096 Y-16.2567
G01 X16.1191 Y-16.2367
G01 X16.1255 Y-16.2193
G01 X16.1276 Y-16.2121
G01 X16.1324 Y-16.1923
G01 X16.1353 Y-16.1722
G01 X16.1364 Y-16.1500
G01 X16.1364 Y-15.8500
G01 X16.1353 Y-15.8278
G01 X16.1327 Y-15.8095
G01 X16.1316 Y-15.8040
G01 X16.1272 Y-15.7861
G01 X16.1205 Y-15.7668
G01 X16.1176 Y-15.7599
G01 X16.1105 Y-15.7449
G01 X16.1078 Y-15.7400
G01 X16.0982 Y-15.7242
G01 X16.0850 Y-15.7063
G01 X16.0701 Y-15.6899
G01 X16.0521 Y-15.6738
G01 X16.0357 Y-15.6617
G01 X16.0199 Y-15.6521
G01 X16.0133 Y-15.6486
G01 X15.9966 Y-15.6408
G01 X15.9757 Y-15.6333
G01 X15.9578 Y-15.6287
G01 X15.9504 Y-15.6273
G01 X15.9303 Y-15.6245
G01 X15.9099 Y-15.6236
G01 X15.2875 Y-15.6236
G01 X14.5271 Y-15.3339
G01 X14.1514 Y-14.9583
G01 X14.1514 Y-6.6855
G01 X16.6774 Y-4.1595
G01 X16.6907 Y-4.1448
G01 X16.7025 Y-4.1290
G01 X16.7108 Y-4.1153
G01 X16.7143 Y-4.1086
G01 X16.7211 Y-4.0941
G01 X16.7278 Y-4.0755
G01 X16.7318 Y-4.0600
G01 X16.7350 Y-4.0405
G01 X16.7358 Y-4.0330
G01 X16.7364 Y-4.0170
G01 X16.7364 Y-3.3841
G01 X17.3360 Y-2.7845
G01 X23.2005 Y-2.7845
G01 X23.9084 Y-3.4925
G01 X23.9084 Y-4.3179
G01 X23.9094 Y-4.3358
G01 X23.9117 Y-4.3516
G01 X23.9131 Y-4.3590
G01 X23.9171 Y-4.3745
G01 X23.9238 Y-4.3931
G01 X23.9305 Y-4.4076
G01 X23.9341 Y-4.4143
G01 X23.9424 Y-4.4280
G01 X23.9542 Y-4.4438
G01 X23.9674 Y-4.4585
G01 X24.7322 Y-5.2231
G01 X24.7441 Y-5.2338
G01 X24.7600 Y-5.2456
G01 X24.7769 Y-5.2557
G01 X24.7948 Y-5.2642
G01 X24.8134 Y-5.2708
G01 X24.8326 Y-5.2756
G01 X24.8522 Y-5.2785
G01 X24.8682 Y-5.2794
G01 X28.4787 Y-5.2795
G01 X28.4985 Y-5.2785
G01 X28.5180 Y-5.2756
G01 X28.5372 Y-5.2708
G01 X28.5576 Y-5.2634
G01 X28.5737 Y-5.2557
G01 X28.5907 Y-5.2456
G01 X28.6066 Y-5.2338
G01 X28.6199 Y-5.2218
G01 X29.3324 Y-4.5093
G01 X29.3457 Y-4.4946
G01 X29.3575 Y-4.4788
G01 X29.3677 Y-4.4618
G01 X29.3761 Y-4.4439
G01 X29.3828 Y-4.4253
G01 X29.3876 Y-4.4061
G01 X29.3905 Y-4.3866
G01 X29.3914 Y-4.3687
G01 X29.3914 Y-3.3000
G01 X29.3906 Y-3.2821
G01 X29.3879 Y-3.2625
G01 X29.3838 Y-3.2451
G01 X29.3816 Y-3.2379
G01 X29.3746 Y-3.2195
G01 X29.3677 Y-3.2050
G01 X29.3575 Y-3.1880
G01 X29.3457 Y-3.1722
G01 X29.3324 Y-3.1575
G01 X27.1116 Y-0.9367
G01 X27.0998 Y-0.9259
G01 X27.0940 Y-0.9211
G01 X27.0811 Y-0.9116
G01 X27.0641 Y-0.9015
G01 X27.0462 Y-0.8930
G01 X27.0312 Y-0.8875
G01 X27.0240 Y-0.8854
G01 X27.0084 Y-0.8816
G01 X26.9889 Y-0.8787
G01 X26.9691 Y-0.8777
G01 X16.5235 Y-0.8777
G01 X16.5057 Y-0.8785
G01 X16.4861 Y-0.8812
G01 X16.4687 Y-0.8854
G01 X16.4615 Y-0.8875
G01 X16.4430 Y-0.8945
G01 X16.4285 Y-0.9015
G01 X16.4116 Y-0.9116
G01 X16.3957 Y-0.9234
G01 X16.3811 Y-0.9367
G01 X13.6624 Y-3.6553
G01 X13.6516 Y-3.6671
G01 X13.6395 Y-3.6828
G01 X13.6354 Y-3.6890
G01 X13.6272 Y-3.7028
G01 X13.6188 Y-3.7207
G01 X13.6133 Y-3.7357
G01 X13.6111 Y-3.7429
G01 X13.6073 Y-3.7585
G01 X13.6044 Y-3.7781
G01 X13.6034 Y-3.7978
G01 X13.6034 Y-4.1905
G01 X12.9175 Y-4.8765
G01 X11.4934 Y-4.8765
G01 X11.4259 Y-4.8090
G01 X10.9504 Y-3.4743
G01 X10.9129 Y-3.3948
G01 X10.8687 Y-3.3211
G01 X10.8174 Y-3.2520
G01 X10.7623 Y-3.1910
G01 X10.7570 Y-3.1857
G01 X10.6988 Y-3.1329
G01 X10.6930 Y-3.1282
G01 X10.6269 Y-3.0793
G01 X10.5564 Y-3.0369
G01 X10.5497 Y-3.0334
G01 X10.4753 Y-2.9983
G01 X10.3944 Y-2.9693
G01 X10.3109 Y-2.9484
G01 X10.2240 Y-2.9356
G01 X10.1399 Y-2.9316
G01 X10.0540 Y-2.9358
G01 X9.9689 Y-2.9484
G01 X9.8855 Y-2.9693
G01 X9.8045 Y-2.9983
G01 X9.7268 Y-3.0350
G01 X9.6530 Y-3.0793
G01 X9.5869 Y-3.1282
G01 X9.5811 Y-3.1329
G01 X9.5202 Y-3.1883
G01 X9.4649 Y-3.2491
G01 X9.4601 Y-3.2549
G01 X9.4134 Y-3.3180
G01 X9.4092 Y-3.3242
G01 X9.3670 Y-3.3948
G01 X9.3302 Y-3.4726
G01 X9.3012 Y-3.5536
G01 X9.2803 Y-3.6370
G01 X9.2677 Y-3.7221
G01 X9.2635 Y-3.8080
G01 X9.2677 Y-3.8939
G01 X9.2803 Y-3.9790
G01 X9.3012 Y-4.0624
G01 X9.3302 Y-4.1434
G01 X9.3670 Y-4.2212
G01 X9.4092 Y-4.2918
G01 X9.4134 Y-4.2980
G01 X9.4601 Y-4.3611
G01 X9.4649 Y-4.3669
G01 X9.5202 Y-4.4277
G01 X9.5811 Y-4.4831
G01 X9.5869 Y-4.4878
G01 X9.6530 Y-4.5367
G01 X9.7268 Y-4.5810
G01 X9.8045 Y-4.6177
G01 X9.8858 Y-4.6468
G00 Z2.0000
G00 X11.4388 Y-3.7517
G01 F60.00
G01 Z-0.1500
G01 F240.00
G01 X11.4399 Y-3.7279
G01 X11.4305 Y-3.7284
G01 X11.4388 Y-3.7517
G00 Z2.0000
G00 X11.9210 Y-4.6318
G01 F60.00
G01 Z-0.1500
G01 F240.00
G01 X11.8928 Y-4.6062
G01 X11.8817 Y-4.5951
G01 X11.8184 Y-4.5252
G01 X11.8036 Y-4.5068
G01 X11.7569 Y-4.4437
G01 X11.7435 Y-4.4242
G01 X11.6990 Y-4.3502
G01 X11.6912 Y-4.3365
G01 X11.6841 Y-4.3224
G01 X11.6506 Y-4.2514
G01 X11.6442 Y-4.2370
G01 X11.6385 Y-4.2223
G01 X11.6121 Y-4.1484
G01 X11.6071 Y-4.1334
G01 X11.6029 Y-4.1182
G01 X11.5838 Y-4.0421
G01 X11.5804 Y-4.0267
G01 X11.5777 Y-4.0112
G01 X11.5662 Y-3.9335
G01 X11.5642 Y-3.9179
G01 X11.5631 Y-3.9022
G01 X11.5592 Y-3.8238
G01 X11.5588 Y-3.8080
G01 X11.5592 Y-3.7922
G01 X11.5631 Y-3.7138
G01 X11.5642 Y-3.6981
G01 X11.5662 Y-3.6825
G01 X11.5789 Y-3.5970
G01 X11.5820 Y-3.5816
G01 X11.5853 Y-3.5679
G01 X11.5710 Y-3.5726
G01 X11.5041 Y-3.5928
G01 X11.4810 Y-3.5989
G01 X11.4653 Y-3.6020
G01 X11.4495 Y-3.6042
G01 X11.4337 Y-3.6058
G01 X11.4177 Y-3.6065
G01 X11.4018 Y-3.6064
G01 X11.3779 Y-3.6048
G01 X11.3621 Y-3.6028
G01 X11.3464 Y-3.5999
G01 X11.3232 Y-3.5942
G01 X11.2448 Y-3.5716
G01 X11.6225 Y-4.6318
G01 X11.9210 Y-4.6318
G00 Z2.0000
G00 X12.3625 Y-4.7542
G01 F60.00
G01 Z-0.1500
G01 F240.00
G01 X12.2977 Y-4.7307
G01 X12.2178 Y-4.6932
G01 X12.2006 Y-4.6840
G01 X12.1333 Y-4.6437
G01 X12.1171 Y-4.6328
G01 X12.0463 Y-4.5801
G01 X11.9772 Y-4.5176
G01 X11.9670 Y-4.5072
G01 X11.9079 Y-4.4416
G01 X11.8495 Y-4.3629
G01 X11.7991 Y-4.2788
G01 X11.7572 Y-4.1902
G01 X11.7242 Y-4.0979
G01 X11.7004 Y-4.0029
G01 X11.6860 Y-3.9059
G01 X11.6814 Y-3.8178
G01 X11.6812 Y-3.8031
G01 X11.6860 Y-3.7101
G01 X11.6987 Y-3.6228
G01 X11.7014 Y-3.6084
G01 X11.7216 Y-3.5275
G01 X11.7256 Y-3.5134
G01 X11.7572 Y-3.4258
G01 X11.7835 Y-3.3696
G01 X11.7056 Y-3.2917
G01 X11.7006 Y-3.3024
G01 X11.6934 Y-3.3156
G01 X11.6852 Y-3.3282
G01 X11.6792 Y-3.3363
G01 X11.6283 Y-3.3954
G01 X11.6183 Y-3.4061
G01 X11.6039 Y-3.4191
G01 X11.5962 Y-3.4251
G01 X11.5842 Y-3.4333
G01 X11.5715 Y-3.4407
G01 X11.5628 Y-3.4450
G01 X11.5494 Y-3.4508
G01 X11.5402 Y-3.4540
G01 X11.4687 Y-3.4757
G01 X11.4544 Y-3.4795
G01 X11.4447 Y-3.4814
G01 X11.4300 Y-3.4833
G01 X11.4202 Y-3.4840
G01 X11.4054 Y-3.4841
G01 X11.3906 Y-3.4832
G01 X11.3808 Y-3.4819
G01 X11.3615 Y-3.4779
G01 X11.2848 Y-3.4561
G01 X11.2708 Y-3.4511
G01 X11.2573 Y-3.4452
G01 X11.2442 Y-3.4382
G01 X11.2317 Y-3.4303
G01 X11.2198 Y-3.4215
G01 X11.2086 Y-3.4118
G01 X11.1948 Y-3.3977
G01 X11.1456 Y-3.3416
G01 X11.1341 Y-3.3266
G01 X11.1242 Y-3.3106
G01 X11.1177 Y-3.2980
G01 X11.0977 Y-3.2550
G01 X10.9871 Y-3.0971
G01 X10.8508 Y-2.9608
G01 X10.6929 Y-2.8502
G01 X10.5182 Y-2.7688
G01 X10.3320 Y-2.7189
G01 X10.1399 Y-2.7021
G01 X9.9479 Y-2.7189
G01 X9.7617 Y-2.7688
G01 X9.5870 Y-2.8502
G01 X9.4290 Y-2.9608
G01 X9.2927 Y-3.0971
G01 X9.1822 Y-3.2550
G01 X9.1580 Y-3.3063
G01 X9.1505 Y-3.3193
G01 X9.1449 Y-3.3276
G01 X9.1389 Y-3.3357
G01 X9.1325 Y-3.3434
G01 X9.0848 Y-3.3985
G01 X9.0746 Y-3.4089
G01 X9.0598 Y-3.4216
G01 X9.0480 Y-3.4301
G01 X9.0355 Y-3.4377
G01 X9.0269 Y-3.4423
G01 X9.0136 Y-3.4484
G01 X8.9953 Y-3.4549
G01 X8.9284 Y-3.4751
G01 X8.9093 Y-3.4799
G01 X8.8897 Y-3.4827
G01 X8.8700 Y-3.4836
G01 X8.8503 Y-3.4826
G01 X8.8357 Y-3.4805
G01 X8.8212 Y-3.4773
G01 X8.7492 Y-3.4569
G01 X8.7352 Y-3.4523
G01 X8.7215 Y-3.4467
G01 X8.7039 Y-3.4376
G01 X8.6874 Y-3.4269
G01 X8.6720 Y-3.4145
G01 X8.6613 Y-3.4043
G01 X8.6545 Y-3.3971
G01 X8.6084 Y-3.3446
G01 X8.5966 Y-3.3299
G01 X8.5887 Y-3.3181
G01 X8.5816 Y-3.3058
G01 X8.5577 Y-3.2550
G01 X8.4471 Y-3.0971
G01 X8.3108 Y-2.9608
G01 X8.1529 Y-2.8502
G01 X8.0688 Y-2.8109
G01 X8.0609 Y-2.8068
G01 X8.0443 Y-2.7973
G01 X7.9997 Y-2.7766
G01 X7.9792 Y-2.7689
G01 X7.9659 Y-2.7646
G01 X6.8130 Y-2.3538
G01 X6.6037 Y-2.3538
G01 X6.6660 Y-2.4161
G01 X7.8989 Y-2.8552
G01 X7.9730 Y-2.8817
G01 X7.9866 Y-2.8872
G01 X8.0708 Y-2.9272
G01 X8.1548 Y-2.9776
G01 X8.2335 Y-3.0359
G01 X8.3062 Y-3.1018
G01 X8.3720 Y-3.1744
G01 X8.4304 Y-3.2531
G01 X8.4808 Y-3.3372
G01 X8.5227 Y-3.4258
G01 X8.5526 Y-3.5088
G01 X8.9919 Y-4.7420
G01 X9.5121 Y-5.2622
G01 X11.1361 Y-5.2622
G01 X11.0739 Y-5.1999
G01 X9.7668 Y-4.7343
G01 X9.7488 Y-4.7268
G01 X9.6691 Y-4.6888
G01 X9.5850 Y-4.6384
G01 X9.5140 Y-4.5861
G01 X9.4989 Y-4.5737
G01 X9.4337 Y-4.5142
G01 X9.3679 Y-4.4416
G01 X9.3151 Y-4.3709
G01 X9.3043 Y-4.3546
G01 X9.2639 Y-4.2873
G01 X9.2547 Y-4.2701
G01 X9.2172 Y-4.1902
G01 X9.1872 Y-4.1072
G01 X9.1816 Y-4.0885
G01 X9.1625 Y-4.0124
G01 X9.1587 Y-3.9932
G01 X9.1460 Y-3.9059
G01 X9.1412 Y-3.8080
G01 X9.1460 Y-3.7101
G01 X9.1587 Y-3.6228
G01 X9.1625 Y-3.6036
G01 X9.1816 Y-3.5275
G01 X9.1872 Y-3.5088
G01 X9.2172 Y-3.4258
G01 X9.2547 Y-3.3459
G01 X9.2639 Y-3.3287
G01 X9.3095 Y-3.2531
G01 X9.3679 Y-3.1744
G01 X9.4337 Y-3.1018
G01 X9.4989 Y-3.0423
G01 X9.5140 Y-3.0299
G01 X9.5850 Y-2.9776
G01 X9.6606 Y-2.9320
G01 X9.6778 Y-2.9228
G01 X9.7488 Y-2.8892
G01 X9.7668 Y-2.8817
G01 X9.8500 Y-2.8522
G01 X9.9356 Y-2.8306
G01 X9.9499 Y-2.8275
G01 X10.0420 Y-2.8140
G01 X10.1302 Y-2.8095
G01 X10.1497 Y-2.8095
G01 X10.2378 Y-2.8140
G01 X10.3252 Y-2.8268
G01 X10.3443 Y-2.8306
G01 X10.4299 Y-2.8522
G01 X10.5130 Y-2.8817
G01 X10.5311 Y-2.8892
G01 X10.6108 Y-2.9272
G01 X10.6866 Y-2.9723
G01 X10.7028 Y-2.9832
G01 X10.7735 Y-3.0359
G01 X10.8391 Y-3.0950
G01 X10.8529 Y-3.1088
G01 X10.9120 Y-3.1744
G01 X10.9704 Y-3.2531
G01 X11.0160 Y-3.3287
G01 X11.0252 Y-3.3459
G01 X11.0627 Y-3.4258
G01 X11.0926 Y-3.5088
G01 X11.5319 Y-4.7420
G01 X11.5441 Y-4.7542
G01 X12.3625 Y-4.7542
G00 Z2.0000
G00 X13.2068 Y-5.9061
G01 F60.00
G01 Z-0.1500
G01 F240.00
G01 X13.1855 Y-5.9087
G01 X13.1586 Y-5.9098
G01 X9.3779 Y-5.9098
G01 X9.3462 Y-5.9083
G01 X9.3148 Y-5.9036
G01 X9.2839 Y-5.8959
G01 X9.2585 Y-5.8870
G01 X9.2495 Y-5.8833
G01 X9.2296 Y-5.8738
G01 X9.2210 Y-5.8692
G01 X9.2021 Y-5.8579
G01 X9.1940 Y-5.8525
G01 X9.1763 Y-5.8394
G01 X9.1688 Y-5.8332
G01 X9.1524 Y-5.8184
G01 X8.5339 Y-5.1999
G01 X7.3010 Y-4.7608
G01 X7.2177 Y-4.7307
G01 X7.1291 Y-4.6888
G01 X7.0450 Y-4.6384
G01 X6.9663 Y-4.5801
G01 X6.8937 Y-4.5142
G01 X6.8279 Y-4.4416
G01 X6.7695 Y-4.3629
G01 X6.7191 Y-4.2788
G01 X6.6772 Y-4.1902
G01 X6.6472 Y-4.1072
G01 X6.2080 Y-2.8740
G01 X6.1958 Y-2.8618
G01 X5.3774 Y-2.8618
G01 X5.4421 Y-2.8853
G01 X5.5308 Y-2.9272
G01 X5.6148 Y-2.9776
G01 X5.6897 Y-3.0329
G01 X5.7009 Y-3.0423
G01 X5.7662 Y-3.1018
G01 X5.8256 Y-3.1670
G01 X5.8380 Y-3.1821
G01 X5.8848 Y-3.2451
G01 X5.8930 Y-3.2572
G01 X5.9408 Y-3.3372
G01 X5.9787 Y-3.4169
G01 X5.9845 Y-3.4303
G01 X6.3198 Y-4.3712
G01 X6.4813 Y-4.3712
G01 X6.5006 Y-4.3722
G01 X6.5150 Y-4.3741
G01 X6.5714 Y-4.3852
G01 X6.5898 Y-4.3902
G01 X6.6076 Y-4.3970
G01 X6.6247 Y-4.4054
G01 X6.6329 Y-4.4102
G01 X6.6448 Y-4.4182
G01 X6.7070 Y-4.4676
G01 X6.7178 Y-4.4769
G01 X6.7278 Y-4.4869
G01 X6.7372 Y-4.4975
G01 X6.7430 Y-4.5050
G01 X6.7527 Y-4.5189
G01 X6.8890 Y-4.6552
G01 X7.0470 Y-4.7658
G01 X7.1311 Y-4.8051
G01 X7.1390 Y-4.8092
G01 X7.1555 Y-4.8187
G01 X7.2007 Y-4.8396
G01 X7.2207 Y-4.8471
G01 X7.2340 Y-4.8514
G01 X8.4174 Y-5.2730
G01 X8.4310 Y-5.2785
G01 X8.4485 Y-5.2872
G01 X8.5071 Y-5.3240
G01 X8.5228 Y-5.3357
G01 X8.5338 Y-5.3454
G01 X9.0533 Y-5.8648
G01 X9.0668 Y-5.8794
G01 X9.0837 Y-5.8998
G01 X9.1064 Y-5.9188
G01 X9.1141 Y-5.9257
G01 X9.1408 Y-5.9418
G01 X9.1495 Y-5.9476
G01 X9.1710 Y-5.9631
G01 X9.1977 Y-5.9759
G01 X9.2068 Y-5.9807
G01 X9.2322 Y-5.9881
G01 X9.2422 Y-5.9914
G01 X9.2712 Y-6.0027
G01 X9.3004 Y-6.0085
G01 X9.3104 Y-6.0108
G01 X9.3368 Y-6.0117
G01 X9.3501 Y-6.0127
G01 X9.3744 Y-6.0128
G01 X9.4316 Y-6.0146
G01 X9.4498 Y-6.0130
G01 X9.4607 Y-6.0127
G01 X13.1001 Y-6.0127
G01 X13.2068 Y-5.9061
G00 Z2.0000
G00 X14.2738 Y-6.8666
G01 F60.00
G01 Z-0.1500
G01 F240.00
G01 X14.2911 Y-6.7923
G01 X14.2922 Y-6.7701
G01 X14.2932 Y-6.7603
G01 X14.2989 Y-6.7215
G01 X14.3012 Y-6.7087
G01 X14.2738 Y-6.7361
G01 X14.2738 Y-6.8666
G00 Z2.0000
G00 X15.9505 Y-5.0594
G01 F60.00
G01 Z-0.1500
G01 F240.00
G01 X16.3167 Y-4.8833
G01 X16.3544 Y-4.8456
G01 X16.3708 Y-4.8308
G01 X16.3822 Y-4.8217
G01 X16.3960 Y-4.8115
G01 X16.4041 Y-4.8061
G01 X16.4273 Y-4.7924
G01 X16.4560 Y-4.7788
G01 X16.4813 Y-4.7696
G01 X16.4906 Y-4.7668
G01 X16.5072 Y-4.7625
G01 X16.5216 Y-4.7595
G01 X16.5433 Y-4.7563
G01 X16.5579 Y-4.7550
G01 X16.5799 Y-4.7542
G01 X17.2034 Y-4.7542
G01 X17.1577 Y-4.7268
G01 X17.1455 Y-4.7188
G01 X17.0706 Y-4.6634
G01 X17.0591 Y-4.6542
G01 X16.9830 Y-4.5849
G01 X16.9169 Y-4.5124
G01 X16.9046 Y-4.4974
G01 X16.8520 Y-4.4264
G01 X16.8437 Y-4.4144
G01 X16.7909 Y-4.3260
G01 X16.7564 Y-4.2535
G01 X15.9505 Y-5.0594
G00 Z2.0000
G00 X16.5499 Y-4.6330
G01 F60.00
G01 Z-0.1500
G01 F240.00
G01 X16.5799 Y-4.6318
G01 X16.8601 Y-4.6318
G01 X16.8263 Y-4.5946
G01 X16.8111 Y-4.5765
G01 X16.7491 Y-4.4929
G01 X16.7403 Y-4.4798
G01 X16.7263 Y-4.4566
G01 X16.5499 Y-4.6330
G00 Z2.0000
G00 X15.9665 Y-3.7130
G01 F60.00
G01 Z-0.1500
G01 F240.00
G01 X15.2734 Y-4.4061
G01 X15.2734 Y-4.4746
G01 X15.9665 Y-3.7815
G01 X15.9665 Y-3.7130
G00 Z2.0000
G00 X16.0888 Y-3.4177
G01 F60.00
G01 Z-0.1500
G01 F240.00
G01 X15.1511 Y-4.3554
G01 X15.1511 Y-4.7699
G01 X16.0888 Y-3.8322
G01 X16.0888 Y-3.4177
G00 Z2.0000
G00 X16.3170 Y-0.8298
G01 F60.00
G01 Z-0.1500
G01 F240.00
G01 X16.1691 Y-0.8298
G01 X13.9425 Y-3.0567
G01 X13.9285 Y-3.0695
G01 X13.9173 Y-3.0781
G01 X13.8609 Y-3.1145
G01 X13.8479 Y-3.1218
G01 X13.8343 Y-3.1281
G01 X13.8204 Y-3.1333
G01 X13.8093 Y-3.1366
G01 X13.5763 Y-3.3696
G01 X13.6027 Y-3.4258
G01 X13.6335 Y-3.5113
G01 X16.2946 Y-0.8502
G01 X16.3170 Y-0.8298
G00 Z2.0000
G00 X13.1287 Y-2.9013
G01 F60.00
G01 Z-0.1500
G01 F240.00
G01 X13.1963 Y-2.8337
G01 X13.1287 Y-2.8022
G01 X13.1287 Y-2.9013
G00 Z2.0000
G00 X13.1399 Y-3.0630
G01 F60.00
G01 Z-0.1500
G01 F240.00
G01 X13.3908 Y-2.8121
G01 X13.2940 Y-2.7443
G01 X13.1000 Y-2.6538
G01 X13.0064 Y-2.6288
G01 X13.0064 Y-2.9950
G01 X13.0188 Y-2.9998
G01 X13.0914 Y-3.0342
G01 X13.1399 Y-3.0630
G00 Z2.0000
G00 X12.2199 Y-3.0630
G01 F60.00
G01 Z-0.1500
G01 F240.00
G01 X12.2684 Y-3.0342
G01 X12.3411 Y-2.9998
G01 X12.3535 Y-2.9950
G01 X12.3535 Y-2.6288
G01 X12.2599 Y-2.6538
G01 X12.0658 Y-2.7443
G01 X11.9690 Y-2.8121
G01 X12.2199 Y-3.0630
G00 Z2.0000
G00 X12.2312 Y-2.9013
G01 F60.00
G01 Z-0.1500
G01 F240.00
G01 X12.2312 Y-2.8022
G01 X12.1636 Y-2.8337
G01 X12.2312 Y-2.9013
G00 Z2.0000
G00 X16.8057 Y-7.3019
G01 F60.00
G01 Z-0.1500
G01 F240.00
G01 X17.2152 Y-7.7777
G01 X16.9041 Y-8.4187
G01 X16.8971 Y-8.4311
G01 X16.8586 Y-8.5126
G01 X16.8255 Y-8.6046
G01 X16.8019 Y-8.6993
G01 X16.7882 Y-8.7923
G01 X16.7835 Y-8.8880
G01 X16.7882 Y-8.9837
G01 X16.8022 Y-9.0785
G01 X16.8255 Y-9.1714
G01 X16.8578 Y-9.2617
G01 X16.8988 Y-9.3483
G01 X16.9470 Y-9.4289
G01 X17.0051 Y-9.5075
G01 X17.0695 Y-9.5785
G01 X17.1405 Y-9.6428
G01 X17.2174 Y-9.6999
G01 X17.2996 Y-9.7492
G01 X17.3863 Y-9.7901
G01 X17.4765 Y-9.8224
G01 X17.5694 Y-9.8457
G01 X17.6642 Y-9.8597
G01 X17.7599 Y-9.8644
G01 X17.8556 Y-9.8597
G01 X17.9504 Y-9.8457
G01 X18.0434 Y-9.8224
G01 X18.1336 Y-9.7901
G01 X18.2202 Y-9.7492
G01 X18.3008 Y-9.7009
G01 X18.3794 Y-9.6428
G01 X18.4504 Y-9.5785
G01 X18.5147 Y-9.5075
G01 X18.5697 Y-9.4336
G01 X18.5738 Y-9.4273
G01 X18.6211 Y-9.3483
G01 X18.6605 Y-9.2651
G01 X18.6634 Y-9.2582
G01 X18.6932 Y-9.1750
G01 X18.6953 Y-9.1678
G01 X18.7176 Y-9.0785
G01 X18.7317 Y-8.9837
G01 X18.7364 Y-8.8880
G01 X18.7317 Y-8.7923
G01 X18.7176 Y-8.6975
G01 X18.6953 Y-8.6082
G01 X18.6932 Y-8.6010
G01 X18.6634 Y-8.5178
G01 X18.6605 Y-8.5109
G01 X18.6228 Y-8.4311
G01 X18.6158 Y-8.4187
G01 X18.3047 Y-7.7777
G01 X18.7190 Y-7.2965
G01 X18.7245 Y-7.2889
G01 X18.7290 Y-7.2807
G01 X18.7331 Y-7.2702
G01 X18.7353 Y-7.2611
G01 X18.7360 Y-7.2555
G01 X18.7364 Y-7.2480
G01 X18.7364 Y-5.4480
G01 X18.7360 Y-5.4405
G01 X18.7349 Y-5.4331
G01 X18.7331 Y-5.4258
G01 X18.7306 Y-5.4187
G01 X18.7274 Y-5.4120
G01 X18.7235 Y-5.4055
G01 X18.7190 Y-5.3995
G01 X18.7140 Y-5.3939
G01 X18.7084 Y-5.3889
G01 X18.7024 Y-5.3844
G01 X18.6960 Y-5.3806
G01 X18.6892 Y-5.3774
G01 X18.6821 Y-5.3748
G01 X18.6748 Y-5.3730
G01 X18.6674 Y-5.3719
G01 X18.6599 Y-5.3716
G01 X16.8599 Y-5.3716
G01 X16.8524 Y-5.3719
G01 X16.8450 Y-5.3730
G01 X16.8377 Y-5.3748
G01 X16.8307 Y-5.3774
G01 X16.8239 Y-5.3806
G01 X16.8175 Y-5.3844
G01 X16.8114 Y-5.3889
G01 X16.8059 Y-5.3939
G01 X16.8008 Y-5.3995
G01 X16.7964 Y-5.4055
G01 X16.7925 Y-5.4120
G01 X16.7893 Y-5.4187
G01 X16.7868 Y-5.4258
G01 X16.7850 Y-5.4331
G01 X16.7839 Y-5.4405
G01 X16.7835 Y-5.4480
G01 X16.7835 Y-7.2480
G01 X16.7839 Y-7.2555
G01 X16.7850 Y-7.2629
G01 X16.7868 Y-7.2702
G01 X16.7893 Y-7.2773
G01 X16.7925 Y-7.2840
G01 X16.7964 Y-7.2905
G01 X16.8008 Y-7.2965
G01 X16.8057 Y-7.3019
G00 Z2.0000
G00 X18.7088 Y-8.0502
G01 F60.00
G01 Z-0.1500
G01 F240.00
G01 X18.7088 Y-7.6833
G01 X18.5950 Y-7.8155
G01 X18.7088 Y-8.0502
G00 Z2.0000
G00 X18.9044 Y-9.5895
G01 F60.00
G01 Z-0.1500
G01 F240.00
G01 X18.9412 Y-9.5895
G01 X19.0634 Y-9.3355
G01 X19.0456 Y-9.3273
G01 X19.0311 Y-9.3198
G01 X19.0051 Y-9.3920
G01 X19.0011 Y-9.4021
G01 X18.9923 Y-9.4220
G01 X18.9545 Y-9.5018
G01 X18.9447 Y-9.5213
G01 X18.9340 Y-9.5402
G01 X18.9044 Y-9.5895
G00 Z2.0000
G00 X18.6598 Y-9.7118
G01 F60.00
G01 Z-0.1500
G01 F240.00
G01 X19.0181 Y-9.7118
G01 X19.1746 Y-9.3864
G01 X19.1963 Y-9.3406
G01 X19.2077 Y-9.3199
G01 X19.2295 Y-9.2837
G01 X19.2383 Y-9.2706
G01 X19.2521 Y-9.2518
G01 X19.2221 Y-9.2500
G01 X19.2062 Y-9.2486
G01 X19.1904 Y-9.2465
G01 X19.1747 Y-9.2436
G01 X19.1592 Y-9.2399
G01 X19.1364 Y-9.2329
G01 X19.1214 Y-9.2273
G01 X19.1068 Y-9.2210
G01 X19.0855 Y-9.2101
G01 X19.0717 Y-9.2021
G01 X19.0584 Y-9.1933
G01 X18.9891 Y-9.1426
G01 X18.9767 Y-9.1326
G01 X18.9593 Y-9.1166
G01 X18.9576 Y-9.1262
G01 X18.9541 Y-9.1416
G01 X18.9326 Y-9.2273
G01 X18.9284 Y-9.2425
G01 X18.9235 Y-9.2574
G01 X18.8937 Y-9.3406
G01 X18.8881 Y-9.3553
G01 X18.8817 Y-9.3697
G01 X18.8405 Y-9.4566
G01 X18.8291 Y-9.4773
G01 X18.7837 Y-9.5531
G01 X18.7708 Y-9.5729
G01 X18.7088 Y-9.6565
G01 X18.6936 Y-9.6746
G01 X18.6598 Y-9.7118
G00 Z2.0000
G00 X18.3165 Y-9.8342
G01 F60.00
G01 Z-0.1500
G01 F240.00
G01 X19.0950 Y-9.8342
G01 X19.3078 Y-9.3912
G01 X19.3303 Y-9.3533
G01 X19.3411 Y-9.3370
G01 X19.3676 Y-9.3018
G01 X19.4004 Y-9.2653
G01 X19.4108 Y-9.2551
G01 X19.4437 Y-9.2257
G01 X19.4870 Y-9.1936
G01 X19.5332 Y-9.1659
G01 X19.5774 Y-9.1448
G01 X19.5910 Y-9.1393
G01 X19.6326 Y-9.1247
G01 X19.6801 Y-9.1126
G01 X19.6945 Y-9.1099
G01 X19.7381 Y-9.1037
G01 X19.7822 Y-9.1013
G01 X32.9999 Y-9.1011
G01 X33.0537 Y-9.1037
G01 X33.0974 Y-9.1099
G01 X33.1165 Y-9.1137
G01 X33.1499 Y-9.1221
G01 X33.1639 Y-9.1262
G01 X33.2100 Y-9.1428
G01 X33.2544 Y-9.1636
G01 X33.2672 Y-9.1707
G01 X33.3008 Y-9.1909
G01 X33.3089 Y-9.1963
G01 X33.3309 Y-9.2126
G01 X33.1266 Y-9.0082
G01 X33.0353 Y-8.9983
G01 X19.7211 Y-8.9983
G01 X19.5826 Y-9.0287
G01 X19.4425 Y-9.0936
G01 X19.4266 Y-9.1014
G01 X19.3810 Y-9.1198
G01 X19.3717 Y-9.1230
G01 X19.3576 Y-9.1269
G01 X19.3480 Y-9.1290
G01 X19.3334 Y-9.1312
G01 X19.3188 Y-9.1323
G01 X19.3041 Y-9.1323
G01 X19.2196 Y-9.1270
G01 X19.2050 Y-9.1249
G01 X19.1858 Y-9.1203
G01 X19.1717 Y-9.1156
G01 X19.1626 Y-9.1119
G01 X19.1492 Y-9.1056
G01 X19.1364 Y-9.0982
G01 X19.1241 Y-9.0899
G01 X19.0677 Y-9.0487
G01 X19.0561 Y-9.0395
G01 X19.0487 Y-9.0329
G01 X19.0383 Y-9.0224
G01 X19.0257 Y-9.0072
G01 X19.0173 Y-8.9950
G01 X19.0122 Y-8.9865
G01 X19.0076 Y-8.9778
G01 X19.0014 Y-8.9644
G01 X18.9728 Y-8.8902
G01 X18.9672 Y-8.8721
G01 X18.9642 Y-8.8582
G01 X18.9618 Y-8.8395
G01 X18.9493 Y-8.6895
G01 X18.9004 Y-8.4965
G01 X18.8879 Y-8.4673
G01 X18.8636 Y-8.4019
G01 X18.8594 Y-8.3927
G01 X18.8557 Y-8.3834
G01 X18.8511 Y-8.3692
G01 X18.8352 Y-8.3005
G01 X18.8327 Y-8.2857
G01 X18.8317 Y-8.2758
G01 X18.8312 Y-8.2659
G01 X18.8312 Y-7.6316
G01 X18.8317 Y-7.6175
G01 X18.8332 Y-7.6035
G01 X18.8357 Y-7.5896
G01 X18.8391 Y-7.5759
G01 X18.8586 Y-7.5092
G01 X18.8647 Y-7.4914
G01 X18.8704 Y-7.4785
G01 X18.8747 Y-7.4701
G01 X18.8794 Y-7.4620
G01 X18.8894 Y-7.4462
G01 X18.8982 Y-7.4332
G01 X18.9276 Y-7.3939
G01 X18.9455 Y-7.3479
G01 X18.9500 Y-7.3339
G01 X18.9591 Y-7.3094
G01 X18.9617 Y-7.2852
G01 X18.9619 Y-7.2666
G01 X18.9617 Y-7.2567
G01 X18.9617 Y-6.4486
G01 X18.9619 Y-6.4381
G01 X18.9643 Y-6.4083
G01 X18.9663 Y-6.3940
G01 X18.9683 Y-6.3845
G01 X18.9735 Y-6.3658
G01 X18.9806 Y-6.3478
G01 X19.0126 Y-6.2804
G01 X19.0220 Y-6.2630
G01 X19.0301 Y-6.2506
G01 X19.0361 Y-6.2427
G01 X19.0491 Y-6.2278
G01 X19.0635 Y-6.2143
G01 X19.0751 Y-6.2052
G01 X19.0832 Y-6.1996
G01 X19.1468 Y-6.1601
G01 X19.1596 Y-6.1528
G01 X19.1730 Y-6.1465
G01 X19.1822 Y-6.1428
G01 X19.2010 Y-6.1368
G01 X19.2106 Y-6.1346
G01 X19.2252 Y-6.1321
G01 X19.2449 Y-6.1304
G01 X19.3246 Y-6.1315
G01 X19.3432 Y-6.1327
G01 X19.3432 Y-6.0167
G01 X19.3247 Y-6.0073
G01 X19.2995 Y-5.9922
G01 X19.2874 Y-5.9839
G01 X19.2678 Y-5.9693
G01 X19.2566 Y-5.9599
G01 X19.2350 Y-5.9400
G01 X19.2151 Y-5.9184
G01 X19.2056 Y-5.9072
G01 X19.1910 Y-5.8875
G01 X19.1827 Y-5.8755
G01 X19.1676 Y-5.8503
G01 X19.1609 Y-5.8373
G01 X19.1485 Y-5.8106
G01 X19.1384 Y-5.7830
G01 X19.1340 Y-5.7691
G01 X19.1268 Y-5.7406
G01 X19.1242 Y-5.7262
G01 X19.1201 Y-5.6971
G01 X19.1182 Y-5.6629
G01 X19.1182 Y-5.2580
G01 X19.1194 Y-5.2286
G01 X19.1206 Y-5.2141
G01 X19.1249 Y-5.1850
G01 X19.1268 Y-5.1754
G01 X19.1307 Y-5.1597
G01 X18.9835 Y-5.3070
G01 X18.9599 Y-5.3283
G01 X18.9344 Y-5.3473
G01 X18.9071 Y-5.3636
G01 X18.8784 Y-5.3772
G01 X18.8493 Y-5.3876
G01 X18.8539 Y-5.4044
G01 X18.8566 Y-5.4188
G01 X18.8582 Y-5.4334
G01 X18.8587 Y-5.4480
G01 X18.8587 Y-7.2480
G01 X18.8585 Y-7.2578
G01 X18.8572 Y-7.2723
G01 X18.8558 Y-7.2820
G01 X18.8527 Y-7.2963
G01 X18.8501 Y-7.3057
G01 X18.8454 Y-7.3195
G01 X18.8375 Y-7.3374
G01 X18.8329 Y-7.3460
G01 X18.8252 Y-7.3584
G01 X18.8136 Y-7.3741
G01 X18.4498 Y-7.7966
G01 X18.7235 Y-8.3604
G01 X18.7290 Y-8.3700
G01 X18.7333 Y-8.3788
G01 X18.7711 Y-8.4586
G01 X18.7786 Y-8.4766
G01 X18.8114 Y-8.5690
G01 X18.8376 Y-8.6736
G01 X18.8522 Y-8.7706
G01 X18.8541 Y-8.7900
G01 X18.8587 Y-8.8880
G01 X18.8541 Y-8.9860
G01 X18.8522 Y-9.0054
G01 X18.8385 Y-9.0976
G01 X18.8355 Y-9.1119
G01 X18.8114 Y-9.2070
G01 X18.7751 Y-9.3085
G01 X18.7290 Y-9.4060
G01 X18.6787 Y-9.4902
G01 X18.6708 Y-9.5025
G01 X18.6093 Y-9.5851
G01 X18.5436 Y-9.6579
G01 X18.5334 Y-9.6684
G01 X18.4644 Y-9.7310
G01 X18.4532 Y-9.7404
G01 X18.3704 Y-9.8016
G01 X18.3165 Y-9.8342
G00 Z2.0000
G00 X15.9049 Y-9.2956
G01 F60.00
G01 Z-0.1500
G01 F240.00
G01 X15.9248 Y-9.2942
G01 X15.9680 Y-9.2923
G01 X15.9958 Y-9.2923
G01 X16.0097 Y-9.2928
G01 X16.0391 Y-9.2942
G01 X16.0668 Y-9.2963
G01 X16.0944 Y-9.2997
G01 X16.1372 Y-9.3062
G01 X16.1644 Y-9.3116
G01 X16.1780 Y-9.3148
G01 X16.2065 Y-9.3220
G01 X16.2333 Y-9.3294
G01 X16.2465 Y-9.3336
G01 X16.2803 Y-9.3455
G01 X16.3791 Y-9.3765
G01 X16.3615 Y-9.3267
G01 X16.3535 Y-9.3001
G01 X16.3252 Y-9.1875
G01 X16.3198 Y-9.1603
G01 X16.3176 Y-9.1466
G01 X16.3047 Y-9.0592
G01 X16.3013 Y-9.0317
G01 X16.3001 Y-9.0178
G01 X16.2944 Y-8.9019
G01 X16.2944 Y-8.8741
G01 X16.2949 Y-8.8602
G01 X16.2992 Y-8.7720
G01 X16.3013 Y-8.7443
G01 X16.3047 Y-8.7168
G01 X16.3198 Y-8.6157
G01 X16.3224 Y-8.6021
G01 X16.3285 Y-8.5750
G01 X16.3499 Y-8.4893
G01 X16.3573 Y-8.4625
G01 X16.3660 Y-8.4362
G01 X16.3958 Y-8.3530
G01 X16.4058 Y-8.3271
G01 X16.4170 Y-8.3017
G01 X16.4548 Y-8.2219
G01 X16.4609 Y-8.2094
G01 X16.4716 Y-8.1892
G01 X16.6346 Y-7.8533
G01 X16.4313 Y-7.6172
G01 X16.4137 Y-7.5957
G01 X16.3972 Y-7.5734
G01 X16.3893 Y-7.5620
G01 X16.3745 Y-7.5386
G01 X16.3609 Y-7.5144
G01 X16.3484 Y-7.4896
G01 X16.3426 Y-7.4770
G01 X16.3320 Y-7.4514
G01 X16.3227 Y-7.4253
G01 X16.3147 Y-7.3987
G01 X16.3111 Y-7.3853
G01 X16.3051 Y-7.3582
G01 X16.3003 Y-7.3309
G01 X16.2969 Y-7.3034
G01 X16.2957 Y-7.2896
G01 X16.2944 Y-7.2619
G01 X16.2942 Y-6.6590
G01 X15.8386 Y-7.1146
G01 X15.8440 Y-7.1376
G01 X15.8548 Y-7.1683
G01 X15.8629 Y-7.1949
G01 X15.8816 Y-7.2695
G01 X15.8870 Y-7.2967
G01 X15.8964 Y-7.3590
G01 X15.8998 Y-7.3865
G01 X15.9018 Y-7.4142
G01 X15.9047 Y-7.4771
G01 X15.9049 Y-9.2956
G00 Z2.0000
G00 X15.7826 Y-9.4418
G01 F60.00
G01 Z-0.1500
G01 F240.00
G01 X15.8262 Y-9.4310
G01 X15.8476 Y-9.4267
G01 X15.8583 Y-9.4250
G01 X15.8875 Y-9.4207
G01 X15.9091 Y-9.4180
G01 X15.9308 Y-9.4164
G01 X15.9602 Y-9.4150
G01 X15.9711 Y-9.4146
G01 X15.9928 Y-9.4146
G01 X16.0440 Y-9.4171
G01 X16.0656 Y-9.4192
G01 X16.1163 Y-9.4267
G01 X16.1270 Y-9.4287
G01 X16.1482 Y-9.4335
G01 X16.1768 Y-9.4407
G01 X16.1978 Y-9.4465
G01 X16.2082 Y-9.4497
G01 X16.2426 Y-9.4619
G01 X16.6075 Y-9.5763
G01 X16.5804 Y-9.5308
G01 X16.5701 Y-9.5116
G01 X16.5276 Y-9.4220
G01 X16.5231 Y-9.4121
G01 X16.5147 Y-9.3920
G01 X16.4812 Y-9.2986
G01 X16.4744 Y-9.2780
G01 X16.4686 Y-9.2570
G01 X16.4446 Y-9.1607
G01 X16.4403 Y-9.1394
G01 X16.4386 Y-9.1286
G01 X16.4257 Y-9.0413
G01 X16.4230 Y-9.0197
G01 X16.4214 Y-8.9980
G01 X16.4171 Y-8.9098
G01 X16.4165 Y-8.8880
G01 X16.4171 Y-8.8662
G01 X16.4214 Y-8.7780
G01 X16.4230 Y-8.7563
G01 X16.4257 Y-8.7347
G01 X16.4386 Y-8.6474
G01 X16.4423 Y-8.6259
G01 X16.4471 Y-8.6047
G01 X16.4686 Y-8.5190
G01 X16.4744 Y-8.4980
G01 X16.4812 Y-8.4774
G01 X16.5147 Y-8.3840
G01 X16.5231 Y-8.3639
G01 X16.5276 Y-8.3540
G01 X16.5654 Y-8.2742
G01 X16.5701 Y-8.2644
G01 X16.5804 Y-8.2453
G01 X16.7798 Y-7.8344
G01 X16.5242 Y-7.5376
G01 X16.5172 Y-7.5293
G01 X16.5038 Y-7.5121
G01 X16.4913 Y-7.4943
G01 X16.4796 Y-7.4760
G01 X16.4689 Y-7.4570
G01 X16.4591 Y-7.4376
G01 X16.4503 Y-7.4177
G01 X16.4424 Y-7.3974
G01 X16.4356 Y-7.3767
G01 X16.4298 Y-7.3557
G01 X16.4250 Y-7.3345
G01 X16.4213 Y-7.3131
G01 X16.4199 Y-7.3023
G01 X16.4177 Y-7.2806
G01 X16.4167 Y-7.2589
G01 X16.4165 Y-6.3637
G01 X15.7041 Y-7.0761
G01 X15.7265 Y-7.1722
G01 X15.7387 Y-7.2067
G01 X15.7450 Y-7.2275
G01 X15.7597 Y-7.2857
G01 X15.7645 Y-7.3069
G01 X15.7682 Y-7.3283
G01 X15.7754 Y-7.3769
G01 X15.7780 Y-7.3985
G01 X15.7797 Y-7.4202
G01 X15.7825 Y-7.4801
G01 X15.7826 Y-9.4418
G00 Z2.0000
G00 X15.6603 Y-9.6269
G01 F60.00
G01 Z-0.1500
G01 F240.00
G01 X15.6822 Y-9.6139
G01 X15.6961 Y-9.6065
G01 X15.7370 Y-9.5872
G01 X15.7515 Y-9.5811
G01 X15.7866 Y-9.5685
G01 X15.8016 Y-9.5635
G01 X15.8168 Y-9.5593
G01 X15.8530 Y-9.5503
G01 X15.8685 Y-9.5473
G01 X15.9054 Y-9.5417
G01 X15.9289 Y-9.5391
G01 X15.9662 Y-9.5371
G01 X15.9819 Y-9.5368
G01 X15.9977 Y-9.5371
G01 X16.0350 Y-9.5391
G01 X16.0507 Y-9.5406
G01 X16.0954 Y-9.5473
G01 X16.1108 Y-9.5503
G01 X16.1547 Y-9.5613
G01 X16.1698 Y-9.5659
G01 X16.2051 Y-9.5783
G01 X16.6309 Y-9.7118
G01 X16.8601 Y-9.7118
G01 X16.8263 Y-9.6746
G01 X16.8111 Y-9.6565
G01 X16.7537 Y-9.5793
G01 X16.7403 Y-9.5598
G01 X16.6908 Y-9.4773
G01 X16.6830 Y-9.4636
G01 X16.6759 Y-9.4495
G01 X16.6349 Y-9.3625
G01 X16.6261 Y-9.3406
G01 X16.5964 Y-9.2574
G01 X16.5914 Y-9.2425
G01 X16.5872 Y-9.2273
G01 X16.5658 Y-9.1416
G01 X16.5623 Y-9.1262
G01 X16.5596 Y-9.1107
G01 X16.5467 Y-9.0233
G01 X16.5447 Y-9.0077
G01 X16.5436 Y-8.9920
G01 X16.5392 Y-8.9038
G01 X16.5388 Y-8.8880
G01 X16.5392 Y-8.8722
G01 X16.5436 Y-8.7840
G01 X16.5447 Y-8.7683
G01 X16.5467 Y-8.7527
G01 X16.5596 Y-8.6653
G01 X16.5623 Y-8.6498
G01 X16.5658 Y-8.6344
G01 X16.5872 Y-8.5487
G01 X16.5938 Y-8.5260
G01 X16.6261 Y-8.4354
G01 X16.6318 Y-8.4207
G01 X16.6382 Y-8.4063
G01 X16.6759 Y-8.3265
G01 X16.6830 Y-8.3124
G01 X16.6884 Y-8.3027
G01 X16.9249 Y-7.8155
G01 X16.6168 Y-7.4577
G01 X16.6020 Y-7.4393
G01 X16.5930 Y-7.4264
G01 X16.5806 Y-7.4063
G01 X16.5731 Y-7.3924
G01 X16.5664 Y-7.3781
G01 X16.5604 Y-7.3636
G01 X16.5550 Y-7.3487
G01 X16.5505 Y-7.3336
G01 X16.5466 Y-7.3184
G01 X16.5423 Y-7.2951
G01 X16.5404 Y-7.2795
G01 X16.5392 Y-7.2638
G01 X16.5388 Y-7.2480
G01 X16.5388 Y-6.0650
G01 X16.5125 Y-6.0942
G01 X16.5016 Y-6.1057
G01 X15.5695 Y-7.0377
G01 X15.6089 Y-7.2067
G01 X15.6225 Y-7.2451
G01 X15.6271 Y-7.2601
G01 X15.6410 Y-7.3154
G01 X15.6445 Y-7.3308
G01 X15.6472 Y-7.3463
G01 X15.6544 Y-7.3949
G01 X15.6563 Y-7.4105
G01 X15.6575 Y-7.4262
G01 X15.6602 Y-7.4831
G01 X15.6603 Y-9.6269
G00 Z2.0000
G00 X15.5380 Y-9.9307
G01 F60.00
G01 Z-0.1500
G01 F240.00
G01 X15.5467 Y-9.9143
G01 X15.5671 Y-9.8808
G01 X15.5903 Y-9.8492
G01 X15.6026 Y-9.8341
G01 X15.6291 Y-9.8052
G01 X15.6580 Y-9.7787
G01 X15.6731 Y-9.7663
G01 X15.7047 Y-9.7432
G01 X15.7383 Y-9.7228
G01 X15.7555 Y-9.7136
G01 X15.7910 Y-9.6971
G01 X15.8278 Y-9.6836
G01 X15.8465 Y-9.6780
G01 X15.8846 Y-9.6687
G01 X15.9233 Y-9.6627
G01 X15.9428 Y-9.6608
G01 X15.9819 Y-9.6591
G01 X16.0308 Y-9.6615
G01 X16.0793 Y-9.6687
G01 X16.1174 Y-9.6780
G01 X16.1314 Y-9.6820
G01 X16.1641 Y-9.6937
G01 X16.6122 Y-9.8342
G01 X17.2034 Y-9.8342
G01 X17.1495 Y-9.8016
G01 X17.0667 Y-9.7404
G01 X17.0555 Y-9.7310
G01 X16.9865 Y-9.6684
G01 X16.9763 Y-9.6579
G01 X16.9106 Y-9.5851
G01 X16.8520 Y-9.5064
G01 X16.8437 Y-9.4944
G01 X16.7957 Y-9.4144
G01 X16.7865 Y-9.3972
G01 X16.7448 Y-9.3085
G01 X16.7115 Y-9.2162
G01 X16.7059 Y-9.1976
G01 X16.6823 Y-9.1024
G01 X16.6670 Y-9.0005
G01 X16.6657 Y-8.9860
G01 X16.6612 Y-8.8880
G01 X16.6665 Y-8.7803
G01 X16.6823 Y-8.6736
G01 X16.7059 Y-8.5784
G01 X16.7099 Y-8.5644
G01 X16.7413 Y-8.4766
G01 X16.7488 Y-8.4586
G01 X16.7865 Y-8.3788
G01 X16.7909 Y-8.3700
G01 X16.7964 Y-8.3604
G01 X17.0700 Y-7.7966
G01 X16.7032 Y-7.3703
G01 X16.6974 Y-7.3625
G01 X16.6894 Y-7.3502
G01 X16.6846 Y-7.3417
G01 X16.6782 Y-7.3285
G01 X16.6745 Y-7.3195
G01 X16.6697 Y-7.3057
G01 X16.6660 Y-7.2916
G01 X16.6641 Y-7.2820
G01 X16.6621 Y-7.2675
G01 X16.6612 Y-7.2480
G01 X16.6612 Y-5.5772
G01 X16.5111 Y-5.8898
G01 X16.4834 Y-5.9360
G01 X16.4573 Y-5.9716
G01 X16.4481 Y-5.9830
G01 X16.4151 Y-6.0192
G01 X15.4350 Y-6.9993
G01 X15.4914 Y-7.2413
G01 X15.5079 Y-7.2881
G01 X15.5245 Y-7.3546
G01 X15.5346 Y-7.4225
G01 X15.5379 Y-7.4861
G01 X15.5380 Y-9.9307
G00 Z2.0000
G00 X16.6032 Y-12.5208
G01 F60.00
G01 Z-0.1500
G01 F240.00
G01 X16.6032 Y-12.6302
G01 X16.6188 Y-12.6144
G01 X16.6306 Y-12.6037
G01 X16.6430 Y-12.5937
G01 X16.6615 Y-12.5804
G01 X16.6443 Y-12.5659
G01 X16.6329 Y-12.5550
G01 X16.6168 Y-12.5377
G01 X16.6032 Y-12.5208
G00 Z2.0000
G00 X16.9278 Y-13.8501
G01 F60.00
G01 Z-0.1500
G01 F240.00
G01 X16.9811 Y-13.8791
G01 X17.0875 Y-13.9588
G01 X18.7752 Y-15.6465
G01 X18.7822 Y-15.6523
G01 X18.7897 Y-15.6574
G01 X18.8527 Y-15.6917
G01 X18.8595 Y-15.6950
G01 X18.8684 Y-15.6982
G01 X18.8796 Y-15.7005
G01 X18.8891 Y-15.7011
G01 X18.9034 Y-15.7003
G01 X19.3861 Y-16.1830
G01 X19.3882 Y-16.1960
G01 X19.3927 Y-16.2139
G01 X19.4000 Y-16.2349
G01 X19.4102 Y-16.2567
G01 X19.4206 Y-16.2742
G01 X19.4349 Y-16.2937
G01 X19.4498 Y-16.3101
G01 X19.4663 Y-16.3250
G01 X19.4841 Y-16.3383
G01 X19.4999 Y-16.3479
G01 X19.5065 Y-16.3514
G01 X19.5233 Y-16.3592
G01 X19.5442 Y-16.3667
G01 X19.5621 Y-16.3713
G01 X19.5695 Y-16.3727
G01 X19.5877 Y-16.3754
G01 X19.6081 Y-16.3764
G01 X21.0599 Y-16.3764
G01 X21.0821 Y-16.3754
G01 X21.1004 Y-16.3727
G01 X21.1078 Y-16.3713
G01 X21.1239 Y-16.3672
G01 X21.1292 Y-16.3655
G01 X21.1466 Y-16.3592
G01 X21.1667 Y-16.3497
G01 X21.1857 Y-16.3383
G01 X21.2017 Y-16.3266
G01 X21.6059 Y-16.3266
G01 X21.5856 Y-16.3964
G01 X21.5839 Y-16.4037
G01 X21.5827 Y-16.4130
G01 X21.5828 Y-16.4230
G01 X21.5768 Y-16.4715
G01 X21.5765 Y-16.4772
G01 X21.5767 Y-16.4848
G01 X21.5773 Y-16.4904
G01 X21.5788 Y-16.4979
G01 X21.5811 Y-16.5051
G01 X21.5832 Y-16.5104
G01 X21.6152 Y-16.5768
G01 X21.6211 Y-16.5864
G01 X21.6270 Y-16.5938
G01 X21.6338 Y-16.6003
G01 X21.6398 Y-16.6049
G01 X21.6960 Y-16.6415
G01 X21.7007 Y-16.6442
G01 X21.7072 Y-16.6473
G01 X21.7340 Y-16.6564
G01 X21.7438 Y-16.6611
G01 X21.8061 Y-16.7020
G01 X21.8677 Y-16.7400
G01 X21.8761 Y-16.7469
G01 X21.9273 Y-16.8011
G01 X24.0092 Y-18.8830
G01 X24.0146 Y-18.8879
G01 X24.0236 Y-18.8943
G01 X24.0814 Y-18.9275
G01 X24.0880 Y-18.9308
G01 X24.0948 Y-18.9335
G01 X24.2551 Y-18.9757
G01 X24.2628 Y-18.9771
G01 X24.2962 Y-18.9814
G01 X24.3040 Y-18.9818
G01 X24.9555 Y-18.9818
G01 X24.9569 Y-19.0104
G01 X24.9613 Y-19.0397
G01 X24.9685 Y-19.0684
G01 X24.9771 Y-19.0927
G01 X24.9792 Y-19.0979
G01 X24.9894 Y-19.1196
G01 X24.9929 Y-19.1262
G01 X25.0063 Y-19.1483
G01 X25.0239 Y-19.1721
G01 X25.0438 Y-19.1940
G01 X25.0657 Y-19.2139
G01 X25.0895 Y-19.2315
G01 X25.1116 Y-19.2449
G01 X25.1182 Y-19.2484
G01 X25.1398 Y-19.2586
G01 X25.1451 Y-19.2607
G01 X25.1694 Y-19.2693
G01 X25.1981 Y-19.2765
G01 X25.2274 Y-19.2809
G01 X25.2569 Y-19.2823
G01 X25.7569 Y-19.2823
G01 X25.7865 Y-19.2809
G01 X25.8176 Y-19.2761
G01 X25.8408 Y-19.2703
G01 X25.8480 Y-19.2681
G01 X25.8723 Y-19.2594
G01 X25.8957 Y-19.2484
G01 X25.9023 Y-19.2449
G01 X25.9244 Y-19.2315
G01 X25.9496 Y-19.2127
G01 X25.9674 Y-19.1966
G01 X25.9727 Y-19.1913
G01 X25.9900 Y-19.1721
G01 X26.0065 Y-19.1499
G01 X26.0237 Y-19.1213
G01 X26.0347 Y-19.0979
G01 X26.0405 Y-19.0824
G01 X26.5082 Y-19.0824
G01 X26.5203 Y-19.1084
G01 X26.5239 Y-19.1150
G01 X26.5385 Y-19.1392
G01 X26.5553 Y-19.1620
G01 X26.5600 Y-19.1678
G01 X26.5791 Y-19.1887
G01 X26.6000 Y-19.2078
G01 X26.6058 Y-19.2125
G01 X26.6286 Y-19.2293
G01 X26.6528 Y-19.2439
G01 X26.6594 Y-19.2474
G01 X26.6850 Y-19.2595
G01 X26.7116 Y-19.2691
G01 X26.7188 Y-19.2712
G01 X26.7462 Y-19.2780
G01 X26.7761 Y-19.2825
G01 X26.8099 Y-19.2843
G01 X27.7599 Y-19.2843
G01 X27.7919 Y-19.2827
G01 X27.8199 Y-19.2787
G01 X27.8273 Y-19.2772
G01 X27.8511 Y-19.2712
G01 X27.8583 Y-19.2691
G01 X27.8849 Y-19.2595
G01 X27.9138 Y-19.2458
G01 X27.9413 Y-19.2293
G01 X27.9656 Y-19.2114
G01 X27.9881 Y-19.1913
G01 X27.9934 Y-19.1860
G01 X28.0123 Y-19.1650
G01 X28.0324 Y-19.1376
G01 X28.0478 Y-19.1117
G01 X28.0608 Y-19.0845
G01 X28.0718 Y-19.0544
G01 X28.0770 Y-19.0344
G01 X28.4650 Y-19.0344
G01 X28.4715 Y-19.0432
G01 X28.4781 Y-19.0501
G01 X28.5338 Y-19.0983
G01 X28.5384 Y-19.1018
G01 X28.5448 Y-19.1059
G01 X28.5552 Y-19.1107
G01 X28.5643 Y-19.1136
G01 X28.6177 Y-19.1252
G01 X28.6285 Y-19.1268
G01 X29.3183 Y-19.1269
G01 X29.4176 Y-19.1376
G01 X29.4612 Y-19.1471
G01 X29.5507 Y-19.1769
G01 X29.5893 Y-19.2017
G01 X29.5957 Y-19.2052
G01 X29.6041 Y-19.2087
G01 X29.6765 Y-19.2300
G01 X29.6877 Y-19.2321
G01 X29.6973 Y-19.2326
G01 X29.7030 Y-19.2323
G01 X29.7106 Y-19.2312
G01 X29.7639 Y-19.2196
G01 X29.7727 Y-19.2172
G01 X29.7794 Y-19.2145
G01 X29.8933 Y-19.1625
G01 X29.9498 Y-19.1459
G01 X30.0814 Y-19.1269
G01 X30.2511 Y-19.1269
G01 X30.2584 Y-19.1266
G01 X30.2656 Y-19.1256
G01 X30.3189 Y-19.1140
G01 X30.3294 Y-19.1109
G01 X30.4308 Y-19.0648
G01 X30.4873 Y-19.0482
G01 X30.5171 Y-19.0439
G01 X30.5242 Y-19.0424
G01 X30.5328 Y-19.0395
G01 X30.5442 Y-19.0344
G01 X30.8020 Y-19.0344
G01 X30.8321 Y-19.0329
G01 X30.8656 Y-19.0278
G01 X30.8949 Y-19.0204
G01 X30.9216 Y-19.0109
G01 X30.9285 Y-19.0080
G01 X30.9540 Y-18.9959
G01 X30.9783 Y-18.9814
G01 X30.9846 Y-18.9772
G01 X31.0073 Y-18.9603
G01 X31.0297 Y-18.9401
G01 X32.5353 Y-17.4344
G01 X33.8537 Y-17.4344
G01 X33.8593 Y-17.4339
G01 X33.8667 Y-17.4326
G01 X33.8739 Y-17.4306
G01 X33.8792 Y-17.4286
G01 X33.8892 Y-17.4236
G01 X33.8955 Y-17.4194
G01 X33.8999 Y-17.4159
G01 X33.9040 Y-17.4121
G01 X33.9090 Y-17.4065
G01 X33.9124 Y-17.4020
G01 X33.9165 Y-17.3957
G01 X33.9198 Y-17.3890
G01 X33.9219 Y-17.3838
G01 X33.9249 Y-17.3729
G01 X33.9260 Y-17.3655
G01 X33.9264 Y-17.3580
G01 X33.9264 Y-15.6580
G01 X33.9256 Y-15.6468
G01 X33.9245 Y-15.6412
G01 X33.9225 Y-15.6340
G01 X33.9182 Y-15.6236
G01 X33.9124 Y-15.6140
G01 X33.9053 Y-15.6053
G01 X33.8970 Y-15.5977
G01 X33.8876 Y-15.5915
G01 X33.8792 Y-15.5874
G01 X33.8685 Y-15.5838
G01 X33.8574 Y-15.5819
G01 X33.8499 Y-15.5816
G01 X33.3264 Y-15.5816
G01 X33.3264 Y-15.2344
G01 X33.4254 Y-15.2344
G01 X33.4363 Y-15.2337
G01 X33.4470 Y-15.2314
G01 X33.5158 Y-15.2111
G01 X33.5247 Y-15.2077
G01 X33.5346 Y-15.2021
G01 X33.5422 Y-15.1964
G01 X33.5502 Y-15.1884
G01 X33.5972 Y-15.1341
G01 X33.6018 Y-15.1280
G01 X33.6048 Y-15.1231
G01 X33.6090 Y-15.1145
G01 X33.6125 Y-15.1036
G01 X33.6241 Y-15.0503
G01 X33.6255 Y-15.0413
G01 X33.6259 Y-15.0340
G01 X33.6259 Y-12.8525
G01 X33.6251 Y-12.8416
G01 X33.6233 Y-12.8327
G01 X33.6031 Y-12.7639
G01 X33.5999 Y-12.7550
G01 X33.5965 Y-12.7482
G01 X33.5925 Y-12.7418
G01 X33.5878 Y-12.7358
G01 X33.5826 Y-12.7302
G01 X33.5270 Y-12.6819
G01 X33.5210 Y-12.6772
G01 X33.5162 Y-12.6741
G01 X33.5059 Y-12.6690
G01 X33.4951 Y-12.6654
G01 X33.4417 Y-12.6538
G01 X33.4309 Y-12.6522
G01 X32.1562 Y-12.6520
G01 X32.1102 Y-12.6471
G01 X31.9946 Y-12.6040
G01 X31.8970 Y-12.5309
G01 X31.8239 Y-12.4333
G01 X31.7808 Y-12.3178
G01 X31.7776 Y-12.2886
G01 X31.7761 Y-12.2815
G01 X31.7740 Y-12.2745
G01 X31.7460 Y-12.2066
G01 X31.7427 Y-12.1997
G01 X31.7398 Y-12.1948
G01 X31.7366 Y-12.1901
G01 X31.7318 Y-12.1843
G01 X31.7264 Y-12.1789
G01 X31.7220 Y-12.1753
G01 X31.6615 Y-12.1332
G01 X31.6551 Y-12.1292
G01 X31.6483 Y-12.1258
G01 X31.6412 Y-12.1232
G01 X31.6338 Y-12.1212
G01 X31.6226 Y-12.1197
G01 X31.5489 Y-12.1171
G01 X31.5395 Y-12.1176
G01 X31.5301 Y-12.1192
G01 X31.5211 Y-12.1220
G01 X31.5108 Y-12.1268
G01 X31.4474 Y-12.1644
G01 X31.4380 Y-12.1713
G01 X31.4298 Y-12.1796
G01 X31.4156 Y-12.1972
G01 X31.4012 Y-12.2178
G01 X31.2497 Y-12.3693
G01 X31.0743 Y-12.4921
G01 X30.8802 Y-12.5826
G01 X30.6733 Y-12.6381
G01 X30.4599 Y-12.6567
G01 X30.2466 Y-12.6381
G01 X30.0397 Y-12.5826
G01 X29.8456 Y-12.4921
G01 X29.6701 Y-12.3693
G01 X29.5187 Y-12.2178
G01 X29.3958 Y-12.0424
G01 X29.3708 Y-11.9888
G01 X29.3653 Y-11.9794
G01 X29.3597 Y-11.9722
G01 X29.3109 Y-11.9170
G01 X29.3039 Y-11.9106
G01 X29.2962 Y-11.9051
G01 X29.2878 Y-11.9007
G01 X29.2789 Y-11.8973
G01 X29.2044 Y-11.8763
G01 X29.1988 Y-11.8753
G01 X29.1912 Y-11.8747
G01 X29.1855 Y-11.8748
G01 X29.1779 Y-11.8755
G01 X29.1668 Y-11.8780
G01 X29.0946 Y-11.9000
G01 X29.0878 Y-11.9030
G01 X29.0813 Y-11.9067
G01 X29.0751 Y-11.9110
G01 X29.0695 Y-11.9159
G01 X29.0643 Y-11.9213
G01 X29.0198 Y-11.9727
G01 X29.0150 Y-11.9787
G01 X29.0091 Y-11.9887
G01 X28.9840 Y-12.0424
G01 X28.8612 Y-12.2178
G01 X28.7097 Y-12.3693
G01 X28.5343 Y-12.4921
G01 X28.3402 Y-12.5826
G01 X28.1333 Y-12.6381
G01 X27.9199 Y-12.6567
G01 X27.7066 Y-12.6381
G01 X27.4997 Y-12.5826
G01 X27.3056 Y-12.4921
G01 X27.1301 Y-12.3693
G01 X26.9787 Y-12.2178
G01 X26.8558 Y-12.0424
G01 X26.8308 Y-11.9888
G01 X26.8253 Y-11.9794
G01 X26.8197 Y-11.9722
G01 X26.7735 Y-11.9198
G01 X26.7682 Y-11.9143
G01 X26.7624 Y-11.9094
G01 X26.7545 Y-11.9042
G01 X26.7460 Y-11.8999
G01 X26.7389 Y-11.8973
G01 X26.6662 Y-11.8767
G01 X26.6588 Y-11.8753
G01 X26.6531 Y-11.8748
G01 X26.6417 Y-11.8750
G01 X26.6361 Y-11.8758
G01 X26.6287 Y-11.8774
G01 X26.5564 Y-11.8993
G01 X26.5478 Y-11.9030
G01 X26.5413 Y-11.9067
G01 X26.5351 Y-11.9110
G01 X26.5295 Y-11.9159
G01 X26.5243 Y-11.9213
G01 X26.4798 Y-11.9727
G01 X26.4750 Y-11.9787
G01 X26.4691 Y-11.9887
G01 X26.4440 Y-12.0424
G01 X26.3212 Y-12.2178
G01 X26.1697 Y-12.3693
G01 X25.9943 Y-12.4921
G01 X25.8002 Y-12.5826
G01 X25.5933 Y-12.6381
G01 X25.3799 Y-12.6567
G01 X25.1666 Y-12.6381
G01 X24.9597 Y-12.5826
G01 X24.7656 Y-12.4921
G01 X24.5901 Y-12.3693
G01 X24.4387 Y-12.2178
G01 X24.3158 Y-12.0424
G01 X24.2908 Y-11.9888
G01 X24.2853 Y-11.9794
G01 X24.2797 Y-11.9722
G01 X24.2335 Y-11.9198
G01 X24.2282 Y-11.9143
G01 X24.2224 Y-11.9094
G01 X24.2145 Y-11.9042
G01 X24.2060 Y-11.8999
G01 X24.1989 Y-11.8973
G01 X24.1262 Y-11.8767
G01 X24.1169 Y-11.8751
G01 X24.1055 Y-11.8748
G01 X24.0961 Y-11.8758
G01 X24.0887 Y-11.8774
G01 X24.0164 Y-11.8993
G01 X24.0078 Y-11.9030
G01 X24.0013 Y-11.9067
G01 X23.9951 Y-11.9110
G01 X23.9895 Y-11.9159
G01 X23.9843 Y-11.9213
G01 X23.9398 Y-11.9727
G01 X23.9350 Y-11.9787
G01 X23.9291 Y-11.9887
G01 X23.9040 Y-12.0424
G01 X23.7812 Y-12.2178
G01 X23.6297 Y-12.3693
G01 X23.4543 Y-12.4921
G01 X23.2602 Y-12.5826
G01 X23.0533 Y-12.6381
G01 X22.8399 Y-12.6567
G01 X22.6266 Y-12.6381
G01 X22.4197 Y-12.5826
G01 X22.2256 Y-12.4921
G01 X22.0501 Y-12.3693
G01 X21.8987 Y-12.2178
G01 X21.7758 Y-12.0424
G01 X21.6853 Y-11.8482
G01 X21.6299 Y-11.6414
G01 X21.6112 Y-11.4280
G01 X21.6299 Y-11.2146
G01 X21.6853 Y-11.0078
G01 X21.7758 Y-10.8136
G01 X21.8278 Y-10.7395
G01 X21.8307 Y-10.7349
G01 X21.8342 Y-10.7285
G01 X21.8376 Y-10.7201
G01 X21.8605 Y-10.6520
G01 X21.8627 Y-10.6428
G01 X21.8638 Y-10.6334
G01 X21.8636 Y-10.6220
G01 X21.8616 Y-10.6108
G01 X21.8441 Y-10.5412
G01 X21.8410 Y-10.5322
G01 X21.8359 Y-10.5221
G01 X21.8305 Y-10.5143
G01 X21.8241 Y-10.5072
G01 X21.7704 Y-10.4568
G01 X21.7661 Y-10.4532
G01 X21.7598 Y-10.4489
G01 X21.7532 Y-10.4452
G01 X21.7463 Y-10.4422
G01 X21.7372 Y-10.4395
G01 X21.6795 Y-10.4257
G01 X21.6725 Y-10.4246
G01 X21.6636 Y-10.4241
G01 X20.0244 Y-10.4241
G01 X20.0168 Y-10.4244
G01 X20.0093 Y-10.4256
G01 X19.9518 Y-10.4387
G01 X19.9445 Y-10.4409
G01 X19.9375 Y-10.4439
G01 X19.6431 Y-10.5855
G01 X19.6195 Y-10.5994
G01 X19.6135 Y-10.6034
G01 X19.5967 Y-10.6127
G01 X19.5771 Y-10.6256
G01 X19.5656 Y-10.6343
G01 X19.5317 Y-10.6490
G01 X19.5232 Y-10.6531
G01 X19.4877 Y-10.6726
G01 X19.4719 Y-10.6769
G01 X19.4516 Y-10.6838
G01 X19.4383 Y-10.6894
G01 X19.4018 Y-10.6952
G01 X19.3926 Y-10.6970
G01 X19.3533 Y-10.7071
G01 X19.3369 Y-10.7073
G01 X19.3155 Y-10.7090
G01 X19.3012 Y-10.7112
G01 X19.2937 Y-10.7110
G01 X19.2847 Y-10.7117
G01 X19.2106 Y-10.7260
G01 X19.2015 Y-10.7286
G01 X19.1945 Y-10.7315
G01 X19.1862 Y-10.7361
G01 X19.1800 Y-10.7404
G01 X19.1742 Y-10.7454
G01 X19.1223 Y-10.7950
G01 X19.1172 Y-10.8006
G01 X19.1117 Y-10.8083
G01 X19.1072 Y-10.8167
G01 X19.1037 Y-10.8255
G01 X19.0861 Y-10.8911
G01 X19.0843 Y-10.9000
G01 X19.0835 Y-10.9090
G01 X19.0835 Y-11.1016
G01 X18.7364 Y-11.1016
G01 X18.7362 Y-10.5224
G01 X18.7345 Y-10.5112
G01 X18.7331 Y-10.5058
G01 X18.7306 Y-10.4987
G01 X18.7255 Y-10.4887
G01 X18.7190 Y-10.4795
G01 X18.7113 Y-10.4714
G01 X18.7024 Y-10.4644
G01 X18.6926 Y-10.4589
G01 X18.6821 Y-10.4548
G01 X18.6712 Y-10.4524
G01 X18.6599 Y-10.4516
G01 X16.8599 Y-10.4516
G01 X16.8506 Y-10.4521
G01 X16.8432 Y-10.4534
G01 X16.8377 Y-10.4548
G01 X16.8307 Y-10.4574
G01 X16.8239 Y-10.4606
G01 X16.8190 Y-10.4634
G01 X16.8129 Y-10.4677
G01 X16.8086 Y-10.4714
G01 X16.8033 Y-10.4767
G01 X16.7997 Y-10.4810
G01 X16.7953 Y-10.4871
G01 X16.7925 Y-10.4920
G01 X16.7893 Y-10.4987
G01 X16.7873 Y-10.5040
G01 X16.7853 Y-10.5112
G01 X16.7841 Y-10.5186
G01 X16.7835 Y-10.5261
G01 X16.7835 Y-12.3280
G01 X16.7843 Y-12.3392
G01 X16.7868 Y-12.3502
G01 X16.7908 Y-12.3607
G01 X16.7964 Y-12.3705
G01 X16.8033 Y-12.3793
G01 X16.8114 Y-12.3871
G01 X16.8175 Y-12.3916
G01 X16.8223 Y-12.3945
G01 X16.8324 Y-12.3993
G01 X16.8432 Y-12.4026
G01 X16.8543 Y-12.4042
G01 X17.4334 Y-12.4044
G01 X17.4334 Y-12.7516
G01 X16.9064 Y-12.7516
G01 X16.8992 Y-12.7519
G01 X16.8938 Y-12.7526
G01 X16.8849 Y-12.7546
G01 X16.8160 Y-12.7749
G01 X16.8055 Y-12.7792
G01 X16.7957 Y-12.7850
G01 X16.7883 Y-12.7909
G01 X16.7829 Y-12.7962
G01 X16.7346 Y-12.8519
G01 X16.7312 Y-12.8564
G01 X16.7271 Y-12.8629
G01 X16.7237 Y-12.8697
G01 X16.7215 Y-12.8751
G01 X16.7189 Y-12.8842
G01 X16.7077 Y-12.9357
G01 X16.7065 Y-12.9429
G01 X16.7060 Y-12.9502
G01 X16.7060 Y-13.4788
G01 X16.7065 Y-13.4880
G01 X16.7078 Y-13.4952
G01 X16.7227 Y-13.5562
G01 X16.7250 Y-13.5632
G01 X16.7271 Y-13.5683
G01 X16.8286 Y-13.7622
G01 X16.8327 Y-13.7682
G01 X16.8374 Y-13.7738
G01 X16.8911 Y-13.8293
G01 X16.8984 Y-13.8351
G01 X16.9048 Y-13.8390
G01 X16.9278 Y-13.8501
G00 Z2.0000
G00 X15.8974 Y-14.2312
G01 F60.00
G01 Z-0.1500
G01 F240.00
G01 X15.7825 Y-14.1712
G01 X15.7555 Y-14.1584
G01 X15.7425 Y-14.1517
G01 X15.7047 Y-14.1288
G01 X15.6654 Y-14.0997
G01 X15.6291 Y-14.0668
G01 X15.5963 Y-14.0305
G01 X15.5671 Y-13.9912
G01 X15.5467 Y-13.9577
G01 X15.5380 Y-13.9413
G01 X15.5380 Y-14.2312
G01 X15.8974 Y-14.2312
G00 Z2.0000
G00 X15.8375 Y-14.0618
G01 F60.00
G01 Z-0.1500
G01 F240.00
G01 X16.2718 Y-14.2889
G01 X16.2884 Y-14.3055
G01 X16.2884 Y-15.4920
G01 X16.2896 Y-15.5136
G01 X16.2923 Y-15.5313
G01 X16.2961 Y-15.5469
G01 X16.2983 Y-15.5541
G01 X16.3045 Y-15.5708
G01 X16.3122 Y-15.5870
G01 X16.3214 Y-15.6024
G01 X16.3319 Y-15.6169
G01 X16.3362 Y-15.6222
G01 X16.4430 Y-15.8727
G01 X16.4542 Y-15.8966
G01 X16.4578 Y-15.9032
G01 X16.4714 Y-15.9259
G01 X16.4840 Y-15.9432
G01 X16.4840 Y-16.2127
G01 X16.4819 Y-16.2388
G01 X16.4410 Y-16.3798
G01 X16.3647 Y-16.5088
G01 X16.3606 Y-16.5142
G01 X16.3566 Y-16.5205
G01 X16.3518 Y-16.5307
G01 X16.3486 Y-16.5416
G01 X16.3311 Y-16.5737
G01 X16.3267 Y-16.5842
G01 X16.3246 Y-16.5915
G01 X16.3235 Y-16.5971
G01 X16.3229 Y-16.6027
G01 X16.3226 Y-16.6103
G01 X16.3280 Y-16.6857
G01 X16.3291 Y-16.6932
G01 X16.3309 Y-16.7007
G01 X16.3335 Y-16.7078
G01 X16.3368 Y-16.7147
G01 X16.3511 Y-16.7374
G01 X16.3540 Y-16.7445
G01 X16.3575 Y-16.7511
G01 X16.3647 Y-16.7612
G01 X16.4410 Y-16.8902
G01 X16.4819 Y-17.0312
G01 X16.4837 Y-17.0516
G01 X16.4852 Y-17.0588
G01 X16.4867 Y-17.0640
G01 X16.5150 Y-17.1380
G01 X16.5186 Y-17.1447
G01 X16.5228 Y-17.1510
G01 X16.5276 Y-17.1569
G01 X16.5330 Y-17.1622
G01 X16.5388 Y-17.1670
G01 X16.5951 Y-17.2085
G01 X16.6012 Y-17.2126
G01 X16.6078 Y-17.2161
G01 X16.6146 Y-17.2189
G01 X16.6235 Y-17.2215
G01 X16.6734 Y-17.2304
G01 X16.6829 Y-17.2309
G01 X17.3430 Y-17.2309
G01 X17.3684 Y-17.2293
G01 X17.3870 Y-17.2266
G01 X17.4317 Y-17.2306
G01 X17.4459 Y-17.2309
G01 X17.4763 Y-17.2345
G01 X17.5484 Y-17.2408
G01 X17.5552 Y-17.2422
G01 X17.5590 Y-17.2431
G01 X17.6291 Y-17.2686
G01 X17.6977 Y-17.2914
G01 X17.7075 Y-17.2961
G01 X17.7680 Y-17.3358
G01 X17.8314 Y-17.3750
G01 X17.8398 Y-17.3819
G01 X17.8910 Y-17.4361
G01 X18.7392 Y-18.2840
G01 X18.7450 Y-18.2885
G01 X18.7511 Y-18.2925
G01 X18.8140 Y-18.3268
G01 X18.8226 Y-18.3308
G01 X18.8334 Y-18.3342
G01 X18.8447 Y-18.3359
G01 X18.8542 Y-18.3361
G01 X18.8710 Y-18.3349
G01 X19.2819 Y-18.7458
G01 X19.3042 Y-18.7661
G01 X19.3314 Y-18.7864
G01 X19.3605 Y-18.8037
G01 X19.3895 Y-18.8173
G01 X19.4162 Y-18.8268
G01 X19.4330 Y-18.8312
G01 X19.4373 Y-18.8365
G01 X19.4498 Y-18.8501
G01 X19.4634 Y-18.8626
G01 X19.4692 Y-18.8674
G01 X19.4841 Y-18.8783
G01 X19.4999 Y-18.8879
G01 X19.5065 Y-18.8914
G01 X19.5250 Y-18.8999
G01 X19.5442 Y-18.9067
G01 X19.5658 Y-18.9121
G01 X19.5877 Y-18.9154
G01 X19.6099 Y-18.9164
G01 X21.0599 Y-18.9164
G01 X21.0821 Y-18.9154
G01 X21.1059 Y-18.9117
G01 X21.1257 Y-18.9067
G01 X21.1448 Y-18.8999
G01 X21.1633 Y-18.8914
G01 X21.1699 Y-18.8879
G01 X21.1857 Y-18.8783
G01 X21.2036 Y-18.8650
G01 X21.2201 Y-18.8501
G01 X21.2325 Y-18.8365
G01 X21.2362 Y-18.8322
G01 X21.2461 Y-18.8189
G01 X21.2502 Y-18.8126
G01 X21.2596 Y-18.7967
G01 X21.2691 Y-18.7767
G01 X21.2766 Y-18.7557
G01 X21.2812 Y-18.7378
G01 X21.2827 Y-18.7305
G01 X21.2853 Y-18.7122
G01 X21.2864 Y-18.6900
G01 X21.2864 Y-18.3900
G01 X21.2853 Y-18.3678
G01 X21.2820 Y-18.3458
G01 X21.2766 Y-18.3243
G01 X21.2691 Y-18.3033
G01 X21.2596 Y-18.2833
G01 X21.2482 Y-18.2642
G01 X21.2350 Y-18.2463
G01 X21.2201 Y-18.2299
G01 X21.2036 Y-18.2150
G01 X21.1842 Y-18.2007
G01 X21.1667 Y-18.1903
G01 X21.1500 Y-18.1823
G01 X21.1431 Y-18.1794
G01 X21.1257 Y-18.1733
G01 X21.1078 Y-18.1687
G01 X21.1004 Y-18.1673
G01 X21.0821 Y-18.1646
G01 X21.0637 Y-18.1636
G01 X20.3785 Y-18.1636
G01 X19.4618 Y-18.0020
G01 X19.0664 Y-17.6066
G01 X19.0379 Y-17.5088
G01 X19.0359 Y-17.4827
G01 X19.0359 Y-17.0573
G01 X19.0379 Y-17.0312
G01 X19.0789 Y-16.8902
G01 X19.1635 Y-16.7471
G01 X19.1666 Y-16.7403
G01 X19.1686 Y-16.7350
G01 X19.1705 Y-16.7277
G01 X19.1716 Y-16.7213
G01 X19.1863 Y-16.6840
G01 X19.1892 Y-16.6749
G01 X19.1910 Y-16.6656
G01 X19.1916 Y-16.6580
G01 X19.1914 Y-16.6504
G01 X19.1901 Y-16.6410
G01 X19.1751 Y-16.5671
G01 X19.1735 Y-16.5618
G01 X19.1706 Y-16.5549
G01 X19.1671 Y-16.5484
G01 X19.1641 Y-16.5437
G01 X19.1397 Y-16.5105
G01 X19.1334 Y-16.5033
G01 X16.8330 Y-14.2030
G01 X16.8261 Y-14.1971
G01 X16.8185 Y-14.1921
G01 X16.7556 Y-14.1577
G01 X16.7453 Y-14.1531
G01 X16.7363 Y-14.1504
G01 X16.7271 Y-14.1488
G01 X16.6967 Y-14.1457
G01 X16.6764 Y-14.1456
G01 X16.6677 Y-14.1270
G01 X16.6595 Y-14.1132
G01 X16.6553 Y-14.1070
G01 X16.6445 Y-14.0927
G01 X16.6324 Y-14.0795
G01 X16.5568 Y-14.0039
G01 X16.3585 Y-13.6244
G01 X16.3585 Y-10.4332
G01 X16.5934 Y-10.3595
G01 X19.2839 Y-10.3595
G01 X19.3037 Y-10.3585
G01 X19.3232 Y-10.3556
G01 X19.3424 Y-10.3508
G01 X19.3610 Y-10.3442
G01 X19.3756 Y-10.3374
G01 X19.3806 Y-10.3348
G01 X19.3943 Y-10.3266
G01 X19.4088 Y-10.3161
G01 X19.4146 Y-10.3113
G01 X19.4304 Y-10.2965
G01 X19.8876 Y-10.0766
G01 X33.0018 Y-10.0766
G01 X33.0417 Y-10.0746
G01 X33.0795 Y-10.0691
G01 X33.0868 Y-10.0676
G01 X33.1238 Y-10.0583
G01 X33.1597 Y-10.0455
G01 X33.1666 Y-10.0426
G01 X33.1994 Y-10.0271
G01 X33.2370 Y-10.0047
G01 X33.2706 Y-9.9798
G01 X33.3003 Y-9.9530
G01 X33.3427 Y-9.9097
G01 X33.9734 Y-10.5405
G01 X33.9734 Y-17.7895
G01 X33.4963 Y-18.2666
G01 X33.4367 Y-18.2309
G01 X33.3545 Y-18.1921
G01 X33.2689 Y-18.1614
G01 X33.1843 Y-18.1402
G01 X33.1770 Y-18.1387
G01 X33.0945 Y-18.1265
G01 X33.0870 Y-18.1257
G01 X32.9999 Y-18.1216
G01 X32.9129 Y-18.1257
G01 X32.9054 Y-18.1265
G01 X32.8229 Y-18.1387
G01 X32.8155 Y-18.1402
G01 X32.7310 Y-18.1614
G01 X32.6454 Y-18.1921
G01 X32.5632 Y-18.2309
G01 X32.4884 Y-18.2757
G01 X32.4822 Y-18.2798
G01 X32.4108 Y-18.3331
G01 X32.3448 Y-18.3929
G01 X32.2862 Y-18.4574
G01 X32.2815 Y-18.4632
G01 X32.2296 Y-18.5333
G01 X32.1847 Y-18.6080
G01 X32.1812 Y-18.6146
G01 X32.1440 Y-18.6935
G01 X32.1134 Y-18.7791
G01 X32.0913 Y-18.8673
G01 X32.0784 Y-18.9535
G01 X32.0777 Y-18.9609
G01 X32.0735 Y-19.0480
G01 X32.0779 Y-19.1388
G01 X32.0906 Y-19.2250
G01 X32.0921 Y-19.2324
G01 X32.1124 Y-19.3133
G01 X32.1171 Y-19.3275
G01 X31.8498 Y-19.5948
G01 X31.7986 Y-19.4852
G01 X31.7409 Y-19.2700
G01 X31.7342 Y-19.1927
G01 X31.7332 Y-19.1855
G01 X31.7320 Y-19.1802
G01 X31.7292 Y-19.1715
G01 X31.7038 Y-19.1064
G01 X31.6988 Y-19.0962
G01 X31.6947 Y-19.0898
G01 X31.6900 Y-19.0839
G01 X31.6847 Y-19.0784
G01 X31.6804 Y-19.0747
G01 X31.6193 Y-19.0303
G01 X31.6128 Y-19.0263
G01 X31.6060 Y-19.0230
G01 X31.5952 Y-19.0193
G01 X31.5840 Y-19.0173
G01 X31.5086 Y-19.0130
G01 X31.4992 Y-19.0133
G01 X31.4900 Y-19.0147
G01 X31.4828 Y-19.0167
G01 X31.4740 Y-19.0201
G01 X31.4096 Y-19.0557
G01 X31.4000 Y-19.0621
G01 X31.3928 Y-19.0684
G01 X31.3205 Y-19.1408
G01 X31.3050 Y-19.1586
G01 X31.2937 Y-19.1736
G01 X31.2593 Y-19.2025
G01 X31.2490 Y-19.2122
G01 X31.2250 Y-19.2312
G01 X31.1696 Y-19.2777
G01 X31.1604 Y-19.2836
G01 X31.0948 Y-19.3141
G01 X31.0282 Y-19.3476
G01 X31.0217 Y-19.3499
G01 X31.0179 Y-19.3511
G01 X30.9449 Y-19.3663
G01 X30.8745 Y-19.3829
G01 X30.8637 Y-19.3840
G01 X30.7892 Y-19.3819
G01 X30.6134 Y-19.3819
G01 X30.6062 Y-19.3822
G01 X30.6008 Y-19.3830
G01 X30.5919 Y-19.3850
G01 X30.5230 Y-19.4052
G01 X30.5159 Y-19.4079
G01 X30.5090 Y-19.4113
G01 X30.5010 Y-19.4165
G01 X30.4792 Y-19.4335
G01 X30.4298 Y-19.4796
G01 X30.0759 Y-19.4796
G01 X30.0687 Y-19.4799
G01 X30.0633 Y-19.4806
G01 X30.0561 Y-19.4822
G01 X29.9820 Y-19.5041
G01 X29.9750 Y-19.5072
G01 X29.9668 Y-19.5119
G01 X29.9592 Y-19.5176
G01 X29.9524 Y-19.5242
G01 X29.9041 Y-19.5799
G01 X29.8996 Y-19.5860
G01 X29.8948 Y-19.5943
G01 X29.8910 Y-19.6031
G01 X29.8889 Y-19.6104
G01 X29.8772 Y-19.6637
G01 X29.8757 Y-19.6745
G01 X29.8755 Y-20.7265
G01 X29.8760 Y-20.7355
G01 X29.8772 Y-20.7427
G01 X29.8994 Y-20.8187
G01 X29.9031 Y-20.8274
G01 X29.9089 Y-20.8372
G01 X29.9135 Y-20.8432
G01 X29.9201 Y-20.8500
G01 X29.9758 Y-20.8983
G01 X29.9851 Y-20.9048
G01 X29.9901 Y-20.9076
G01 X29.9970 Y-20.9106
G01 X30.0043 Y-20.9130
G01 X30.0135 Y-20.9149
G01 X30.0845 Y-20.9251
G01 X30.0920 Y-20.9256
G01 X30.0994 Y-20.9254
G01 X30.1086 Y-20.9242
G01 X30.1336 Y-20.9184
G01 X30.1998 Y-20.8978
G01 X30.2605 Y-20.8924
G01 X30.2605 Y-21.1865
G01 X30.2548 Y-21.1933
G01 X30.2322 Y-21.2240
G01 X30.2114 Y-21.2586
G01 X30.2044 Y-21.2613
G01 X30.1816 Y-21.2722
G01 X30.1615 Y-21.2841
G01 X30.1553 Y-21.2883
G01 X30.1366 Y-21.3023
G01 X30.1178 Y-21.3192
G01 X30.1007 Y-21.3378
G01 X30.0959 Y-21.3436
G01 X30.0821 Y-21.3624
G01 X30.0700 Y-21.3824
G01 X30.0664 Y-21.3890
G01 X30.0565 Y-21.4102
G01 X30.0486 Y-21.4322
G01 X30.0464 Y-21.4394
G01 X30.0408 Y-21.4621
G01 X30.0370 Y-21.4870
G01 X30.0355 Y-21.5160
G01 X30.0355 Y-21.9160
G01 X30.0370 Y-21.9450
G01 X30.0408 Y-21.9699
G01 X30.0474 Y-21.9962
G01 X30.0565 Y-22.0218
G01 X30.0664 Y-22.0430
G01 X30.0700 Y-22.0496
G01 X30.0811 Y-22.0680
G01 X30.0842 Y-22.0727
G01 X30.0982 Y-22.0914
G01 X30.1165 Y-22.1115
G01 X30.1366 Y-22.1297
G01 X30.1583 Y-22.1459
G01 X30.1816 Y-22.1598
G01 X30.2061 Y-22.1714
G01 X30.2317 Y-22.1805
G01 X30.2580 Y-22.1871
G01 X30.2848 Y-22.1911
G01 X30.3082 Y-22.1924
G01 X30.8619 Y-22.1924
G01 X30.8872 Y-22.1913
G01 X30.9159 Y-22.1871
G01 X30.9386 Y-22.1815
G01 X30.9457 Y-22.1794
G01 X30.9677 Y-22.1714
G01 X30.9889 Y-22.1615
G01 X30.9955 Y-22.1580
G01 X31.0155 Y-22.1459
G01 X31.0373 Y-22.1297
G01 X31.0574 Y-22.1115
G01 X31.0756 Y-22.0914
G01 X31.0918 Y-22.0696
G01 X31.1057 Y-22.0463
G01 X31.1173 Y-22.0218
G01 X31.1265 Y-21.9962
G01 X31.1331 Y-21.9699
G01 X31.1371 Y-21.9431
G01 X31.1384 Y-21.9160
G01 X31.1383 Y-21.5130
G01 X31.4199 Y-21.2314
G01 X31.4258 Y-21.2374
G01 X31.4787 Y-21.2859
G01 X31.4862 Y-21.2916
G01 X31.4944 Y-21.2964
G01 X31.5031 Y-21.3002
G01 X31.5141 Y-21.3032
G01 X31.5886 Y-21.3160
G01 X31.5981 Y-21.3165
G01 X31.6075 Y-21.3159
G01 X31.6169 Y-21.3141
G01 X31.6259 Y-21.3112
G01 X31.6954 Y-21.2816
G01 X31.7021 Y-21.2780
G01 X31.7068 Y-21.2748
G01 X31.7113 Y-21.2714
G01 X31.7168 Y-21.2662
G01 X31.7218 Y-21.2605
G01 X31.7541 Y-21.2202
G01 X31.7610 Y-21.2099
G01 X31.8257 Y-21.0813
G01 X31.8405 Y-21.0540
G01 X31.8549 Y-21.0289
G01 X31.8924 Y-20.9485
G01 X32.0202 Y-20.7659
G01 X32.1779 Y-20.6083
G01 X32.3584 Y-20.4819
G01 X32.3655 Y-20.4762
G01 X32.3694 Y-20.4725
G01 X32.3742 Y-20.4670
G01 X32.4213 Y-20.4078
G01 X32.4261 Y-20.3997
G01 X32.4293 Y-20.3928
G01 X32.4317 Y-20.3856
G01 X32.4334 Y-20.3782
G01 X32.4414 Y-20.3031
G01 X32.4418 Y-20.2936
G01 X32.4412 Y-20.2860
G01 X32.4403 Y-20.2804
G01 X32.4373 Y-20.2694
G01 X32.4344 Y-20.2624
G01 X32.4191 Y-20.2321
G01 X32.7204 Y-19.9309
G01 X32.7346 Y-19.9356
G01 X32.8192 Y-19.9566
G01 X32.9054 Y-19.9695
G01 X32.9129 Y-19.9703
G01 X32.9999 Y-19.9744
G01 X33.0870 Y-19.9703
G01 X33.0945 Y-19.9695
G01 X33.1770 Y-19.9573
G01 X33.1843 Y-19.9558
G01 X33.2689 Y-19.9346
G01 X33.3510 Y-19.9053
G01 X33.3579 Y-19.9024
G01 X33.4367 Y-19.8651
G01 X33.5115 Y-19.8203
G01 X33.5177 Y-19.8162
G01 X33.5877 Y-19.7642
G01 X33.6550 Y-19.7031
G01 X33.7161 Y-19.6357
G01 X33.7681 Y-19.5658
G01 X33.7723 Y-19.5595
G01 X33.8151 Y-19.4880
G01 X33.8187 Y-19.4814
G01 X33.8559 Y-19.4025
G01 X33.8865 Y-19.3169
G01 X33.9086 Y-19.2287
G01 X33.9219 Y-19.1388
G01 X33.9264 Y-19.0480
G01 X33.9222 Y-18.9609
G01 X33.9215 Y-18.9535
G01 X33.9092 Y-18.8710
G01 X33.9078 Y-18.8636
G01 X33.8865 Y-18.7791
G01 X33.8559 Y-18.6935
G01 X33.8170 Y-18.6113
G01 X33.7813 Y-18.5516
G01 X34.3200 Y-18.0128
G01 X34.3307 Y-18.0008
G01 X34.3403 Y-17.9880
G01 X34.3445 Y-17.9818
G01 X34.3527 Y-17.9680
G01 X34.3611 Y-17.9501
G01 X34.3666 Y-17.9351
G01 X34.3688 Y-17.9279
G01 X34.3726 Y-17.9123
G01 X34.3755 Y-17.8928
G01 X34.3764 Y-17.8730
G01 X34.3764 Y-10.4570
G01 X34.3755 Y-10.4372
G01 X34.3732 Y-10.4214
G01 X34.3718 Y-10.4140
G01 X34.3672 Y-10.3967
G01 X34.3611 Y-10.3799
G01 X34.3535 Y-10.3637
G01 X34.3445 Y-10.3482
G01 X34.3403 Y-10.3420
G01 X34.3307 Y-10.3292
G01 X34.3187 Y-10.3159
G01 X33.5077 Y-9.5049
G01 X33.4958 Y-9.4942
G01 X33.4814 Y-9.4835
G01 X33.4613 Y-9.4714
G01 X33.4450 Y-9.4638
G01 X33.4282 Y-9.4577
G01 X33.4109 Y-9.4532
G01 X33.4030 Y-9.4516
G01 X33.3002 Y-9.3470
G01 X33.2706 Y-9.3202
G01 X33.2354 Y-9.2943
G01 X33.2010 Y-9.2738
G01 X33.1632 Y-9.2558
G01 X33.1238 Y-9.2417
G01 X33.0832 Y-9.2316
G01 X33.0417 Y-9.2254
G01 X32.9999 Y-9.2234
G01 X19.7901 Y-9.2234
G01 X19.7501 Y-9.2254
G01 X19.7087 Y-9.2316
G01 X19.6681 Y-9.2417
G01 X19.6322 Y-9.2545
G01 X19.6252 Y-9.2574
G01 X19.5908 Y-9.2738
G01 X19.5581 Y-9.2933
G01 X19.5518 Y-9.2974
G01 X19.5242 Y-9.3179
G01 X19.5184 Y-9.3227
G01 X19.4903 Y-9.3483
G01 X19.4634 Y-9.3779
G01 X19.4372 Y-9.4130
G01 X19.4148 Y-9.4506
G01 X19.3969 Y-9.4890
G01 X19.1719 Y-9.9565
G01 X16.5934 Y-9.9565
G01 X16.1257 Y-9.8099
G01 X16.0913 Y-9.7976
G01 X16.0572 Y-9.7890
G01 X16.0188 Y-9.7832
G01 X15.9857 Y-9.7815
G01 X15.9782 Y-9.7815
G01 X15.9450 Y-9.7832
G01 X15.9122 Y-9.7880
G01 X15.9048 Y-9.7895
G01 X15.8744 Y-9.7971
G01 X15.8413 Y-9.8087
G01 X15.8344 Y-9.8116
G01 X15.8044 Y-9.8259
G01 X15.7727 Y-9.8449
G01 X15.7430 Y-9.8669
G01 X15.7184 Y-9.8891
G01 X15.7130 Y-9.8944
G01 X15.6933 Y-9.9162
G01 X15.6885 Y-9.9220
G01 X15.6688 Y-9.9488
G01 X15.6498 Y-9.9805
G01 X15.6340 Y-10.0139
G01 X15.6227 Y-10.0451
G01 X15.6205 Y-10.0523
G01 X15.6134 Y-10.0809
G01 X15.6119 Y-10.0882
G01 X15.6071 Y-10.1211
G01 X15.6053 Y-10.1580
G01 X15.6053 Y-13.7140
G01 X15.6069 Y-13.7472
G01 X15.6076 Y-13.7546
G01 X15.6126 Y-13.7875
G01 X15.6205 Y-13.8197
G01 X15.6227 Y-13.8269
G01 X15.6340 Y-13.8581
G01 X15.6481 Y-13.8882
G01 X15.6517 Y-13.8948
G01 X15.6668 Y-13.9201
G01 X15.6710 Y-13.9263
G01 X15.6908 Y-13.9529
G01 X15.7130 Y-13.9776
G01 X15.7184 Y-13.9829
G01 X15.7430 Y-14.0051
G01 X15.7696 Y-14.0250
G01 X15.7759 Y-14.0291
G01 X15.8044 Y-14.0461
G01 X15.8375 Y-14.0618
G00 Z2.0000
G00 X16.0438 Y-15.3984
G01 F60.00
G01 Z-0.1500
G01 F240.00
G01 X16.0438 Y-15.3316
G01 X16.0095 Y-15.3404
G01 X15.9863 Y-15.3447
G01 X15.9561 Y-15.3488
G01 X15.9404 Y-15.3500
G01 X15.9178 Y-15.3510
G01 X15.2595 Y-15.3511
G01 X15.3325 Y-15.3789
G01 X15.9178 Y-15.3790
G01 X15.9404 Y-15.3800
G01 X15.9561 Y-15.3812
G01 X15.9863 Y-15.3853
G01 X16.0095 Y-15.3896
G01 X16.0438 Y-15.3984
G00 Z2.0000
G00 X16.1364 Y-17.1200
G01 F60.00
G01 Z-0.1500
G01 F240.00
G01 X16.1353 Y-17.0978
G01 X16.1320 Y-17.0758
G01 X16.1266 Y-17.0543
G01 X16.1205 Y-17.0368
G01 X16.1176 Y-17.0299
G01 X16.1105 Y-17.0149
G01 X16.1078 Y-17.0100
G01 X16.0972 Y-16.9926
G01 X16.0862 Y-16.9778
G01 X16.0825 Y-16.9735
G01 X16.0701 Y-16.9599
G01 X16.0536 Y-16.9450
G01 X16.0357 Y-16.9317
G01 X16.0167 Y-16.9203
G01 X15.9966 Y-16.9108
G01 X15.9757 Y-16.9033
G01 X15.9541 Y-16.8979
G01 X15.9340 Y-16.8948
G01 X15.9099 Y-16.8936
G01 X14.4599 Y-16.8936
G01 X14.4377 Y-16.8946
G01 X14.4176 Y-16.8976
G01 X14.3978 Y-16.9023
G01 X14.3906 Y-16.9045
G01 X14.3733 Y-16.9108
G01 X14.3565 Y-16.9186
G01 X14.3499 Y-16.9221
G01 X14.3341 Y-16.9317
G01 X14.3192 Y-16.9426
G01 X14.3134 Y-16.9474
G01 X14.2998 Y-16.9599
G01 X14.2873 Y-16.9735
G01 X14.2826 Y-16.9793
G01 X14.2716 Y-16.9942
G01 X14.2621 Y-17.0100
G01 X14.2585 Y-17.0166
G01 X14.2507 Y-17.0333
G01 X14.2438 Y-17.0525
G01 X14.2387 Y-17.0722
G01 X14.2372 Y-17.0795
G01 X14.2346 Y-17.0978
G01 X14.2335 Y-17.1181
G01 X14.2335 Y-17.4200
G01 X14.2346 Y-17.4422
G01 X14.2375 Y-17.4623
G01 X14.2422 Y-17.4821
G01 X14.2444 Y-17.4893
G01 X14.2507 Y-17.5067
G01 X14.2602 Y-17.5267
G01 X14.2716 Y-17.5458
G01 X14.2826 Y-17.5607
G01 X14.2861 Y-17.5651
G01 X14.2972 Y-17.5774
G01 X14.3025 Y-17.5827
G01 X14.3163 Y-17.5950
G01 X14.3341 Y-17.6083
G01 X14.3532 Y-17.6197
G01 X14.3698 Y-17.6277
G01 X14.3750 Y-17.6299
G01 X14.3906 Y-17.6355
G01 X14.3978 Y-17.6377
G01 X14.4158 Y-17.6421
G01 X14.4377 Y-17.6454
G01 X14.4599 Y-17.6464
G01 X15.9099 Y-17.6464
G01 X15.9321 Y-17.6454
G01 X15.9523 Y-17.6424
G01 X15.9721 Y-17.6377
G01 X15.9792 Y-17.6355
G01 X15.9966 Y-17.6292
G01 X16.0133 Y-17.6214
G01 X16.0199 Y-17.6179
G01 X16.0357 Y-17.6083
G01 X16.0506 Y-17.5974
G01 X16.0564 Y-17.5926
G01 X16.0701 Y-17.5801
G01 X16.0825 Y-17.5665
G01 X16.0873 Y-17.5607
G01 X16.0982 Y-17.5458
G01 X16.1078 Y-17.5300
G01 X16.1113 Y-17.5234
G01 X16.1191 Y-17.5067
G01 X16.1255 Y-17.4893
G01 X16.1276 Y-17.4821
G01 X16.1324 Y-17.4623
G01 X16.1353 Y-17.4422
G01 X16.1364 Y-17.4219
G01 X16.1364 Y-17.1200
G00 Z2.0000
G00 X16.3810 Y-18.6143
G01 F60.00
G01 Z-0.1500
G01 F240.00
G01 X16.4183 Y-18.6085
G01 X16.4339 Y-18.6065
G01 X16.4497 Y-18.6054
G01 X16.4821 Y-18.6039
G01 X17.1816 Y-18.6038
G01 X17.2219 Y-18.6054
G01 X17.2454 Y-18.6074
G01 X17.2853 Y-18.6133
G01 X17.3008 Y-18.6164
G01 X17.3133 Y-18.6194
G01 X17.1701 Y-18.4762
G01 X16.4821 Y-18.4761
G01 X16.4497 Y-18.4746
G01 X16.4339 Y-18.4735
G01 X16.4183 Y-18.4715
G01 X16.3810 Y-18.4657
G01 X16.3810 Y-18.6143
G00 Z2.0000
G00 X16.2475 Y-18.7770
G01 F60.00
G01 Z-0.1500
G01 F240.00
G01 X16.3341 Y-18.7543
G01 X16.3596 Y-18.7454
G01 X16.3976 Y-18.7357
G01 X16.4120 Y-18.7331
G01 X16.4459 Y-18.7283
G01 X16.4851 Y-18.7262
G01 X17.1865 Y-18.7262
G01 X17.2208 Y-18.7278
G01 X17.2353 Y-18.7295
G01 X17.2692 Y-18.7347
G01 X17.3072 Y-18.7441
G01 X17.3212 Y-18.7485
G01 X17.3534 Y-18.7603
G01 X17.3932 Y-18.7791
G01 X17.4310 Y-18.8018
G01 X17.4587 Y-18.8220
G01 X17.4701 Y-18.8311
G01 X17.4990 Y-18.8576
G01 X17.9774 Y-19.3359
G01 X18.2027 Y-19.3358
G01 X17.2207 Y-18.3539
G01 X16.4899 Y-18.3539
G01 X16.4557 Y-18.3525
G01 X16.4363 Y-18.3505
G01 X16.4072 Y-18.3462
G01 X16.3928 Y-18.3431
G01 X16.3596 Y-18.3346
G01 X16.3341 Y-18.3257
G01 X16.2475 Y-18.3030
G01 X16.2520 Y-18.3220
G01 X16.2565 Y-18.3510
G01 X16.2577 Y-18.3655
G01 X16.2587 Y-18.3900
G01 X16.2586 Y-18.6949
G01 X16.2574 Y-18.7193
G01 X16.2565 Y-18.7290
G01 X16.2520 Y-18.7580
G01 X16.2475 Y-18.7770
G00 Z2.0000
G00 X13.6522 Y-18.0506
G01 F60.00
G01 Z-0.1500
G01 F240.00
G01 X13.6451 Y-18.0431
G01 X13.6248 Y-18.0250
G01 X13.6045 Y-18.0100
G01 X13.5796 Y-17.9952
G01 X13.5567 Y-17.9844
G01 X13.5312 Y-17.9753
G01 X13.5049 Y-17.9687
G01 X13.4818 Y-17.9652
G01 X13.4743 Y-17.9645
G01 X13.4509 Y-17.9634
G01 X13.0491 Y-17.9634
G01 X13.0238 Y-17.9647
G01 X13.0007 Y-17.9681
G01 X12.9933 Y-17.9695
G01 X12.9707 Y-17.9753
G01 X12.9486 Y-17.9831
G01 X12.9434 Y-17.9852
G01 X12.9240 Y-17.9944
G01 X12.9174 Y-17.9979
G01 X12.8973 Y-18.0100
G01 X12.8756 Y-18.0262
G01 X12.8555 Y-18.0444
G01 X12.8372 Y-18.0645
G01 X12.8211 Y-18.0863
G01 X12.8090 Y-18.1063
G01 X12.8054 Y-18.1129
G01 X12.7955 Y-18.1341
G01 X12.7864 Y-18.1596
G01 X12.7806 Y-18.1823
G01 X12.7792 Y-18.1896
G01 X12.7757 Y-18.2146
G01 X12.7745 Y-18.2399
G01 X12.7746 Y-18.7936
G01 X12.7760 Y-18.8188
G01 X12.7792 Y-18.8401
G01 X12.7806 Y-18.8474
G01 X12.7864 Y-18.8701
G01 X12.7942 Y-18.8921
G01 X12.7963 Y-18.8974
G01 X12.8054 Y-18.9168
G01 X12.8090 Y-18.9234
G01 X12.8211 Y-18.9434
G01 X12.8372 Y-18.9652
G01 X12.8555 Y-18.9853
G01 X12.8756 Y-19.0036
G01 X12.8973 Y-19.0197
G01 X12.9174 Y-19.0318
G01 X12.9240 Y-19.0353
G01 X12.9451 Y-19.0453
G01 X12.9707 Y-19.0544
G01 X12.9933 Y-19.0602
G01 X13.0007 Y-19.0616
G01 X13.0238 Y-19.0650
G01 X13.0509 Y-19.0663
G01 X13.4509 Y-19.0663
G01 X13.4799 Y-19.0648
G01 X13.5049 Y-19.0610
G01 X13.5312 Y-19.0544
G01 X13.5567 Y-19.0453
G01 X13.5796 Y-19.0345
G01 X13.6045 Y-19.0197
G01 X13.6248 Y-19.0047
G01 X13.6451 Y-18.9866
G01 X13.6522 Y-18.9791
G01 X14.0450 Y-18.8475
G01 X14.3669 Y-18.8963
G01 X14.3750 Y-18.8999
G01 X14.3924 Y-18.9061
G01 X14.4139 Y-18.9117
G01 X14.4377 Y-18.9154
G01 X14.4581 Y-18.9164
G01 X15.9099 Y-18.9164
G01 X15.9303 Y-18.9155
G01 X15.9504 Y-18.9127
G01 X15.9578 Y-18.9113
G01 X15.9757 Y-18.9067
G01 X15.9966 Y-18.8992
G01 X16.0133 Y-18.8914
G01 X16.0199 Y-18.8879
G01 X16.0357 Y-18.8783
G01 X16.0536 Y-18.8650
G01 X16.0673 Y-18.8527
G01 X16.0726 Y-18.8474
G01 X16.0850 Y-18.8337
G01 X16.0982 Y-18.8158
G01 X16.1096 Y-18.7967
G01 X16.1176 Y-18.7801
G01 X16.1205 Y-18.7732
G01 X16.1272 Y-18.7539
G01 X16.1320 Y-18.7342
G01 X16.1348 Y-18.7159
G01 X16.1356 Y-18.7085
G01 X16.1364 Y-18.6900
G01 X16.1364 Y-18.3881
G01 X16.1353 Y-18.3678
G01 X16.1327 Y-18.3495
G01 X16.1316 Y-18.3440
G01 X16.1272 Y-18.3261
G01 X16.1191 Y-18.3033
G01 X16.1113 Y-18.2866
G01 X16.1078 Y-18.2800
G01 X16.0982 Y-18.2642
G01 X16.0873 Y-18.2493
G01 X16.0825 Y-18.2435
G01 X16.0701 Y-18.2299
G01 X16.0564 Y-18.2174
G01 X16.0506 Y-18.2126
G01 X16.0357 Y-18.2017
G01 X16.0199 Y-18.1921
G01 X16.0133 Y-18.1886
G01 X15.9966 Y-18.1808
G01 X15.9739 Y-18.1728
G01 X15.9541 Y-18.1679
G01 X15.9359 Y-18.1651
G01 X15.9284 Y-18.1644
G01 X15.9099 Y-18.1636
G01 X14.4599 Y-18.1636
G01 X14.0555 Y-18.1858
G01 X13.6522 Y-18.0506
G00 Z2.0000
G00 X12.4259 Y-18.0880
G01 F60.00
G01 Z-0.1500
G01 F240.00
G01 X12.4322 Y-18.0635
G01 X12.4385 Y-18.0427
G01 X12.4525 Y-18.0037
G01 X12.4608 Y-17.9836
G01 X12.4785 Y-17.9462
G01 X12.4887 Y-17.9270
G01 X12.5100 Y-17.8915
G01 X12.5221 Y-17.8734
G01 X12.5402 Y-17.8488
G01 X12.5536 Y-17.8317
G01 X12.5678 Y-17.8152
G01 X12.5884 Y-17.7927
G01 X12.5960 Y-17.7849
G01 X12.6038 Y-17.7773
G01 X12.6263 Y-17.7567
G01 X12.6428 Y-17.7425
G01 X12.6599 Y-17.7291
G01 X12.6845 Y-17.7110
G01 X12.6935 Y-17.7049
G01 X12.7026 Y-17.6989
G01 X12.7287 Y-17.6831
G01 X12.7476 Y-17.6724
G01 X12.7671 Y-17.6626
G01 X12.7947 Y-17.6497
G01 X12.8047 Y-17.6454
G01 X12.8250 Y-17.6376
G01 X12.8538 Y-17.6274
G01 X12.8642 Y-17.6241
G01 X12.8851 Y-17.6183
G01 X12.9148 Y-17.6111
G01 X12.9361 Y-17.6068
G01 X12.9663 Y-17.6022
G01 X12.9879 Y-17.5995
G01 X13.0096 Y-17.5979
G01 X13.0401 Y-17.5966
G01 X13.0509 Y-17.5964
G01 X13.1607 Y-17.5964
G01 X13.0360 Y-17.4717
G01 X13.0245 Y-17.4842
G01 X13.0091 Y-17.4996
G01 X12.9866 Y-17.5201
G01 X12.9701 Y-17.5344
G01 X12.9530 Y-17.5478
G01 X12.9284 Y-17.5658
G01 X12.9103 Y-17.5779
G01 X12.9010 Y-17.5836
G01 X12.8748 Y-17.5992
G01 X12.8652 Y-17.6044
G01 X12.8458 Y-17.6142
G01 X12.8182 Y-17.6271
G01 X12.7981 Y-17.6355
G01 X12.7694 Y-17.6459
G01 X12.7487 Y-17.6527
G01 X12.7277 Y-17.6585
G01 X12.6981 Y-17.6658
G01 X12.6875 Y-17.6680
G01 X12.6660 Y-17.6718
G01 X12.6358 Y-17.6761
G01 X12.6250 Y-17.6773
G01 X12.6142 Y-17.6782
G01 X12.5837 Y-17.6799
G01 X12.5619 Y-17.6804
G01 X12.2080 Y-17.6804
G01 X12.3129 Y-17.8504
G01 X12.3298 Y-17.8734
G01 X12.3418 Y-17.8915
G01 X12.3576 Y-17.9176
G01 X12.3684 Y-17.9366
G01 X12.3734 Y-17.9462
G01 X12.3865 Y-17.9737
G01 X12.3954 Y-17.9936
G01 X12.3994 Y-18.0037
G01 X12.4098 Y-18.0324
G01 X12.4166 Y-18.0531
G01 X12.4259 Y-18.0880
G00 Z2.0000
G00 X12.3158 Y-18.8687
G01 F60.00
G01 Z-0.1500
G01 F240.00
G01 X12.5361 Y-18.8687
G01 X12.5332 Y-18.8488
G01 X12.5317 Y-18.8331
G01 X12.5302 Y-18.8056
G01 X12.5298 Y-18.7899
G01 X12.5298 Y-18.2399
G01 X12.5302 Y-18.2241
G01 X12.5317 Y-18.1966
G01 X12.5343 Y-18.1731
G01 X12.5384 Y-18.1459
G01 X12.5415 Y-18.1305
G01 X12.5481 Y-18.1038
G01 X12.5523 Y-18.0886
G01 X12.5638 Y-18.0551
G01 X12.5695 Y-18.0404
G01 X12.5759 Y-18.0260
G01 X12.5877 Y-18.0012
G01 X12.5952 Y-17.9873
G01 X12.6092 Y-17.9637
G01 X12.6177 Y-17.9504
G01 X12.6267 Y-17.9375
G01 X12.6432 Y-17.9154
G01 X12.6532 Y-17.9032
G01 X12.6716 Y-17.8828
G01 X12.6825 Y-17.8714
G01 X12.6939 Y-17.8605
G01 X12.7143 Y-17.8421
G01 X12.7265 Y-17.8321
G01 X12.7485 Y-17.8157
G01 X12.7680 Y-17.8023
G01 X12.7916 Y-17.7881
G01 X12.8053 Y-17.7803
G01 X12.8194 Y-17.7732
G01 X12.8443 Y-17.7615
G01 X12.8662 Y-17.7528
G01 X12.8922 Y-17.7436
G01 X12.9072 Y-17.7390
G01 X12.9339 Y-17.7322
G01 X12.9493 Y-17.7288
G01 X12.9648 Y-17.7261
G01 X12.9999 Y-17.7213
G01 X13.0156 Y-17.7201
G01 X13.0431 Y-17.7189
G01 X13.4561 Y-17.7188
G01 X13.1265 Y-17.3892
G01 X13.1156 Y-17.3778
G01 X13.1021 Y-17.3628
G01 X13.0921 Y-17.3506
G01 X13.0800 Y-17.3345
G01 X13.0710 Y-17.3216
G01 X13.0625 Y-17.3083
G01 X13.0523 Y-17.2910
G01 X13.0448 Y-17.2771
G01 X13.0347 Y-17.2557
G01 X13.0215 Y-17.2826
G01 X13.0036 Y-17.3132
G01 X12.9907 Y-17.3330
G01 X12.9744 Y-17.3552
G01 X12.9597 Y-17.3736
G01 X12.9359 Y-17.3998
G01 X12.9248 Y-17.4110
G01 X12.8985 Y-17.4347
G01 X12.8801 Y-17.4495
G01 X12.8514 Y-17.4703
G01 X12.8213 Y-17.4888
G01 X12.8076 Y-17.4966
G01 X12.7758 Y-17.5120
G01 X12.7540 Y-17.5214
G01 X12.7207 Y-17.5333
G01 X12.6980 Y-17.5399
G01 X12.6636 Y-17.5481
G01 X12.6287 Y-17.5537
G01 X12.6052 Y-17.5563
G01 X12.5698 Y-17.5580
G01 X12.1541 Y-17.5580
G01 X12.1266 Y-17.5567
G01 X12.1109 Y-17.5556
G01 X12.0952 Y-17.5537
G01 X12.0680 Y-17.5495
G01 X12.0526 Y-17.5464
G01 X12.0182 Y-17.5378
G01 X12.0032 Y-17.5333
G01 X11.9831 Y-17.5262
G01 X11.9831 Y-17.5489
G01 X12.2117 Y-17.9194
G01 X12.2342 Y-17.9504
G01 X12.2527 Y-17.9805
G01 X12.2605 Y-17.9942
G01 X12.2760 Y-18.0260
G01 X12.2853 Y-18.0478
G01 X12.2946 Y-18.0736
G01 X12.2996 Y-18.0886
G01 X12.3086 Y-18.1228
G01 X12.3135 Y-18.1459
G01 X12.3186 Y-18.1809
G01 X12.3207 Y-18.2045
G01 X12.3220 Y-18.2399
G01 X12.3220 Y-18.7899
G01 X12.3216 Y-18.8056
G01 X12.3202 Y-18.8331
G01 X12.3186 Y-18.8488
G01 X12.3158 Y-18.8687
G00 Z2.0000
G00 X12.1450 Y-18.9910
G01 F60.00
G01 Z-0.1500
G01 F240.00
G01 X12.7069 Y-18.9910
G01 X12.6970 Y-18.9735
G01 X12.6844 Y-18.9469
G01 X12.6790 Y-18.9334
G01 X12.6708 Y-18.9103
G01 X12.6667 Y-18.8962
G01 X12.6598 Y-18.8676
G01 X12.6553 Y-18.8386
G01 X12.6537 Y-18.8241
G01 X12.6522 Y-18.7899
G01 X12.6522 Y-18.2399
G01 X12.6537 Y-18.2056
G01 X12.6553 Y-18.1911
G01 X12.6589 Y-18.1669
G01 X12.6620 Y-18.1525
G01 X12.6693 Y-18.1241
G01 X12.6790 Y-18.0964
G01 X12.6844 Y-18.0828
G01 X12.6970 Y-18.0562
G01 X12.7041 Y-18.0434
G01 X12.7194 Y-18.0183
G01 X12.7367 Y-17.9946
G01 X12.7458 Y-17.9831
G01 X12.7656 Y-17.9614
G01 X12.7760 Y-17.9512
G01 X12.7980 Y-17.9316
G01 X12.8214 Y-17.9139
G01 X12.8335 Y-17.9056
G01 X12.8587 Y-17.8905
G01 X12.8717 Y-17.8838
G01 X12.8983 Y-17.8714
G01 X12.9352 Y-17.8583
G01 X12.9731 Y-17.8487
G01 X13.0022 Y-17.8442
G01 X13.0167 Y-17.8426
G01 X13.0509 Y-17.8411
G01 X13.4509 Y-17.8411
