(G-CODE GENERATED BY FLATCAM v8.994 - www.flatcam.org - Version Date: 2020/11/7)

(Name: george_orangepi-F_Cu.gbr_iso_combined_cnc)
(Type: G-code from Geometry)
(Units: MM)

(Created on Monday, 01 July 2024 at 01:32)

(This preprocessor is the default preprocessor used by FlatCAM.)
(It is made to work with MACH3 compatible motion controllers.)

(TOOL DIAMETER: 0.1969 mm)
(Feedrate_XY: 240.0 mm/min)
(Feedrate_Z: 60.0 mm/min)
(Feedrate rapids 1500.0 mm/min)

(Z_Cut: -0.15 mm)
(Z_Move: 2.0 mm)
(Z Start: None mm)
(Z End: 15.0 mm)
(X,Y End: None mm)
(Steps per circle: 64)
(Preprocessor Geometry: default)

(X range:   -0.5410 ...   25.5410  mm)
(Y range:  -69.5410 ...    0.5410  mm)

(Spindle Speed: 12000.0 RPM)
G21
G90
G94

G01 F240.00

M5
G00 Z15.0000
G00 X0.0000 Y0.0000
T2
M6    
(MSG, Change to Tool Dia = 0.1969)
M0
G00 Z15.0000

M03 S12000.0
G01 F240.00
G00 X-0.0979 Y-0.1265
G01 F60.00
G01 Z-0.1500
G01 F240.00
G01 X-0.0979 Y-68.8735
G01 X-0.0975 Y-68.8829
G01 X-0.0962 Y-68.8921
G01 X-0.0843 Y-68.9468
G01 X-0.0810 Y-68.9586
G01 X-0.0782 Y-68.9655
G01 X-0.0738 Y-68.9743
G01 X-0.0686 Y-68.9826
G01 X-0.0641 Y-68.9884
G01 X-0.0144 Y-69.0458
G01 X-0.0056 Y-69.0543
G01 X0.0021 Y-69.0603
G01 X0.0083 Y-69.0642
G01 X0.0147 Y-69.0677
G01 X0.0214 Y-69.0707
G01 X0.0283 Y-69.0732
G01 X0.1010 Y-69.0946
G01 X0.1102 Y-69.0966
G01 X0.1218 Y-69.0978
G01 X0.8660 Y-69.0979
G01 X0.8754 Y-69.0975
G01 X0.8869 Y-69.0957
G01 X0.9417 Y-69.0838
G01 X0.9534 Y-69.0801
G01 X0.9646 Y-69.0750
G01 X0.9730 Y-69.0700
G01 X0.9809 Y-69.0641
G01 X1.0365 Y-69.0160
G01 X1.0418 Y-69.0110
G01 X1.0468 Y-69.0056
G01 X1.0528 Y-68.9979
G01 X1.0580 Y-68.9896
G01 X1.0613 Y-68.9831
G01 X1.0650 Y-68.9740
G01 X1.0871 Y-68.8990
G01 X1.0894 Y-68.8875
G01 X1.0904 Y-68.8758
G01 X1.0904 Y-67.2399
G01 X1.4016 Y-67.2399
G01 X1.4016 Y-68.9899
G01 X1.4020 Y-68.9971
G01 X1.4030 Y-69.0043
G01 X1.4045 Y-69.0114
G01 X1.4073 Y-69.0207
G01 X1.4110 Y-69.0296
G01 X1.4143 Y-69.0360
G01 X1.4181 Y-69.0422
G01 X1.4239 Y-69.0500
G01 X1.4304 Y-69.0571
G01 X1.4375 Y-69.0636
G01 X1.4453 Y-69.0694
G01 X1.4557 Y-69.0754
G01 X1.4646 Y-69.0794
G01 X1.4761 Y-69.0830
G01 X1.4856 Y-69.0849
G01 X1.4976 Y-69.0859
G01 X2.8500 Y-69.0859
G01 X2.8621 Y-69.0852
G01 X2.8739 Y-69.0830
G01 X2.8854 Y-69.0794
G01 X2.8943 Y-69.0754
G01 X2.9006 Y-69.0719
G01 X2.9067 Y-69.0680
G01 X2.9161 Y-69.0604
G01 X2.9245 Y-69.0518
G01 X2.9291 Y-69.0461
G01 X2.9332 Y-69.0402
G01 X2.9368 Y-69.0339
G01 X2.9400 Y-69.0274
G01 X2.9442 Y-69.0161
G01 X2.9461 Y-69.0091
G01 X2.9474 Y-69.0019
G01 X2.9484 Y-68.9899
G01 X2.9484 Y-67.2399
G01 X3.2596 Y-67.2399
G01 X3.2596 Y-68.8735
G01 X3.2600 Y-68.8829
G01 X3.2613 Y-68.8921
G01 X3.2737 Y-68.9492
G01 X3.2774 Y-68.9609
G01 X3.2803 Y-68.9677
G01 X3.2837 Y-68.9743
G01 X3.2889 Y-68.9826
G01 X3.2934 Y-68.9884
G01 X3.3431 Y-69.0458
G01 X3.3519 Y-69.0543
G01 X3.3616 Y-69.0617
G01 X3.3679 Y-69.0655
G01 X3.3744 Y-69.0688
G01 X3.3812 Y-69.0716
G01 X3.3881 Y-69.0740
G01 X3.4585 Y-69.0946
G01 X3.4700 Y-69.0969
G01 X3.4817 Y-69.0979
G01 X3.7352 Y-69.0978
G01 X3.7422 Y-69.0973
G01 X3.7491 Y-69.0962
G01 X3.8085 Y-69.0831
G01 X3.8179 Y-69.0801
G01 X3.8269 Y-69.0762
G01 X3.8355 Y-69.0713
G01 X3.8416 Y-69.0671
G01 X3.8473 Y-69.0625
G01 X3.9028 Y-69.0144
G01 X3.9080 Y-69.0093
G01 X3.9129 Y-69.0038
G01 X3.9200 Y-68.9938
G01 X3.9258 Y-68.9831
G01 X3.9302 Y-68.9717
G01 X3.9522 Y-68.8967
G01 X3.9543 Y-68.8852
G01 X3.9549 Y-68.8735
G01 X3.9549 Y-65.3436
G01 X3.9530 Y-65.3168
G01 X3.9532 Y-65.2665
G01 X3.9547 Y-65.2467
G01 X3.9596 Y-65.2011
G01 X3.9695 Y-65.1744
G01 X3.9773 Y-65.1472
G01 X3.9818 Y-65.1383
G01 X3.9897 Y-65.1204
G01 X4.0014 Y-65.0890
G01 X4.0102 Y-65.0769
G01 X4.0240 Y-65.0547
G01 X4.0274 Y-65.0483
G01 X4.0691 Y-64.9963
G01 X4.1130 Y-64.9492
G01 X4.1263 Y-64.9335
G01 X4.1678 Y-64.8774
G01 X4.1777 Y-64.8627
G01 X4.1987 Y-64.8281
G01 X4.2133 Y-64.7984
G01 X4.2161 Y-64.7915
G01 X4.2190 Y-64.7819
G01 X4.2210 Y-64.7722
G01 X4.2218 Y-64.7647
G01 X4.2271 Y-64.6890
G01 X4.2270 Y-64.6817
G01 X4.2263 Y-64.6744
G01 X4.2251 Y-64.6672
G01 X4.2234 Y-64.6600
G01 X4.2203 Y-64.6508
G01 X4.2162 Y-64.6419
G01 X4.1811 Y-64.5774
G01 X4.1749 Y-64.5675
G01 X4.1706 Y-64.5619
G01 X4.1659 Y-64.5567
G01 X3.5382 Y-63.9290
G01 X3.5308 Y-63.9226
G01 X3.5248 Y-63.9183
G01 X3.4751 Y-63.8870
G01 X3.4668 Y-63.8824
G01 X3.4580 Y-63.8785
G01 X3.4489 Y-63.8755
G01 X3.4372 Y-63.8730
G01 X3.4277 Y-63.8721
G01 X3.3568 Y-63.8686
G01 X3.3451 Y-63.8687
G01 X3.3381 Y-63.8694
G01 X3.3289 Y-63.8712
G01 X3.2213 Y-63.8970
G01 X3.0000 Y-63.9144
G01 X2.7787 Y-63.8970
G01 X2.5629 Y-63.8452
G01 X2.3579 Y-63.7602
G01 X2.1686 Y-63.6443
G01 X1.9999 Y-63.5001
G01 X1.8557 Y-63.3314
G01 X1.7398 Y-63.1421
G01 X1.6548 Y-62.9371
G01 X1.6030 Y-62.7213
G01 X1.5856 Y-62.5000
G01 X1.6030 Y-62.2787
G01 X1.6501 Y-62.0825
G01 X1.6522 Y-62.0702
G01 X1.6528 Y-62.0603
G01 X1.6497 Y-61.9838
G01 X1.6489 Y-61.9764
G01 X1.6476 Y-61.9691
G01 X1.6449 Y-61.9595
G01 X1.6358 Y-61.9323
G01 X1.6114 Y-61.8651
G01 X1.6097 Y-61.8574
G01 X1.6034 Y-61.7862
G01 X1.5999 Y-61.7557
G01 X1.5993 Y-61.7384
G01 X1.5957 Y-61.6979
G01 X1.5982 Y-61.6806
G01 X1.5999 Y-61.6528
G01 X1.5999 Y-60.7004
G01 X1.5990 Y-60.6866
G01 X1.5915 Y-60.6415
G01 X1.5880 Y-60.6282
G01 X1.5465 Y-60.5062
G01 X1.4792 Y-60.3303
G01 X1.4201 Y-60.1942
G01 X1.4146 Y-60.1826
G01 X1.3597 Y-60.0739
G01 X1.3543 Y-60.0641
G01 X1.3442 Y-60.0474
G01 X1.3307 Y-60.0278
G01 X1.3259 Y-60.0216
G01 X1.3142 Y-59.9983
G01 X1.3002 Y-59.9740
G01 X1.2871 Y-59.9435
G01 X1.2556 Y-59.8799
G01 X1.2169 Y-59.7243
G01 X1.2149 Y-59.6960
G01 X1.2149 Y-57.2440
G01 X1.2169 Y-57.2157
G01 X1.2556 Y-57.0601
G01 X1.3259 Y-56.9184
G01 X1.4250 Y-56.7950
G01 X1.5484 Y-56.6959
G01 X1.6901 Y-56.6256
G01 X1.8457 Y-56.5869
G01 X1.8740 Y-56.5849
G01 X2.6460 Y-56.5849
G01 X2.6743 Y-56.5869
G01 X2.8299 Y-56.6256
G01 X2.9716 Y-56.6959
G01 X3.0981 Y-56.7975
G01 X3.1042 Y-56.8032
G01 X3.1112 Y-56.8089
G01 X3.1193 Y-56.8143
G01 X3.1274 Y-56.8186
G01 X3.1791 Y-56.8493
G01 X3.1856 Y-56.8528
G01 X3.1922 Y-56.8558
G01 X3.2015 Y-56.8590
G01 X3.2086 Y-56.8608
G01 X3.2182 Y-56.8624
G01 X3.2255 Y-56.8629
G01 X3.2329 Y-56.8629
G01 X3.3087 Y-56.8600
G01 X3.3184 Y-56.8587
G01 X3.3279 Y-56.8564
G01 X3.3371 Y-56.8532
G01 X3.3438 Y-56.8502
G01 X3.3544 Y-56.8441
G01 X3.3867 Y-56.8217
G01 X3.3969 Y-56.8170
G01 X3.4052 Y-56.8120
G01 X3.4130 Y-56.8063
G01 X3.4212 Y-56.7987
G01 X3.5486 Y-56.6963
G01 X3.6903 Y-56.6260
G01 X3.8457 Y-56.5874
G01 X3.8740 Y-56.5854
G01 X3.9076 Y-56.5854
G01 X3.9076 Y-56.8981
G01 X3.8969 Y-56.8991
G01 X3.8661 Y-56.9037
G01 X3.8566 Y-56.9056
G01 X3.8218 Y-56.9145
G01 X3.7878 Y-56.9265
G01 X3.7789 Y-56.9302
G01 X3.7464 Y-56.9457
G01 X3.7114 Y-56.9667
G01 X3.6786 Y-56.9910
G01 X3.6519 Y-57.0150
G01 X3.6450 Y-57.0219
G01 X3.6210 Y-57.0486
G01 X3.5967 Y-57.0814
G01 X3.5757 Y-57.1164
G01 X3.5582 Y-57.1533
G01 X3.5445 Y-57.1918
G01 X3.5345 Y-57.2314
G01 X3.5286 Y-57.2717
G01 X3.5266 Y-57.3125
G01 X3.5266 Y-59.6275
G01 X3.5288 Y-59.6707
G01 X3.5345 Y-59.7086
G01 X3.5445 Y-59.7482
G01 X3.5582 Y-59.7867
G01 X3.5735 Y-59.8193
G01 X3.5780 Y-59.8278
G01 X3.5941 Y-59.8545
G01 X3.5994 Y-59.8625
G01 X3.6210 Y-59.8914
G01 X3.6484 Y-59.9216
G01 X3.6786 Y-59.9490
G01 X3.7114 Y-59.9733
G01 X3.7464 Y-59.9943
G01 X3.7789 Y-60.0098
G01 X3.7878 Y-60.0135
G01 X3.8218 Y-60.0255
G01 X3.8566 Y-60.0344
G01 X3.8661 Y-60.0363
G01 X3.8969 Y-60.0409
G01 X3.9076 Y-60.0419
G01 X3.9076 Y-60.3546
G01 X3.8740 Y-60.3546
G01 X3.8457 Y-60.3526
G01 X3.6903 Y-60.3140
G01 X3.5486 Y-60.2437
G01 X3.4262 Y-60.1454
G01 X3.4097 Y-60.1337
G01 X3.4034 Y-60.1299
G01 X3.3947 Y-60.1255
G01 X3.3832 Y-60.1213
G01 X3.3076 Y-60.1007
G01 X3.3004 Y-60.0994
G01 X3.2931 Y-60.0986
G01 X3.2809 Y-60.0985
G01 X3.2688 Y-60.1000
G01 X3.2569 Y-60.1029
G01 X3.1868 Y-60.1249
G01 X3.1778 Y-60.1286
G01 X3.1691 Y-60.1331
G01 X3.1629 Y-60.1370
G01 X3.1570 Y-60.1414
G01 X3.1497 Y-60.1479
G01 X3.1447 Y-60.1532
G01 X3.0961 Y-60.2114
G01 X3.0906 Y-60.2190
G01 X3.0849 Y-60.2292
G01 X3.0370 Y-60.3397
G01 X2.9735 Y-60.5062
G01 X2.9306 Y-60.6326
G01 X2.9285 Y-60.6415
G01 X2.9214 Y-60.6843
G01 X2.9203 Y-60.6935
G01 X2.9201 Y-60.7004
G01 X2.9202 Y-60.8767
G01 X2.9212 Y-60.8865
G01 X2.9292 Y-60.9321
G01 X2.9307 Y-60.9391
G01 X2.9335 Y-60.9483
G01 X2.9371 Y-60.9571
G01 X2.9416 Y-60.9655
G01 X2.9469 Y-60.9734
G01 X2.9905 Y-61.0325
G01 X2.9986 Y-61.0417
G01 X3.0077 Y-61.0498
G01 X3.0178 Y-61.0567
G01 X3.0287 Y-61.0623
G01 X3.0996 Y-61.0894
G01 X3.1062 Y-61.0917
G01 X3.1130 Y-61.0935
G01 X3.1199 Y-61.0948
G01 X3.1269 Y-61.0956
G01 X3.2213 Y-61.1030
G01 X3.4371 Y-61.1548
G01 X3.6421 Y-61.2398
G01 X3.8314 Y-61.3557
G01 X4.0001 Y-61.4999
G01 X4.1443 Y-61.6686
G01 X4.2602 Y-61.8579
G01 X4.3452 Y-62.0629
G01 X4.3970 Y-62.2787
G01 X4.4144 Y-62.5000
G01 X4.3970 Y-62.7213
G01 X4.3872 Y-62.7623
G01 X4.3859 Y-62.7696
G01 X4.3851 Y-62.7794
G01 X4.3844 Y-62.8381
G01 X4.3850 Y-62.8500
G01 X4.3865 Y-62.8595
G01 X4.3889 Y-62.8687
G01 X4.3923 Y-62.8777
G01 X4.3964 Y-62.8863
G01 X4.4316 Y-62.9507
G01 X4.4381 Y-62.9604
G01 X4.4456 Y-62.9694
G01 X5.4576 Y-63.9814
G01 X5.5133 Y-64.0340
G01 X5.5183 Y-64.0402
G01 X5.5558 Y-64.1010
G01 X5.5970 Y-64.1638
G01 X5.5983 Y-64.1663
G01 X5.6005 Y-64.1709
G01 X5.6241 Y-64.2421
G01 X5.6486 Y-64.3094
G01 X5.6503 Y-64.3171
G01 X5.6566 Y-64.3883
G01 X5.6601 Y-64.4188
G01 X5.6607 Y-64.4360
G01 X5.6643 Y-64.4766
G01 X5.6633 Y-64.4877
G01 X5.6637 Y-64.4993
G01 X5.6743 Y-64.5761
G01 X5.6762 Y-64.5852
G01 X5.6798 Y-64.5963
G01 X5.6985 Y-64.6383
G01 X5.7038 Y-64.6492
G01 X5.7644 Y-64.7665
G01 X5.7703 Y-64.7770
G01 X5.8223 Y-64.8627
G01 X5.8322 Y-64.8774
G01 X5.8737 Y-64.9335
G01 X5.8870 Y-64.9492
G01 X5.9287 Y-64.9939
G01 X5.9471 Y-65.0201
G01 X5.9986 Y-65.0890
G01 X6.0056 Y-65.1069
G01 X6.0195 Y-65.1387
G01 X6.0277 Y-65.1670
G01 X6.0404 Y-65.2011
G01 X6.0466 Y-65.2574
G01 X6.0451 Y-65.2909
G01 X6.0451 Y-68.8758
G01 X6.0455 Y-68.8829
G01 X6.0468 Y-68.8921
G01 X6.0592 Y-68.9492
G01 X6.0613 Y-68.9563
G01 X6.0638 Y-68.9632
G01 X6.0692 Y-68.9743
G01 X6.0744 Y-68.9826
G01 X6.0789 Y-68.9884
G01 X6.1286 Y-69.0458
G01 X6.1337 Y-69.0510
G01 X6.1392 Y-69.0559
G01 X6.1451 Y-69.0603
G01 X6.1513 Y-69.0642
G01 X6.1622 Y-69.0698
G01 X6.1736 Y-69.0740
G01 X6.2440 Y-69.0946
G01 X6.2509 Y-69.0962
G01 X6.2601 Y-69.0975
G01 X6.2695 Y-69.0979
G01 X6.5160 Y-69.0979
G01 X6.5230 Y-69.0977
G01 X6.5300 Y-69.0969
G01 X6.5940 Y-69.0831
G01 X6.6011 Y-69.0810
G01 X6.6080 Y-69.0782
G01 X6.6146 Y-69.0750
G01 X6.6210 Y-69.0713
G01 X6.6271 Y-69.0671
G01 X6.6328 Y-69.0625
G01 X6.6901 Y-69.0127
G01 X6.6968 Y-69.0056
G01 X6.7014 Y-68.9999
G01 X6.7067 Y-68.9917
G01 X6.7102 Y-68.9853
G01 X6.7132 Y-68.9786
G01 X6.7157 Y-68.9717
G01 X6.7371 Y-68.8990
G01 X6.7394 Y-68.8875
G01 X6.7404 Y-68.8758
G01 X6.7404 Y-67.2399
G01 X7.0516 Y-67.2399
G01 X7.0516 Y-68.9899
G01 X7.0520 Y-68.9971
G01 X7.0530 Y-69.0043
G01 X7.0545 Y-69.0114
G01 X7.0573 Y-69.0207
G01 X7.0610 Y-69.0296
G01 X7.0643 Y-69.0360
G01 X7.0681 Y-69.0422
G01 X7.0739 Y-69.0500
G01 X7.0804 Y-69.0571
G01 X7.0894 Y-69.0651
G01 X7.0973 Y-69.0707
G01 X7.1057 Y-69.0754
G01 X7.1146 Y-69.0794
G01 X7.1261 Y-69.0830
G01 X7.1356 Y-69.0849
G01 X7.1476 Y-69.0859
G01 X8.5000 Y-69.0859
G01 X8.5072 Y-69.0857
G01 X8.5144 Y-69.0849
G01 X8.5216 Y-69.0836
G01 X8.5286 Y-69.0817
G01 X8.5354 Y-69.0794
G01 X8.5421 Y-69.0765
G01 X8.5485 Y-69.0732
G01 X8.5547 Y-69.0694
G01 X8.5643 Y-69.0620
G01 X8.5713 Y-69.0554
G01 X8.5791 Y-69.0461
G01 X8.5857 Y-69.0360
G01 X8.5910 Y-69.0252
G01 X8.5949 Y-69.0138
G01 X8.5974 Y-69.0019
G01 X8.5984 Y-68.9899
G01 X8.5984 Y-67.2399
G01 X8.9096 Y-67.2399
G01 X8.9096 Y-68.8735
G01 X8.9102 Y-68.8852
G01 X8.9118 Y-68.8944
G01 X8.9237 Y-68.9492
G01 X8.9274 Y-68.9609
G01 X8.9325 Y-68.9721
G01 X8.9375 Y-68.9805
G01 X8.9434 Y-68.9884
G01 X8.9948 Y-69.0476
G01 X9.0037 Y-69.0559
G01 X9.0116 Y-69.0617
G01 X9.0200 Y-69.0666
G01 X9.0289 Y-69.0707
G01 X9.0381 Y-69.0740
G01 X9.1063 Y-69.0940
G01 X9.1154 Y-69.0962
G01 X9.1246 Y-69.0975
G01 X9.1340 Y-69.0979
G01 X18.8579 Y-69.0979
G01 X18.8676 Y-69.0975
G01 X18.8771 Y-69.0961
G01 X18.9275 Y-69.0861
G01 X18.9343 Y-69.0843
G01 X18.9433 Y-69.0811
G01 X18.9498 Y-69.0782
G01 X18.9560 Y-69.0748
G01 X18.9658 Y-69.0682
G01 X19.0249 Y-69.0207
G01 X19.0321 Y-69.0140
G01 X19.0385 Y-69.0067
G01 X19.0428 Y-69.0007
G01 X19.0467 Y-68.9945
G01 X19.0501 Y-68.9880
G01 X19.0531 Y-68.9813
G01 X19.0780 Y-68.9071
G01 X19.0808 Y-68.8952
G01 X19.0822 Y-68.8830
G01 X19.0820 Y-68.8708
G01 X19.0804 Y-68.8587
G01 X19.0605 Y-68.7804
G01 X19.0572 Y-68.7712
G01 X19.0541 Y-68.7646
G01 X19.0505 Y-68.7582
G01 X19.0465 Y-68.7521
G01 X19.0404 Y-68.7444
G01 X19.0336 Y-68.7374
G01 X18.9799 Y-68.6874
G01 X18.9745 Y-68.6829
G01 X18.9688 Y-68.6788
G01 X18.9587 Y-68.6729
G01 X18.7825 Y-68.5844
G01 X18.4993 Y-68.3982
G01 X18.2396 Y-68.1803
G01 X18.0070 Y-67.9337
G01 X17.8046 Y-67.6618
G01 X17.6351 Y-67.3682
G01 X17.5008 Y-67.0570
G01 X17.4036 Y-66.7322
G01 X17.3447 Y-66.3984
G01 X17.3250 Y-66.0600
G01 X17.3447 Y-65.7216
G01 X17.4036 Y-65.3878
G01 X17.5008 Y-65.0630
G01 X17.6351 Y-64.7518
G01 X17.8046 Y-64.4582
G01 X18.0070 Y-64.1863
G01 X18.2396 Y-63.9397
G01 X18.4993 Y-63.7218
G01 X18.7825 Y-63.5356
G01 X19.0854 Y-63.3834
G01 X19.4040 Y-63.2675
G01 X19.7338 Y-63.1893
G01 X20.0705 Y-63.1499
G01 X20.4095 Y-63.1499
G01 X20.7462 Y-63.1893
G01 X21.0760 Y-63.2675
G01 X21.3946 Y-63.3834
G01 X21.6975 Y-63.5356
G01 X21.9807 Y-63.7218
G01 X22.2404 Y-63.9397
G01 X22.4730 Y-64.1863
G01 X22.6754 Y-64.4582
G01 X22.8449 Y-64.7518
G01 X22.9792 Y-65.0630
G01 X23.0764 Y-65.3878
G01 X23.1353 Y-65.7216
G01 X23.1550 Y-66.0600
G01 X23.1353 Y-66.3984
G01 X23.0764 Y-66.7322
G01 X22.9792 Y-67.0570
G01 X22.8449 Y-67.3682
G01 X22.6754 Y-67.6618
G01 X22.4730 Y-67.9337
G01 X22.2404 Y-68.1803
G01 X21.9807 Y-68.3982
G01 X21.6975 Y-68.5844
G01 X21.5213 Y-68.6729
G01 X21.5129 Y-68.6777
G01 X21.5051 Y-68.6832
G01 X21.4645 Y-68.7148
G01 X21.4575 Y-68.7211
G01 X21.4526 Y-68.7263
G01 X21.4454 Y-68.7357
G01 X21.4393 Y-68.7458
G01 X21.4068 Y-68.8169
G01 X21.4042 Y-68.8238
G01 X21.4021 Y-68.8308
G01 X21.4005 Y-68.8379
G01 X21.3992 Y-68.8476
G01 X21.3989 Y-68.8574
G01 X21.3996 Y-68.8672
G01 X21.4100 Y-68.9399
G01 X21.4113 Y-68.9471
G01 X21.4139 Y-68.9565
G01 X21.4184 Y-68.9678
G01 X21.4230 Y-68.9765
G01 X21.4299 Y-68.9865
G01 X21.4828 Y-69.0476
G01 X21.4918 Y-69.0559
G01 X21.4977 Y-69.0603
G01 X21.5038 Y-69.0642
G01 X21.5147 Y-69.0698
G01 X21.5239 Y-69.0732
G01 X21.5943 Y-69.0940
G01 X21.6011 Y-69.0957
G01 X21.6080 Y-69.0969
G01 X21.6197 Y-69.0979
G01 X24.8735 Y-69.0979
G01 X24.8829 Y-69.0975
G01 X24.8921 Y-69.0962
G01 X24.9468 Y-69.0843
G01 X24.9586 Y-69.0810
G01 X24.9655 Y-69.0782
G01 X24.9743 Y-69.0738
G01 X24.9826 Y-69.0686
G01 X24.9884 Y-69.0641
G01 X25.0458 Y-69.0144
G01 X25.0543 Y-69.0056
G01 X25.0617 Y-68.9959
G01 X25.0655 Y-68.9896
G01 X25.0688 Y-68.9831
G01 X25.0716 Y-68.9763
G01 X25.0740 Y-68.9694
G01 X25.0952 Y-68.8967
G01 X25.0973 Y-68.8852
G01 X25.0979 Y-68.8735
G01 X25.0979 Y-0.1265
G01 X25.0975 Y-0.1171
G01 X25.0962 Y-0.1079
G01 X25.0843 Y-0.0532
G01 X25.0810 Y-0.0414
G01 X25.0782 Y-0.0345
G01 X25.0738 Y-0.0257
G01 X25.0700 Y-0.0195
G01 X25.0641 Y-0.0116
G01 X25.0144 Y0.0458
G01 X25.0075 Y0.0527
G01 X24.9979 Y0.0603
G01 X24.9917 Y0.0642
G01 X24.9853 Y0.0677
G01 X24.9786 Y0.0707
G01 X24.9717 Y0.0732
G01 X24.8990 Y0.0946
G01 X24.8875 Y0.0969
G01 X24.8758 Y0.0979
G01 X21.6117 Y0.0979
G01 X21.6045 Y0.0975
G01 X21.5973 Y0.0965
G01 X21.5446 Y0.0861
G01 X21.5332 Y0.0828
G01 X21.5266 Y0.0802
G01 X21.5202 Y0.0771
G01 X21.5140 Y0.0736
G01 X21.5062 Y0.0682
G01 X21.4490 Y0.0222
G01 X21.4400 Y0.0140
G01 X21.4335 Y0.0067
G01 X21.4292 Y0.0007
G01 X21.4241 Y-0.0076
G01 X21.4199 Y-0.0164
G01 X21.4173 Y-0.0233
G01 X21.3934 Y-0.0953
G01 X21.3917 Y-0.1024
G01 X21.3905 Y-0.1097
G01 X21.3897 Y-0.1219
G01 X21.3905 Y-0.1341
G01 X21.3922 Y-0.1437
G01 X21.4115 Y-0.2196
G01 X21.4149 Y-0.2288
G01 X21.4191 Y-0.2376
G01 X21.4242 Y-0.2459
G01 X21.4317 Y-0.2556
G01 X21.4385 Y-0.2626
G01 X21.4921 Y-0.3126
G01 X21.4994 Y-0.3185
G01 X21.5052 Y-0.3225
G01 X21.5134 Y-0.3271
G01 X21.6975 Y-0.4196
G01 X21.9807 Y-0.6058
G01 X22.2404 Y-0.8237
G01 X22.4730 Y-1.0703
G01 X22.6754 Y-1.3422
G01 X22.8449 Y-1.6358
G01 X22.9792 Y-1.9470
G01 X23.0764 Y-2.2718
G01 X23.1353 Y-2.6056
G01 X23.1550 Y-2.9440
G01 X23.1353 Y-3.2824
G01 X23.0764 Y-3.6162
G01 X22.9792 Y-3.9410
G01 X22.8449 Y-4.2522
G01 X22.6754 Y-4.5458
G01 X22.4730 Y-4.8177
G01 X22.2404 Y-5.0643
G01 X21.9807 Y-5.2822
G01 X21.6975 Y-5.4684
G01 X21.3946 Y-5.6206
G01 X21.0760 Y-5.7365
G01 X20.7462 Y-5.8147
G01 X20.4095 Y-5.8541
G01 X20.0705 Y-5.8541
G01 X19.7338 Y-5.8147
G01 X19.4040 Y-5.7365
G01 X19.0854 Y-5.6206
G01 X18.7825 Y-5.4684
G01 X18.4993 Y-5.2822
G01 X18.2396 Y-5.0643
G01 X18.0070 Y-4.8177
G01 X17.8046 Y-4.5458
G01 X17.6351 Y-4.2522
G01 X17.6061 Y-4.1850
G01 X17.5008 Y-3.9410
G01 X17.4036 Y-3.6162
G01 X17.3447 Y-3.2824
G01 X17.3250 Y-2.9440
G01 X17.3447 Y-2.6056
G01 X17.4036 Y-2.2718
G01 X17.5008 Y-1.9470
G01 X17.6351 Y-1.6358
G01 X17.8046 Y-1.3422
G01 X18.0070 Y-1.0703
G01 X18.2396 Y-0.8237
G01 X18.4993 Y-0.6058
G01 X18.7825 Y-0.4195
G01 X18.9666 Y-0.3271
G01 X18.9750 Y-0.3223
G01 X18.9829 Y-0.3168
G01 X19.0253 Y-0.2837
G01 X19.0338 Y-0.2755
G01 X19.0384 Y-0.2701
G01 X19.0426 Y-0.2643
G01 X19.0463 Y-0.2583
G01 X19.0497 Y-0.2521
G01 X19.0812 Y-0.1831
G01 X19.0853 Y-0.1716
G01 X19.0870 Y-0.1645
G01 X19.0882 Y-0.1572
G01 X19.0889 Y-0.1499
G01 X19.0891 Y-0.1426
G01 X19.0881 Y-0.1304
G01 X19.0776 Y-0.0577
G01 X19.0755 Y-0.0482
G01 X19.0715 Y-0.0366
G01 X19.0685 Y-0.0300
G01 X19.0650 Y-0.0235
G01 X19.0610 Y-0.0174
G01 X19.0565 Y-0.0116
G01 X19.0068 Y0.0458
G01 X18.9999 Y0.0527
G01 X18.9923 Y0.0589
G01 X18.9862 Y0.0630
G01 X18.9799 Y0.0666
G01 X18.9733 Y0.0698
G01 X18.9664 Y0.0725
G01 X18.8914 Y0.0946
G01 X18.8845 Y0.0962
G01 X18.8776 Y0.0973
G01 X18.8659 Y0.0979
G01 X0.1265 Y0.0979
G01 X0.1171 Y0.0975
G01 X0.1079 Y0.0962
G01 X0.0532 Y0.0843
G01 X0.0414 Y0.0810
G01 X0.0301 Y0.0762
G01 X0.0215 Y0.0713
G01 X0.0116 Y0.0641
G01 X-0.0440 Y0.0160
G01 X-0.0493 Y0.0110
G01 X-0.0559 Y0.0038
G01 X-0.0630 Y-0.0062
G01 X-0.0688 Y-0.0169
G01 X-0.0725 Y-0.0260
G01 X-0.0952 Y-0.1033
G01 X-0.0973 Y-0.1148
G01 X-0.0979 Y-0.1265
G00 Z2.0000
G00 X-0.2456 Y-0.1265
G01 F60.00
G01 Z-0.1500
G01 F240.00
G01 X-0.2456 Y-68.8735
G01 X-0.2453 Y-68.8852
G01 X-0.2445 Y-68.8969
G01 X-0.2431 Y-68.9085
G01 X-0.2412 Y-68.9201
G01 X-0.2272 Y-68.9842
G01 X-0.2240 Y-68.9960
G01 X-0.2202 Y-69.0077
G01 X-0.2134 Y-69.0249
G01 X-0.2054 Y-69.0415
G01 X-0.1961 Y-69.0574
G01 X-0.1893 Y-69.0677
G01 X-0.1819 Y-69.0775
G01 X-0.1741 Y-69.0870
G01 X-0.1276 Y-69.1407
G01 X-0.1194 Y-69.1497
G01 X-0.1107 Y-69.1583
G01 X-0.1016 Y-69.1665
G01 X-0.0873 Y-69.1779
G01 X-0.0721 Y-69.1882
G01 X-0.0562 Y-69.1973
G01 X-0.0397 Y-69.2052
G01 X-0.0226 Y-69.2119
G01 X-0.0110 Y-69.2157
G01 X0.0685 Y-69.2387
G01 X0.0799 Y-69.2412
G01 X0.0915 Y-69.2431
G01 X0.1089 Y-69.2450
G01 X0.1265 Y-69.2456
G01 X0.8660 Y-69.2456
G01 X0.8836 Y-69.2450
G01 X0.9010 Y-69.2431
G01 X0.9183 Y-69.2400
G01 X0.9826 Y-69.2257
G01 X1.0002 Y-69.2202
G01 X1.0117 Y-69.2158
G01 X1.0230 Y-69.2109
G01 X1.0340 Y-69.2054
G01 X1.0447 Y-69.1993
G01 X1.0551 Y-69.1928
G01 X1.0651 Y-69.1857
G01 X1.0748 Y-69.1781
G01 X1.1377 Y-69.1236
G01 X1.1466 Y-69.1151
G01 X1.1550 Y-69.1062
G01 X1.1629 Y-69.0969
G01 X1.1704 Y-69.0873
G01 X1.1807 Y-69.0721
G01 X1.1869 Y-69.0616
G01 X1.1926 Y-69.0508
G01 X1.1977 Y-69.0397
G01 X1.2023 Y-69.0283
G01 X1.2082 Y-69.0110
G01 X1.2312 Y-68.9315
G01 X1.2337 Y-68.9201
G01 X1.2356 Y-68.9085
G01 X1.2370 Y-68.8969
G01 X1.2378 Y-68.8852
G01 X1.2381 Y-68.8735
G01 X1.2381 Y-67.3876
G01 X1.2539 Y-67.3876
G01 X1.2539 Y-68.9875
G01 X1.2545 Y-69.0056
G01 X1.2557 Y-69.0176
G01 X1.2586 Y-69.0355
G01 X1.2613 Y-69.0473
G01 X1.2663 Y-69.0647
G01 X1.2726 Y-69.0817
G01 X1.2802 Y-69.0982
G01 X1.2889 Y-69.1140
G01 X1.2954 Y-69.1242
G01 X1.3060 Y-69.1389
G01 X1.3136 Y-69.1483
G01 X1.3217 Y-69.1572
G01 X1.3347 Y-69.1699
G01 X1.3486 Y-69.1815
G01 X1.3583 Y-69.1887
G01 X1.3683 Y-69.1954
G01 X1.3840 Y-69.2046
G01 X1.3948 Y-69.2100
G01 X1.4058 Y-69.2149
G01 X1.4171 Y-69.2192
G01 X1.4344 Y-69.2247
G01 X1.4520 Y-69.2289
G01 X1.4639 Y-69.2310
G01 X1.4759 Y-69.2324
G01 X1.4940 Y-69.2336
G01 X2.8560 Y-69.2336
G01 X2.8681 Y-69.2330
G01 X2.8801 Y-69.2318
G01 X2.8921 Y-69.2300
G01 X2.9039 Y-69.2276
G01 X2.9156 Y-69.2247
G01 X2.9272 Y-69.2212
G01 X2.9386 Y-69.2171
G01 X2.9497 Y-69.2125
G01 X2.9607 Y-69.2073
G01 X2.9713 Y-69.2017
G01 X2.9817 Y-69.1954
G01 X2.9917 Y-69.1887
G01 X3.0014 Y-69.1815
G01 X3.0108 Y-69.1739
G01 X3.0197 Y-69.1658
G01 X3.0283 Y-69.1572
G01 X3.0364 Y-69.1483
G01 X3.0440 Y-69.1389
G01 X3.0546 Y-69.1242
G01 X3.0611 Y-69.1140
G01 X3.0671 Y-69.1035
G01 X3.0725 Y-69.0927
G01 X3.0774 Y-69.0817
G01 X3.0837 Y-69.0647
G01 X3.0872 Y-69.0531
G01 X3.0901 Y-69.0414
G01 X3.0935 Y-69.0236
G01 X3.0949 Y-69.0116
G01 X3.0958 Y-68.9996
G01 X3.0961 Y-68.9875
G01 X3.0961 Y-67.3876
G01 X3.1119 Y-67.3876
G01 X3.1119 Y-68.8735
G01 X3.1122 Y-68.8852
G01 X3.1136 Y-68.9027
G01 X3.1163 Y-68.9201
G01 X3.1289 Y-68.9782
G01 X3.1335 Y-68.9960
G01 X3.1394 Y-69.0135
G01 X3.1466 Y-69.0305
G01 X3.1521 Y-69.0415
G01 X3.1614 Y-69.0574
G01 X3.1718 Y-69.0726
G01 X3.1834 Y-69.0870
G01 X3.2339 Y-69.1452
G01 X3.2468 Y-69.1583
G01 X3.2559 Y-69.1665
G01 X3.2653 Y-69.1742
G01 X3.2752 Y-69.1815
G01 X3.2854 Y-69.1882
G01 X3.2959 Y-69.1944
G01 X3.3067 Y-69.2001
G01 X3.3178 Y-69.2052
G01 X3.3292 Y-69.2098
G01 X3.3407 Y-69.2139
G01 X3.4147 Y-69.2357
G01 X3.4260 Y-69.2387
G01 X3.4432 Y-69.2422
G01 X3.4548 Y-69.2439
G01 X3.4664 Y-69.2450
G01 X3.4840 Y-69.2456
G01 X3.7305 Y-69.2456
G01 X3.7481 Y-69.2450
G01 X3.7655 Y-69.2431
G01 X3.7828 Y-69.2400
G01 X3.8471 Y-69.2257
G01 X3.8589 Y-69.2222
G01 X3.8705 Y-69.2181
G01 X3.8819 Y-69.2134
G01 X3.8930 Y-69.2082
G01 X3.9039 Y-69.2024
G01 X3.9144 Y-69.1961
G01 X3.9247 Y-69.1893
G01 X3.9345 Y-69.1819
G01 X3.9440 Y-69.1741
G01 X3.9977 Y-69.1276
G01 X4.0067 Y-69.1194
G01 X4.0153 Y-69.1107
G01 X4.0235 Y-69.1016
G01 X4.0349 Y-69.0873
G01 X4.0419 Y-69.0772
G01 X4.0484 Y-69.0669
G01 X4.0543 Y-69.0562
G01 X4.0597 Y-69.0453
G01 X4.0646 Y-69.0340
G01 X4.0709 Y-69.0168
G01 X4.0927 Y-68.9428
G01 X4.0957 Y-68.9315
G01 X4.0982 Y-68.9201
G01 X4.1009 Y-68.9027
G01 X4.1020 Y-68.8911
G01 X4.1026 Y-68.8735
G01 X4.1026 Y-65.3436
G01 X4.1023 Y-65.3301
G01 X4.1007 Y-65.3103
G01 X4.1007 Y-65.2752
G01 X4.1019 Y-65.2591
G01 X4.1044 Y-65.2353
G01 X4.1112 Y-65.2161
G01 X4.1158 Y-65.2003
G01 X4.1265 Y-65.1758
G01 X4.1329 Y-65.1591
G01 X4.1504 Y-65.1310
G01 X4.1809 Y-65.0929
G01 X4.2210 Y-65.0500
G01 X4.2399 Y-65.0278
G01 X4.2488 Y-65.0164
G01 X4.2899 Y-64.9604
G01 X4.3051 Y-64.9374
G01 X4.3295 Y-64.8966
G01 X4.3451 Y-64.8650
G01 X4.3526 Y-64.8479
G01 X4.3569 Y-64.8362
G01 X4.3606 Y-64.8243
G01 X4.3636 Y-64.8122
G01 X4.3671 Y-64.7938
G01 X4.3691 Y-64.7753
G01 X4.3745 Y-64.6984
G01 X4.3747 Y-64.6800
G01 X4.3741 Y-64.6678
G01 X4.3728 Y-64.6557
G01 X4.3698 Y-64.6376
G01 X4.3655 Y-64.6198
G01 X4.3598 Y-64.6023
G01 X4.3553 Y-64.5909
G01 X4.3503 Y-64.5798
G01 X4.3447 Y-64.5689
G01 X4.3078 Y-64.5015
G01 X4.3017 Y-64.4915
G01 X4.2917 Y-64.4771
G01 X4.2844 Y-64.4679
G01 X4.2728 Y-64.4547
G01 X3.6400 Y-63.8220
G01 X3.6262 Y-63.8098
G01 X3.6115 Y-63.7986
G01 X3.6012 Y-63.7918
G01 X3.5536 Y-63.7620
G01 X3.5433 Y-63.7559
G01 X3.5328 Y-63.7503
G01 X3.5164 Y-63.7428
G01 X3.5053 Y-63.7385
G01 X3.4939 Y-63.7348
G01 X3.4824 Y-63.7316
G01 X3.4707 Y-63.7290
G01 X3.4530 Y-63.7262
G01 X3.4410 Y-63.7250
G01 X3.3642 Y-63.7211
G01 X3.3525 Y-63.7208
G01 X3.3407 Y-63.7210
G01 X3.3291 Y-63.7218
G01 X3.3174 Y-63.7232
G01 X3.3059 Y-63.7251
G01 X3.1981 Y-63.7507
G01 X3.0000 Y-63.7663
G01 X2.8019 Y-63.7507
G01 X2.6087 Y-63.7043
G01 X2.4251 Y-63.6283
G01 X2.2557 Y-63.5244
G01 X2.1046 Y-63.3954
G01 X1.9756 Y-63.2443
G01 X1.8717 Y-63.0749
G01 X1.7957 Y-62.8913
G01 X1.7493 Y-62.6981
G01 X1.7337 Y-62.5000
G01 X1.7493 Y-62.3019
G01 X1.7951 Y-62.1109
G01 X1.7974 Y-62.0987
G01 X1.7990 Y-62.0864
G01 X1.8001 Y-62.0740
G01 X1.8005 Y-62.0616
G01 X1.8003 Y-62.0491
G01 X1.7974 Y-61.9801
G01 X1.7965 Y-61.9677
G01 X1.7951 Y-61.9553
G01 X1.7917 Y-61.9370
G01 X1.7870 Y-61.9190
G01 X1.7753 Y-61.8838
G01 X1.7555 Y-61.8291
G01 X1.7504 Y-61.7712
G01 X1.7474 Y-61.7451
G01 X1.7466 Y-61.7288
G01 X1.7443 Y-61.7020
G01 X1.7470 Y-61.6707
G01 X1.7476 Y-61.6528
G01 X1.7476 Y-60.7004
G01 X1.7470 Y-60.6831
G01 X1.7452 Y-60.6660
G01 X1.7355 Y-60.6084
G01 X1.7313 Y-60.5917
G01 X1.7278 Y-60.5807
G01 X1.6854 Y-60.4561
G01 X1.6190 Y-60.2819
G01 X1.5556 Y-60.1354
G01 X1.5465 Y-60.1161
G01 X1.4890 Y-60.0025
G01 X1.4823 Y-59.9904
G01 X1.4690 Y-59.9684
G01 X1.4520 Y-59.9435
G01 X1.4437 Y-59.9274
G01 X1.4323 Y-59.9072
G01 X1.4213 Y-59.8820
G01 X1.3950 Y-59.8286
G01 X1.3633 Y-59.7013
G01 X1.3626 Y-59.6910
G01 X1.3626 Y-57.2490
G01 X1.3633 Y-57.2387
G01 X1.3950 Y-57.1114
G01 X1.4510 Y-56.9984
G01 X1.5300 Y-56.9000
G01 X1.6284 Y-56.8210
G01 X1.7414 Y-56.7650
G01 X1.8687 Y-56.7333
G01 X1.8790 Y-56.7326
G01 X2.6410 Y-56.7326
G01 X2.6513 Y-56.7333
G01 X2.7786 Y-56.7650
G01 X2.8916 Y-56.8210
G01 X3.0006 Y-56.9086
G01 X3.0137 Y-56.9201
G01 X3.0232 Y-56.9275
G01 X3.0331 Y-56.9345
G01 X3.0433 Y-56.9409
G01 X3.0563 Y-56.9481
G01 X3.1092 Y-56.9794
G01 X3.1200 Y-56.9851
G01 X3.1367 Y-56.9926
G01 X3.1481 Y-56.9969
G01 X3.1657 Y-57.0023
G01 X3.1775 Y-57.0052
G01 X3.1956 Y-57.0084
G01 X3.2077 Y-57.0097
G01 X3.2260 Y-57.0107
G01 X3.2383 Y-57.0105
G01 X3.3092 Y-57.0079
G01 X3.3214 Y-57.0072
G01 X3.3336 Y-57.0058
G01 X3.3516 Y-57.0026
G01 X3.3694 Y-56.9982
G01 X3.3868 Y-56.9924
G01 X3.4037 Y-56.9853
G01 X3.4147 Y-56.9799
G01 X3.4306 Y-56.9707
G01 X3.4602 Y-56.9505
G01 X3.4771 Y-56.9413
G01 X3.4873 Y-56.9348
G01 X3.4971 Y-56.9278
G01 X3.5067 Y-56.9204
G01 X3.5189 Y-56.9096
G01 X3.6286 Y-56.8214
G01 X3.7415 Y-56.7655
G01 X3.7599 Y-56.7609
G01 X3.7599 Y-56.7796
G01 X3.7324 Y-56.7895
G01 X3.7213 Y-56.7942
G01 X3.6768 Y-56.8154
G01 X3.6663 Y-56.8214
G01 X3.6294 Y-56.8439
G01 X3.5897 Y-56.8730
G01 X3.5758 Y-56.8847
G01 X3.5440 Y-56.9140
G01 X3.5147 Y-56.9458
G01 X3.5030 Y-56.9597
G01 X3.4739 Y-56.9994
G01 X3.4514 Y-57.0363
G01 X3.4426 Y-57.0522
G01 X3.4218 Y-57.0968
G01 X3.4050 Y-57.1431
G01 X3.3999 Y-57.1605
G01 X3.3897 Y-57.2025
G01 X3.3823 Y-57.2513
G01 X3.3807 Y-57.2693
G01 X3.3789 Y-57.3125
G01 X3.3789 Y-59.6275
G01 X3.3811 Y-59.6767
G01 X3.3831 Y-59.6947
G01 X3.3897 Y-59.7375
G01 X3.3999 Y-59.7795
G01 X3.4031 Y-59.7911
G01 X3.4174 Y-59.8319
G01 X3.4218 Y-59.8432
G01 X3.4400 Y-59.8824
G01 X3.4454 Y-59.8932
G01 X3.4514 Y-59.9037
G01 X3.4706 Y-59.9356
G01 X3.4773 Y-59.9456
G01 X3.5068 Y-59.9851
G01 X3.5356 Y-60.0173
G01 X3.5483 Y-60.0303
G01 X3.5849 Y-60.0632
G01 X3.5945 Y-60.0706
G01 X3.6294 Y-60.0961
G01 X3.6715 Y-60.1217
G01 X3.6876 Y-60.1300
G01 X3.7213 Y-60.1458
G01 X3.7324 Y-60.1505
G01 X3.7599 Y-60.1604
G01 X3.7599 Y-60.1791
G01 X3.7415 Y-60.1745
G01 X3.6286 Y-60.1185
G01 X3.5179 Y-60.0296
G01 X3.4918 Y-60.0110
G01 X3.4815 Y-60.0045
G01 X3.4708 Y-59.9984
G01 X3.4543 Y-59.9904
G01 X3.4430 Y-59.9857
G01 X3.4315 Y-59.9817
G01 X3.4198 Y-59.9781
G01 X3.3513 Y-59.9594
G01 X3.3394 Y-59.9565
G01 X3.3274 Y-59.9541
G01 X3.3153 Y-59.9524
G01 X3.3032 Y-59.9513
G01 X3.2848 Y-59.9507
G01 X3.2726 Y-59.9511
G01 X3.2544 Y-59.9528
G01 X3.2363 Y-59.9559
G01 X3.2244 Y-59.9586
G01 X3.2126 Y-59.9620
G01 X3.1449 Y-59.9833
G01 X3.1333 Y-59.9872
G01 X3.1220 Y-59.9918
G01 X3.1109 Y-59.9968
G01 X3.0947 Y-60.0055
G01 X3.0792 Y-60.0153
G01 X3.0645 Y-60.0262
G01 X3.0507 Y-60.0382
G01 X3.0377 Y-60.0513
G01 X3.0297 Y-60.0604
G01 X2.9842 Y-60.1150
G01 X2.9734 Y-60.1288
G01 X2.9668 Y-60.1385
G01 X2.9578 Y-60.1536
G01 X2.9524 Y-60.1640
G01 X2.9474 Y-60.1746
G01 X2.9054 Y-60.2714
G01 X2.8990 Y-60.2871
G01 X2.8346 Y-60.4561
G01 X2.7904 Y-60.5861
G01 X2.7858 Y-60.6028
G01 X2.7834 Y-60.6141
G01 X2.7757 Y-60.6603
G01 X2.7735 Y-60.6774
G01 X2.7724 Y-60.6946
G01 X2.7724 Y-60.8718
G01 X2.7727 Y-60.8841
G01 X2.7736 Y-60.8964
G01 X2.7751 Y-60.9086
G01 X2.7838 Y-60.9578
G01 X2.7861 Y-60.9695
G01 X2.7907 Y-60.9868
G01 X2.7945 Y-60.9981
G01 X2.7988 Y-61.0093
G01 X2.8036 Y-61.0202
G01 X2.8118 Y-61.0361
G01 X2.8180 Y-61.0463
G01 X2.8246 Y-61.0562
G01 X2.8702 Y-61.1182
G01 X2.8777 Y-61.1279
G01 X2.8857 Y-61.1372
G01 X2.8984 Y-61.1503
G01 X2.9075 Y-61.1585
G01 X2.9218 Y-61.1700
G01 X2.9369 Y-61.1803
G01 X2.9528 Y-61.1895
G01 X2.9637 Y-61.1950
G01 X2.9749 Y-61.1999
G01 X3.0525 Y-61.2294
G01 X3.0636 Y-61.2331
G01 X3.0749 Y-61.2362
G01 X3.0921 Y-61.2398
G01 X3.1095 Y-61.2423
G01 X3.1981 Y-61.2493
G01 X3.3913 Y-61.2957
G01 X3.5749 Y-61.3717
G01 X3.7443 Y-61.4756
G01 X3.8954 Y-61.6046
G01 X4.0244 Y-61.7557
G01 X4.1283 Y-61.9251
G01 X4.2043 Y-62.1087
G01 X4.2507 Y-62.3019
G01 X4.2663 Y-62.5000
G01 X4.2507 Y-62.6981
G01 X4.2415 Y-62.7375
G01 X4.2396 Y-62.7496
G01 X4.2382 Y-62.7619
G01 X4.2373 Y-62.7803
G01 X4.2367 Y-62.8425
G01 X4.2372 Y-62.8544
G01 X4.2390 Y-62.8723
G01 X4.2409 Y-62.8841
G01 X4.2448 Y-62.9016
G01 X4.2481 Y-62.9131
G01 X4.2541 Y-62.9300
G01 X4.2613 Y-62.9464
G01 X4.2668 Y-62.9571
G01 X4.3008 Y-63.0194
G01 X4.3098 Y-63.0345
G01 X4.3164 Y-63.0442
G01 X4.3234 Y-63.0536
G01 X4.3309 Y-63.0626
G01 X4.3387 Y-63.0713
G01 X5.3532 Y-64.0858
G01 X5.4007 Y-64.1308
G01 X5.4332 Y-64.1834
G01 X5.4651 Y-64.2321
G01 X5.4846 Y-64.2906
G01 X5.5045 Y-64.3454
G01 X5.5096 Y-64.4033
G01 X5.5126 Y-64.4294
G01 X5.5134 Y-64.4457
G01 X5.5160 Y-64.4765
G01 X5.5157 Y-64.4953
G01 X5.5166 Y-64.5128
G01 X5.5285 Y-64.5999
G01 X5.5307 Y-64.6114
G01 X5.5334 Y-64.6227
G01 X5.5366 Y-64.6339
G01 X5.5403 Y-64.6449
G01 X5.5469 Y-64.6610
G01 X5.5638 Y-64.6987
G01 X5.5726 Y-64.7169
G01 X5.6355 Y-64.8387
G01 X5.6440 Y-64.8535
G01 X5.6978 Y-64.9420
G01 X5.7133 Y-64.9649
G01 X5.7555 Y-65.0222
G01 X5.7742 Y-65.0446
G01 X5.8135 Y-65.0870
G01 X5.8298 Y-65.1099
G01 X5.8684 Y-65.1615
G01 X5.8797 Y-65.1875
G01 X5.8863 Y-65.2098
G01 X5.8956 Y-65.2353
G01 X5.8984 Y-65.2618
G01 X5.8974 Y-65.2909
G01 X5.8974 Y-68.8735
G01 X5.8977 Y-68.8852
G01 X5.8991 Y-68.9027
G01 X5.9018 Y-68.9201
G01 X5.9144 Y-68.9782
G01 X5.9173 Y-68.9901
G01 X5.9208 Y-69.0019
G01 X5.9272 Y-69.0192
G01 X5.9348 Y-69.0360
G01 X5.9437 Y-69.0522
G01 X5.9537 Y-69.0677
G01 X5.9649 Y-69.0823
G01 X6.0154 Y-69.1407
G01 X6.0236 Y-69.1497
G01 X6.0368 Y-69.1625
G01 X6.0508 Y-69.1742
G01 X6.0658 Y-69.1849
G01 X6.0814 Y-69.1944
G01 X6.0922 Y-69.2001
G01 X6.1090 Y-69.2076
G01 X6.1204 Y-69.2119
G01 X6.1320 Y-69.2157
G01 X6.2115 Y-69.2387
G01 X6.2287 Y-69.2422
G01 X6.2461 Y-69.2445
G01 X6.2578 Y-69.2453
G01 X6.2695 Y-69.2456
G01 X6.5160 Y-69.2456
G01 X6.5277 Y-69.2453
G01 X6.5394 Y-69.2445
G01 X6.5510 Y-69.2431
G01 X6.5626 Y-69.2412
G01 X6.6267 Y-69.2272
G01 X6.6385 Y-69.2240
G01 X6.6502 Y-69.2202
G01 X6.6674 Y-69.2134
G01 X6.6840 Y-69.2054
G01 X6.6999 Y-69.1961
G01 X6.7102 Y-69.1893
G01 X6.7248 Y-69.1781
G01 X6.7832 Y-69.1276
G01 X6.7966 Y-69.1151
G01 X6.8050 Y-69.1062
G01 X6.8167 Y-69.0922
G01 X6.8240 Y-69.0823
G01 X6.8307 Y-69.0721
G01 X6.8398 Y-69.0562
G01 X6.8477 Y-69.0397
G01 X6.8523 Y-69.0283
G01 X6.8564 Y-69.0168
G01 X6.8782 Y-68.9428
G01 X6.8812 Y-68.9315
G01 X6.8847 Y-68.9143
G01 X6.8864 Y-68.9027
G01 X6.8875 Y-68.8911
G01 X6.8881 Y-68.8794
G01 X6.8881 Y-67.3876
G01 X6.9039 Y-67.3876
G01 X6.9039 Y-68.9875
G01 X6.9042 Y-68.9996
G01 X6.9057 Y-69.0176
G01 X6.9075 Y-69.0296
G01 X6.9099 Y-69.0414
G01 X6.9128 Y-69.0531
G01 X6.9163 Y-69.0647
G01 X6.9226 Y-69.0817
G01 X6.9275 Y-69.0927
G01 X6.9329 Y-69.1035
G01 X6.9389 Y-69.1140
G01 X6.9454 Y-69.1242
G01 X6.9523 Y-69.1341
G01 X6.9597 Y-69.1436
G01 X6.9717 Y-69.1572
G01 X6.9803 Y-69.1658
G01 X6.9892 Y-69.1739
G01 X6.9986 Y-69.1815
G01 X7.0083 Y-69.1887
G01 X7.0183 Y-69.1954
G01 X7.0287 Y-69.2017
G01 X7.0393 Y-69.2073
G01 X7.0503 Y-69.2125
G01 X7.0614 Y-69.2171
G01 X7.0728 Y-69.2212
G01 X7.0844 Y-69.2247
G01 X7.0961 Y-69.2276
G01 X7.1079 Y-69.2300
G01 X7.1199 Y-69.2318
G01 X7.1319 Y-69.2330
G01 X7.1440 Y-69.2336
G01 X8.5060 Y-69.2336
G01 X8.5241 Y-69.2324
G01 X8.5421 Y-69.2300
G01 X8.5598 Y-69.2262
G01 X8.5772 Y-69.2212
G01 X8.5942 Y-69.2149
G01 X8.6052 Y-69.2100
G01 X8.6213 Y-69.2017
G01 X8.6367 Y-69.1921
G01 X8.6466 Y-69.1852
G01 X8.6561 Y-69.1778
G01 X8.6697 Y-69.1658
G01 X8.6783 Y-69.1572
G01 X8.6864 Y-69.1483
G01 X8.6940 Y-69.1389
G01 X8.7046 Y-69.1242
G01 X8.7111 Y-69.1140
G01 X8.7198 Y-69.0982
G01 X8.7250 Y-69.0872
G01 X8.7317 Y-69.0704
G01 X8.7355 Y-69.0589
G01 X8.7387 Y-69.0473
G01 X8.7425 Y-69.0296
G01 X8.7443 Y-69.0176
G01 X8.7455 Y-69.0056
G01 X8.7461 Y-68.9875
G01 X8.7461 Y-67.3876
G01 X8.7619 Y-67.3876
G01 X8.7619 Y-68.8735
G01 X8.7625 Y-68.8911
G01 X8.7636 Y-68.9027
G01 X8.7653 Y-68.9143
G01 X8.7789 Y-68.9782
G01 X8.7835 Y-68.9960
G01 X8.7873 Y-69.0077
G01 X8.7917 Y-69.0192
G01 X8.7966 Y-69.0305
G01 X8.8021 Y-69.0415
G01 X8.8114 Y-69.0574
G01 X8.8182 Y-69.0677
G01 X8.8256 Y-69.0775
G01 X8.8334 Y-69.0870
G01 X8.8799 Y-69.1407
G01 X8.8924 Y-69.1541
G01 X8.9013 Y-69.1625
G01 X8.9106 Y-69.1704
G01 X8.9252 Y-69.1815
G01 X8.9354 Y-69.1882
G01 X8.9459 Y-69.1944
G01 X8.9567 Y-69.2001
G01 X8.9678 Y-69.2052
G01 X8.9849 Y-69.2119
G01 X8.9965 Y-69.2157
G01 X9.0703 Y-69.2372
G01 X9.0817 Y-69.2400
G01 X9.0932 Y-69.2422
G01 X9.1106 Y-69.2445
G01 X9.1223 Y-69.2453
G01 X9.1340 Y-69.2456
G01 X18.8579 Y-69.2456
G01 X18.8700 Y-69.2453
G01 X18.8820 Y-69.2444
G01 X18.8939 Y-69.2430
G01 X18.9058 Y-69.2409
G01 X18.9654 Y-69.2288
G01 X18.9825 Y-69.2239
G01 X18.9992 Y-69.2178
G01 X19.0154 Y-69.2105
G01 X19.0310 Y-69.2020
G01 X19.0460 Y-69.1924
G01 X19.0555 Y-69.1855
G01 X19.1155 Y-69.1373
G01 X19.1249 Y-69.1295
G01 X19.1381 Y-69.1168
G01 X19.1504 Y-69.1031
G01 X19.1616 Y-69.0886
G01 X19.1684 Y-69.0785
G01 X19.1778 Y-69.0627
G01 X19.1859 Y-69.0463
G01 X19.1928 Y-69.0293
G01 X19.2173 Y-68.9562
G01 X19.2224 Y-68.9386
G01 X19.2252 Y-68.9267
G01 X19.2273 Y-68.9146
G01 X19.2288 Y-68.9025
G01 X19.2299 Y-68.8842
G01 X19.2299 Y-68.8720
G01 X19.2293 Y-68.8598
G01 X19.2272 Y-68.8416
G01 X19.2251 Y-68.8295
G01 X19.2224 Y-68.8176
G01 X19.2050 Y-68.7488
G01 X19.2017 Y-68.7370
G01 X19.1956 Y-68.7197
G01 X19.1909 Y-68.7084
G01 X19.1827 Y-68.6920
G01 X19.1767 Y-68.6814
G01 X19.1700 Y-68.6711
G01 X19.1592 Y-68.6564
G01 X19.1514 Y-68.6470
G01 X19.1431 Y-68.6380
G01 X19.1343 Y-68.6294
G01 X19.0781 Y-68.5770
G01 X19.0646 Y-68.5658
G01 X19.0551 Y-68.5589
G01 X19.0404 Y-68.5494
G01 X19.0250 Y-68.5410
G01 X18.8565 Y-68.4563
G01 X18.5876 Y-68.2795
G01 X18.3411 Y-68.0727
G01 X18.1203 Y-67.8386
G01 X17.9282 Y-67.5805
G01 X17.7673 Y-67.3019
G01 X17.6398 Y-67.0064
G01 X17.5475 Y-66.6981
G01 X17.4917 Y-66.3812
G01 X17.4729 Y-66.0600
G01 X17.4917 Y-65.7388
G01 X17.5475 Y-65.4219
G01 X17.6398 Y-65.1136
G01 X17.7673 Y-64.8181
G01 X17.9282 Y-64.5395
G01 X18.1203 Y-64.2814
G01 X18.3411 Y-64.0473
G01 X18.5876 Y-63.8405
G01 X18.8565 Y-63.6637
G01 X19.1440 Y-63.5192
G01 X19.4464 Y-63.4092
G01 X19.7595 Y-63.3350
G01 X20.0791 Y-63.2976
G01 X20.4009 Y-63.2976
G01 X20.7205 Y-63.3350
G01 X21.0336 Y-63.4092
G01 X21.3360 Y-63.5192
G01 X21.6235 Y-63.6637
G01 X21.8924 Y-63.8405
G01 X22.1389 Y-64.0473
G01 X22.3597 Y-64.2814
G01 X22.5518 Y-64.5395
G01 X22.7127 Y-64.8181
G01 X22.8402 Y-65.1136
G01 X22.9325 Y-65.4219
G01 X22.9883 Y-65.7388
G01 X23.0071 Y-66.0600
G01 X22.9883 Y-66.3812
G01 X22.9325 Y-66.6981
G01 X22.8402 Y-67.0064
G01 X22.7127 Y-67.3019
G01 X22.5518 Y-67.5805
G01 X22.3597 Y-67.8386
G01 X22.1389 Y-68.0727
G01 X21.8924 Y-68.2795
G01 X21.6235 Y-68.4563
G01 X21.4550 Y-68.5410
G01 X21.4444 Y-68.5466
G01 X21.4341 Y-68.5528
G01 X21.4241 Y-68.5595
G01 X21.4144 Y-68.5666
G01 X21.3665 Y-68.6042
G01 X21.3577 Y-68.6121
G01 X21.3493 Y-68.6205
G01 X21.3413 Y-68.6292
G01 X21.3338 Y-68.6383
G01 X21.3266 Y-68.6478
G01 X21.3200 Y-68.6576
G01 X21.3138 Y-68.6677
G01 X21.3081 Y-68.6781
G01 X21.2735 Y-68.7533
G01 X21.2687 Y-68.7646
G01 X21.2644 Y-68.7760
G01 X21.2608 Y-68.7877
G01 X21.2564 Y-68.8055
G01 X21.2533 Y-68.8236
G01 X21.2516 Y-68.8418
G01 X21.2512 Y-68.8540
G01 X21.2514 Y-68.8663
G01 X21.2529 Y-68.8845
G01 X21.2648 Y-68.9669
G01 X21.2671 Y-68.9789
G01 X21.2700 Y-68.9908
G01 X21.2736 Y-69.0025
G01 X21.2776 Y-69.0140
G01 X21.2823 Y-69.0253
G01 X21.2875 Y-69.0364
G01 X21.2933 Y-69.0471
G01 X21.2996 Y-69.0576
G01 X21.3064 Y-69.0678
G01 X21.3137 Y-69.0776
G01 X21.3214 Y-69.0870
G01 X21.3679 Y-69.1407
G01 X21.3804 Y-69.1541
G01 X21.3893 Y-69.1625
G01 X21.4034 Y-69.1742
G01 X21.4183 Y-69.1849
G01 X21.4340 Y-69.1944
G01 X21.4448 Y-69.2001
G01 X21.4559 Y-69.2052
G01 X21.4730 Y-69.2119
G01 X21.4846 Y-69.2157
G01 X21.5527 Y-69.2357
G01 X21.5697 Y-69.2400
G01 X21.5812 Y-69.2422
G01 X21.5987 Y-69.2445
G01 X21.6103 Y-69.2453
G01 X21.6221 Y-69.2456
G01 X24.8735 Y-69.2456
G01 X24.8852 Y-69.2453
G01 X24.8969 Y-69.2445
G01 X24.9085 Y-69.2431
G01 X24.9201 Y-69.2412
G01 X24.9842 Y-69.2272
G01 X24.9960 Y-69.2240
G01 X25.0077 Y-69.2202
G01 X25.0192 Y-69.2158
G01 X25.0305 Y-69.2109
G01 X25.0469 Y-69.2024
G01 X25.0626 Y-69.1928
G01 X25.0775 Y-69.1819
G01 X25.0870 Y-69.1741
G01 X25.1407 Y-69.1276
G01 X25.1497 Y-69.1194
G01 X25.1583 Y-69.1107
G01 X25.1665 Y-69.1016
G01 X25.1742 Y-69.0922
G01 X25.1815 Y-69.0823
G01 X25.1914 Y-69.0669
G01 X25.2001 Y-69.0508
G01 X25.2076 Y-69.0340
G01 X25.2139 Y-69.0168
G01 X25.2357 Y-68.9428
G01 X25.2400 Y-68.9258
G01 X25.2422 Y-68.9143
G01 X25.2439 Y-68.9027
G01 X25.2453 Y-68.8852
G01 X25.2456 Y-68.8735
G01 X25.2456 Y-0.1265
G01 X25.2453 Y-0.1148
G01 X25.2445 Y-0.1031
G01 X25.2431 Y-0.0915
G01 X25.2412 Y-0.0799
G01 X25.2272 Y-0.0158
G01 X25.2240 Y-0.0040
G01 X25.2202 Y0.0077
G01 X25.2134 Y0.0249
G01 X25.2054 Y0.0415
G01 X25.1961 Y0.0574
G01 X25.1893 Y0.0677
G01 X25.1819 Y0.0775
G01 X25.1741 Y0.0870
G01 X25.1276 Y0.1407
G01 X25.1194 Y0.1497
G01 X25.1107 Y0.1583
G01 X25.1016 Y0.1665
G01 X25.0922 Y0.1742
G01 X25.0823 Y0.1815
G01 X25.0669 Y0.1914
G01 X25.0508 Y0.2001
G01 X25.0340 Y0.2076
G01 X25.0168 Y0.2139
G01 X24.9428 Y0.2357
G01 X24.9315 Y0.2387
G01 X24.9201 Y0.2412
G01 X24.9027 Y0.2439
G01 X24.8911 Y0.2450
G01 X24.8794 Y0.2456
G01 X21.6141 Y0.2456
G01 X21.6021 Y0.2453
G01 X21.5841 Y0.2438
G01 X21.5722 Y0.2420
G01 X21.5066 Y0.2288
G01 X21.4952 Y0.2257
G01 X21.4839 Y0.2220
G01 X21.4674 Y0.2155
G01 X21.4567 Y0.2105
G01 X21.4411 Y0.2020
G01 X21.4310 Y0.1958
G01 X21.4213 Y0.1890
G01 X21.4118 Y0.1818
G01 X21.3565 Y0.1373
G01 X21.3472 Y0.1295
G01 X21.3339 Y0.1168
G01 X21.3217 Y0.1031
G01 X21.3141 Y0.0936
G01 X21.3070 Y0.0836
G01 X21.2973 Y0.0681
G01 X21.2887 Y0.0518
G01 X21.2837 Y0.0407
G01 X21.2793 Y0.0293
G01 X21.2547 Y-0.0438
G01 X21.2496 Y-0.0614
G01 X21.2458 Y-0.0793
G01 X21.2439 Y-0.0914
G01 X21.2427 Y-0.1036
G01 X21.2421 Y-0.1158
G01 X21.2421 Y-0.1280
G01 X21.2433 Y-0.1463
G01 X21.2448 Y-0.1584
G01 X21.2469 Y-0.1705
G01 X21.2496 Y-0.1824
G01 X21.2671 Y-0.2512
G01 X21.2704 Y-0.2630
G01 X21.2764 Y-0.2803
G01 X21.2812 Y-0.2916
G01 X21.2864 Y-0.3026
G01 X21.2923 Y-0.3133
G01 X21.2986 Y-0.3238
G01 X21.3091 Y-0.3388
G01 X21.3207 Y-0.3530
G01 X21.3290 Y-0.3620
G01 X21.3377 Y-0.3706
G01 X21.3939 Y-0.4230
G01 X21.4074 Y-0.4342
G01 X21.4217 Y-0.4444
G01 X21.4317 Y-0.4506
G01 X21.4471 Y-0.4590
G01 X21.6235 Y-0.5477
G01 X21.8924 Y-0.7245
G01 X22.1389 Y-0.9313
G01 X22.3597 Y-1.1654
G01 X22.5518 Y-1.4235
G01 X22.7127 Y-1.7021
G01 X22.8402 Y-1.9976
G01 X22.9325 Y-2.3059
G01 X22.9883 Y-2.6228
G01 X23.0071 Y-2.9440
G01 X22.9883 Y-3.2652
G01 X22.9325 Y-3.5821
G01 X22.8402 Y-3.8904
G01 X22.7127 Y-4.1859
G01 X22.5518 Y-4.4645
G01 X22.3597 Y-4.7226
G01 X22.1389 Y-4.9567
G01 X21.8924 Y-5.1635
G01 X21.6235 Y-5.3403
G01 X21.3360 Y-5.4848
G01 X21.0336 Y-5.5948
G01 X20.7205 Y-5.6690
G01 X20.4009 Y-5.7064
G01 X20.0791 Y-5.7064
G01 X19.7595 Y-5.6690
G01 X19.4464 Y-5.5948
G01 X19.1440 Y-5.4848
G01 X18.8565 Y-5.3403
G01 X18.5876 Y-5.1635
G01 X18.3411 Y-4.9567
G01 X18.1203 Y-4.7226
G01 X17.9282 Y-4.4645
G01 X17.7673 Y-4.1859
G01 X17.7417 Y-4.1265
G01 X17.6398 Y-3.8904
G01 X17.5475 Y-3.5821
G01 X17.4917 Y-3.2652
G01 X17.4729 Y-2.9440
G01 X17.4917 Y-2.6228
G01 X17.5475 Y-2.3059
G01 X17.6398 Y-1.9976
G01 X17.7673 Y-1.7021
G01 X17.9282 Y-1.4235
G01 X18.1203 Y-1.1654
G01 X18.3411 Y-0.9313
G01 X18.5876 Y-0.7245
G01 X18.8580 Y-0.5469
G01 X19.0329 Y-0.4590
G01 X19.0435 Y-0.4534
G01 X19.0589 Y-0.4439
G01 X19.0736 Y-0.4334
G01 X19.1123 Y-0.4033
G01 X19.1259 Y-0.3919
G01 X19.1345 Y-0.3837
G01 X19.1466 Y-0.3708
G01 X19.1578 Y-0.3570
G01 X19.1680 Y-0.3424
G01 X19.1742 Y-0.3323
G01 X19.1798 Y-0.3219
G01 X19.1850 Y-0.3113
G01 X19.2145 Y-0.2467
G01 X19.2215 Y-0.2297
G01 X19.2272 Y-0.2123
G01 X19.2316 Y-0.1945
G01 X19.2338 Y-0.1825
G01 X19.2360 Y-0.1643
G01 X19.2367 Y-0.1460
G01 X19.2365 Y-0.1337
G01 X19.2357 Y-0.1215
G01 X19.2342 Y-0.1094
G01 X19.2232 Y-0.0331
G01 X19.2209 Y-0.0211
G01 X19.2162 Y-0.0034
G01 X19.2124 Y0.0083
G01 X19.2057 Y0.0253
G01 X19.1976 Y0.0418
G01 X19.1916 Y0.0524
G01 X19.1816 Y0.0678
G01 X19.1705 Y0.0824
G01 X19.1200 Y0.1407
G01 X19.1118 Y0.1497
G01 X19.0986 Y0.1625
G01 X19.0846 Y0.1742
G01 X19.0697 Y0.1849
G01 X19.0540 Y0.1944
G01 X19.0377 Y0.2027
G01 X19.0265 Y0.2076
G01 X19.0150 Y0.2119
G01 X19.0034 Y0.2157
G01 X18.9296 Y0.2372
G01 X18.9125 Y0.2412
G01 X18.9009 Y0.2431
G01 X18.8835 Y0.2450
G01 X18.8659 Y0.2456
G01 X0.1206 Y0.2456
G01 X0.1031 Y0.2445
G01 X0.0857 Y0.2422
G01 X0.0218 Y0.2286
G01 X0.0099 Y0.2257
G01 X-0.0077 Y0.2202
G01 X-0.0192 Y0.2158
G01 X-0.0305 Y0.2109
G01 X-0.0469 Y0.2024
G01 X-0.0574 Y0.1961
G01 X-0.0677 Y0.1893
G01 X-0.0775 Y0.1819
G01 X-0.0870 Y0.1741
G01 X-0.1407 Y0.1276
G01 X-0.1541 Y0.1151
G01 X-0.1625 Y0.1062
G01 X-0.1704 Y0.0969
G01 X-0.1779 Y0.0873
G01 X-0.1849 Y0.0772
G01 X-0.1914 Y0.0669
G01 X-0.1973 Y0.0562
G01 X-0.2027 Y0.0453
G01 X-0.2098 Y0.0283
G01 X-0.2157 Y0.0110
G01 X-0.2387 Y-0.0685
G01 X-0.2422 Y-0.0857
G01 X-0.2439 Y-0.0973
G01 X-0.2453 Y-0.1148
G01 X-0.2456 Y-0.1265
G00 Z2.0000
G00 X3.4269 Y-4.2717
G01 F60.00
G01 Z-0.1500
G01 F240.00
G01 X3.3851 Y-4.3837
G01 X3.3804 Y-4.4267
G01 X3.3804 Y-4.9676
G01 X3.6916 Y-4.9676
G01 X3.6916 Y-4.4676
G01 X3.6920 Y-4.4604
G01 X3.6930 Y-4.4532
G01 X3.6958 Y-4.4414
G01 X3.6981 Y-4.4346
G01 X3.7010 Y-4.4279
G01 X3.7043 Y-4.4215
G01 X3.7081 Y-4.4153
G01 X3.7139 Y-4.4075
G01 X3.7221 Y-4.3987
G01 X3.7314 Y-4.3909
G01 X3.7394 Y-4.3856
G01 X3.7479 Y-4.3810
G01 X3.7591 Y-4.3765
G01 X3.7708 Y-4.3734
G01 X3.7828 Y-4.3718
G01 X3.7900 Y-4.3716
G01 X4.2876 Y-4.3716
G01 X4.2876 Y-4.0604
G01 X3.7467 Y-4.0604
G01 X3.7037 Y-4.0651
G01 X3.5917 Y-4.1069
G01 X3.4974 Y-4.1774
G01 X3.4269 Y-4.2717
G00 Z2.0000
G00 X3.5578 Y-4.3432
G01 F60.00
G01 Z-0.1500
G01 F240.00
G01 X3.5299 Y-4.4180
G01 X3.5281 Y-4.4346
G01 X3.5281 Y-4.8199
G01 X3.5439 Y-4.8199
G01 X3.5439 Y-4.4700
G01 X3.5445 Y-4.4519
G01 X3.5457 Y-4.4399
G01 X3.5475 Y-4.4279
G01 X3.5513 Y-4.4102
G01 X3.5563 Y-4.3928
G01 X3.5626 Y-4.3758
G01 X3.5702 Y-4.3593
G01 X3.5758 Y-4.3487
G01 X3.5821 Y-4.3383
G01 X3.5923 Y-4.3234
G01 X3.6036 Y-4.3092
G01 X3.6160 Y-4.2960
G01 X3.6292 Y-4.2836
G01 X3.6434 Y-4.2723
G01 X3.6583 Y-4.2621
G01 X3.6740 Y-4.2529
G01 X3.6903 Y-4.2450
G01 X3.7071 Y-4.2383
G01 X3.7244 Y-4.2328
G01 X3.7361 Y-4.2299
G01 X3.7479 Y-4.2275
G01 X3.7659 Y-4.2251
G01 X3.7779 Y-4.2242
G01 X3.7900 Y-4.2239
G01 X4.1399 Y-4.2239
G01 X4.1399 Y-4.2081
G01 X3.7546 Y-4.2081
G01 X3.7380 Y-4.2099
G01 X3.6632 Y-4.2378
G01 X3.6029 Y-4.2829
G01 X3.5578 Y-4.3432
G00 Z2.0000
G00 X4.9924 Y-4.2820
G01 F60.00
G01 Z-0.1500
G01 F240.00
G01 X5.0413 Y-4.2724
G01 X5.3984 Y-4.1615
G01 X5.4831 Y-4.1254
G01 X5.5466 Y-4.0619
G01 X5.5333 Y-4.0604
G01 X4.9924 Y-4.0604
G01 X4.9924 Y-4.2820
G00 Z2.0000
G00 X5.9605 Y-5.5646
G01 F60.00
G01 Z-0.1500
G01 F240.00
G01 X5.8838 Y-5.7845
G01 X5.8838 Y-5.8781
G01 X5.9542 Y-5.8518
G01 X5.9821 Y-5.8426
G01 X6.0105 Y-5.8355
G01 X6.0298 Y-5.8319
G01 X6.0463 Y-5.8296
G01 X6.0347 Y-5.8049
G01 X6.0273 Y-5.7870
G01 X5.9927 Y-5.6903
G01 X5.9846 Y-5.6624
G01 X5.9643 Y-5.5815
G01 X5.9605 Y-5.5646
G00 Z2.0000
G00 X6.4296 Y-5.8987
G01 F60.00
G01 Z-0.1500
G01 F240.00
G01 X6.4422 Y-5.9198
G01 X6.4519 Y-5.9325
G01 X6.4573 Y-5.9382
G01 X6.4964 Y-5.9765
G01 X6.5093 Y-5.9907
G01 X6.5304 Y-6.0099
G01 X6.6004 Y-6.0785
G01 X6.7222 Y-6.1860
G01 X6.7989 Y-6.3055
G01 X6.8314 Y-6.5166
G01 X6.8315 Y-9.6306
G01 X6.8331 Y-9.6618
G01 X6.8381 Y-9.6957
G01 X6.8464 Y-9.7289
G01 X6.8562 Y-9.7567
G01 X6.8599 Y-9.7656
G01 X6.8715 Y-9.7899
G01 X6.8750 Y-9.7963
G01 X6.8901 Y-9.8213
G01 X6.9090 Y-9.8470
G01 X6.9335 Y-9.8742
G01 X18.0511 Y-20.9917
G01 X18.0730 Y-21.0113
G01 X18.0965 Y-21.0289
G01 X18.1045 Y-21.0343
G01 X18.1277 Y-21.0481
G01 X18.1585 Y-21.0630
G01 X18.2524 Y-21.1025
G01 X18.3104 Y-21.1310
G01 X18.3528 Y-21.1592
G01 X18.4012 Y-21.2015
G01 X18.4649 Y-21.2641
G01 X19.2223 Y-22.0215
G01 X19.2386 Y-22.0361
G01 X19.2582 Y-22.0506
G01 X19.2791 Y-22.0632
G01 X19.3034 Y-22.0745
G01 X19.3241 Y-22.0818
G01 X19.3477 Y-22.0877
G01 X19.3719 Y-22.0913
G01 X19.3960 Y-22.0925
G01 X20.6472 Y-22.0925
G01 X20.7352 Y-22.0933
G01 X20.7995 Y-22.0976
G01 X20.8494 Y-22.1076
G01 X20.9105 Y-22.1285
G01 X21.0048 Y-22.1669
G01 X21.0348 Y-22.1776
G01 X21.0633 Y-22.1848
G01 X21.0728 Y-22.1867
G01 X21.1018 Y-22.1909
G01 X21.1312 Y-22.1925
G01 X21.1384 Y-22.1925
G01 X21.1653 Y-22.1913
G01 X21.1750 Y-22.1903
G01 X21.2064 Y-22.1854
G01 X21.2325 Y-22.1789
G01 X21.2418 Y-22.1760
G01 X21.2694 Y-22.1660
G01 X21.3003 Y-22.1514
G01 X21.3297 Y-22.1338
G01 X21.3552 Y-22.1150
G01 X21.3825 Y-22.0905
G01 X21.8204 Y-21.6526
G01 X21.9926 Y-21.5264
G01 X22.1314 Y-21.4961
G01 X22.2942 Y-21.5062
G01 X22.3915 Y-21.5072
G01 X22.4200 Y-21.5084
G01 X22.4391 Y-21.5076
G01 X22.4939 Y-21.5082
G01 X22.5043 Y-21.5077
G01 X22.5176 Y-21.5058
G01 X22.5414 Y-21.4998
G01 X22.6050 Y-21.4902
G01 X22.6930 Y-21.4683
G01 X22.7784 Y-21.4380
G01 X22.7874 Y-21.4343
G01 X22.8671 Y-21.3965
G01 X22.9428 Y-21.3512
G01 X22.9509 Y-21.3458
G01 X23.0217 Y-21.2932
G01 X23.0872 Y-21.2340
G01 X23.0940 Y-21.2272
G01 X23.1532 Y-21.1617
G01 X23.2086 Y-21.0869
G01 X23.2565 Y-21.0071
G01 X23.2943 Y-20.9274
G01 X23.2980 Y-20.9184
G01 X23.3261 Y-20.8399
G01 X23.3289 Y-20.8307
G01 X23.3502 Y-20.7450
G01 X23.3633 Y-20.6578
G01 X23.3642 Y-20.6481
G01 X23.3683 Y-20.5648
G01 X23.3683 Y-20.5552
G01 X23.3639 Y-20.4670
G01 X23.3502 Y-20.3750
G01 X23.3289 Y-20.2893
G01 X23.3261 Y-20.2801
G01 X23.2963 Y-20.1970
G01 X23.2586 Y-20.1172
G01 X23.2541 Y-20.1087
G01 X23.2112 Y-20.0372
G01 X23.2058 Y-20.0291
G01 X23.1532 Y-19.9583
G01 X23.0907 Y-19.8893
G01 X23.0253 Y-19.8300
G01 X23.0179 Y-19.8239
G01 X22.9469 Y-19.7714
G01 X22.8671 Y-19.7235
G01 X22.7874 Y-19.6857
G01 X22.7784 Y-19.6820
G01 X22.6953 Y-19.6524
G01 X22.6050 Y-19.6298
G01 X22.5178 Y-19.6167
G01 X22.5081 Y-19.6158
G01 X22.4200 Y-19.6116
G01 X22.3270 Y-19.6161
G01 X22.2350 Y-19.6298
G01 X22.1447 Y-19.6524
G01 X22.0570 Y-19.6837
G01 X21.9772 Y-19.7214
G01 X21.9687 Y-19.7259
G01 X21.8931 Y-19.7714
G01 X21.8221 Y-19.8239
G01 X21.8147 Y-19.8300
G01 X21.7528 Y-19.8860
G01 X21.7460 Y-19.8928
G01 X21.6868 Y-19.9583
G01 X21.6328 Y-20.0311
G01 X21.6288 Y-20.0372
G01 X21.5835 Y-20.1129
G01 X21.5437 Y-20.1970
G01 X21.5124 Y-20.2847
G01 X21.4898 Y-20.3750
G01 X21.4802 Y-20.4386
G01 X21.4737 Y-20.4650
G01 X21.4723 Y-20.4757
G01 X21.4718 Y-20.4835
G01 X21.4724 Y-20.5409
G01 X21.4716 Y-20.5600
G01 X21.4728 Y-20.5885
G01 X21.4738 Y-20.6857
G01 X21.4839 Y-20.8486
G01 X21.4536 Y-20.9874
G01 X21.3274 Y-21.1597
G01 X20.9392 Y-21.5478
G01 X20.9104 Y-21.5595
G01 X20.8493 Y-21.5804
G01 X20.7995 Y-21.5904
G01 X20.7352 Y-21.5947
G01 X20.6459 Y-21.5955
G01 X19.4992 Y-21.5955
G01 X18.8155 Y-20.9118
G01 X18.7538 Y-20.8490
G01 X18.7114 Y-20.8005
G01 X18.6832 Y-20.7582
G01 X18.6548 Y-20.7002
G01 X18.6152 Y-20.6063
G01 X18.6004 Y-20.5754
G01 X18.5839 Y-20.5482
G01 X18.5665 Y-20.5246
G01 X18.5604 Y-20.5171
G01 X18.5406 Y-20.4954
G01 X7.5286 Y-9.4834
G01 X7.5286 Y-6.5166
G01 X7.5611 Y-6.3055
G01 X7.6378 Y-6.1860
G01 X7.7600 Y-6.0781
G01 X7.8295 Y-6.0099
G01 X7.8507 Y-5.9907
G01 X7.8636 Y-5.9765
G01 X7.9063 Y-5.9344
G01 X7.9114 Y-5.9285
G01 X7.9178 Y-5.9198
G01 X7.9304 Y-5.8987
G01 X7.9686 Y-5.8469
G01 X8.0165 Y-5.7671
G01 X8.0563 Y-5.6830
G01 X8.0876 Y-5.5953
G01 X8.1102 Y-5.5050
G01 X8.1233 Y-5.4178
G01 X8.1241 Y-5.4106
G01 X8.1284 Y-5.3200
G01 X8.1239 Y-5.2270
G01 X8.1102 Y-5.1350
G01 X8.0876 Y-5.0447
G01 X8.0563 Y-4.9570
G01 X8.0165 Y-4.8729
G01 X7.9686 Y-4.7931
G01 X7.9132 Y-4.7183
G01 X7.8507 Y-4.6493
G01 X7.7817 Y-4.5868
G01 X7.7069 Y-4.5314
G01 X7.6271 Y-4.4835
G01 X7.5430 Y-4.4437
G01 X7.4553 Y-4.4124
G01 X7.3650 Y-4.3898
G01 X7.2730 Y-4.3761
G01 X7.1800 Y-4.3716
G01 X7.0870 Y-4.3761
G01 X6.9950 Y-4.3898
G01 X6.9047 Y-4.4124
G01 X6.8170 Y-4.4437
G01 X6.7329 Y-4.4835
G01 X6.6531 Y-4.5314
G01 X6.5802 Y-4.5853
G01 X6.5747 Y-4.5900
G01 X6.5093 Y-4.6493
G01 X6.4468 Y-4.7183
G01 X6.3914 Y-4.7931
G01 X6.3435 Y-4.8729
G01 X6.3037 Y-4.9570
G01 X6.2724 Y-5.0447
G01 X6.2498 Y-5.1350
G01 X6.2364 Y-5.2246
G01 X6.2358 Y-5.2319
G01 X6.2316 Y-5.3200
G01 X6.2361 Y-5.4130
G01 X6.2498 Y-5.5050
G01 X6.2717 Y-5.5930
G01 X6.2739 Y-5.5999
G01 X6.3037 Y-5.6830
G01 X6.3424 Y-5.7650
G01 X6.3459 Y-5.7713
G01 X6.3914 Y-5.8469
G01 X6.4296 Y-5.8987
G00 Z2.0000
G00 X8.8662 Y-6.0115
G01 F60.00
G01 Z-0.1500
G01 F240.00
G01 X8.8662 Y-6.0437
G01 X8.8848 Y-6.0644
G01 X9.0186 Y-6.1957
G01 X9.0317 Y-6.2079
G01 X9.0753 Y-6.2464
G01 X9.0837 Y-6.2546
G01 X9.0955 Y-6.2676
G01 X9.1029 Y-6.2767
G01 X9.1099 Y-6.2861
G01 X9.1163 Y-6.2959
G01 X9.1542 Y-6.3559
G01 X9.1604 Y-6.3664
G01 X9.1688 Y-6.3827
G01 X9.1737 Y-6.3939
G01 X9.1781 Y-6.4053
G01 X9.1818 Y-6.4169
G01 X9.1850 Y-6.4287
G01 X9.1908 Y-6.4549
G01 X9.2033 Y-6.5348
G01 X9.2049 Y-6.5472
G01 X9.2073 Y-6.5789
G01 X9.2076 Y-6.5914
G01 X9.2076 Y-9.7854
G01 X9.2238 Y-9.8016
G01 X9.2238 Y-6.5280
G01 X9.1977 Y-6.3589
G01 X9.1490 Y-6.2831
G01 X9.0446 Y-6.1909
G01 X9.0346 Y-6.1817
G01 X8.9691 Y-6.1174
G01 X8.9449 Y-6.0951
G01 X8.9299 Y-6.0789
G01 X8.8893 Y-6.0390
G01 X8.8763 Y-6.0245
G01 X8.8662 Y-6.0115
G00 Z2.0000
G00 X8.9696 Y-5.8987
G01 F60.00
G01 Z-0.1500
G01 F240.00
G01 X8.9822 Y-5.9198
G01 X8.9919 Y-5.9325
G01 X8.9973 Y-5.9382
G01 X9.0364 Y-5.9765
G01 X9.0493 Y-5.9907
G01 X9.0704 Y-6.0099
G01 X9.1404 Y-6.0785
G01 X9.2622 Y-6.1860
G01 X9.3389 Y-6.3055
G01 X9.3714 Y-6.5166
G01 X9.3715 Y-9.8512
G01 X9.3731 Y-9.8830
G01 X9.3773 Y-9.9120
G01 X9.3792 Y-9.9215
G01 X9.3864 Y-9.9500
G01 X9.3980 Y-9.9822
G01 X9.4104 Y-10.0088
G01 X9.4150 Y-10.0173
G01 X9.4289 Y-10.0404
G01 X9.4330 Y-10.0464
G01 X9.4505 Y-10.0699
G01 X9.4735 Y-10.0953
G01 X18.9287 Y-19.5505
G01 X18.9504 Y-19.5703
G01 X18.9579 Y-19.5764
G01 X18.9796 Y-19.5925
G01 X19.0067 Y-19.6090
G01 X19.0130 Y-19.6125
G01 X19.0374 Y-19.6241
G01 X19.0463 Y-19.6278
G01 X19.0740 Y-19.6376
G01 X19.1072 Y-19.6459
G01 X19.1410 Y-19.6509
G01 X19.1752 Y-19.6526
G01 X19.2046 Y-19.6513
G01 X19.2142 Y-19.6503
G01 X19.2432 Y-19.6459
G01 X19.2764 Y-19.6376
G01 X19.3064 Y-19.6269
G01 X19.4008 Y-19.5885
G01 X19.4619 Y-19.5676
G01 X19.5117 Y-19.5576
G01 X19.5760 Y-19.5533
G01 X19.6652 Y-19.5525
G01 X20.6472 Y-19.5525
G01 X20.7352 Y-19.5533
G01 X20.7995 Y-19.5576
G01 X20.8494 Y-19.5676
G01 X20.9105 Y-19.5885
G01 X21.0071 Y-19.6278
G01 X21.0348 Y-19.6376
G01 X21.0680 Y-19.6459
G01 X21.1018 Y-19.6509
G01 X21.1360 Y-19.6526
G01 X21.1702 Y-19.6509
G01 X21.2064 Y-19.6454
G01 X21.2325 Y-19.6389
G01 X21.2418 Y-19.6360
G01 X21.2694 Y-19.6260
G01 X21.2960 Y-19.6136
G01 X21.3045 Y-19.6090
G01 X21.3297 Y-19.5938
G01 X21.3571 Y-19.5735
G01 X21.3825 Y-19.5505
G01 X21.8204 Y-19.1126
G01 X21.9926 Y-18.9864
G01 X22.1314 Y-18.9561
G01 X22.2942 Y-18.9662
G01 X22.3915 Y-18.9672
G01 X22.4200 Y-18.9684
G01 X22.4391 Y-18.9676
G01 X22.4939 Y-18.9682
G01 X22.5043 Y-18.9677
G01 X22.5176 Y-18.9658
G01 X22.5414 Y-18.9598
G01 X22.6050 Y-18.9502
G01 X22.6953 Y-18.9276
G01 X22.7830 Y-18.8963
G01 X22.8628 Y-18.8586
G01 X22.8713 Y-18.8541
G01 X22.9469 Y-18.8086
G01 X23.0179 Y-18.7561
G01 X23.0253 Y-18.7500
G01 X23.0907 Y-18.6907
G01 X23.1500 Y-18.6253
G01 X23.1561 Y-18.6179
G01 X23.2058 Y-18.5509
G01 X23.2112 Y-18.5428
G01 X23.2565 Y-18.4671
G01 X23.2963 Y-18.3830
G01 X23.3261 Y-18.2999
G01 X23.3289 Y-18.2907
G01 X23.3502 Y-18.2050
G01 X23.3639 Y-18.1130
G01 X23.3683 Y-18.0248
G01 X23.3683 Y-18.0152
G01 X23.3639 Y-17.9270
G01 X23.3502 Y-17.8350
G01 X23.3276 Y-17.7447
G01 X23.2980 Y-17.6616
G01 X23.2943 Y-17.6526
G01 X23.2565 Y-17.5729
G01 X23.2086 Y-17.4931
G01 X23.1561 Y-17.4221
G01 X23.1500 Y-17.4147
G01 X23.0907 Y-17.3493
G01 X23.0253 Y-17.2900
G01 X23.0179 Y-17.2839
G01 X22.9469 Y-17.2314
G01 X22.8671 Y-17.1835
G01 X22.7874 Y-17.1457
G01 X22.7784 Y-17.1420
G01 X22.6953 Y-17.1124
G01 X22.6050 Y-17.0898
G01 X22.5178 Y-17.0767
G01 X22.5081 Y-17.0758
G01 X22.4200 Y-17.0716
G01 X22.3270 Y-17.0761
G01 X22.2350 Y-17.0898
G01 X22.1447 Y-17.1124
G01 X22.0570 Y-17.1437
G01 X21.9772 Y-17.1814
G01 X21.9687 Y-17.1859
G01 X21.8931 Y-17.2314
G01 X21.8221 Y-17.2839
G01 X21.8147 Y-17.2900
G01 X21.7528 Y-17.3460
G01 X21.7460 Y-17.3528
G01 X21.6868 Y-17.4183
G01 X21.6328 Y-17.4911
G01 X21.6288 Y-17.4972
G01 X21.5835 Y-17.5729
G01 X21.5437 Y-17.6570
G01 X21.5124 Y-17.7447
G01 X21.4898 Y-17.8350
G01 X21.4802 Y-17.8986
G01 X21.4737 Y-17.9250
G01 X21.4723 Y-17.9357
G01 X21.4718 Y-17.9435
G01 X21.4724 Y-18.0009
G01 X21.4716 Y-18.0200
G01 X21.4728 Y-18.0485
G01 X21.4738 Y-18.1457
G01 X21.4839 Y-18.3086
G01 X21.4536 Y-18.4474
G01 X21.3274 Y-18.6197
G01 X20.9392 Y-19.0078
G01 X20.9104 Y-19.0195
G01 X20.8493 Y-19.0404
G01 X20.7995 Y-19.0504
G01 X20.7352 Y-19.0547
G01 X20.6459 Y-19.0555
G01 X19.6640 Y-19.0555
G01 X19.5760 Y-19.0547
G01 X19.5117 Y-19.0504
G01 X19.4619 Y-19.0404
G01 X19.4007 Y-19.0195
G01 X19.3720 Y-19.0078
G01 X10.0686 Y-9.7044
G01 X10.0686 Y-6.5166
G01 X10.1011 Y-6.3055
G01 X10.1778 Y-6.1860
G01 X10.3000 Y-6.0781
G01 X10.3695 Y-6.0099
G01 X10.3907 Y-5.9907
G01 X10.4036 Y-5.9765
G01 X10.4463 Y-5.9344
G01 X10.4514 Y-5.9285
G01 X10.4578 Y-5.9198
G01 X10.4704 Y-5.8987
G01 X10.5086 Y-5.8469
G01 X10.5565 Y-5.7671
G01 X10.5963 Y-5.6830
G01 X10.6276 Y-5.5953
G01 X10.6502 Y-5.5050
G01 X10.6633 Y-5.4178
G01 X10.6641 Y-5.4106
G01 X10.6684 Y-5.3200
G01 X10.6639 Y-5.2270
G01 X10.6502 Y-5.1350
G01 X10.6276 Y-5.0447
G01 X10.5963 Y-4.9570
G01 X10.5565 Y-4.8729
G01 X10.5086 Y-4.7931
G01 X10.4547 Y-4.7202
G01 X10.4500 Y-4.7147
G01 X10.3907 Y-4.6493
G01 X10.3217 Y-4.5868
G01 X10.2469 Y-4.5314
G01 X10.1671 Y-4.4835
G01 X10.0830 Y-4.4437
G01 X9.9953 Y-4.4124
G01 X9.9050 Y-4.3898
G01 X9.8130 Y-4.3761
G01 X9.7200 Y-4.3716
G01 X9.6270 Y-4.3761
G01 X9.5350 Y-4.3898
G01 X9.4447 Y-4.4124
G01 X9.3570 Y-4.4437
G01 X9.2729 Y-4.4835
G01 X9.1931 Y-4.5314
G01 X9.1202 Y-4.5853
G01 X9.1147 Y-4.5900
G01 X9.0493 Y-4.6493
G01 X8.9868 Y-4.7183
G01 X8.9314 Y-4.7931
G01 X8.8835 Y-4.8729
G01 X8.8437 Y-4.9570
G01 X8.8124 Y-5.0447
G01 X8.7898 Y-5.1350
G01 X8.7764 Y-5.2246
G01 X8.7758 Y-5.2319
G01 X8.7716 Y-5.3200
G01 X8.7761 Y-5.4130
G01 X8.7898 Y-5.5050
G01 X8.8117 Y-5.5930
G01 X8.8139 Y-5.5999
G01 X8.8437 Y-5.6830
G01 X8.8824 Y-5.7650
G01 X8.8859 Y-5.7713
G01 X8.9314 Y-5.8469
G01 X8.9696 Y-5.8987
G00 Z2.0000
G00 X10.9900 Y-5.8869
G01 F60.00
G01 Z-0.1500
G01 F240.00
G01 X10.9591 Y-5.9522
G01 X10.9472 Y-5.9759
G01 X10.9341 Y-5.9991
G01 X10.8912 Y-6.0706
G01 X10.8842 Y-6.0819
G01 X10.8695 Y-6.1040
G01 X10.8399 Y-6.1442
G01 X10.8272 Y-6.1643
G01 X10.8192 Y-6.1760
G01 X10.8004 Y-6.2013
G01 X10.7915 Y-6.2124
G01 X10.7728 Y-6.2340
G01 X10.7530 Y-6.2544
G01 X10.7231 Y-6.2837
G01 X10.7039 Y-6.3039
G01 X10.6944 Y-6.3132
G01 X10.6735 Y-6.3323
G01 X10.6016 Y-6.4026
G01 X10.5238 Y-6.4715
G01 X10.5130 Y-6.5417
G01 X10.5117 Y-9.5210
G01 X11.4684 Y-10.4777
G01 X11.4684 Y-6.5507
G01 X11.4562 Y-6.4715
G01 X11.3786 Y-6.4028
G01 X11.3064 Y-6.3323
G01 X11.2856 Y-6.3132
G01 X11.2761 Y-6.3039
G01 X11.2569 Y-6.2837
G01 X11.2270 Y-6.2544
G01 X11.2072 Y-6.2340
G01 X11.1977 Y-6.2233
G01 X11.1796 Y-6.2013
G01 X11.1608 Y-6.1760
G01 X11.1528 Y-6.1643
G01 X11.1401 Y-6.1442
G01 X11.1105 Y-6.1040
G01 X11.0958 Y-6.0819
G01 X11.0888 Y-6.0706
G01 X11.0459 Y-5.9991
G01 X11.0328 Y-5.9759
G01 X11.0209 Y-5.9522
G01 X10.9900 Y-5.8869
G00 Z2.0000
G00 X11.5096 Y-5.8987
G01 F60.00
G01 Z-0.1500
G01 F240.00
G01 X11.5222 Y-5.9198
G01 X11.5319 Y-5.9325
G01 X11.5373 Y-5.9382
G01 X11.5764 Y-5.9765
G01 X11.5893 Y-5.9907
G01 X11.6104 Y-6.0099
G01 X11.6804 Y-6.0785
G01 X11.8022 Y-6.1860
G01 X11.8789 Y-6.3055
G01 X11.9114 Y-6.5166
G01 X11.9114 Y-11.3240
G01 X11.9127 Y-11.3533
G01 X11.9137 Y-11.3630
G01 X11.9181 Y-11.3920
G01 X11.9264 Y-11.4252
G01 X11.9380 Y-11.4574
G01 X11.9504 Y-11.4840
G01 X11.9550 Y-11.4925
G01 X11.9715 Y-11.5197
G01 X11.9905 Y-11.5451
G01 X12.0135 Y-11.5705
G01 X18.7095 Y-18.2665
G01 X18.7330 Y-18.2879
G01 X18.7623 Y-18.3098
G01 X18.7896 Y-18.3263
G01 X18.7980 Y-18.3305
G01 X18.8189 Y-18.3482
G01 X18.9274 Y-18.4347
G01 X19.0478 Y-18.5368
G01 X19.2111 Y-18.6923
G01 X19.2765 Y-18.7516
G01 X19.3491 Y-18.8058
G01 X19.3572 Y-18.8112
G01 X19.4287 Y-18.8541
G01 X19.4372 Y-18.8586
G01 X19.5170 Y-18.8963
G01 X19.6047 Y-18.9276
G01 X19.6950 Y-18.9502
G01 X19.7822 Y-18.9633
G01 X19.7919 Y-18.9642
G01 X19.8800 Y-18.9684
G01 X19.9681 Y-18.9642
G01 X19.9778 Y-18.9633
G01 X20.0603 Y-18.9511
G01 X20.0697 Y-18.9492
G01 X20.1553 Y-18.9276
G01 X20.2430 Y-18.8963
G01 X20.3271 Y-18.8565
G01 X20.4028 Y-18.8112
G01 X20.4089 Y-18.8072
G01 X20.4817 Y-18.7532
G01 X20.5472 Y-18.6940
G01 X20.5540 Y-18.6872
G01 X20.6100 Y-18.6253
G01 X20.6161 Y-18.6179
G01 X20.6686 Y-18.5469
G01 X20.7141 Y-18.4713
G01 X20.7186 Y-18.4628
G01 X20.7563 Y-18.3830
G01 X20.7876 Y-18.2953
G01 X20.8102 Y-18.2050
G01 X20.8239 Y-18.1130
G01 X20.8284 Y-18.0200
G01 X20.8239 Y-17.9270
G01 X20.8102 Y-17.8350
G01 X20.7889 Y-17.7493
G01 X20.7861 Y-17.7401
G01 X20.7580 Y-17.6616
G01 X20.7543 Y-17.6526
G01 X20.7165 Y-17.5729
G01 X20.6712 Y-17.4972
G01 X20.6658 Y-17.4891
G01 X20.6132 Y-17.4183
G01 X20.5507 Y-17.3493
G01 X20.4817 Y-17.2868
G01 X20.4109 Y-17.2342
G01 X20.4028 Y-17.2288
G01 X20.3271 Y-17.1835
G01 X20.2474 Y-17.1457
G01 X20.2384 Y-17.1420
G01 X20.1599 Y-17.1139
G01 X20.1507 Y-17.1111
G01 X20.0650 Y-17.0898
G01 X19.9730 Y-17.0761
G01 X19.8800 Y-17.0716
G01 X19.7919 Y-17.0758
G01 X19.7822 Y-17.0767
G01 X19.6997 Y-17.0889
G01 X19.6903 Y-17.0908
G01 X19.6047 Y-17.1124
G01 X19.5216 Y-17.1420
G01 X19.5126 Y-17.1457
G01 X19.4329 Y-17.1835
G01 X19.3551 Y-17.2301
G01 X19.3491 Y-17.2342
G01 X19.2783 Y-17.2868
G01 X19.2128 Y-17.3460
G01 X19.2060 Y-17.3528
G01 X19.1500 Y-17.4147
G01 X19.1439 Y-17.4221
G01 X19.0914 Y-17.4931
G01 X19.0512 Y-17.5598
G01 X19.0271 Y-17.5893
G01 X19.0058 Y-17.5769
G01 X12.6086 Y-11.1796
G01 X12.6086 Y-6.5166
G01 X12.6411 Y-6.3055
G01 X12.7178 Y-6.1860
G01 X12.8400 Y-6.0781
G01 X12.9095 Y-6.0099
G01 X12.9307 Y-5.9907
G01 X12.9436 Y-5.9765
G01 X12.9846 Y-5.9363
G01 X12.9897 Y-5.9305
G01 X12.9963 Y-5.9219
G01 X13.0104 Y-5.8987
G01 X13.0472 Y-5.8489
G01 X13.0512 Y-5.8428
G01 X13.0965 Y-5.7671
G01 X13.1363 Y-5.6830
G01 X13.1676 Y-5.5953
G01 X13.1897 Y-5.5074
G01 X13.1911 Y-5.5003
G01 X13.2039 Y-5.4130
G01 X13.2084 Y-5.3200
G01 X13.2039 Y-5.2270
G01 X13.1911 Y-5.1397
G01 X13.1892 Y-5.1303
G01 X13.1676 Y-5.0447
G01 X13.1380 Y-4.9616
G01 X13.1343 Y-4.9526
G01 X13.0986 Y-4.8772
G01 X13.0941 Y-4.8687
G01 X13.0486 Y-4.7931
G01 X12.9947 Y-4.7202
G01 X12.9900 Y-4.7147
G01 X12.9307 Y-4.6493
G01 X12.8617 Y-4.5868
G01 X12.7869 Y-4.5314
G01 X12.7071 Y-4.4835
G01 X12.6230 Y-4.4437
G01 X12.5353 Y-4.4124
G01 X12.4450 Y-4.3898
G01 X12.3530 Y-4.3761
G01 X12.2600 Y-4.3716
G01 X12.1670 Y-4.3761
G01 X12.0750 Y-4.3898
G01 X11.9847 Y-4.4124
G01 X11.8970 Y-4.4437
G01 X11.8129 Y-4.4835
G01 X11.7331 Y-4.5314
G01 X11.6602 Y-4.5853
G01 X11.6547 Y-4.5900
G01 X11.5893 Y-4.6493
G01 X11.5268 Y-4.7183
G01 X11.4714 Y-4.7931
G01 X11.4235 Y-4.8729
G01 X11.3837 Y-4.9570
G01 X11.3524 Y-5.0447
G01 X11.3298 Y-5.1350
G01 X11.3164 Y-5.2246
G01 X11.3158 Y-5.2319
G01 X11.3116 Y-5.3200
G01 X11.3161 Y-5.4130
G01 X11.3298 Y-5.5050
G01 X11.3517 Y-5.5930
G01 X11.3539 Y-5.5999
G01 X11.3837 Y-5.6830
G01 X11.4224 Y-5.7650
G01 X11.4259 Y-5.7713
G01 X11.4714 Y-5.8469
G01 X11.5096 Y-5.8987
G00 Z2.0000
G00 X11.0435 Y-5.0619
G01 F60.00
G01 Z-0.1500
G01 F240.00
G01 X11.0145 Y-5.0657
G01 X10.9853 Y-5.0679
G01 X10.9657 Y-5.0681
G01 X10.9376 Y-5.0667
G01 X10.9399 Y-5.0773
G01 X10.9432 Y-5.0964
G01 X10.9554 Y-5.1789
G01 X10.9578 Y-5.1981
G01 X10.9592 Y-5.2174
G01 X10.9633 Y-5.3007
G01 X10.9638 Y-5.3200
G01 X10.9633 Y-5.3393
G01 X10.9592 Y-5.4226
G01 X10.9578 Y-5.4419
G01 X10.9554 Y-5.4611
G01 X10.9432 Y-5.5436
G01 X10.9399 Y-5.5627
G01 X10.9357 Y-5.5815
G01 X10.9154 Y-5.6624
G01 X10.9073 Y-5.6903
G01 X10.8761 Y-5.7779
G01 X10.8691 Y-5.7960
G01 X10.8613 Y-5.8137
G01 X10.8256 Y-5.8891
G01 X10.8169 Y-5.9063
G01 X10.8074 Y-5.9231
G01 X10.7645 Y-5.9947
G01 X10.7487 Y-6.0190
G01 X10.7169 Y-6.0620
G01 X10.7097 Y-6.0741
G01 X10.6983 Y-6.0913
G01 X10.6860 Y-6.1080
G01 X10.6776 Y-6.1185
G01 X10.6640 Y-6.1341
G01 X10.6569 Y-6.1417
G01 X10.6166 Y-6.1813
G01 X10.5995 Y-6.1995
G01 X10.5722 Y-6.2249
G01 X10.5088 Y-6.2871
G01 X10.4931 Y-6.3017
G01 X10.4041 Y-6.3802
G01 X10.3835 Y-6.4123
G01 X10.3653 Y-6.5303
G01 X10.3640 Y-9.5821
G01 X11.6161 Y-10.8342
G01 X11.6161 Y-6.5393
G01 X11.5965 Y-6.4123
G01 X11.5759 Y-6.3802
G01 X11.4869 Y-6.3016
G01 X11.4712 Y-6.2871
G01 X11.4078 Y-6.2249
G01 X11.3805 Y-6.1995
G01 X11.3634 Y-6.1813
G01 X11.3231 Y-6.1417
G01 X11.3091 Y-6.1264
G01 X11.2959 Y-6.1104
G01 X11.2878 Y-6.0997
G01 X11.2759 Y-6.0828
G01 X11.2631 Y-6.0620
G01 X11.2369 Y-6.0268
G01 X11.2258 Y-6.0110
G01 X11.2155 Y-5.9947
G01 X11.1726 Y-5.9231
G01 X11.1631 Y-5.9063
G01 X11.1544 Y-5.8891
G01 X11.1187 Y-5.8137
G01 X11.1073 Y-5.7870
G01 X11.0758 Y-5.6994
G01 X11.0698 Y-5.6811
G01 X11.0646 Y-5.6624
G01 X11.0443 Y-5.5815
G01 X11.0401 Y-5.5627
G01 X11.0368 Y-5.5436
G01 X11.0246 Y-5.4611
G01 X11.0222 Y-5.4419
G01 X11.0208 Y-5.4226
G01 X11.0167 Y-5.3393
G01 X11.0162 Y-5.3200
G01 X11.0167 Y-5.3007
G01 X11.0208 Y-5.2174
G01 X11.0222 Y-5.1981
G01 X11.0246 Y-5.1789
G01 X11.0383 Y-5.0868
G01 X11.0435 Y-5.0619
G00 Z2.0000
G00 X13.1328 Y-4.6584
G01 F60.00
G01 Z-0.1500
G01 F240.00
G01 X13.1328 Y-4.6257
G01 X13.0160 Y-4.4988
G01 X12.8705 Y-4.3856
G01 X12.7084 Y-4.2978
G01 X12.5340 Y-4.2380
G01 X12.3522 Y-4.2076
G01 X12.1678 Y-4.2076
G01 X11.9860 Y-4.2380
G01 X11.8116 Y-4.2978
G01 X11.6495 Y-4.3856
G01 X11.5040 Y-4.4988
G01 X11.3792 Y-4.6344
G01 X11.2983 Y-4.7581
G01 X11.2914 Y-4.7676
G01 X11.2803 Y-4.7812
G01 X11.2723 Y-4.7898
G01 X11.2597 Y-4.8020
G01 X11.2013 Y-4.8519
G01 X11.1918 Y-4.8596
G01 X11.1819 Y-4.8669
G01 X11.1717 Y-4.8736
G01 X11.1558 Y-4.8827
G01 X11.1448 Y-4.8881
G01 X11.1336 Y-4.8930
G01 X11.1164 Y-4.8992
G01 X11.0987 Y-4.9041
G01 X11.0807 Y-4.9077
G01 X11.0043 Y-4.9182
G01 X10.9922 Y-4.9195
G01 X10.9800 Y-4.9203
G01 X10.9616 Y-4.9202
G01 X10.9494 Y-4.9195
G01 X10.9373 Y-4.9181
G01 X10.9252 Y-4.9161
G01 X10.9074 Y-4.9120
G01 X10.8956 Y-4.9086
G01 X10.8841 Y-4.9045
G01 X10.8728 Y-4.8999
G01 X10.7974 Y-4.8648
G01 X10.7866 Y-4.8591
G01 X10.7761 Y-4.8529
G01 X10.7659 Y-4.8462
G01 X10.7561 Y-4.8390
G01 X10.7421 Y-4.8272
G01 X10.7290 Y-4.8145
G01 X10.6985 Y-4.7798
G01 X10.6880 Y-4.7669
G01 X10.6785 Y-4.7533
G01 X10.6008 Y-4.6344
G01 X10.4760 Y-4.4988
G01 X10.3305 Y-4.3856
G01 X10.1684 Y-4.2978
G01 X9.9940 Y-4.2380
G01 X9.8122 Y-4.2076
G01 X9.6278 Y-4.2076
G01 X9.4460 Y-4.2380
G01 X9.2716 Y-4.2978
G01 X9.1095 Y-4.3856
G01 X8.9640 Y-4.4988
G01 X8.8392 Y-4.6344
G01 X8.8331 Y-4.6438
G01 X8.8383 Y-4.6562
G01 X8.8418 Y-4.6658
G01 X8.8653 Y-4.6341
G01 X8.8766 Y-4.6200
G01 X8.9366 Y-4.5537
G01 X8.9492 Y-4.5407
G01 X9.0155 Y-4.4806
G01 X9.0246 Y-4.4727
G01 X9.0341 Y-4.4653
G01 X9.1060 Y-4.4120
G01 X9.1212 Y-4.4021
G01 X9.1928 Y-4.3593
G01 X9.2033 Y-4.3533
G01 X9.2141 Y-4.3479
G01 X9.2895 Y-4.3122
G01 X9.3005 Y-4.3073
G01 X9.3118 Y-4.3030
G01 X9.3903 Y-4.2749
G01 X9.4018 Y-4.2711
G01 X9.4135 Y-4.2679
G01 X9.4944 Y-4.2476
G01 X9.5062 Y-4.2449
G01 X9.5181 Y-4.2429
G01 X9.6006 Y-4.2306
G01 X9.6126 Y-4.2292
G01 X9.6246 Y-4.2283
G01 X9.7079 Y-4.2242
G01 X9.7200 Y-4.2239
G01 X9.7321 Y-4.2242
G01 X9.8154 Y-4.2283
G01 X9.8334 Y-4.2298
G01 X9.9219 Y-4.2429
G01 X9.9338 Y-4.2449
G01 X9.9456 Y-4.2476
G01 X10.0265 Y-4.2679
G01 X10.0382 Y-4.2711
G01 X10.0497 Y-4.2749
G01 X10.1282 Y-4.3030
G01 X10.1395 Y-4.3073
G01 X10.1505 Y-4.3122
G01 X10.2259 Y-4.3479
G01 X10.2367 Y-4.3533
G01 X10.2472 Y-4.3593
G01 X10.3188 Y-4.4021
G01 X10.3290 Y-4.4086
G01 X10.3389 Y-4.4156
G01 X10.4059 Y-4.4653
G01 X10.4154 Y-4.4727
G01 X10.4245 Y-4.4806
G01 X10.4863 Y-4.5366
G01 X10.4951 Y-4.5449
G01 X10.5034 Y-4.5537
G01 X10.5594 Y-4.6155
G01 X10.5673 Y-4.6246
G01 X10.5747 Y-4.6341
G01 X10.6244 Y-4.7011
G01 X10.6314 Y-4.7110
G01 X10.6379 Y-4.7212
G01 X10.6807 Y-4.7928
G01 X10.6867 Y-4.8033
G01 X10.6921 Y-4.8141
G01 X10.7303 Y-4.8950
G01 X10.7370 Y-4.9118
G01 X10.7651 Y-4.9903
G01 X10.7689 Y-5.0018
G01 X10.7721 Y-5.0135
G01 X10.7924 Y-5.0944
G01 X10.7951 Y-5.1062
G01 X10.7971 Y-5.1181
G01 X10.8094 Y-5.2006
G01 X10.8108 Y-5.2126
G01 X10.8117 Y-5.2246
G01 X10.8158 Y-5.3079
G01 X10.8161 Y-5.3200
G01 X10.8158 Y-5.3321
G01 X10.8117 Y-5.4154
G01 X10.8108 Y-5.4274
G01 X10.8094 Y-5.4394
G01 X10.7971 Y-5.5219
G01 X10.7951 Y-5.5338
G01 X10.7924 Y-5.5456
G01 X10.7721 Y-5.6265
G01 X10.7689 Y-5.6382
G01 X10.7651 Y-5.6497
G01 X10.7370 Y-5.7282
G01 X10.7327 Y-5.7395
G01 X10.7278 Y-5.7505
G01 X10.6921 Y-5.8259
G01 X10.6867 Y-5.8367
G01 X10.6807 Y-5.8472
G01 X10.6347 Y-5.9239
G01 X10.6244 Y-5.9389
G01 X10.5936 Y-5.9804
G01 X10.5844 Y-5.9958
G01 X10.5735 Y-6.0119
G01 X10.5637 Y-6.0245
G01 X10.5507 Y-6.0390
G01 X10.5101 Y-6.0789
G01 X10.4951 Y-6.0951
G01 X10.4709 Y-6.1174
G01 X10.4054 Y-6.1817
G01 X10.3954 Y-6.1909
G01 X10.2910 Y-6.2831
G01 X10.2423 Y-6.3589
G01 X10.2162 Y-6.5280
G01 X10.2162 Y-9.6432
G01 X11.7638 Y-11.1907
G01 X11.7638 Y-6.5280
G01 X11.7377 Y-6.3589
G01 X11.6890 Y-6.2831
G01 X11.5795 Y-6.1863
G01 X11.5091 Y-6.1174
G01 X11.4849 Y-6.0951
G01 X11.4699 Y-6.0789
G01 X11.4293 Y-6.0390
G01 X11.4163 Y-6.0245
G01 X11.4065 Y-6.0119
G01 X11.3991 Y-6.0013
G01 X11.3863 Y-5.9804
G01 X11.3486 Y-5.9290
G01 X11.3421 Y-5.9188
G01 X11.2993 Y-5.8472
G01 X11.2933 Y-5.8367
G01 X11.2879 Y-5.8259
G01 X11.2522 Y-5.7505
G01 X11.2473 Y-5.7395
G01 X11.2430 Y-5.7282
G01 X11.2149 Y-5.6497
G01 X11.2111 Y-5.6382
G01 X11.2079 Y-5.6265
G01 X11.1876 Y-5.5456
G01 X11.1849 Y-5.5338
G01 X11.1829 Y-5.5219
G01 X11.1706 Y-5.4394
G01 X11.1692 Y-5.4274
G01 X11.1683 Y-5.4154
G01 X11.1642 Y-5.3321
G01 X11.1639 Y-5.3200
G01 X11.1642 Y-5.3079
G01 X11.1683 Y-5.2246
G01 X11.1692 Y-5.2126
G01 X11.1706 Y-5.2006
G01 X11.1829 Y-5.1181
G01 X11.1849 Y-5.1062
G01 X11.1876 Y-5.0944
G01 X11.2079 Y-5.0135
G01 X11.2111 Y-5.0018
G01 X11.2149 Y-4.9903
G01 X11.2430 Y-4.9118
G01 X11.2473 Y-4.9005
G01 X11.2522 Y-4.8895
G01 X11.2879 Y-4.8141
G01 X11.2933 Y-4.8033
G01 X11.2993 Y-4.7928
G01 X11.3421 Y-4.7212
G01 X11.3486 Y-4.7110
G01 X11.3556 Y-4.7011
G01 X11.4053 Y-4.6341
G01 X11.4127 Y-4.6246
G01 X11.4206 Y-4.6155
G01 X11.4766 Y-4.5537
G01 X11.4849 Y-4.5449
G01 X11.4937 Y-4.5366
G01 X11.5555 Y-4.4806
G01 X11.5646 Y-4.4727
G01 X11.5741 Y-4.4653
G01 X11.6411 Y-4.4156
G01 X11.6510 Y-4.4086
G01 X11.6612 Y-4.4021
G01 X11.7328 Y-4.3593
G01 X11.7433 Y-4.3533
G01 X11.7541 Y-4.3479
G01 X11.8295 Y-4.3122
G01 X11.8405 Y-4.3073
G01 X11.8518 Y-4.3030
G01 X11.9303 Y-4.2749
G01 X11.9418 Y-4.2711
G01 X11.9535 Y-4.2679
G01 X12.0402 Y-4.2462
G01 X12.0581 Y-4.2429
G01 X12.1406 Y-4.2306
G01 X12.1526 Y-4.2292
G01 X12.1646 Y-4.2283
G01 X12.2479 Y-4.2242
G01 X12.2600 Y-4.2239
G01 X12.2721 Y-4.2242
G01 X12.3554 Y-4.2283
G01 X12.3674 Y-4.2292
G01 X12.3794 Y-4.2306
G01 X12.4619 Y-4.2429
G01 X12.4738 Y-4.2449
G01 X12.4856 Y-4.2476
G01 X12.5665 Y-4.2679
G01 X12.5782 Y-4.2711
G01 X12.5897 Y-4.2749
G01 X12.6739 Y-4.3051
G01 X12.6905 Y-4.3122
G01 X12.7659 Y-4.3479
G01 X12.7767 Y-4.3533
G01 X12.7872 Y-4.3593
G01 X12.8588 Y-4.4021
G01 X12.8690 Y-4.4086
G01 X12.8789 Y-4.4156
G01 X12.9507 Y-4.4689
G01 X12.9645 Y-4.4806
G01 X13.0263 Y-4.5366
G01 X13.0393 Y-4.5492
G01 X13.1034 Y-4.6200
G01 X13.1111 Y-4.6293
G01 X13.1328 Y-4.6584
G00 Z2.0000
G00 X13.7775 Y-6.0588
G01 F60.00
G01 Z-0.1500
G01 F240.00
G01 X13.8022 Y-6.0966
G01 X13.8828 Y-6.1841
G01 X13.8892 Y-6.1915
G01 X13.8957 Y-6.1981
G01 X13.9437 Y-6.2502
G01 X14.1085 Y-6.3785
G01 X14.2921 Y-6.4779
G01 X14.3506 Y-6.4980
G01 X14.3571 Y-6.5007
G01 X14.3634 Y-6.5038
G01 X14.3733 Y-6.5100
G01 X14.4313 Y-6.5510
G01 X14.4389 Y-6.5570
G01 X14.4460 Y-6.5638
G01 X14.4523 Y-6.5713
G01 X14.4579 Y-6.5793
G01 X14.4627 Y-6.5878
G01 X14.4922 Y-6.6604
G01 X14.4946 Y-6.6670
G01 X14.4965 Y-6.6738
G01 X14.4980 Y-6.6807
G01 X14.4989 Y-6.6877
G01 X14.4999 Y-6.7095
G01 X14.4998 Y-7.4710
G01 X14.4957 Y-7.5084
G01 X14.4804 Y-7.6664
G01 X14.4646 Y-7.8125
G01 X14.4490 Y-7.9385
G01 X14.4389 Y-8.0083
G01 X14.4360 Y-8.0205
G01 X14.4257 Y-8.0493
G01 X14.4226 Y-8.0610
G01 X14.4175 Y-8.0737
G01 X14.3670 Y-8.2263
G01 X14.3579 Y-8.3145
G01 X14.3579 Y-9.0555
G01 X14.3670 Y-9.1437
G01 X14.4157 Y-9.2908
G01 X14.4967 Y-9.4222
G01 X14.6058 Y-9.5313
G01 X14.7372 Y-9.6123
G01 X14.8843 Y-9.6610
G01 X14.9725 Y-9.6701
G01 X16.3635 Y-9.6700
G01 X16.4517 Y-9.6610
G01 X16.5988 Y-9.6123
G01 X16.7302 Y-9.5313
G01 X16.7588 Y-9.5030
G01 X16.7754 Y-9.4887
G01 X16.7949 Y-9.4740
G01 X16.8100 Y-9.4637
G01 X16.9010 Y-9.4073
G01 X16.9191 Y-9.3972
G01 X17.0025 Y-9.3568
G01 X17.0263 Y-9.3469
G01 X17.0998 Y-9.3212
G01 X17.1189 Y-9.3158
G01 X17.1871 Y-9.3010
G01 X17.1973 Y-9.2994
G01 X17.2262 Y-9.2964
G01 X17.2340 Y-9.2961
G01 X18.4025 Y-9.2963
G01 X18.4118 Y-9.2974
G01 X18.4210 Y-9.2994
G01 X18.4914 Y-9.3200
G01 X18.5028 Y-9.3242
G01 X18.5095 Y-9.3274
G01 X18.5158 Y-9.3310
G01 X18.5219 Y-9.3351
G01 X18.5276 Y-9.3397
G01 X18.5364 Y-9.3482
G01 X18.5845 Y-9.4037
G01 X18.5920 Y-9.4135
G01 X18.5958 Y-9.4197
G01 X18.5992 Y-9.4263
G01 X18.6021 Y-9.4331
G01 X18.6051 Y-9.4425
G01 X18.6182 Y-9.5019
G01 X18.6193 Y-9.5088
G01 X18.6199 Y-9.5182
G01 X18.6199 Y-11.2934
G01 X18.6246 Y-11.3364
G01 X18.6664 Y-11.4485
G01 X18.7371 Y-11.5429
G01 X18.8315 Y-11.6136
G01 X18.9332 Y-11.6515
G01 X18.9439 Y-11.6563
G01 X18.9520 Y-11.6610
G01 X18.9578 Y-11.6650
G01 X19.0146 Y-11.7075
G01 X19.0222 Y-11.7138
G01 X19.0290 Y-11.7207
G01 X19.0366 Y-11.7303
G01 X19.0429 Y-11.7408
G01 X19.0470 Y-11.7496
G01 X19.0743 Y-11.8231
G01 X19.0762 Y-11.8301
G01 X19.0777 Y-11.8373
G01 X19.0786 Y-11.8446
G01 X19.0789 Y-11.8519
G01 X19.0785 Y-11.8617
G01 X19.0771 Y-11.8714
G01 X19.0610 Y-11.9455
G01 X19.0591 Y-11.9523
G01 X19.0567 Y-11.9589
G01 X19.0538 Y-11.9654
G01 X19.0505 Y-11.9717
G01 X19.0454 Y-11.9796
G01 X19.0275 Y-12.0045
G01 X19.0215 Y-12.0121
G01 X18.8822 Y-12.1634
G01 X18.7680 Y-12.3382
G01 X18.6841 Y-12.5295
G01 X18.6329 Y-12.7319
G01 X18.6156 Y-12.9400
G01 X18.6329 Y-13.1481
G01 X18.6841 Y-13.3505
G01 X18.7680 Y-13.5418
G01 X18.8822 Y-13.7166
G01 X19.0237 Y-13.8702
G01 X19.1409 Y-13.9615
G01 X20.6191 Y-13.9615
G01 X20.7363 Y-13.8702
G01 X20.8778 Y-13.7166
G01 X20.9621 Y-13.5875
G01 X20.9691 Y-13.5781
G01 X20.9738 Y-13.5729
G01 X20.9788 Y-13.5680
G01 X21.0365 Y-13.5188
G01 X21.0464 Y-13.5117
G01 X21.0572 Y-13.5059
G01 X21.0686 Y-13.5015
G01 X21.0804 Y-13.4985
G01 X21.1556 Y-13.4881
G01 X21.1629 Y-13.4874
G01 X21.1702 Y-13.4873
G01 X21.1800 Y-13.4879
G01 X21.1872 Y-13.4890
G01 X21.1944 Y-13.4906
G01 X21.2014 Y-13.4928
G01 X21.2082 Y-13.4954
G01 X21.2770 Y-13.5275
G01 X21.2834 Y-13.5310
G01 X21.2896 Y-13.5349
G01 X21.2954 Y-13.5393
G01 X21.3009 Y-13.5442
G01 X21.3076 Y-13.5512
G01 X21.3299 Y-13.5769
G01 X21.3354 Y-13.5838
G01 X21.4222 Y-13.7166
G01 X21.5637 Y-13.8702
G01 X21.7285 Y-13.9985
G01 X21.7591 Y-14.0152
G01 X21.7650 Y-14.0191
G01 X21.7706 Y-14.0233
G01 X21.7776 Y-14.0296
G01 X21.8297 Y-14.0813
G01 X21.8361 Y-14.0887
G01 X21.8417 Y-14.0967
G01 X21.8454 Y-14.1030
G01 X21.8486 Y-14.1096
G01 X21.8513 Y-14.1165
G01 X21.8535 Y-14.1234
G01 X21.8710 Y-14.2023
G01 X21.8720 Y-14.2096
G01 X21.8724 Y-14.2169
G01 X21.8719 Y-14.2291
G01 X21.8698 Y-14.2412
G01 X21.8663 Y-14.2529
G01 X21.8400 Y-14.3239
G01 X21.8370 Y-14.3303
G01 X21.8336 Y-14.3365
G01 X21.8297 Y-14.3424
G01 X21.8254 Y-14.3480
G01 X21.8207 Y-14.3533
G01 X21.8156 Y-14.3582
G01 X21.7690 Y-14.3985
G01 X21.7632 Y-14.4027
G01 X21.7571 Y-14.4065
G01 X21.7287 Y-14.4219
G01 X21.7201 Y-14.4286
G01 X21.7505 Y-14.4590
G01 X21.8722 Y-14.5543
G01 X21.9609 Y-14.5806
G01 X22.0645 Y-14.5734
G01 X22.2163 Y-14.5471
G01 X22.2921 Y-14.5412
G01 X22.3294 Y-14.5359
G01 X22.4224 Y-14.5316
G01 X22.5130 Y-14.5361
G01 X22.6003 Y-14.5489
G01 X22.6097 Y-14.5508
G01 X22.6976 Y-14.5731
G01 X22.7830 Y-14.6037
G01 X22.8628 Y-14.6414
G01 X22.8713 Y-14.6459
G01 X22.9469 Y-14.6914
G01 X23.0179 Y-14.7439
G01 X23.0253 Y-14.7500
G01 X23.0872 Y-14.8060
G01 X23.0940 Y-14.8128
G01 X23.1532 Y-14.8783
G01 X23.2086 Y-14.9531
G01 X23.2565 Y-15.0329
G01 X23.2943 Y-15.1126
G01 X23.3001 Y-15.1276
G01 X23.6301 Y-15.1276
G01 X23.6154 Y-15.0696
G01 X23.5315 Y-14.8785
G01 X23.4174 Y-14.7037
G01 X23.2760 Y-14.5501
G01 X23.1113 Y-14.4219
G01 X23.0829 Y-14.4065
G01 X23.0769 Y-14.4028
G01 X23.0712 Y-14.3987
G01 X23.0624 Y-14.3910
G01 X23.0087 Y-14.3374
G01 X23.0010 Y-14.3279
G01 X22.9958 Y-14.3197
G01 X22.9914 Y-14.3109
G01 X22.9879 Y-14.3018
G01 X22.9853 Y-14.2924
G01 X22.9699 Y-14.2231
G01 X22.9686 Y-14.2158
G01 X22.9678 Y-14.2085
G01 X22.9676 Y-14.1988
G01 X22.9684 Y-14.1890
G01 X22.9702 Y-14.1794
G01 X22.9729 Y-14.1700
G01 X23.0000 Y-14.0967
G01 X23.0030 Y-14.0903
G01 X23.0064 Y-14.0841
G01 X23.0103 Y-14.0782
G01 X23.0161 Y-14.0708
G01 X23.0244 Y-14.0623
G01 X23.0710 Y-14.0220
G01 X23.0768 Y-14.0178
G01 X23.0829 Y-14.0140
G01 X23.1115 Y-13.9985
G01 X23.2763 Y-13.8702
G01 X23.4178 Y-13.7166
G01 X23.5320 Y-13.5418
G01 X23.6159 Y-13.3505
G01 X23.6671 Y-13.1481
G01 X23.6844 Y-12.9400
G01 X23.6671 Y-12.7319
G01 X23.6294 Y-12.5828
G01 X23.6159 Y-12.5295
G01 X23.5320 Y-12.3382
G01 X23.4558 Y-12.2217
G01 X23.4350 Y-12.1868
G01 X23.4017 Y-12.1378
G01 X23.3621 Y-12.0935
G01 X23.2241 Y-11.9582
G01 X23.2067 Y-11.9420
G01 X23.1633 Y-11.9036
G01 X23.1569 Y-11.8967
G01 X23.1512 Y-11.8893
G01 X23.1095 Y-11.8233
G01 X23.1049 Y-11.8146
G01 X23.1012 Y-11.8056
G01 X23.0984 Y-11.7962
G01 X23.0938 Y-11.7746
G01 X23.0825 Y-11.7017
G01 X23.0817 Y-11.6892
G01 X23.0820 Y-11.6433
G01 X23.0829 Y-11.6358
G01 X23.0947 Y-11.5605
G01 X23.0973 Y-11.5514
G01 X23.1006 Y-11.5427
G01 X23.1317 Y-11.4763
G01 X23.1376 Y-11.4656
G01 X23.1417 Y-11.4595
G01 X23.1479 Y-11.4520
G01 X23.1638 Y-11.4360
G01 X23.2067 Y-11.3980
G01 X23.2241 Y-11.3818
G01 X23.3621 Y-11.2465
G01 X23.4017 Y-11.2022
G01 X23.4350 Y-11.1532
G01 X23.4559 Y-11.1183
G01 X23.5320 Y-11.0018
G01 X23.5518 Y-10.9567
G01 X23.5582 Y-10.9435
G01 X23.5691 Y-10.9236
G01 X23.5922 Y-10.8647
G01 X23.6159 Y-10.8105
G01 X23.6671 Y-10.6081
G01 X23.6844 Y-10.4000
G01 X23.6671 Y-10.1919
G01 X23.6159 Y-9.9895
G01 X23.5320 Y-9.7982
G01 X23.4178 Y-9.6234
G01 X23.2763 Y-9.4698
G01 X23.1115 Y-9.3415
G01 X22.9279 Y-9.2421
G01 X22.8441 Y-9.2134
G01 X22.8294 Y-9.2077
G01 X22.8145 Y-9.2032
G01 X22.7304 Y-9.1743
G01 X22.6534 Y-9.1615
G01 X22.6384 Y-9.1583
G01 X22.6051 Y-9.1497
G01 X22.5470 Y-9.1386
G01 X22.4876 Y-9.1353
G01 X22.2943 Y-9.1372
G01 X22.2706 Y-9.1380
G01 X22.2151 Y-9.1415
G01 X22.2080 Y-9.1415
G01 X22.2010 Y-9.1410
G01 X22.1895 Y-9.1391
G01 X22.1155 Y-9.1222
G01 X22.1040 Y-9.1182
G01 X22.0973 Y-9.1151
G01 X22.0909 Y-9.1115
G01 X22.0724 Y-9.0995
G01 X22.0137 Y-9.0566
G01 X21.9895 Y-9.0360
G01 X21.0955 Y-8.1421
G01 X21.0049 Y-8.0704
G01 X20.8650 Y-8.0052
G01 X20.7139 Y-7.9740
G01 X20.6431 Y-7.9759
G01 X17.2010 Y-7.9757
G01 X17.1610 Y-7.9710
G01 X17.0718 Y-7.9634
G01 X17.0471 Y-7.9596
G01 X16.9766 Y-7.9442
G01 X16.9577 Y-7.9390
G01 X16.8776 Y-7.9109
G01 X16.8541 Y-7.9011
G01 X16.7660 Y-7.8581
G01 X16.7503 Y-7.8494
G01 X16.6434 Y-7.7831
G01 X16.6353 Y-7.7791
G01 X16.6199 Y-7.7707
G01 X16.5988 Y-7.7577
G01 X16.5848 Y-7.7530
G01 X16.5541 Y-7.7402
G01 X16.5449 Y-7.7383
G01 X16.5236 Y-7.7328
G01 X16.4517 Y-7.7090
G01 X16.3635 Y-7.6999
G01 X16.2374 Y-7.6999
G01 X16.2304 Y-7.6997
G01 X16.2234 Y-7.6989
G01 X16.2165 Y-7.6977
G01 X16.2097 Y-7.6960
G01 X16.1392 Y-7.6752
G01 X16.1278 Y-7.6708
G01 X16.1213 Y-7.6674
G01 X16.1150 Y-7.6636
G01 X16.1022 Y-7.6546
G01 X16.0628 Y-7.6249
G01 X16.0504 Y-7.6148
G01 X15.9607 Y-7.5333
G01 X15.9482 Y-7.5210
G01 X15.8763 Y-7.4442
G01 X15.8708 Y-7.4367
G01 X15.8660 Y-7.4286
G01 X15.8328 Y-7.3632
G01 X15.8288 Y-7.3542
G01 X15.8250 Y-7.3424
G01 X15.8232 Y-7.3327
G01 X15.8201 Y-7.2980
G01 X15.8201 Y-6.4590
G01 X15.8222 Y-6.4309
G01 X15.8253 Y-6.4111
G01 X15.8283 Y-6.2535
G01 X15.8292 Y-6.2392
G01 X15.8361 Y-6.1704
G01 X15.8402 Y-6.1454
G01 X15.8417 Y-6.1384
G01 X15.8520 Y-6.0974
G01 X15.8591 Y-6.0751
G01 X15.8950 Y-5.9808
G01 X15.9628 Y-5.8185
G01 X15.9835 Y-5.7601
G01 X15.9879 Y-5.7487
G01 X15.9959 Y-5.7305
G01 X16.0471 Y-5.5281
G01 X16.0644 Y-5.3200
G01 X16.0471 Y-5.1119
G01 X15.9959 Y-4.9095
G01 X15.9120 Y-4.7182
G01 X15.7978 Y-4.5434
G01 X15.6563 Y-4.3898
G01 X15.4915 Y-4.2615
G01 X15.3079 Y-4.1621
G01 X15.1104 Y-4.0943
G01 X14.9044 Y-4.0599
G01 X14.6956 Y-4.0599
G01 X14.4896 Y-4.0943
G01 X14.2921 Y-4.1621
G01 X14.1085 Y-4.2615
G01 X13.9437 Y-4.3898
G01 X13.8022 Y-4.5434
G01 X13.7775 Y-4.5812
G01 X13.7775 Y-6.0588
G00 Z2.0000
G00 X13.9252 Y-6.0121
G01 F60.00
G01 Z-0.1500
G01 F240.00
G01 X14.0440 Y-6.1412
G01 X14.1895 Y-6.2544
G01 X14.3516 Y-6.3422
G01 X14.4073 Y-6.3616
G01 X14.4181 Y-6.3662
G01 X14.4338 Y-6.3740
G01 X14.4490 Y-6.3829
G01 X14.4587 Y-6.3895
G01 X14.5216 Y-6.4341
G01 X14.5358 Y-6.4456
G01 X14.5492 Y-6.4581
G01 X14.5576 Y-6.4670
G01 X14.5655 Y-6.4763
G01 X14.5730 Y-6.4860
G01 X14.5800 Y-6.4961
G01 X14.5864 Y-6.5064
G01 X14.5924 Y-6.5171
G01 X14.5978 Y-6.5281
G01 X14.6026 Y-6.5393
G01 X14.6313 Y-6.6106
G01 X14.6369 Y-6.6273
G01 X14.6413 Y-6.6444
G01 X14.6445 Y-6.6618
G01 X14.6459 Y-6.6734
G01 X14.6473 Y-6.6975
G01 X14.6476 Y-6.7095
G01 X14.6476 Y-7.4663
G01 X14.6473 Y-7.4781
G01 X14.6465 Y-7.4898
G01 X14.6423 Y-7.5265
G01 X14.6273 Y-7.6814
G01 X14.6113 Y-7.8295
G01 X14.5954 Y-7.9581
G01 X14.5844 Y-8.0332
G01 X14.5805 Y-8.0517
G01 X14.5752 Y-8.0697
G01 X14.5675 Y-8.0913
G01 X14.5649 Y-8.1008
G01 X14.5612 Y-8.1123
G01 X14.5554 Y-8.1270
G01 X14.5122 Y-8.2574
G01 X14.5056 Y-8.3220
G01 X14.5056 Y-9.0480
G01 X14.5122 Y-9.1126
G01 X14.5505 Y-9.2280
G01 X14.6133 Y-9.3300
G01 X14.6980 Y-9.4146
G01 X14.8000 Y-9.4775
G01 X14.9154 Y-9.5158
G01 X14.9800 Y-9.5224
G01 X16.3560 Y-9.5224
G01 X16.4206 Y-9.5158
G01 X16.5360 Y-9.4775
G01 X16.6380 Y-9.4147
G01 X16.6576 Y-9.3954
G01 X16.6793 Y-9.3765
G01 X16.7086 Y-9.3541
G01 X16.7322 Y-9.3382
G01 X16.8232 Y-9.2818
G01 X16.8342 Y-9.2753
G01 X16.8570 Y-9.2632
G01 X16.9445 Y-9.2209
G01 X16.9710 Y-9.2099
G01 X17.0492 Y-9.1825
G01 X17.0589 Y-9.1793
G01 X17.0840 Y-9.1723
G01 X17.1562 Y-9.1566
G01 X17.1689 Y-9.1542
G01 X17.2081 Y-9.1497
G01 X17.2275 Y-9.1485
G01 X18.3955 Y-9.1484
G01 X18.4072 Y-9.1487
G01 X18.4247 Y-9.1501
G01 X18.4421 Y-9.1528
G01 X18.4592 Y-9.1568
G01 X18.5388 Y-9.1801
G01 X18.5503 Y-9.1842
G01 X18.5673 Y-9.1913
G01 X18.5836 Y-9.1996
G01 X18.5941 Y-9.2058
G01 X18.6043 Y-9.2125
G01 X18.6189 Y-9.2236
G01 X18.6282 Y-9.2315
G01 X18.6414 Y-9.2443
G01 X18.6496 Y-9.2533
G01 X18.7001 Y-9.3117
G01 X18.7077 Y-9.3214
G01 X18.7148 Y-9.3314
G01 X18.7244 Y-9.3471
G01 X18.7329 Y-9.3635
G01 X18.7401 Y-9.3805
G01 X18.7460 Y-9.3980
G01 X18.7506 Y-9.4158
G01 X18.7632 Y-9.4739
G01 X18.7659 Y-9.4913
G01 X18.7670 Y-9.5029
G01 X18.7676 Y-9.5146
G01 X18.7676 Y-11.2855
G01 X18.7694 Y-11.3021
G01 X18.7974 Y-11.3770
G01 X18.8426 Y-11.4374
G01 X18.9030 Y-11.4826
G01 X18.9957 Y-11.5175
G01 X19.0116 Y-11.5250
G01 X19.0219 Y-11.5306
G01 X19.0319 Y-11.5367
G01 X19.0463 Y-11.5468
G01 X19.1031 Y-11.5893
G01 X19.1127 Y-11.5969
G01 X19.1220 Y-11.6049
G01 X19.1308 Y-11.6134
G01 X19.1431 Y-11.6269
G01 X19.1508 Y-11.6364
G01 X19.1614 Y-11.6513
G01 X19.1679 Y-11.6617
G01 X19.1766 Y-11.6779
G01 X19.1840 Y-11.6946
G01 X19.2111 Y-11.7668
G01 X19.2150 Y-11.7784
G01 X19.2185 Y-11.7901
G01 X19.2225 Y-11.8080
G01 X19.2244 Y-11.8201
G01 X19.2257 Y-11.8322
G01 X19.2266 Y-11.8506
G01 X19.2264 Y-11.8628
G01 X19.2256 Y-11.8750
G01 X19.2233 Y-11.8932
G01 X19.2210 Y-11.9052
G01 X19.2045 Y-11.9803
G01 X19.1997 Y-11.9973
G01 X19.1959 Y-12.0085
G01 X19.1891 Y-12.0248
G01 X19.1811 Y-12.0407
G01 X19.1752 Y-12.0509
G01 X19.1688 Y-12.0608
G01 X19.1475 Y-12.0906
G01 X19.1365 Y-12.1048
G01 X19.1286 Y-12.1139
G01 X18.9992 Y-12.2544
G01 X18.8983 Y-12.4087
G01 X18.8243 Y-12.5776
G01 X18.7790 Y-12.7563
G01 X18.7638 Y-12.9400
G01 X18.7790 Y-13.1237
G01 X18.8243 Y-13.3024
G01 X18.8983 Y-13.4712
G01 X18.9992 Y-13.6256
G01 X19.1240 Y-13.7612
G01 X19.1916 Y-13.8138
G01 X19.2198 Y-13.8138
G01 X19.1893 Y-13.7911
G01 X19.1800 Y-13.7834
G01 X19.1137 Y-13.7234
G01 X19.1007 Y-13.7108
G01 X19.0406 Y-13.6445
G01 X19.0327 Y-13.6354
G01 X19.0253 Y-13.6259
G01 X18.9756 Y-13.5589
G01 X18.9653 Y-13.5439
G01 X18.9193 Y-13.4672
G01 X18.9133 Y-13.4567
G01 X18.9079 Y-13.4459
G01 X18.8722 Y-13.3705
G01 X18.8673 Y-13.3595
G01 X18.8630 Y-13.3482
G01 X18.8349 Y-13.2697
G01 X18.8311 Y-13.2582
G01 X18.8279 Y-13.2465
G01 X18.8076 Y-13.1656
G01 X18.8049 Y-13.1538
G01 X18.8029 Y-13.1419
G01 X18.7906 Y-13.0594
G01 X18.7892 Y-13.0474
G01 X18.7883 Y-13.0354
G01 X18.7842 Y-12.9521
G01 X18.7839 Y-12.9400
G01 X18.7842 Y-12.9279
G01 X18.7883 Y-12.8446
G01 X18.7892 Y-12.8326
G01 X18.7906 Y-12.8206
G01 X18.8029 Y-12.7381
G01 X18.8049 Y-12.7262
G01 X18.8076 Y-12.7144
G01 X18.8279 Y-12.6335
G01 X18.8311 Y-12.6218
G01 X18.8349 Y-12.6103
G01 X18.8630 Y-12.5318
G01 X18.8673 Y-12.5205
G01 X18.8722 Y-12.5095
G01 X18.9079 Y-12.4341
G01 X18.9162 Y-12.4180
G01 X18.9621 Y-12.3412
G01 X18.9686 Y-12.3310
G01 X18.9756 Y-12.3211
G01 X19.0253 Y-12.2541
G01 X19.0327 Y-12.2446
G01 X19.0406 Y-12.2355
G01 X19.0966 Y-12.1737
G01 X19.1049 Y-12.1649
G01 X19.1137 Y-12.1566
G01 X19.1755 Y-12.1006
G01 X19.1846 Y-12.0927
G01 X19.1941 Y-12.0853
G01 X19.2611 Y-12.0356
G01 X19.2710 Y-12.0286
G01 X19.2812 Y-12.0221
G01 X19.3528 Y-11.9793
G01 X19.3633 Y-11.9733
G01 X19.3741 Y-11.9679
G01 X19.4495 Y-11.9322
G01 X19.4605 Y-11.9273
G01 X19.4718 Y-11.9230
G01 X19.5503 Y-11.8949
G01 X19.5618 Y-11.8911
G01 X19.5735 Y-11.8879
G01 X19.6544 Y-11.8676
G01 X19.6662 Y-11.8649
G01 X19.6781 Y-11.8629
G01 X19.7606 Y-11.8506
G01 X19.7726 Y-11.8492
G01 X19.7846 Y-11.8483
G01 X19.8679 Y-11.8442
G01 X19.8800 Y-11.8439
G01 X19.8921 Y-11.8442
G01 X19.9754 Y-11.8483
G01 X19.9874 Y-11.8492
G01 X19.9994 Y-11.8506
G01 X20.0819 Y-11.8629
G01 X20.0938 Y-11.8649
G01 X20.1056 Y-11.8676
G01 X20.1924 Y-11.8894
G01 X20.2097 Y-11.8949
G01 X20.2882 Y-11.9230
G01 X20.2995 Y-11.9273
G01 X20.3105 Y-11.9322
G01 X20.3859 Y-11.9679
G01 X20.3967 Y-11.9733
G01 X20.4072 Y-11.9793
G01 X20.4788 Y-12.0221
G01 X20.4890 Y-12.0286
G01 X20.4989 Y-12.0356
G01 X20.5659 Y-12.0853
G01 X20.5754 Y-12.0927
G01 X20.5845 Y-12.1006
G01 X20.6463 Y-12.1566
G01 X20.6551 Y-12.1649
G01 X20.6634 Y-12.1737
G01 X20.7194 Y-12.2355
G01 X20.7273 Y-12.2446
G01 X20.7347 Y-12.2541
G01 X20.7844 Y-12.3211
G01 X20.7914 Y-12.3310
G01 X20.7979 Y-12.3412
G01 X20.8407 Y-12.4128
G01 X20.8467 Y-12.4233
G01 X20.8521 Y-12.4341
G01 X20.8878 Y-12.5095
G01 X20.8927 Y-12.5205
G01 X20.8970 Y-12.5318
G01 X20.9251 Y-12.6103
G01 X20.9289 Y-12.6218
G01 X20.9321 Y-12.6335
G01 X20.9524 Y-12.7144
G01 X20.9562 Y-12.7321
G01 X20.9694 Y-12.8206
G01 X20.9708 Y-12.8326
G01 X20.9717 Y-12.8446
G01 X20.9758 Y-12.9279
G01 X20.9761 Y-12.9400
G01 X20.9758 Y-12.9521
G01 X20.9717 Y-13.0354
G01 X20.9708 Y-13.0474
G01 X20.9694 Y-13.0594
G01 X20.9571 Y-13.1419
G01 X20.9551 Y-13.1538
G01 X20.9524 Y-13.1656
G01 X20.9321 Y-13.2465
G01 X20.9289 Y-13.2582
G01 X20.9251 Y-13.2697
G01 X20.8949 Y-13.3539
G01 X20.8878 Y-13.3705
G01 X20.8521 Y-13.4459
G01 X20.8467 Y-13.4567
G01 X20.8407 Y-13.4672
G01 X20.7979 Y-13.5388
G01 X20.7914 Y-13.5490
G01 X20.7844 Y-13.5589
G01 X20.7311 Y-13.6307
G01 X20.7194 Y-13.6445
G01 X20.6634 Y-13.7063
G01 X20.6508 Y-13.7193
G01 X20.5800 Y-13.7834
G01 X20.5707 Y-13.7911
G01 X20.5402 Y-13.8138
G01 X20.5684 Y-13.8138
G01 X20.6360 Y-13.7612
G01 X20.7608 Y-13.6256
G01 X20.8417 Y-13.5019
G01 X20.8522 Y-13.4878
G01 X20.8597 Y-13.4788
G01 X20.8718 Y-13.4660
G01 X20.8803 Y-13.4580
G01 X20.9387 Y-13.4081
G01 X20.9531 Y-13.3967
G01 X20.9683 Y-13.3864
G01 X20.9842 Y-13.3773
G01 X21.0008 Y-13.3694
G01 X21.0178 Y-13.3627
G01 X21.0354 Y-13.3574
G01 X21.0473 Y-13.3545
G01 X21.0593 Y-13.3523
G01 X21.1357 Y-13.3418
G01 X21.1478 Y-13.3405
G01 X21.1661 Y-13.3396
G01 X21.1784 Y-13.3397
G01 X21.1966 Y-13.3411
G01 X21.2087 Y-13.3428
G01 X21.2208 Y-13.3451
G01 X21.2326 Y-13.3480
G01 X21.2444 Y-13.3514
G01 X21.2616 Y-13.3577
G01 X21.2728 Y-13.3626
G01 X21.3371 Y-13.3926
G01 X21.3534 Y-13.4009
G01 X21.3690 Y-13.4104
G01 X21.3790 Y-13.4174
G01 X21.3933 Y-13.4287
G01 X21.4024 Y-13.4369
G01 X21.4110 Y-13.4455
G01 X21.4192 Y-13.4545
G01 X21.4451 Y-13.4844
G01 X21.4553 Y-13.4976
G01 X21.5392 Y-13.6256
G01 X21.6640 Y-13.7612
G01 X21.8095 Y-13.8744
G01 X21.8305 Y-13.8859
G01 X21.8405 Y-13.8919
G01 X21.8550 Y-13.9019
G01 X21.8687 Y-13.9129
G01 X21.8816 Y-13.9248
G01 X21.9320 Y-13.9748
G01 X21.9404 Y-13.9836
G01 X21.9484 Y-13.9928
G01 X21.9560 Y-14.0025
G01 X21.9664 Y-14.0176
G01 X21.9727 Y-14.0280
G01 X21.9784 Y-14.0388
G01 X21.9861 Y-14.0555
G01 X21.9924 Y-14.0727
G01 X21.9975 Y-14.0903
G01 X22.0143 Y-14.1656
G01 X22.0166 Y-14.1776
G01 X22.0183 Y-14.1897
G01 X22.0195 Y-14.2018
G01 X22.0200 Y-14.2141
G01 X22.0200 Y-14.2263
G01 X22.0187 Y-14.2446
G01 X22.0161 Y-14.2627
G01 X22.0122 Y-14.2806
G01 X22.0069 Y-14.2982
G01 X21.9803 Y-14.3706
G01 X21.9760 Y-14.3815
G01 X21.9711 Y-14.3923
G01 X21.9657 Y-14.4028
G01 X21.9598 Y-14.4130
G01 X21.9527 Y-14.4242
G01 X21.9772 Y-14.4315
G01 X22.0465 Y-14.4266
G01 X22.1839 Y-14.4026
G01 X22.2014 Y-14.4002
G01 X22.2755 Y-14.3943
G01 X22.3066 Y-14.3898
G01 X22.3186 Y-14.3886
G01 X22.4079 Y-14.3842
G01 X22.4200 Y-14.3839
G01 X22.4321 Y-14.3842
G01 X22.5154 Y-14.3883
G01 X22.5274 Y-14.3892
G01 X22.5394 Y-14.3906
G01 X22.6219 Y-14.4029
G01 X22.6338 Y-14.4049
G01 X22.6456 Y-14.4076
G01 X22.7265 Y-14.4279
G01 X22.7382 Y-14.4311
G01 X22.7497 Y-14.4349
G01 X22.8339 Y-14.4651
G01 X22.8505 Y-14.4722
G01 X22.9259 Y-14.5079
G01 X22.9367 Y-14.5133
G01 X22.9472 Y-14.5193
G01 X23.0188 Y-14.5621
G01 X23.0290 Y-14.5686
G01 X23.0389 Y-14.5756
G01 X23.1059 Y-14.6253
G01 X23.1154 Y-14.6327
G01 X23.1245 Y-14.6406
G01 X23.1863 Y-14.6966
G01 X23.1951 Y-14.7049
G01 X23.2034 Y-14.7137
G01 X23.2594 Y-14.7755
G01 X23.2711 Y-14.7893
G01 X23.3244 Y-14.8611
G01 X23.3347 Y-14.8761
G01 X23.3838 Y-14.9580
G01 X23.3895 Y-14.9687
G01 X23.3949 Y-14.9799
G01 X23.4148 Y-14.9799
G01 X23.4012 Y-14.9490
G01 X23.3004 Y-14.7947
G01 X23.1756 Y-14.6592
G01 X23.0302 Y-14.5460
G01 X23.0095 Y-14.5347
G01 X22.9995 Y-14.5286
G01 X22.9898 Y-14.5221
G01 X22.9758 Y-14.5115
G01 X22.9669 Y-14.5038
G01 X22.9584 Y-14.4958
G01 X22.9080 Y-14.4458
G01 X22.8955 Y-14.4324
G01 X22.8877 Y-14.4230
G01 X22.8769 Y-14.4081
G01 X22.8704 Y-14.3978
G01 X22.8644 Y-14.3872
G01 X22.8563 Y-14.3707
G01 X22.8517 Y-14.3594
G01 X22.8476 Y-14.3479
G01 X22.8440 Y-14.3362
G01 X22.8411 Y-14.3243
G01 X22.8245 Y-14.2490
G01 X22.8217 Y-14.2309
G01 X22.8202 Y-14.2126
G01 X22.8200 Y-14.1943
G01 X22.8207 Y-14.1821
G01 X22.8220 Y-14.1699
G01 X22.8239 Y-14.1578
G01 X22.8264 Y-14.1459
G01 X22.8294 Y-14.1340
G01 X22.8331 Y-14.1224
G01 X22.8597 Y-14.0500
G01 X22.8664 Y-14.0336
G01 X22.8715 Y-14.0230
G01 X22.8802 Y-14.0075
G01 X22.8899 Y-13.9927
G01 X22.8969 Y-13.9833
G01 X22.9083 Y-13.9698
G01 X22.9207 Y-13.9571
G01 X22.9706 Y-13.9135
G01 X22.9798 Y-13.9059
G01 X22.9894 Y-13.8987
G01 X23.0043 Y-13.8889
G01 X23.0305 Y-13.8744
G01 X23.1760 Y-13.7612
G01 X23.3008 Y-13.6256
G01 X23.4017 Y-13.4712
G01 X23.4757 Y-13.3024
G01 X23.5210 Y-13.1237
G01 X23.5362 Y-12.9400
G01 X23.5210 Y-12.7563
G01 X23.4862 Y-12.6191
G01 X23.4757 Y-12.5776
G01 X23.4017 Y-12.4088
G01 X23.3322 Y-12.3025
G01 X23.3102 Y-12.2659
G01 X23.2851 Y-12.2289
G01 X23.2552 Y-12.1956
G01 X23.1215 Y-12.0644
G01 X23.1083 Y-12.0521
G01 X23.0647 Y-12.0136
G01 X23.0563 Y-12.0054
G01 X23.0483 Y-11.9968
G01 X23.0407 Y-11.9879
G01 X23.0335 Y-11.9786
G01 X23.0268 Y-11.9690
G01 X22.9858 Y-11.9041
G01 X22.9796 Y-11.8936
G01 X22.9712 Y-11.8773
G01 X22.9663 Y-11.8661
G01 X22.9619 Y-11.8547
G01 X22.9582 Y-11.8431
G01 X22.9550 Y-11.8313
G01 X22.9492 Y-11.8051
G01 X22.9369 Y-11.7267
G01 X22.9353 Y-11.7142
G01 X22.9344 Y-11.7017
G01 X22.9341 Y-11.6892
G01 X22.9341 Y-11.6508
G01 X22.9348 Y-11.6320
G01 X22.9369 Y-11.6133
G01 X22.9475 Y-11.5449
G01 X22.9508 Y-11.5276
G01 X22.9553 Y-11.5107
G01 X22.9590 Y-11.4995
G01 X22.9632 Y-11.4886
G01 X22.9980 Y-11.4136
G01 X23.0035 Y-11.4027
G01 X23.0127 Y-11.3868
G01 X23.0230 Y-11.3717
G01 X23.0345 Y-11.3574
G01 X23.0427 Y-11.3483
G01 X23.0653 Y-11.3259
G01 X23.1083 Y-11.2879
G01 X23.1215 Y-11.2756
G01 X23.2552 Y-11.1444
G01 X23.2851 Y-11.1110
G01 X23.3102 Y-11.0741
G01 X23.3322 Y-11.0375
G01 X23.4017 Y-10.9312
G01 X23.4178 Y-10.8946
G01 X23.4270 Y-10.8758
G01 X23.4345 Y-10.8618
G01 X23.4559 Y-10.8080
G01 X23.4757 Y-10.7624
G01 X23.5210 Y-10.5837
G01 X23.5362 Y-10.4000
G01 X23.5210 Y-10.2163
G01 X23.4757 Y-10.0376
G01 X23.4017 Y-9.8688
G01 X23.3008 Y-9.7144
G01 X23.1760 Y-9.5788
G01 X23.0305 Y-9.4656
G01 X22.8684 Y-9.3778
G01 X22.7962 Y-9.3530
G01 X22.7809 Y-9.3474
G01 X22.7665 Y-9.3429
G01 X22.6940 Y-9.3180
G01 X22.6259 Y-9.3065
G01 X22.6045 Y-9.3020
G01 X22.5728 Y-9.2938
G01 X22.5290 Y-9.2855
G01 X22.4842 Y-9.2830
G01 X22.2884 Y-9.2850
G01 X22.2149 Y-9.2892
G01 X22.1974 Y-9.2888
G01 X22.1799 Y-9.2872
G01 X22.1683 Y-9.2854
G01 X22.1568 Y-9.2831
G01 X22.0876 Y-9.2674
G01 X22.0699 Y-9.2627
G01 X22.0526 Y-9.2566
G01 X22.0413 Y-9.2519
G01 X22.0249 Y-9.2438
G01 X22.0143 Y-9.2377
G01 X21.9875 Y-9.2204
G01 X21.9264 Y-9.1757
G01 X21.9117 Y-9.1640
G01 X21.8878 Y-9.1430
G01 X20.9972 Y-8.2526
G01 X20.9268 Y-8.1969
G01 X20.8183 Y-8.1463
G01 X20.7010 Y-8.1221
G01 X20.6431 Y-8.1236
G01 X17.2077 Y-8.1236
G01 X17.1909 Y-8.1231
G01 X17.1429 Y-8.1177
G01 X17.0561 Y-8.1102
G01 X17.0292 Y-8.1064
G01 X17.0134 Y-8.1035
G01 X16.9421 Y-8.0878
G01 X16.9173 Y-8.0810
G01 X16.9028 Y-8.0764
G01 X16.8286 Y-8.0502
G01 X16.8023 Y-8.0397
G01 X16.7896 Y-8.0339
G01 X16.7059 Y-7.9933
G01 X16.6779 Y-7.9781
G01 X16.5719 Y-7.9125
G01 X16.5509 Y-7.9013
G01 X16.5356 Y-7.8922
G01 X16.5091 Y-7.8816
G01 X16.4804 Y-7.8740
G01 X16.4206 Y-7.8542
G01 X16.3560 Y-7.8476
G01 X16.2316 Y-7.8476
G01 X16.2140 Y-7.8465
G01 X16.2024 Y-7.8451
G01 X16.1851 Y-7.8420
G01 X16.1737 Y-7.8392
G01 X16.0941 Y-7.8159
G01 X16.0769 Y-7.8096
G01 X16.0656 Y-7.8047
G01 X16.0547 Y-7.7993
G01 X16.0387 Y-7.7901
G01 X16.0169 Y-7.7752
G01 X15.9693 Y-7.7393
G01 X15.9477 Y-7.7211
G01 X15.8613 Y-7.6425
G01 X15.8473 Y-7.6290
G01 X15.7734 Y-7.5507
G01 X15.7656 Y-7.5419
G01 X15.7582 Y-7.5329
G01 X15.7512 Y-7.5234
G01 X15.7447 Y-7.5137
G01 X15.7387 Y-7.5036
G01 X15.7011 Y-7.4300
G01 X15.6957 Y-7.4188
G01 X15.6888 Y-7.4016
G01 X15.6833 Y-7.3839
G01 X15.6790 Y-7.3658
G01 X15.6762 Y-7.3474
G01 X15.6730 Y-7.3127
G01 X15.6724 Y-7.2958
G01 X15.6724 Y-6.4617
G01 X15.6727 Y-6.4485
G01 X15.6748 Y-6.4217
G01 X15.6762 Y-6.4086
G01 X15.6779 Y-6.3979
G01 X15.6808 Y-6.2448
G01 X15.6823 Y-6.2244
G01 X15.6899 Y-6.1496
G01 X15.6948 Y-6.1200
G01 X15.6985 Y-6.1025
G01 X15.7099 Y-6.0573
G01 X15.7186 Y-6.0295
G01 X15.7578 Y-5.9261
G01 X15.8249 Y-5.7653
G01 X15.8457 Y-5.7071
G01 X15.8557 Y-5.6824
G01 X15.9010 Y-5.5037
G01 X15.9162 Y-5.3200
G01 X15.9010 Y-5.1363
G01 X15.8557 Y-4.9576
G01 X15.7817 Y-4.7888
G01 X15.6808 Y-4.6344
G01 X15.5560 Y-4.4988
G01 X15.4105 Y-4.3856
G01 X15.2484 Y-4.2978
G01 X15.0740 Y-4.2380
G01 X14.8922 Y-4.2076
G01 X14.7078 Y-4.2076
G01 X14.5260 Y-4.2380
G01 X14.3516 Y-4.2978
G01 X14.1895 Y-4.3856
G01 X14.0440 Y-4.4988
G01 X13.9252 Y-4.6279
G01 X13.9252 Y-4.6612
G01 X13.9489 Y-4.6293
G01 X13.9566 Y-4.6200
G01 X14.0207 Y-4.5492
G01 X14.0337 Y-4.5366
G01 X14.0955 Y-4.4806
G01 X14.1093 Y-4.4689
G01 X14.1811 Y-4.4156
G01 X14.1910 Y-4.4086
G01 X14.2012 Y-4.4021
G01 X14.2728 Y-4.3593
G01 X14.2833 Y-4.3533
G01 X14.2941 Y-4.3479
G01 X14.3750 Y-4.3097
G01 X14.3918 Y-4.3030
G01 X14.4703 Y-4.2749
G01 X14.4818 Y-4.2711
G01 X14.4935 Y-4.2679
G01 X14.5744 Y-4.2476
G01 X14.5862 Y-4.2449
G01 X14.5981 Y-4.2429
G01 X14.6806 Y-4.2306
G01 X14.6926 Y-4.2292
G01 X14.7046 Y-4.2283
G01 X14.7879 Y-4.2242
G01 X14.8000 Y-4.2239
G01 X14.8121 Y-4.2242
G01 X14.8954 Y-4.2283
G01 X14.9074 Y-4.2292
G01 X14.9194 Y-4.2306
G01 X15.0019 Y-4.2429
G01 X15.0138 Y-4.2449
G01 X15.0256 Y-4.2476
G01 X15.1065 Y-4.2679
G01 X15.1182 Y-4.2711
G01 X15.1297 Y-4.2749
G01 X15.2082 Y-4.3030
G01 X15.2195 Y-4.3073
G01 X15.2305 Y-4.3122
G01 X15.3059 Y-4.3479
G01 X15.3167 Y-4.3533
G01 X15.3272 Y-4.3593
G01 X15.3988 Y-4.4021
G01 X15.4090 Y-4.4086
G01 X15.4189 Y-4.4156
G01 X15.4859 Y-4.4653
G01 X15.4954 Y-4.4727
G01 X15.5045 Y-4.4806
G01 X15.5663 Y-4.5366
G01 X15.5751 Y-4.5449
G01 X15.5834 Y-4.5537
G01 X15.6394 Y-4.6155
G01 X15.6473 Y-4.6246
G01 X15.6547 Y-4.6341
G01 X15.7044 Y-4.7011
G01 X15.7114 Y-4.7110
G01 X15.7179 Y-4.7212
G01 X15.7607 Y-4.7928
G01 X15.7667 Y-4.8033
G01 X15.7721 Y-4.8141
G01 X15.8078 Y-4.8895
G01 X15.8127 Y-4.9005
G01 X15.8170 Y-4.9118
G01 X15.8451 Y-4.9903
G01 X15.8489 Y-5.0018
G01 X15.8521 Y-5.0135
G01 X15.8724 Y-5.0944
G01 X15.8751 Y-5.1062
G01 X15.8771 Y-5.1181
G01 X15.8894 Y-5.2006
G01 X15.8908 Y-5.2126
G01 X15.8917 Y-5.2246
G01 X15.8958 Y-5.3079
G01 X15.8961 Y-5.3260
G01 X15.8917 Y-5.4154
G01 X15.8908 Y-5.4274
G01 X15.8894 Y-5.4394
G01 X15.8771 Y-5.5219
G01 X15.8751 Y-5.5338
G01 X15.8724 Y-5.5456
G01 X15.8506 Y-5.6324
G01 X15.8451 Y-5.6497
G01 X15.8149 Y-5.7339
G01 X15.7372 Y-5.9202
G01 X15.6930 Y-6.0367
G01 X15.6709 Y-6.1250
G01 X15.6595 Y-6.2383
G01 X15.6563 Y-6.4129
G01 X15.6563 Y-7.4471
G01 X15.7214 Y-7.5264
G01 X15.8356 Y-7.6479
G01 X15.9467 Y-7.7489
G01 X16.0538 Y-7.8297
G01 X16.1106 Y-7.8639
G01 X16.3180 Y-7.8639
G01 X16.3546 Y-7.8654
G01 X16.3726 Y-7.8669
G01 X16.4089 Y-7.8723
G01 X16.4266 Y-7.8761
G01 X16.4562 Y-7.8836
G01 X16.4735 Y-7.8890
G01 X16.5079 Y-7.9016
G01 X16.5411 Y-7.9170
G01 X16.5519 Y-7.9225
G01 X16.5886 Y-7.9442
G01 X16.5986 Y-7.9509
G01 X16.6252 Y-7.9705
G01 X16.6785 Y-8.0036
G01 X16.8004 Y-8.0628
G01 X16.9187 Y-8.1045
G01 X17.0340 Y-8.1297
G01 X17.1428 Y-8.1390
G01 X20.6071 Y-8.1398
G01 X20.6315 Y-8.1407
G01 X20.6560 Y-8.1398
G01 X20.6986 Y-8.1416
G01 X20.7166 Y-8.1436
G01 X20.7528 Y-8.1493
G01 X20.7884 Y-8.1579
G01 X20.8058 Y-8.1629
G01 X20.8403 Y-8.1753
G01 X20.8570 Y-8.1824
G01 X20.8899 Y-8.1983
G01 X20.9215 Y-8.2169
G01 X20.9367 Y-8.2268
G01 X20.9661 Y-8.2486
G01 X20.9800 Y-8.2603
G01 X21.0069 Y-8.2851
G01 X21.9167 Y-9.1949
G01 X22.0547 Y-9.2960
G01 X22.1427 Y-9.3153
G01 X22.2891 Y-9.3062
G01 X22.3872 Y-9.3052
G01 X22.4200 Y-9.3039
G01 X22.4420 Y-9.3047
G01 X22.4925 Y-9.3042
G01 X22.5120 Y-9.3048
G01 X22.5249 Y-9.3060
G01 X22.5407 Y-9.3083
G01 X22.5534 Y-9.3109
G01 X22.5708 Y-9.3153
G01 X22.6338 Y-9.3249
G01 X22.6456 Y-9.3276
G01 X22.7265 Y-9.3479
G01 X22.7439 Y-9.3529
G01 X22.8282 Y-9.3830
G01 X22.8395 Y-9.3873
G01 X22.8505 Y-9.3922
G01 X22.9259 Y-9.4279
G01 X22.9367 Y-9.4333
G01 X22.9472 Y-9.4393
G01 X23.0188 Y-9.4821
G01 X23.0290 Y-9.4886
G01 X23.0389 Y-9.4956
G01 X23.1059 Y-9.5453
G01 X23.1154 Y-9.5527
G01 X23.1245 Y-9.5606
G01 X23.1863 Y-9.6166
G01 X23.1951 Y-9.6249
G01 X23.2034 Y-9.6337
G01 X23.2634 Y-9.7000
G01 X23.2747 Y-9.7141
G01 X23.3244 Y-9.7811
G01 X23.3314 Y-9.7910
G01 X23.3379 Y-9.8012
G01 X23.3807 Y-9.8728
G01 X23.3867 Y-9.8833
G01 X23.3921 Y-9.8941
G01 X23.4278 Y-9.9695
G01 X23.4327 Y-9.9805
G01 X23.4370 Y-9.9918
G01 X23.4651 Y-10.0703
G01 X23.4689 Y-10.0818
G01 X23.4721 Y-10.0935
G01 X23.4924 Y-10.1744
G01 X23.4951 Y-10.1862
G01 X23.4971 Y-10.1981
G01 X23.5094 Y-10.2806
G01 X23.5108 Y-10.2926
G01 X23.5117 Y-10.3046
G01 X23.5158 Y-10.3879
G01 X23.5161 Y-10.4000
G01 X23.5158 Y-10.4121
G01 X23.5117 Y-10.4954
G01 X23.5108 Y-10.5074
G01 X23.5094 Y-10.5194
G01 X23.4962 Y-10.6079
G01 X23.4924 Y-10.6256
G01 X23.4721 Y-10.7065
G01 X23.4689 Y-10.7182
G01 X23.4651 Y-10.7297
G01 X23.4370 Y-10.8082
G01 X23.4327 Y-10.8195
G01 X23.4278 Y-10.8305
G01 X23.3921 Y-10.9059
G01 X23.3867 Y-10.9167
G01 X23.3807 Y-10.9272
G01 X23.3379 Y-10.9988
G01 X23.3314 Y-11.0090
G01 X23.2936 Y-11.0604
G01 X23.2844 Y-11.0758
G01 X23.2735 Y-11.0919
G01 X23.2637 Y-11.1045
G01 X23.2507 Y-11.1190
G01 X23.2101 Y-11.1589
G01 X23.1951 Y-11.1751
G01 X23.1709 Y-11.1974
G01 X23.1006 Y-11.2663
G01 X22.9910 Y-11.3631
G01 X22.9423 Y-11.4389
G01 X22.9162 Y-11.6080
G01 X22.9162 Y-11.7320
G01 X22.9423 Y-11.9011
G01 X22.9910 Y-11.9769
G01 X23.1004 Y-12.0736
G01 X23.1709 Y-12.1426
G01 X23.1951 Y-12.1649
G01 X23.2101 Y-12.1811
G01 X23.2507 Y-12.2210
G01 X23.2637 Y-12.2355
G01 X23.2735 Y-12.2481
G01 X23.2809 Y-12.2587
