(G-CODE GENERATED BY FLATCAM v8.994 - www.flatcam.org - Version Date: 2020/11/7)

(Name: george_orangepi.drl_mill_cnc)
(Type: G-code from Geometry)
(Units: MM)

(Created on Monday, 01 July 2024 at 01:28)

(This preprocessor is the default preprocessor used by FlatCAM.)
(It is made to work with MACH3 compatible motion controllers.)

(TOOL DIAMETER: 1.5 mm)
(Feedrate_XY: 200.0 mm/min)
(Feedrate_Z: 72.0 mm/min)
(Feedrate rapids 1500.0 mm/min)

(Z_Cut: -1.65 mm)
(Z_Move: 2.0 mm)
(Z Start: None mm)
(Z End: 45.0 mm)
(X,Y End: None mm)
(Steps per circle: 64)
(Preprocessor Geometry: default)

(X range:   19.4900 ...   20.9900  mm)
(Y range:  -66.8100 ...   -2.1940  mm)

(Spindle Speed: 7200.0 RPM)
G21
G90
G94

G01 F200.00

M5
G00 Z15.0000
G00 X0.0000 Y0.0000
T1
M6    
(MSG, Change to Tool Dia = 1.5000)
M0
G00 Z15.0000

M03 S7200.0
G01 F200.00
G00 X20.9900 Y-2.9440
G01 F72.00
G01 Z-1.6500
G01 F200.00
G01 X20.9864 Y-3.0175
G01 X20.9756 Y-3.0903
G01 X20.9577 Y-3.1617
G01 X20.9329 Y-3.2310
G01 X20.9014 Y-3.2975
G01 X20.8636 Y-3.3607
G01 X20.8198 Y-3.4198
G01 X20.7703 Y-3.4743
G01 X20.7158 Y-3.5238
G01 X20.6567 Y-3.5676
G01 X20.5935 Y-3.6054
G01 X20.5270 Y-3.6369
G01 X20.4577 Y-3.6617
G01 X20.3863 Y-3.6796
G01 X20.3135 Y-3.6904
G01 X20.2400 Y-3.6940
G01 X20.1665 Y-3.6904
G01 X20.0937 Y-3.6796
G01 X20.0223 Y-3.6617
G01 X19.9530 Y-3.6369
G01 X19.8865 Y-3.6054
G01 X19.8233 Y-3.5676
G01 X19.7642 Y-3.5238
G01 X19.7097 Y-3.4743
G01 X19.6602 Y-3.4198
G01 X19.6164 Y-3.3607
G01 X19.5786 Y-3.2975
G01 X19.5471 Y-3.2310
G01 X19.5223 Y-3.1617
G01 X19.5044 Y-3.0903
G01 X19.4936 Y-3.0175
G01 X19.4900 Y-2.9440
G01 X19.4936 Y-2.8705
G01 X19.5044 Y-2.7977
G01 X19.5223 Y-2.7263
G01 X19.5471 Y-2.6570
G01 X19.5786 Y-2.5905
G01 X19.6164 Y-2.5273
G01 X19.6602 Y-2.4682
G01 X19.7097 Y-2.4137
G01 X19.7642 Y-2.3642
G01 X19.8233 Y-2.3204
G01 X19.8865 Y-2.2826
G01 X19.9530 Y-2.2511
G01 X20.0223 Y-2.2263
G01 X20.0937 Y-2.2084
G01 X20.1665 Y-2.1976
G01 X20.2400 Y-2.1940
G01 X20.3135 Y-2.1976
G01 X20.3863 Y-2.2084
G01 X20.4577 Y-2.2263
G01 X20.5270 Y-2.2511
G01 X20.5935 Y-2.2826
G01 X20.6567 Y-2.3204
G01 X20.7158 Y-2.3642
G01 X20.7703 Y-2.4137
G01 X20.8198 Y-2.4682
G01 X20.8636 Y-2.5273
G01 X20.9014 Y-2.5905
G01 X20.9329 Y-2.6570
G01 X20.9577 Y-2.7263
G01 X20.9756 Y-2.7977
G01 X20.9864 Y-2.8705
G01 X20.9900 Y-2.9440
G00 Z2.0000
G00 X20.9900 Y-66.0600
G01 F72.00
G01 Z-1.6500
G01 F200.00
G01 X20.9864 Y-66.1335
G01 X20.9756 Y-66.2063
G01 X20.9577 Y-66.2777
G01 X20.9329 Y-66.3470
G01 X20.9014 Y-66.4135
G01 X20.8636 Y-66.4767
G01 X20.8198 Y-66.5358
G01 X20.7703 Y-66.5903
G01 X20.7158 Y-66.6398
G01 X20.6567 Y-66.6836
G01 X20.5935 Y-66.7214
G01 X20.5270 Y-66.7529
G01 X20.4577 Y-66.7777
G01 X20.3863 Y-66.7956
G01 X20.3135 Y-66.8064
G01 X20.2400 Y-66.8100
G01 X20.1665 Y-66.8064
G01 X20.0937 Y-66.7956
G01 X20.0223 Y-66.7777
G01 X19.9530 Y-66.7529
G01 X19.8865 Y-66.7214
G01 X19.8233 Y-66.6836
G01 X19.7642 Y-66.6398
G01 X19.7097 Y-66.5903
G01 X19.6602 Y-66.5358
G01 X19.6164 Y-66.4767
G01 X19.5786 Y-66.4135
G01 X19.5471 Y-66.3470
G01 X19.5223 Y-66.2777
G01 X19.5044 Y-66.2063
G01 X19.4936 Y-66.1335
G01 X19.4900 Y-66.0600
G01 X19.4936 Y-65.9865
G01 X19.5044 Y-65.9137
G01 X19.5223 Y-65.8423
G01 X19.5471 Y-65.7730
G01 X19.5786 Y-65.7065
G01 X19.6164 Y-65.6433
G01 X19.6602 Y-65.5842
G01 X19.7097 Y-65.5297
G01 X19.7642 Y-65.4802
G01 X19.8233 Y-65.4364
G01 X19.8865 Y-65.3986
G01 X19.9530 Y-65.3671
G01 X20.0223 Y-65.3423
G01 X20.0937 Y-65.3244
G01 X20.1665 Y-65.3136
G01 X20.2400 Y-65.3100
G01 X20.3135 Y-65.3136
G01 X20.3863 Y-65.3244
G01 X20.4577 Y-65.3423
G01 X20.5270 Y-65.3671
G01 X20.5935 Y-65.3986
G01 X20.6567 Y-65.4364
G01 X20.7158 Y-65.4802
G01 X20.7703 Y-65.5297
G01 X20.8198 Y-65.5842
G01 X20.8636 Y-65.6433
G01 X20.9014 Y-65.7065
G01 X20.9329 Y-65.7730
G01 X20.9577 Y-65.8423
G01 X20.9756 Y-65.9137
G01 X20.9864 Y-65.9865
G01 X20.9900 Y-66.0600
G00 Z2.0000
M05
G00 Z2.0000
G00 Z45.00


M30
