(G-CODE GENERATED BY FLATCAM v8.994 - www.flatcam.org - Version Date: 2020/11/7)

(Name: Ultra_Light-F_Cu.gbr_iso_combined_cnc)
(Type: G-code from Geometry)
(Units: MM)

(Created on Sunday, 07 April 2024 at 19:22)

(This preprocessor is the default preprocessor used by FlatCAM.)
(It is made to work with MACH3 compatible motion controllers.)

(TOOL DIAMETER: 0.4732 mm)
(Feedrate_XY: 240.0 mm/min)
(Feedrate_Z: 60.0 mm/min)
(Feedrate rapids 1500.0 mm/min)

(Z_Cut: -0.15 mm)
(Z_Move: 0.5 mm)
(Z Start: None mm)
(Z End: 15.0 mm)
(X,Y End: None mm)
(Steps per circle: 64)
(Preprocessor Geometry: default)

(X range:   -0.4723 ...   16.8718  mm)
(Y range:  -12.8718 ...    0.8718  mm)

(Spindle Speed: 12000.0 RPM)
G21
G90
G94

G01 F240.00

M5
G00 Z15.0000
G00 X0.0000 Y0.0000
T2
M6    
(MSG, Change to Tool Dia = 0.4732)
M0
G00 Z15.0000

M03 S12000.0
G01 F240.00
G00 X0.9000 Y-3.3766
G01 F60.00
G01 Z-0.1500
G01 F240.00
G01 X8.9000 Y-3.3766
G01 X8.9116 Y-3.3763
G01 X8.9290 Y-3.3748
G01 X8.9462 Y-3.3721
G01 X8.9631 Y-3.3680
G01 X8.9742 Y-3.3647
G01 X8.9905 Y-3.3586
G01 X9.0064 Y-3.3513
G01 X9.0166 Y-3.3459
G01 X9.0314 Y-3.3367
G01 X9.0456 Y-3.3265
G01 X9.0545 Y-3.3192
G01 X9.0673 Y-3.3073
G01 X9.0792 Y-3.2945
G01 X9.0865 Y-3.2856
G01 X9.0967 Y-3.2714
G01 X9.1059 Y-3.2566
G01 X9.1113 Y-3.2464
G01 X9.1163 Y-3.2359
G01 X9.1207 Y-3.2252
G01 X9.1247 Y-3.2142
G01 X9.1280 Y-3.2031
G01 X9.1309 Y-3.1918
G01 X9.1331 Y-3.1804
G01 X9.1348 Y-3.1690
G01 X9.1360 Y-3.1574
G01 X9.1366 Y-3.1400
G01 X9.1366 Y-2.9266
G01 X9.1689 Y-2.9266
G01 X9.1813 Y-2.9836
G01 X9.1844 Y-2.9950
G01 X9.1881 Y-3.0062
G01 X9.1923 Y-3.0173
G01 X9.1996 Y-3.0334
G01 X9.2082 Y-3.0490
G01 X9.2145 Y-3.0590
G01 X9.2249 Y-3.0733
G01 X9.2324 Y-3.0825
G01 X9.2782 Y-3.1353
G01 X9.2902 Y-3.1481
G01 X9.2987 Y-3.1562
G01 X9.3122 Y-3.1675
G01 X9.3266 Y-3.1778
G01 X9.3416 Y-3.1869
G01 X9.3520 Y-3.1924
G01 X9.3627 Y-3.1973
G01 X9.3736 Y-3.2017
G01 X9.3847 Y-3.2056
G01 X9.4628 Y-3.2285
G01 X9.4737 Y-3.2312
G01 X9.4903 Y-3.2342
G01 X9.5071 Y-3.2360
G01 X9.5240 Y-3.2366
G01 X9.6870 Y-3.2366
G01 X9.7035 Y-3.2360
G01 X9.7144 Y-3.2350
G01 X9.7307 Y-3.2325
G01 X9.7814 Y-3.2229
G01 X9.7985 Y-3.2186
G01 X9.8152 Y-3.2130
G01 X9.8314 Y-3.2062
G01 X9.8471 Y-3.1983
G01 X9.8622 Y-3.1891
G01 X9.8765 Y-3.1789
G01 X9.9318 Y-3.1362
G01 X9.9406 Y-3.1292
G01 X9.9490 Y-3.1217
G01 X9.9609 Y-3.1097
G01 X9.9719 Y-3.0969
G01 X10.0039 Y-3.0533
G01 X10.1076 Y-2.9599
G01 X10.2285 Y-2.8902
G01 X10.3612 Y-2.8470
G01 X10.4652 Y-2.8361
G01 X10.5348 Y-2.8361
G01 X10.6388 Y-2.8470
G01 X10.7715 Y-2.8902
G01 X10.8924 Y-2.9599
G01 X10.9961 Y-3.0533
G01 X11.0245 Y-3.0924
G01 X11.0350 Y-3.1051
G01 X11.0424 Y-3.1132
G01 X11.0878 Y-3.1563
G01 X11.1013 Y-3.1676
G01 X11.1156 Y-3.1778
G01 X11.1307 Y-3.1869
G01 X11.1411 Y-3.1924
G01 X11.1517 Y-3.1973
G01 X11.1681 Y-3.2037
G01 X11.1793 Y-3.2073
G01 X11.2517 Y-3.2285
G01 X11.2682 Y-3.2323
G01 X11.2849 Y-3.2349
G01 X11.2961 Y-3.2360
G01 X11.3130 Y-3.2366
G01 X11.7504 Y-3.2366
G01 X11.7673 Y-3.2360
G01 X11.7785 Y-3.2349
G01 X11.7952 Y-3.2323
G01 X11.8117 Y-3.2285
G01 X11.8949 Y-3.2039
G01 X11.9106 Y-3.1978
G01 X11.9259 Y-3.1906
G01 X11.9406 Y-3.1823
G01 X11.9654 Y-3.1665
G01 X12.0277 Y-3.1458
G01 X12.0544 Y-3.1399
G01 X12.1367 Y-3.1311
G01 X12.4657 Y-3.1311
G01 X12.5746 Y-3.1468
G01 X12.6189 Y-3.1595
G01 X12.6541 Y-3.1668
G01 X12.6710 Y-3.1689
G01 X12.6824 Y-3.1697
G01 X12.6937 Y-3.1699
G01 X12.7108 Y-3.1692
G01 X12.7277 Y-3.1672
G01 X12.8026 Y-3.1558
G01 X12.8199 Y-3.1521
G01 X12.8368 Y-3.1471
G01 X12.8532 Y-3.1409
G01 X12.8692 Y-3.1334
G01 X12.8795 Y-3.1278
G01 X12.8895 Y-3.1217
G01 X13.3650 Y-3.1217
G01 X13.4069 Y-3.1199
G01 X13.4242 Y-3.1180
G01 X13.4600 Y-3.1124
G01 X13.4713 Y-3.1098
G01 X13.5063 Y-3.1008
G01 X13.5404 Y-3.0889
G01 X13.5513 Y-3.0847
G01 X13.5841 Y-3.0695
G01 X13.5981 Y-3.0622
G01 X13.6701 Y-3.0877
G01 X13.6813 Y-3.0908
G01 X13.7669 Y-3.1122
G01 X13.7783 Y-3.1148
G01 X13.7897 Y-3.1167
G01 X13.8771 Y-3.1297
G01 X13.8886 Y-3.1311
G01 X13.9002 Y-3.1320
G01 X13.9942 Y-3.1365
G01 X14.0116 Y-3.1363
G01 X14.0907 Y-3.1324
G01 X14.2333 Y-3.2749
G01 X14.2476 Y-3.2874
G01 X14.2728 Y-3.3076
G01 X14.2822 Y-3.3145
G01 X14.2919 Y-3.3208
G01 X14.3071 Y-3.3295
G01 X14.3228 Y-3.3370
G01 X14.3335 Y-3.3413
G01 X14.3501 Y-3.3468
G01 X14.4171 Y-3.3665
G01 X14.4280 Y-3.3694
G01 X14.4390 Y-3.3718
G01 X14.4501 Y-3.3737
G01 X14.4613 Y-3.3750
G01 X14.4725 Y-3.3758
G01 X14.4838 Y-3.3761
G01 X14.9352 Y-3.3761
G01 X14.9526 Y-3.3780
G01 X15.0489 Y-3.4139
G01 X15.0660 Y-3.4195
G01 X15.0777 Y-3.4226
G01 X15.0895 Y-3.4250
G01 X15.1448 Y-3.4347
G01 X15.1568 Y-3.4359
G01 X15.1749 Y-3.4366
G01 X15.3755 Y-3.4366
G01 X15.3868 Y-3.4363
G01 X15.3980 Y-3.4355
G01 X15.4092 Y-3.4342
G01 X15.4203 Y-3.4323
G01 X15.4831 Y-3.4187
G01 X15.4945 Y-3.4156
G01 X15.5057 Y-3.4119
G01 X15.5222 Y-3.4054
G01 X15.5382 Y-3.3977
G01 X15.5535 Y-3.3887
G01 X15.5681 Y-3.3787
G01 X15.5820 Y-3.3676
G01 X15.6391 Y-3.3179
G01 X15.6517 Y-3.3056
G01 X15.6596 Y-3.2969
G01 X15.6705 Y-3.2831
G01 X15.6773 Y-3.2734
G01 X15.6835 Y-3.2635
G01 X15.6919 Y-3.2480
G01 X15.6968 Y-3.2373
G01 X15.7012 Y-3.2264
G01 X15.7068 Y-3.2097
G01 X15.7294 Y-3.1318
G01 X15.7318 Y-3.1208
G01 X15.7337 Y-3.1097
G01 X15.7350 Y-3.0985
G01 X15.7358 Y-3.0873
G01 X15.7361 Y-3.0760
G01 X15.7361 Y-2.6581
G01 X15.7358 Y-2.6464
G01 X15.7350 Y-2.6348
G01 X15.7335 Y-2.6232
G01 X15.7315 Y-2.6118
G01 X15.7183 Y-2.5529
G01 X15.7139 Y-2.5363
G01 X15.7084 Y-2.5201
G01 X15.7040 Y-2.5095
G01 X15.6992 Y-2.4992
G01 X15.6938 Y-2.4891
G01 X15.6880 Y-2.4792
G01 X15.6817 Y-2.4697
G01 X15.6749 Y-2.4605
G01 X15.6677 Y-2.4516
G01 X15.6135 Y-2.3908
G01 X15.6052 Y-2.3825
G01 X15.5965 Y-2.3745
G01 X15.5875 Y-2.3670
G01 X15.5781 Y-2.3600
G01 X15.5684 Y-2.3534
G01 X15.5583 Y-2.3473
G01 X15.5480 Y-2.3418
G01 X15.5373 Y-2.3367
G01 X15.5265 Y-2.3322
G01 X15.5098 Y-2.3264
G01 X15.4312 Y-2.3046
G01 X15.4197 Y-2.3020
G01 X15.4081 Y-2.3000
G01 X15.3906 Y-2.2981
G01 X15.3730 Y-2.2975
G01 X15.3554 Y-2.2982
G01 X15.3414 Y-2.2997
G01 X15.1324 Y-2.0907
G01 X15.1366 Y-2.0000
G01 X15.1324 Y-1.9093
G01 X15.3411 Y-1.7006
G01 X15.3623 Y-1.7012
G01 X15.3799 Y-1.7002
G01 X15.3915 Y-1.6988
G01 X15.4723 Y-1.6869
G01 X15.4894 Y-1.6829
G01 X15.5062 Y-1.6776
G01 X15.5226 Y-1.6711
G01 X15.5385 Y-1.6634
G01 X15.5487 Y-1.6576
G01 X15.5586 Y-1.6513
G01 X15.5729 Y-1.6410
G01 X15.6348 Y-1.5878
G01 X15.6476 Y-1.5757
G01 X15.6557 Y-1.5672
G01 X15.6633 Y-1.5583
G01 X15.6740 Y-1.5442
G01 X15.6835 Y-1.5294
G01 X15.6892 Y-1.5191
G01 X15.6944 Y-1.5086
G01 X15.6991 Y-1.4978
G01 X15.7051 Y-1.4812
G01 X15.7280 Y-1.4031
G01 X15.7307 Y-1.3922
G01 X15.7328 Y-1.3811
G01 X15.7350 Y-1.3644
G01 X15.7358 Y-1.3532
G01 X15.7361 Y-1.3419
G01 X15.7361 Y-0.6245
G01 X15.7358 Y-0.6132
G01 X15.7350 Y-0.6020
G01 X15.7337 Y-0.5908
G01 X15.7318 Y-0.5797
G01 X15.7195 Y-0.5227
G01 X15.7151 Y-0.5055
G01 X15.7114 Y-0.4943
G01 X15.7072 Y-0.4832
G01 X15.7024 Y-0.4724
G01 X15.6972 Y-0.4618
G01 X15.6882 Y-0.4465
G01 X15.6817 Y-0.4367
G01 X15.6746 Y-0.4272
G01 X15.6671 Y-0.4180
G01 X15.6134 Y-0.3566
G01 X15.6008 Y-0.3443
G01 X15.5919 Y-0.3367
G01 X15.5826 Y-0.3295
G01 X15.5729 Y-0.3227
G01 X15.5630 Y-0.3165
G01 X15.5475 Y-0.3081
G01 X15.5314 Y-0.3009
G01 X15.5148 Y-0.2949
G01 X15.4422 Y-0.2735
G01 X15.4258 Y-0.2693
G01 X15.4092 Y-0.2663
G01 X15.3924 Y-0.2645
G01 X15.3755 Y-0.2639
G01 X14.6603 Y-0.2639
G01 X14.6421 Y-0.2646
G01 X14.6239 Y-0.2667
G01 X14.5741 Y-0.2757
G01 X14.5571 Y-0.2795
G01 X14.5460 Y-0.2827
G01 X14.5295 Y-0.2885
G01 X14.5189 Y-0.2930
G01 X14.5084 Y-0.2980
G01 X14.4932 Y-0.3066
G01 X14.4787 Y-0.3162
G01 X14.4183 Y-0.3617
G01 X14.4091 Y-0.3690
G01 X14.4003 Y-0.3768
G01 X14.3918 Y-0.3850
G01 X14.3838 Y-0.3935
G01 X14.3726 Y-0.4072
G01 X14.3657 Y-0.4167
G01 X14.3563 Y-0.4316
G01 X14.3480 Y-0.4471
G01 X14.3431 Y-0.4578
G01 X14.3388 Y-0.4687
G01 X14.3108 Y-0.5454
G01 X14.3076 Y-0.5567
G01 X14.3049 Y-0.5681
G01 X14.3028 Y-0.5797
G01 X14.3008 Y-0.5972
G01 X14.3001 Y-0.6089
G01 X14.3003 Y-0.6266
G01 X14.3011 Y-0.6383
G01 X14.3033 Y-0.6550
G01 X14.0907 Y-0.8676
G01 X14.0000 Y-0.8634
G01 X13.9093 Y-0.8676
G01 X13.6985 Y-0.6568
G01 X13.6990 Y-0.6377
G01 X13.6984 Y-0.6260
G01 X13.6974 Y-0.6143
G01 X13.6866 Y-0.5393
G01 X13.6847 Y-0.5277
G01 X13.6807 Y-0.5106
G01 X13.6754 Y-0.4938
G01 X13.6689 Y-0.4774
G01 X13.6639 Y-0.4668
G01 X13.6583 Y-0.4564
G01 X13.6491 Y-0.4414
G01 X13.6423 Y-0.4318
G01 X13.6351 Y-0.4225
G01 X13.5855 Y-0.3652
G01 X13.5776 Y-0.3566
G01 X13.5693 Y-0.3483
G01 X13.5605 Y-0.3404
G01 X13.5514 Y-0.3330
G01 X13.5419 Y-0.3260
G01 X13.5321 Y-0.3196
G01 X13.5220 Y-0.3136
G01 X13.5116 Y-0.3081
G01 X13.5010 Y-0.3032
G01 X13.4901 Y-0.2988
G01 X13.4734 Y-0.2932
G01 X13.3954 Y-0.2706
G01 X13.3844 Y-0.2682
G01 X13.3733 Y-0.2663
G01 X13.3565 Y-0.2645
G01 X13.3453 Y-0.2640
G01 X12.3240 Y-0.2639
G01 X12.3071 Y-0.2645
G01 X12.2903 Y-0.2663
G01 X12.2737 Y-0.2693
G01 X12.2222 Y-0.2805
G01 X12.2050 Y-0.2849
G01 X12.1938 Y-0.2886
G01 X12.1827 Y-0.2928
G01 X12.1719 Y-0.2976
G01 X12.1561 Y-0.3057
G01 X12.1460 Y-0.3118
G01 X12.1362 Y-0.3183
G01 X12.1267 Y-0.3254
G01 X12.1175 Y-0.3329
G01 X12.0604 Y-0.3826
G01 X12.0478 Y-0.3949
G01 X12.0362 Y-0.4081
G01 X12.0255 Y-0.4222
G01 X12.0160 Y-0.4370
G01 X12.0076 Y-0.4525
G01 X12.0027 Y-0.4632
G01 X11.9983 Y-0.4741
G01 X11.9944 Y-0.4852
G01 X11.9730 Y-0.5578
G01 X11.9701 Y-0.5687
G01 X11.9677 Y-0.5797
G01 X11.9658 Y-0.5908
G01 X11.9645 Y-0.6020
G01 X11.9635 Y-0.6189
G01 X11.9634 Y-0.6634
G01 X9.4854 Y-0.6634
G01 X9.4664 Y-0.6642
G01 X9.4223 Y-0.6691
G01 X9.4108 Y-0.6712
G01 X9.3995 Y-0.6738
G01 X9.3884 Y-0.6770
G01 X9.3774 Y-0.6808
G01 X9.3613 Y-0.6874
G01 X9.3508 Y-0.6925
G01 X9.2844 Y-0.7287
G01 X9.2742 Y-0.7345
G01 X9.2595 Y-0.7443
G01 X9.2501 Y-0.7514
G01 X9.2411 Y-0.7590
G01 X9.2284 Y-0.7711
G01 X9.2166 Y-0.7842
G01 X9.2092 Y-0.7934
G01 X9.1991 Y-0.8078
G01 X9.1930 Y-0.8178
G01 X9.1566 Y-0.8843
G01 X9.1512 Y-0.8947
G01 X9.1464 Y-0.9054
G01 X9.1421 Y-0.9163
G01 X9.1366 Y-0.9331
G01 X9.1337 Y-0.9445
G01 X9.1304 Y-0.9618
G01 X9.1289 Y-0.9734
G01 X9.1278 Y-0.9910
G01 X9.1277 Y-1.0028
G01 X9.1283 Y-1.0145
G01 X9.1337 Y-1.0898
G01 X9.1359 Y-1.1066
G01 X9.1381 Y-1.1176
G01 X9.1407 Y-1.1286
G01 X9.1457 Y-1.1447
G01 X9.1615 Y-1.1875
G01 X9.1634 Y-1.2049
G01 X9.1634 Y-1.4534
G01 X9.1366 Y-1.4534
G01 X9.1366 Y-1.2400
G01 X9.1363 Y-1.2284
G01 X9.1355 Y-1.2168
G01 X9.1340 Y-1.2053
G01 X9.1321 Y-1.1938
G01 X9.1295 Y-1.1825
G01 X9.1264 Y-1.1713
G01 X9.1228 Y-1.1603
G01 X9.1186 Y-1.1495
G01 X9.1139 Y-1.1388
G01 X9.1059 Y-1.1234
G01 X9.0967 Y-1.1086
G01 X9.0900 Y-1.0991
G01 X9.0792 Y-1.0855
G01 X9.0714 Y-1.0769
G01 X9.0631 Y-1.0686
G01 X9.0501 Y-1.0571
G01 X9.0362 Y-1.0466
G01 X9.0266 Y-1.0401
G01 X9.0115 Y-1.0313
G01 X9.0012 Y-1.0261
G01 X8.9852 Y-1.0193
G01 X8.9687 Y-1.0136
G01 X8.9575 Y-1.0105
G01 X8.9404 Y-1.0069
G01 X8.9232 Y-1.0045
G01 X8.9116 Y-1.0037
G01 X8.9000 Y-1.0034
G01 X0.9000 Y-1.0034
G01 X0.8884 Y-1.0037
G01 X0.8768 Y-1.0045
G01 X0.8653 Y-1.0060
G01 X0.8538 Y-1.0079
G01 X0.8425 Y-1.0105
G01 X0.8313 Y-1.0136
G01 X0.8148 Y-1.0193
G01 X0.7988 Y-1.0261
G01 X0.7834 Y-1.0341
G01 X0.7686 Y-1.0433
G01 X0.7591 Y-1.0500
G01 X0.7499 Y-1.0571
G01 X0.7369 Y-1.0686
G01 X0.7247 Y-1.0811
G01 X0.7135 Y-1.0944
G01 X0.7066 Y-1.1038
G01 X0.7001 Y-1.1134
G01 X0.6913 Y-1.1285
G01 X0.6837 Y-1.1441
G01 X0.6772 Y-1.1603
G01 X0.6720 Y-1.1769
G01 X0.6691 Y-1.1882
G01 X0.6669 Y-1.1996
G01 X0.6645 Y-1.2168
G01 X0.6637 Y-1.2284
G01 X0.6634 Y-1.2400
G01 X0.6635 Y-3.1458
G01 X0.6640 Y-3.1574
G01 X0.6652 Y-3.1690
G01 X0.6669 Y-3.1804
G01 X0.6691 Y-3.1918
G01 X0.6720 Y-3.2031
G01 X0.6753 Y-3.2142
G01 X0.6793 Y-3.2252
G01 X0.6837 Y-3.2359
G01 X0.6887 Y-3.2464
G01 X0.6941 Y-3.2566
G01 X0.7001 Y-3.2666
G01 X0.7066 Y-3.2762
G01 X0.7135 Y-3.2856
G01 X0.7208 Y-3.2945
G01 X0.7286 Y-3.3031
G01 X0.7369 Y-3.3114
G01 X0.7455 Y-3.3192
G01 X0.7544 Y-3.3265
G01 X0.7638 Y-3.3334
G01 X0.7734 Y-3.3399
G01 X0.7834 Y-3.3459
G01 X0.7936 Y-3.3513
G01 X0.8041 Y-3.3563
G01 X0.8148 Y-3.3607
G01 X0.8258 Y-3.3647
G01 X0.8369 Y-3.3680
G01 X0.8538 Y-3.3721
G01 X0.8653 Y-3.3740
G01 X0.8768 Y-3.3755
G01 X0.8884 Y-3.3763
G01 X0.9000 Y-3.3766
G00 Z0.5000
G00 X1.4000 Y-5.9366
G01 F60.00
G01 Z-0.1500
G01 F240.00
G01 X8.9000 Y-5.9366
G01 X8.9174 Y-5.9360
G01 X8.9347 Y-5.9340
G01 X8.9518 Y-5.9309
G01 X8.9687 Y-5.9264
G01 X8.9797 Y-5.9228
G01 X8.9905 Y-5.9186
G01 X9.0064 Y-5.9113
G01 X9.0216 Y-5.9029
G01 X9.0362 Y-5.8934
G01 X9.0501 Y-5.8829
G01 X9.0631 Y-5.8714
G01 X9.0753 Y-5.8589
G01 X9.0865 Y-5.8456
G01 X9.0967 Y-5.8314
G01 X9.1059 Y-5.8166
G01 X9.1139 Y-5.8012
G01 X9.1207 Y-5.7852
G01 X9.1264 Y-5.7687
G01 X9.1309 Y-5.7518
G01 X9.1340 Y-5.7347
G01 X9.1360 Y-5.7174
G01 X9.1366 Y-5.7000
G01 X9.1366 Y-3.7000
G01 X9.1360 Y-3.6826
G01 X9.1340 Y-3.6653
G01 X9.1309 Y-3.6482
G01 X9.1264 Y-3.6313
G01 X9.1207 Y-3.6148
G01 X9.1139 Y-3.5988
G01 X9.1059 Y-3.5834
G01 X9.0967 Y-3.5686
G01 X9.0865 Y-3.5544
G01 X9.0753 Y-3.5411
G01 X9.0673 Y-3.5327
G01 X9.0589 Y-3.5247
G01 X9.0456 Y-3.5135
G01 X9.0314 Y-3.5033
G01 X9.0166 Y-3.4941
G01 X9.0012 Y-3.4861
G01 X8.9905 Y-3.4814
G01 X8.9797 Y-3.4772
G01 X8.9631 Y-3.4720
G01 X8.9462 Y-3.4679
G01 X8.9290 Y-3.4652
G01 X8.9174 Y-3.4640
G01 X8.9058 Y-3.4635
G01 X1.4000 Y-3.4634
G01 X1.3826 Y-3.4640
G01 X1.3653 Y-3.4660
G01 X1.3482 Y-3.4691
G01 X1.3313 Y-3.4736
G01 X1.3148 Y-3.4793
G01 X1.2988 Y-3.4861
G01 X1.2885 Y-3.4913
G01 X1.2784 Y-3.4971
G01 X1.2638 Y-3.5066
G01 X1.2499 Y-3.5171
G01 X1.2369 Y-3.5286
G01 X1.2247 Y-3.5411
G01 X1.2135 Y-3.5544
G01 X1.2033 Y-3.5686
G01 X1.1941 Y-3.5834
G01 X1.1861 Y-3.5988
G01 X1.1793 Y-3.6148
G01 X1.1736 Y-3.6313
G01 X1.1691 Y-3.6482
G01 X1.1660 Y-3.6653
G01 X1.1640 Y-3.6826
G01 X1.1634 Y-3.7000
G01 X1.1635 Y-5.7058
G01 X1.1640 Y-5.7174
G01 X1.1652 Y-5.7290
G01 X1.1669 Y-5.7404
G01 X1.1691 Y-5.7518
G01 X1.1720 Y-5.7631
G01 X1.1753 Y-5.7742
G01 X1.1793 Y-5.7852
G01 X1.1837 Y-5.7959
G01 X1.1887 Y-5.8064
G01 X1.1941 Y-5.8166
G01 X1.2001 Y-5.8266
G01 X1.2066 Y-5.8362
G01 X1.2135 Y-5.8456
G01 X1.2208 Y-5.8545
G01 X1.2327 Y-5.8673
G01 X1.2411 Y-5.8753
G01 X1.2499 Y-5.8829
G01 X1.2591 Y-5.8900
G01 X1.2686 Y-5.8967
G01 X1.2784 Y-5.9029
G01 X1.2885 Y-5.9087
G01 X1.2988 Y-5.9139
G01 X1.3095 Y-5.9186
G01 X1.3203 Y-5.9228
G01 X1.3313 Y-5.9264
G01 X1.3425 Y-5.9295
G01 X1.3538 Y-5.9321
G01 X1.3653 Y-5.9340
G01 X1.3768 Y-5.9355
G01 X1.3884 Y-5.9363
G01 X1.4000 Y-5.9366
G00 Z0.5000
G00 X1.4000 Y-8.5366
G01 F60.00
G01 Z-0.1500
G01 F240.00
G01 X8.9000 Y-8.5366
G01 X8.9174 Y-8.5360
G01 X8.9347 Y-8.5340
G01 X8.9518 Y-8.5309
G01 X8.9687 Y-8.5264
G01 X8.9852 Y-8.5207
G01 X9.0012 Y-8.5139
G01 X9.0115 Y-8.5087
G01 X9.0216 Y-8.5029
G01 X9.0362 Y-8.4934
G01 X9.0501 Y-8.4829
G01 X9.0631 Y-8.4714
G01 X9.0753 Y-8.4589
G01 X9.0865 Y-8.4456
G01 X9.0967 Y-8.4314
G01 X9.1059 Y-8.4166
G01 X9.1139 Y-8.4012
G01 X9.1207 Y-8.3852
G01 X9.1264 Y-8.3687
G01 X9.1309 Y-8.3518
G01 X9.1340 Y-8.3347
G01 X9.1360 Y-8.3174
G01 X9.1366 Y-8.3000
G01 X9.1366 Y-6.3000
G01 X9.1360 Y-6.2826
G01 X9.1340 Y-6.2653
G01 X9.1309 Y-6.2482
G01 X9.1264 Y-6.2313
G01 X9.1207 Y-6.2148
G01 X9.1139 Y-6.1988
G01 X9.1059 Y-6.1834
G01 X9.0967 Y-6.1686
G01 X9.0865 Y-6.1544
G01 X9.0753 Y-6.1411
G01 X9.0631 Y-6.1286
G01 X9.0545 Y-6.1208
G01 X9.0456 Y-6.1135
G01 X9.0362 Y-6.1066
G01 X9.0266 Y-6.1001
G01 X9.0115 Y-6.0913
G01 X8.9959 Y-6.0837
G01 X8.9797 Y-6.0772
G01 X8.9631 Y-6.0720
G01 X8.9462 Y-6.0679
G01 X8.9347 Y-6.0660
G01 X8.9232 Y-6.0645
G01 X8.9058 Y-6.0635
G01 X1.4000 Y-6.0634
G01 X1.3826 Y-6.0640
G01 X1.3653 Y-6.0660
G01 X1.3482 Y-6.0691
G01 X1.3313 Y-6.0736
G01 X1.3148 Y-6.0793
G01 X1.2988 Y-6.0861
G01 X1.2834 Y-6.0941
G01 X1.2686 Y-6.1033
G01 X1.2591 Y-6.1100
G01 X1.2499 Y-6.1171
G01 X1.2369 Y-6.1286
G01 X1.2247 Y-6.1411
G01 X1.2135 Y-6.1544
G01 X1.2033 Y-6.1686
G01 X1.1941 Y-6.1834
G01 X1.1861 Y-6.1988
G01 X1.1793 Y-6.2148
G01 X1.1736 Y-6.2313
G01 X1.1691 Y-6.2482
G01 X1.1660 Y-6.2653
G01 X1.1640 Y-6.2826
G01 X1.1634 Y-6.3000
G01 X1.1635 Y-8.3058
G01 X1.1640 Y-8.3174
G01 X1.1652 Y-8.3290
G01 X1.1669 Y-8.3404
G01 X1.1691 Y-8.3518
G01 X1.1720 Y-8.3631
G01 X1.1753 Y-8.3742
G01 X1.1793 Y-8.3852
G01 X1.1837 Y-8.3959
G01 X1.1887 Y-8.4064
G01 X1.1941 Y-8.4166
G01 X1.2001 Y-8.4266
G01 X1.2066 Y-8.4362
G01 X1.2135 Y-8.4456
G01 X1.2208 Y-8.4545
G01 X1.2327 Y-8.4673
G01 X1.2411 Y-8.4753
G01 X1.2499 Y-8.4829
G01 X1.2591 Y-8.4900
G01 X1.2686 Y-8.4967
G01 X1.2784 Y-8.5029
G01 X1.2885 Y-8.5087
G01 X1.2988 Y-8.5139
G01 X1.3095 Y-8.5186
G01 X1.3203 Y-8.5228
G01 X1.3313 Y-8.5264
G01 X1.3425 Y-8.5295
G01 X1.3538 Y-8.5321
G01 X1.3653 Y-8.5340
G01 X1.3768 Y-8.5355
G01 X1.3884 Y-8.5363
G01 X1.4000 Y-8.5366
G00 Z0.5000
G00 X0.9000 Y-10.9966
G01 F60.00
G01 Z-0.1500
G01 F240.00
G01 X8.9000 Y-10.9966
G01 X8.9116 Y-10.9963
G01 X8.9290 Y-10.9948
G01 X8.9404 Y-10.9931
G01 X8.9575 Y-10.9895
G01 X8.9687 Y-10.9864
G01 X8.9852 Y-10.9807
G01 X8.9959 Y-10.9763
G01 X9.0064 Y-10.9713
G01 X9.0216 Y-10.9629
G01 X9.0362 Y-10.9534
G01 X9.0456 Y-10.9465
G01 X9.0545 Y-10.9392
G01 X9.0673 Y-10.9273
G01 X9.0792 Y-10.9145
G01 X9.0865 Y-10.9056
G01 X9.0967 Y-10.8914
G01 X9.1059 Y-10.8766
G01 X9.1113 Y-10.8664
G01 X9.1163 Y-10.8559
G01 X9.1207 Y-10.8452
G01 X9.1247 Y-10.8342
G01 X9.1280 Y-10.8231
G01 X9.1309 Y-10.8118
G01 X9.1331 Y-10.8004
G01 X9.1355 Y-10.7832
G01 X9.1363 Y-10.7716
G01 X9.1366 Y-10.7600
G01 X9.1366 Y-10.5466
G01 X9.1634 Y-10.5466
G01 X9.1634 Y-10.7952
G01 X9.1583 Y-10.8432
G01 X9.1575 Y-10.8604
G01 X9.1577 Y-10.8720
G01 X9.1584 Y-10.8834
G01 X9.1597 Y-10.8949
G01 X9.1710 Y-10.9654
G01 X9.1744 Y-10.9821
G01 X9.1789 Y-10.9986
G01 X9.1846 Y-11.0146
G01 X9.1915 Y-11.0303
G01 X9.1994 Y-11.0454
G01 X9.2085 Y-11.0599
G01 X9.2151 Y-11.0692
G01 X9.2221 Y-11.0781
G01 X9.2754 Y-11.1396
G01 X9.2836 Y-11.1481
G01 X9.2921 Y-11.1562
G01 X9.3056 Y-11.1675
G01 X9.3151 Y-11.1745
G01 X9.3249 Y-11.1809
G01 X9.3402 Y-11.1897
G01 X9.3507 Y-11.1949
G01 X9.3615 Y-11.1996
G01 X9.3725 Y-11.2037
G01 X9.3837 Y-11.2073
G01 X9.4616 Y-11.2299
G01 X9.4726 Y-11.2323
G01 X9.4893 Y-11.2349
G01 X9.5005 Y-11.2360
G01 X9.5118 Y-11.2365
G01 X11.4020 Y-11.2366
G01 X11.7959 Y-11.6305
G01 X11.8051 Y-11.6392
G01 X11.8147 Y-11.6474
G01 X11.8399 Y-11.6676
G01 X11.8541 Y-11.6777
G01 X11.8640 Y-11.6838
G01 X11.8742 Y-11.6895
G01 X11.8899 Y-11.6970
G01 X11.9006 Y-11.7013
G01 X11.9172 Y-11.7068
G01 X11.9842 Y-11.7265
G01 X11.9951 Y-11.7294
G01 X12.0061 Y-11.7318
G01 X12.0172 Y-11.7337
G01 X12.0284 Y-11.7350
G01 X12.0396 Y-11.7358
G01 X12.0509 Y-11.7361
G01 X15.3755 Y-11.7361
G01 X15.3868 Y-11.7358
G01 X15.3980 Y-11.7350
G01 X15.4092 Y-11.7337
G01 X15.4203 Y-11.7318
G01 X15.4773 Y-11.7195
G01 X15.4888 Y-11.7167
G01 X15.5001 Y-11.7133
G01 X15.5113 Y-11.7094
G01 X15.5222 Y-11.7049
G01 X15.5329 Y-11.6999
G01 X15.5434 Y-11.6943
G01 X15.5535 Y-11.6882
G01 X15.5633 Y-11.6817
G01 X15.5728 Y-11.6746
G01 X15.5820 Y-11.6671
G01 X15.6434 Y-11.6134
G01 X15.6517 Y-11.6051
G01 X15.6596 Y-11.5964
G01 X15.6670 Y-11.5873
G01 X15.6740 Y-11.5778
G01 X15.6804 Y-11.5680
G01 X15.6864 Y-11.5579
G01 X15.6919 Y-11.5475
G01 X15.6968 Y-11.5368
G01 X15.7012 Y-11.5259
G01 X15.7051 Y-11.5148
G01 X15.7265 Y-11.4422
G01 X15.7307 Y-11.4258
G01 X15.7337 Y-11.4092
G01 X15.7355 Y-11.3924
G01 X15.7361 Y-11.3755
G01 X15.7361 Y-9.5240
G01 X15.7358 Y-9.5127
G01 X15.7350 Y-9.5015
G01 X15.7337 Y-9.4903
G01 X15.7318 Y-9.4792
G01 X15.7195 Y-9.4222
G01 X15.7167 Y-9.4107
G01 X15.7133 Y-9.3994
G01 X15.7094 Y-9.3882
G01 X15.7049 Y-9.3773
G01 X15.6999 Y-9.3666
G01 X15.6943 Y-9.3561
G01 X15.6882 Y-9.3460
G01 X15.6817 Y-9.3362
G01 X15.6746 Y-9.3267
G01 X15.6671 Y-9.3175
G01 X15.6213 Y-9.2647
G01 X15.6093 Y-9.2519
G01 X15.6008 Y-9.2438
G01 X15.5919 Y-9.2362
G01 X15.5826 Y-9.2290
G01 X15.5729 Y-9.2222
G01 X15.5630 Y-9.2160
G01 X15.5527 Y-9.2103
G01 X15.5422 Y-9.2051
G01 X15.5314 Y-9.2004
G01 X15.5204 Y-9.1963
G01 X15.5092 Y-9.1927
G01 X15.4367 Y-9.1715
G01 X15.4203 Y-9.1677
G01 X15.4092 Y-9.1658
G01 X15.3980 Y-9.1645
G01 X15.3811 Y-9.1635
G01 X15.3169 Y-9.1634
G01 X15.3055 Y-9.1637
G01 X15.2884 Y-9.1651
G01 X15.2772 Y-9.1668
G01 X15.2604 Y-9.1702
G01 X15.1865 Y-9.1903
G01 X15.1697 Y-9.1960
G01 X15.1534 Y-9.2030
G01 X15.1428 Y-9.2083
G01 X15.1274 Y-9.2172
G01 X15.1128 Y-9.2273
G01 X15.0990 Y-9.2384
G01 X15.0860 Y-9.2506
G01 X15.0738 Y-9.2634
G01 X14.7451 Y-9.2634
G01 X14.7251 Y-9.2487
G01 X14.7155 Y-9.2422
G01 X14.6794 Y-9.2209
G01 X14.6468 Y-9.2051
G01 X14.6362 Y-9.2004
G01 X14.5968 Y-9.1861
G01 X14.5857 Y-9.1827
G01 X14.5563 Y-9.1753
G01 X14.5449 Y-9.1727
G01 X14.5335 Y-9.1708
G01 X14.4977 Y-9.1657
G01 X14.4616 Y-9.1637
G01 X14.4500 Y-9.1634
G01 X13.5500 Y-9.1634
G01 X13.5081 Y-9.1652
G01 X13.4965 Y-9.1664
G01 X13.4665 Y-9.1708
G01 X13.4551 Y-9.1727
G01 X13.4437 Y-9.1753
G01 X13.4087 Y-9.1844
G01 X13.3692 Y-9.1983
G01 X13.3532 Y-9.2051
G01 X13.3258 Y-9.2182
G01 X13.3155 Y-9.2237
G01 X13.2797 Y-9.2454
G01 X13.2549 Y-9.2634
G01 X12.9278 Y-9.2634
G01 X12.9169 Y-9.2519
G01 X12.9084 Y-9.2438
G01 X12.8995 Y-9.2362
G01 X12.8902 Y-9.2290
G01 X12.8805 Y-9.2222
G01 X12.8706 Y-9.2160
G01 X12.8603 Y-9.2103
G01 X12.8498 Y-9.2051
G01 X12.8390 Y-9.2004
G01 X12.8224 Y-9.1944
G01 X12.7498 Y-9.1730
G01 X12.7389 Y-9.1701
G01 X12.7279 Y-9.1677
G01 X12.7112 Y-9.1651
G01 X12.7000 Y-9.1640
G01 X12.6831 Y-9.1634
G01 X12.0980 Y-9.1634
G01 X11.8036 Y-8.8690
G01 X11.7897 Y-8.8561
G01 X11.7549 Y-8.8284
G01 X11.7405 Y-8.8187
G01 X11.7253 Y-8.8100
G01 X11.7096 Y-8.8025
G01 X11.6989 Y-8.7982
G01 X11.6879 Y-8.7944
G01 X11.6044 Y-8.7701
G01 X11.5934 Y-8.7677
G01 X11.5823 Y-8.7658
G01 X11.5711 Y-8.7645
G01 X11.5599 Y-8.7637
G01 X11.5486 Y-8.7634
G01 X11.3130 Y-8.7634
G01 X11.2965 Y-8.7640
G01 X11.2856 Y-8.7650
G01 X11.2747 Y-8.7665
G01 X11.2186 Y-8.7771
G01 X11.2015 Y-8.7814
G01 X11.1848 Y-8.7870
G01 X11.1739 Y-8.7914
G01 X11.1633 Y-8.7963
G01 X11.1529 Y-8.8017
G01 X11.1378 Y-8.8109
G01 X11.1235 Y-8.8211
G01 X11.0594 Y-8.8708
G01 X11.0510 Y-8.8783
G01 X11.0430 Y-8.8862
G01 X11.0317 Y-8.8987
G01 X11.0213 Y-8.9120
G01 X10.9961 Y-8.9467
G01 X10.8924 Y-9.0401
G01 X10.7715 Y-9.1098
G01 X10.6388 Y-9.1530
G01 X10.5348 Y-9.1639
G01 X10.4652 Y-9.1639
G01 X10.3612 Y-9.1530
G01 X10.2285 Y-9.1098
G01 X10.1076 Y-9.0401
G01 X10.0039 Y-8.9467
G01 X9.9755 Y-8.9076
G01 X9.9686 Y-8.8991
G01 X9.9576 Y-8.8868
G01 X9.9122 Y-8.8437
G01 X9.8987 Y-8.8324
G01 X9.8844 Y-8.8222
G01 X9.8693 Y-8.8131
G01 X9.8536 Y-8.8051
G01 X9.8429 Y-8.8004
G01 X9.8263 Y-8.7944
G01 X9.7428 Y-8.7701
G01 X9.7318 Y-8.7677
G01 X9.7207 Y-8.7658
G01 X9.7039 Y-8.7640
G01 X9.6870 Y-8.7634
G01 X9.5240 Y-8.7634
G01 X9.5127 Y-8.7637
G01 X9.4959 Y-8.7651
G01 X9.4848 Y-8.7667
G01 X9.4737 Y-8.7688
G01 X9.4107 Y-8.7828
G01 X9.3994 Y-8.7862
G01 X9.3882 Y-8.7901
G01 X9.3773 Y-8.7946
G01 X9.3613 Y-8.8023
G01 X9.3510 Y-8.8082
G01 X9.3410 Y-8.8145
G01 X9.3314 Y-8.8213
G01 X9.3221 Y-8.8286
G01 X9.2604 Y-8.8821
G01 X9.2478 Y-8.8944
G01 X9.2362 Y-8.9076
G01 X9.2255 Y-8.9217
G01 X9.2160 Y-8.9365
G01 X9.2076 Y-8.9520
G01 X9.2004 Y-8.9681
G01 X9.1963 Y-8.9791
G01 X9.1927 Y-8.9903
G01 X9.1730 Y-9.0573
G01 X9.1689 Y-9.0734
G01 X9.1366 Y-9.0734
G01 X9.1366 Y-8.8600
G01 X9.1360 Y-8.8426
G01 X9.1348 Y-8.8310
G01 X9.1331 Y-8.8196
G01 X9.1309 Y-8.8082
G01 X9.1280 Y-8.7969
G01 X9.1247 Y-8.7858
G01 X9.1207 Y-8.7748
G01 X9.1163 Y-8.7641
G01 X9.1113 Y-8.7536
G01 X9.1029 Y-8.7384
G01 X9.0967 Y-8.7286
G01 X9.0865 Y-8.7144
G01 X9.0753 Y-8.7011
G01 X9.0631 Y-8.6886
G01 X9.0545 Y-8.6808
G01 X9.0409 Y-8.6700
G01 X9.0314 Y-8.6633
G01 X9.0166 Y-8.6541
G01 X9.0064 Y-8.6487
G01 X8.9905 Y-8.6414
G01 X8.9742 Y-8.6353
G01 X8.9631 Y-8.6320
G01 X8.9462 Y-8.6279
G01 X8.9290 Y-8.6252
G01 X8.9116 Y-8.6237
G01 X8.9000 Y-8.6234
G01 X0.9000 Y-8.6234
G01 X0.8884 Y-8.6237
G01 X0.8768 Y-8.6245
G01 X0.8653 Y-8.6260
G01 X0.8538 Y-8.6279
G01 X0.8369 Y-8.6320
G01 X0.8258 Y-8.6353
G01 X0.8148 Y-8.6393
G01 X0.7988 Y-8.6461
G01 X0.7885 Y-8.6513
G01 X0.7784 Y-8.6571
G01 X0.7638 Y-8.6666
G01 X0.7544 Y-8.6735
G01 X0.7455 Y-8.6808
G01 X0.7327 Y-8.6927
G01 X0.7247 Y-8.7011
G01 X0.7171 Y-8.7099
G01 X0.7066 Y-8.7238
G01 X0.7001 Y-8.7334
G01 X0.6941 Y-8.7434
G01 X0.6861 Y-8.7588
G01 X0.6793 Y-8.7748
G01 X0.6753 Y-8.7858
G01 X0.6720 Y-8.7969
G01 X0.6679 Y-8.8138
G01 X0.6660 Y-8.8253
G01 X0.6645 Y-8.8368
G01 X0.6637 Y-8.8484
G01 X0.6634 Y-8.8600
G01 X0.6634 Y-10.7600
G01 X0.6637 Y-10.7716
G01 X0.6645 Y-10.7832
G01 X0.6660 Y-10.7947
G01 X0.6679 Y-10.8062
G01 X0.6705 Y-10.8175
G01 X0.6736 Y-10.8287
G01 X0.6772 Y-10.8397
G01 X0.6814 Y-10.8505
G01 X0.6861 Y-10.8612
G01 X0.6913 Y-10.8715
G01 X0.6971 Y-10.8816
G01 X0.7033 Y-10.8914
G01 X0.7100 Y-10.9009
G01 X0.7171 Y-10.9101
G01 X0.7247 Y-10.9189
G01 X0.7327 Y-10.9273
G01 X0.7411 Y-10.9353
G01 X0.7499 Y-10.9429
G01 X0.7591 Y-10.9500
G01 X0.7686 Y-10.9567
G01 X0.7784 Y-10.9629
G01 X0.7885 Y-10.9687
G01 X0.7988 Y-10.9739
G01 X0.8095 Y-10.9786
G01 X0.8203 Y-10.9828
G01 X0.8313 Y-10.9864
G01 X0.8425 Y-10.9895
G01 X0.8538 Y-10.9921
G01 X0.8653 Y-10.9940
G01 X0.8768 Y-10.9955
G01 X0.8884 Y-10.9963
G01 X0.9000 Y-10.9966
G00 Z0.5000
G00 X0.9000 Y-11.3752
G01 F60.00
G01 Z-0.1500
G01 F240.00
G01 X8.9000 Y-11.3752
G01 X8.9302 Y-11.3744
G01 X8.9453 Y-11.3735
G01 X8.9746 Y-11.3706
G01 X8.9956 Y-11.3946
G01 X9.0167 Y-11.4166
G01 X9.0389 Y-11.4376
G01 X9.0621 Y-11.4575
G01 X9.0863 Y-11.4762
G01 X9.1114 Y-11.4936
G01 X9.1373 Y-11.5098
G01 X9.1639 Y-11.5247
G01 X9.1913 Y-11.5383
G01 X9.2193 Y-11.5505
G01 X9.2479 Y-11.5612
G01 X9.2770 Y-11.5706
G01 X9.3441 Y-11.5902
G01 X9.3724 Y-11.5978
G01 X9.4010 Y-11.6040
G01 X9.4298 Y-11.6089
G01 X9.4444 Y-11.6108
G01 X9.4735 Y-11.6136
G01 X9.5027 Y-11.6150
G01 X9.5174 Y-11.6152
G01 X11.2452 Y-11.6152
G01 X11.5400 Y-11.9097
G01 X11.5645 Y-11.9317
G01 X11.5978 Y-11.9588
G01 X11.6218 Y-11.9772
G01 X11.6466 Y-11.9943
G01 X11.6723 Y-12.0103
G01 X11.6987 Y-12.0249
G01 X11.7122 Y-12.0317
G01 X11.7396 Y-12.0444
G01 X11.7535 Y-12.0502
G01 X11.7818 Y-12.0608
G01 X11.8105 Y-12.0701
G01 X11.8775 Y-12.0897
G01 X11.9058 Y-12.0973
G01 X11.9344 Y-12.1035
G01 X11.9488 Y-12.1061
G01 X11.9633 Y-12.1084
G01 X11.9924 Y-12.1119
G01 X12.0216 Y-12.1140
G01 X12.0509 Y-12.1147
G01 X15.3901 Y-12.1145
G01 X15.4048 Y-12.1140
G01 X15.4340 Y-12.1119
G01 X15.4630 Y-12.1084
G01 X15.4919 Y-12.1035
G01 X15.5728 Y-12.0859
G01 X15.6024 Y-12.0779
G01 X15.6171 Y-12.0733
G01 X15.6317 Y-12.0684
G01 X15.6604 Y-12.0575
G01 X15.6885 Y-12.0451
G01 X15.7160 Y-12.0313
G01 X15.7295 Y-12.0239
G01 X15.7559 Y-12.0082
G01 X15.7688 Y-11.9998
G01 X15.7939 Y-11.9821
G01 X15.8181 Y-11.9631
G01 X15.8827 Y-11.9074
G01 X15.9052 Y-11.8869
G01 X15.9268 Y-11.8652
G01 X15.9472 Y-11.8425
G01 X15.9665 Y-11.8188
G01 X15.9757 Y-11.8066
G01 X15.9931 Y-11.7815
G01 X16.0014 Y-11.7687
G01 X16.0170 Y-11.7424
G01 X16.0312 Y-11.7153
G01 X16.0378 Y-11.7016
G01 X16.0500 Y-11.6735
G01 X16.0555 Y-11.6593
G01 X16.0656 Y-11.6305
G01 X16.0897 Y-11.5488
G01 X16.0973 Y-11.5205
G01 X16.1035 Y-11.4919
G01 X16.1061 Y-11.4775
G01 X16.1103 Y-11.4485
G01 X16.1119 Y-11.4340
G01 X16.1140 Y-11.4048
G01 X16.1147 Y-11.3755
G01 X16.1147 Y-9.5240
G01 X16.1140 Y-9.4947
G01 X16.1119 Y-9.4655
G01 X16.1084 Y-9.4365
G01 X16.1035 Y-9.4076
G01 X16.0894 Y-9.3417
G01 X16.0821 Y-9.3119
G01 X16.0733 Y-9.2824
G01 X16.0631 Y-9.2534
G01 X16.0575 Y-9.2391
G01 X16.0451 Y-9.2110
G01 X16.0313 Y-9.1835
G01 X16.0162 Y-9.1567
G01 X15.9998 Y-9.1307
G01 X15.9821 Y-9.1056
G01 X15.9727 Y-9.0934
G01 X15.9532 Y-9.0696
G01 X15.9074 Y-9.0168
G01 X15.8919 Y-8.9997
G01 X15.9161 Y-8.9767
G01 X15.9371 Y-8.9545
G01 X15.9570 Y-8.9313
G01 X15.9757 Y-8.9071
G01 X15.9931 Y-8.8820
G01 X16.0093 Y-8.8561
G01 X16.0242 Y-8.8294
G01 X16.0378 Y-8.8021
G01 X16.0500 Y-8.7740
G01 X16.0607 Y-8.7454
G01 X16.0701 Y-8.7164
G01 X16.0937 Y-8.6352
G01 X16.1006 Y-8.6068
G01 X16.1061 Y-8.5780
G01 X16.1103 Y-8.5490
G01 X16.1131 Y-8.5199
G01 X16.1140 Y-8.5053
G01 X16.1147 Y-8.4760
G01 X16.1144 Y-5.8296
G01 X16.1127 Y-5.7967
G01 X16.1111 Y-5.7803
G01 X16.1065 Y-5.7389
G01 X16.1018 Y-5.7091
G01 X16.0957 Y-5.6796
G01 X16.0881 Y-5.6503
G01 X16.0790 Y-5.6215
G01 X16.0686 Y-5.5932
G01 X16.0568 Y-5.5654
G01 X16.0437 Y-5.5382
G01 X15.9956 Y-5.4502
G01 X15.9797 Y-5.4242
G01 X15.9712 Y-5.4115
G01 X15.9533 Y-5.3867
G01 X15.9343 Y-5.3628
G01 X15.9141 Y-5.3399
G01 X15.8927 Y-5.3180
G01 X15.8817 Y-5.3075
G01 X15.8588 Y-5.2873
G01 X15.8349 Y-5.2682
G01 X15.8226 Y-5.2591
G01 X15.7974 Y-5.2419
G01 X15.7713 Y-5.2260
G01 X15.6832 Y-5.1778
G01 X15.6695 Y-5.1710
G01 X15.6417 Y-5.1584
G01 X15.6133 Y-5.1472
G01 X15.5843 Y-5.1374
G01 X15.5549 Y-5.1291
G01 X15.5401 Y-5.1255
G01 X15.5152 Y-5.1203
G01 X15.5152 Y-3.7992
G01 X15.5578 Y-3.7899
G01 X15.5876 Y-3.7826
G01 X15.6024 Y-3.7784
G01 X15.6317 Y-3.7689
G01 X15.6604 Y-3.7580
G01 X15.6885 Y-3.7456
G01 X15.7160 Y-3.7318
G01 X15.7295 Y-3.7244
G01 X15.7559 Y-3.7087
G01 X15.7815 Y-3.6916
G01 X15.8061 Y-3.6732
G01 X15.8181 Y-3.6636
G01 X15.8941 Y-3.5978
G01 X15.9161 Y-3.5767
G01 X15.9371 Y-3.5545
G01 X15.9472 Y-3.5430
G01 X15.9665 Y-3.5193
G01 X15.9757 Y-3.5071
G01 X15.9931 Y-3.4820
G01 X16.0093 Y-3.4561
G01 X16.0170 Y-3.4429
G01 X16.0312 Y-3.4158
G01 X16.0440 Y-3.3881
G01 X16.0555 Y-3.3598
G01 X16.0656 Y-3.3310
G01 X16.0937 Y-3.2352
G01 X16.0973 Y-3.2210
G01 X16.1035 Y-3.1924
G01 X16.1084 Y-3.1635
G01 X16.1103 Y-3.1490
G01 X16.1131 Y-3.1199
G01 X16.1145 Y-3.0906
G01 X16.1147 Y-3.0760
G01 X16.1147 Y-2.6581
G01 X16.1139 Y-2.6278
G01 X16.1117 Y-2.5976
G01 X16.1100 Y-2.5825
G01 X16.1080 Y-2.5675
G01 X16.1028 Y-2.5376
G01 X16.0842 Y-2.4552
G01 X16.0762 Y-2.4265
G01 X16.0669 Y-2.3983
G01 X16.0563 Y-2.3705
G01 X16.0443 Y-2.3433
G01 X16.0378 Y-2.3300
G01 X16.0239 Y-2.3037
G01 X16.0165 Y-2.2908
G01 X16.0007 Y-2.2657
G01 X15.9837 Y-2.2413
G01 X15.9656 Y-2.2177
G01 X15.9463 Y-2.1951
G01 X15.8998 Y-2.1430
G01 X15.8788 Y-2.1207
G01 X15.8569 Y-2.0995
G01 X15.8338 Y-2.0794
G01 X15.8099 Y-2.0605
G01 X15.7850 Y-2.0428
G01 X15.7592 Y-2.0263
G01 X15.7327 Y-2.0112
G01 X15.7112 Y-2.0002
G01 X15.7302 Y-1.9900
G01 X15.7564 Y-1.9743
G01 X15.7692 Y-1.9659
G01 X15.7941 Y-1.9483
G01 X15.8182 Y-1.9295
G01 X15.8827 Y-1.8739
G01 X15.8941 Y-1.8637
G01 X15.9161 Y-1.8426
G01 X15.9371 Y-1.8204
G01 X15.9570 Y-1.7972
G01 X15.9757 Y-1.7730
G01 X15.9846 Y-1.7606
G01 X16.0014 Y-1.7351
G01 X16.0170 Y-1.7088
G01 X16.0242 Y-1.6953
G01 X16.0378 Y-1.6680
G01 X16.0500 Y-1.6399
G01 X16.0555 Y-1.6257
G01 X16.0607 Y-1.6114
G01 X16.0701 Y-1.5823
G01 X16.0937 Y-1.5011
G01 X16.0973 Y-1.4869
G01 X16.1035 Y-1.4583
G01 X16.1084 Y-1.4295
G01 X16.1103 Y-1.4149
G01 X16.1131 Y-1.3858
G01 X16.1140 Y-1.3712
G01 X16.1147 Y-1.3419
G01 X16.1147 Y-0.6245
G01 X16.1140 Y-0.5952
G01 X16.1119 Y-0.5660
G01 X16.1084 Y-0.5370
G01 X16.1035 Y-0.5081
G01 X16.0894 Y-0.4422
G01 X16.0821 Y-0.4124
G01 X16.0733 Y-0.3829
G01 X16.0684 Y-0.3683
G01 X16.0631 Y-0.3539
G01 X16.0515 Y-0.3255
G01 X16.0451 Y-0.3115
G01 X16.0313 Y-0.2840
G01 X16.0162 Y-0.2572
G01 X16.0082 Y-0.2441
G01 X15.9998 Y-0.2312
G01 X15.9821 Y-0.2061
G01 X15.9631 Y-0.1819
G01 X15.9074 Y-0.1173
G01 X15.8869 Y-0.0948
G01 X15.8652 Y-0.0732
G01 X15.8425 Y-0.0528
G01 X15.8188 Y-0.0335
G01 X15.7942 Y-0.0154
G01 X15.7687 Y0.0014
G01 X15.7556 Y0.0093
G01 X15.7424 Y0.0170
G01 X15.7153 Y0.0312
G01 X15.6876 Y0.0440
G01 X15.6593 Y0.0555
G01 X15.6305 Y0.0656
G01 X15.5488 Y0.0897
G01 X15.5205 Y0.0973
G01 X15.4919 Y0.1035
G01 X15.4775 Y0.1061
G01 X15.4485 Y0.1103
G01 X15.4340 Y0.1119
G01 X15.4048 Y0.1140
G01 X15.3755 Y0.1147
G01 X14.6445 Y0.1145
G01 X14.6286 Y0.1138
G01 X14.5970 Y0.1114
G01 X14.5656 Y0.1073
G01 X14.4914 Y0.0938
G01 X14.4620 Y0.0869
G01 X14.4474 Y0.0830
G01 X14.4330 Y0.0786
G01 X14.4044 Y0.0689
G01 X14.3764 Y0.0578
G01 X14.3625 Y0.0518
G01 X14.3354 Y0.0387
G01 X14.3089 Y0.0242
G01 X14.2831 Y0.0085
G01 X14.2582 Y-0.0085
G01 X14.1903 Y-0.0595
G01 X14.1663 Y-0.0785
G01 X14.1434 Y-0.0987
G01 X14.1215 Y-0.1200
G01 X14.1006 Y-0.1423
G01 X14.0906 Y-0.1539
G01 X14.0715 Y-0.1777
G01 X14.0536 Y-0.2024
G01 X14.0370 Y-0.2280
G01 X14.0216 Y-0.2545
G01 X14.0144 Y-0.2679
G01 X14.0012 Y-0.2950
G01 X13.9877 Y-0.2698
G01 X13.9800 Y-0.2566
G01 X13.9637 Y-0.2308
G01 X13.9461 Y-0.2059
G01 X13.9272 Y-0.1818
G01 X13.8716 Y-0.1173
G01 X13.8510 Y-0.0948
G01 X13.8403 Y-0.0839
G01 X13.8181 Y-0.0629
G01 X13.8066 Y-0.0528
G01 X13.7829 Y-0.0335
G01 X13.7707 Y-0.0243
G01 X13.7457 Y-0.0069
G01 X13.7198 Y0.0093
G01 X13.7065 Y0.0170
G01 X13.6795 Y0.0312
G01 X13.6518 Y0.0440
G01 X13.6235 Y0.0555
G01 X13.5946 Y0.0656
G01 X13.5130 Y0.0897
G01 X13.4847 Y0.0973
G01 X13.4561 Y0.1035
G01 X13.4272 Y0.1084
G01 X13.4127 Y0.1103
G01 X13.3835 Y0.1131
G01 X13.3543 Y0.1145
G01 X12.3094 Y0.1145
G01 X12.2801 Y0.1131
G01 X12.2655 Y0.1119
G01 X12.2365 Y0.1084
G01 X12.2220 Y0.1061
G01 X12.1932 Y0.1006
G01 X12.1417 Y0.0894
G01 X12.1267 Y0.0859
G01 X12.0971 Y0.0779
G01 X12.0824 Y0.0733
G01 X12.0534 Y0.0631
G01 X12.0250 Y0.0515
G01 X11.9971 Y0.0384
G01 X11.9835 Y0.0313
G01 X11.9567 Y0.0162
G01 X11.9436 Y0.0082
G01 X11.9180 Y-0.0089
G01 X11.8934 Y-0.0273
G01 X11.8814 Y-0.0369
G01 X11.8054 Y-0.1027
G01 X11.7834 Y-0.1238
G01 X11.7727 Y-0.1348
G01 X11.7523 Y-0.1575
G01 X11.7425 Y-0.1692
G01 X11.7238 Y-0.1934
G01 X11.7149 Y-0.2058
G01 X11.6981 Y-0.2313
G01 X11.6902 Y-0.2444
G01 X11.6753 Y-0.2711
G01 X11.6682 Y-0.2848
G01 X9.4854 Y-0.2848
G01 X9.4690 Y-0.2851
G01 X9.4361 Y-0.2868
G01 X9.3783 Y-0.2930
G01 X9.3634 Y-0.2952
G01 X9.3337 Y-0.3006
G01 X9.3043 Y-0.3075
G01 X9.2752 Y-0.3158
G01 X9.2609 Y-0.3205
G01 X9.2326 Y-0.3309
G01 X9.2048 Y-0.3427
G01 X9.1776 Y-0.3558
G01 X9.1029 Y-0.3964
G01 X9.0765 Y-0.4117
G01 X9.0636 Y-0.4198
G01 X9.0508 Y-0.4283
G01 X9.0260 Y-0.4462
G01 X9.0022 Y-0.4652
G01 X8.9793 Y-0.4854
G01 X8.9574 Y-0.5068
G01 X8.9366 Y-0.5292
G01 X8.9170 Y-0.5526
G01 X8.9076 Y-0.5646
G01 X8.8897 Y-0.5894
G01 X8.8813 Y-0.6021
G01 X8.8673 Y-0.6248
G01 X0.8849 Y-0.6250
G01 X0.8547 Y-0.6265
G01 X0.8247 Y-0.6295
G01 X0.8097 Y-0.6315
G01 X0.7800 Y-0.6367
G01 X0.7505 Y-0.6433
G01 X0.7359 Y-0.6471
G01 X0.7214 Y-0.6513
G01 X0.6928 Y-0.6608
G01 X0.6646 Y-0.6717
G01 X0.6507 Y-0.6776
G01 X0.6370 Y-0.6839
G01 X0.6100 Y-0.6975
G01 X0.5968 Y-0.7048
G01 X0.5709 Y-0.7203
G01 X0.5582 Y-0.7285
G01 X0.5335 Y-0.7459
G01 X0.5215 Y-0.7550
G01 X0.4982 Y-0.7742
G01 X0.4758 Y-0.7945
G01 X0.4545 Y-0.8158
G01 X0.4342 Y-0.8382
G01 X0.4150 Y-0.8615
G01 X0.3971 Y-0.8858
G01 X0.3803 Y-0.9109
G01 X0.3648 Y-0.9368
G01 X0.3505 Y-0.9634
G01 X0.3439 Y-0.9770
G01 X0.3317 Y-1.0046
G01 X0.3208 Y-1.0328
G01 X0.3113 Y-1.0614
G01 X0.3033 Y-1.0905
G01 X0.2967 Y-1.1200
G01 X0.2915 Y-1.1497
G01 X0.2878 Y-1.1797
G01 X0.2856 Y-1.2098
G01 X0.2848 Y-1.2400
G01 X0.2848 Y-3.1400
G01 X0.2850 Y-3.1551
G01 X0.2865 Y-3.1853
G01 X0.2895 Y-3.2153
G01 X0.2939 Y-3.2452
G01 X0.2998 Y-3.2748
G01 X0.3033 Y-3.2895
G01 X0.3071 Y-3.3041
G01 X0.3159 Y-3.3330
G01 X0.3261 Y-3.3614
G01 X0.3376 Y-3.3893
G01 X0.3505 Y-3.4166
G01 X0.3648 Y-3.4432
G01 X0.3724 Y-3.4563
G01 X0.3885 Y-3.4818
G01 X0.3971 Y-3.4942
G01 X0.4150 Y-3.5185
G01 X0.4342 Y-3.5418
G01 X0.4442 Y-3.5531
G01 X0.4650 Y-3.5750
G01 X0.4758 Y-3.5855
G01 X0.4869 Y-3.5958
G01 X0.5097 Y-3.6155
G01 X0.5215 Y-3.6250
G01 X0.5458 Y-3.6429
G01 X0.5709 Y-3.6597
G01 X0.5968 Y-3.6752
G01 X0.6234 Y-3.6895
G01 X0.6507 Y-3.7024
G01 X0.6786 Y-3.7139
G01 X0.6928 Y-3.7192
G01 X0.7070 Y-3.7241
G01 X0.7359 Y-3.7329
G01 X0.7652 Y-3.7402
G01 X0.7848 Y-3.7442
G01 X0.7850 Y-5.7151
G01 X0.7865 Y-5.7453
G01 X0.7895 Y-5.7753
G01 X0.7915 Y-5.7903
G01 X0.7967 Y-5.8200
G01 X0.8033 Y-5.8495
G01 X0.8071 Y-5.8641
G01 X0.8159 Y-5.8930
G01 X0.8261 Y-5.9214
G01 X0.8317 Y-5.9354
G01 X0.8439 Y-5.9630
G01 X0.8505 Y-5.9766
G01 X0.8630 Y-6.0000
G01 X0.8505 Y-6.0234
G01 X0.8439 Y-6.0370
G01 X0.8317 Y-6.0646
G01 X0.8208 Y-6.0928
G01 X0.8159 Y-6.1070
G01 X0.8071 Y-6.1359
G01 X0.7998 Y-6.1652
G01 X0.7939 Y-6.1948
G01 X0.7915 Y-6.2097
G01 X0.7878 Y-6.2397
G01 X0.7865 Y-6.2547
G01 X0.7850 Y-6.2849
G01 X0.7848 Y-8.2558
G01 X0.7652 Y-8.2598
G01 X0.7359 Y-8.2671
G01 X0.7214 Y-8.2713
G01 X0.6928 Y-8.2808
G01 X0.6786 Y-8.2861
G01 X0.6507 Y-8.2976
G01 X0.6370 Y-8.3039
G01 X0.6100 Y-8.3175
G01 X0.5837 Y-8.3324
G01 X0.5709 Y-8.3403
G01 X0.5582 Y-8.3485
G01 X0.5335 Y-8.3659
G01 X0.5097 Y-8.3845
G01 X0.4982 Y-8.3942
G01 X0.4758 Y-8.4145
G01 X0.4545 Y-8.4358
G01 X0.4342 Y-8.4582
G01 X0.4150 Y-8.4815
G01 X0.3971 Y-8.5058
G01 X0.3885 Y-8.5182
G01 X0.3803 Y-8.5309
G01 X0.3648 Y-8.5568
G01 X0.3505 Y-8.5834
G01 X0.3439 Y-8.5970
G01 X0.3317 Y-8.6246
G01 X0.3261 Y-8.6386
G01 X0.3159 Y-8.6670
G01 X0.3113 Y-8.6814
G01 X0.3033 Y-8.7105
G01 X0.2967 Y-8.7400
G01 X0.2939 Y-8.7548
G01 X0.2895 Y-8.7847
G01 X0.2878 Y-8.7997
G01 X0.2856 Y-8.8298
G01 X0.2848 Y-8.8600
G01 X0.2850 Y-10.7751
G01 X0.2865 Y-10.8053
G01 X0.2895 Y-10.8353
G01 X0.2939 Y-10.8652
G01 X0.2998 Y-10.8948
G01 X0.3071 Y-10.9241
G01 X0.3159 Y-10.9530
G01 X0.3261 Y-10.9814
G01 X0.3376 Y-11.0093
G01 X0.3505 Y-11.0366
G01 X0.3648 Y-11.0632
G01 X0.3803 Y-11.0891
G01 X0.3971 Y-11.1142
G01 X0.4059 Y-11.1265
G01 X0.4245 Y-11.1503
G01 X0.4442 Y-11.1731
G01 X0.4650 Y-11.1950
G01 X0.4869 Y-11.2158
G01 X0.5097 Y-11.2355
G01 X0.5335 Y-11.2541
G01 X0.5582 Y-11.2715
G01 X0.5837 Y-11.2876
G01 X0.6100 Y-11.3025
G01 X0.6370 Y-11.3161
G01 X0.6646 Y-11.3283
G01 X0.6928 Y-11.3392
G01 X0.7214 Y-11.3487
G01 X0.7505 Y-11.3567
G01 X0.7800 Y-11.3633
G01 X0.8097 Y-11.3685
G01 X0.8397 Y-11.3722
G01 X0.8698 Y-11.3744
G01 X0.9000 Y-11.3752
G00 Z0.5000
G00 X0.9000 Y-11.7537
G01 F60.00
G01 Z-0.1500
G01 F240.00
G01 X8.8265 Y-11.7537
G01 X8.8426 Y-11.7665
G01 X8.8623 Y-11.7813
G01 X8.8823 Y-11.7957
G01 X8.9028 Y-11.8095
G01 X8.9235 Y-11.8229
G01 X8.9446 Y-11.8357
G01 X8.9660 Y-11.8480
G01 X8.9877 Y-11.8598
G01 X9.0097 Y-11.8710
G01 X9.0319 Y-11.8817
G01 X9.0544 Y-11.8918
G01 X9.0772 Y-11.9013
G01 X9.1002 Y-11.9103
G01 X9.1234 Y-11.9187
G01 X9.1468 Y-11.9265
G01 X9.2374 Y-11.9535
G01 X9.2602 Y-11.9599
G01 X9.2831 Y-11.9657
G01 X9.3061 Y-11.9710
G01 X9.3293 Y-11.9758
G01 X9.3526 Y-11.9800
G01 X9.3760 Y-11.9836
G01 X9.3994 Y-11.9867
G01 X9.4229 Y-11.9892
G01 X9.4465 Y-11.9912
G01 X9.4701 Y-11.9926
G01 X9.4937 Y-11.9934
G01 X9.5174 Y-11.9937
G01 X11.0884 Y-11.9937
G01 X11.2605 Y-12.1658
G01 X11.2796 Y-12.1844
G01 X11.2991 Y-12.2025
G01 X11.3192 Y-12.2200
G01 X11.3397 Y-12.2369
G01 X11.3795 Y-12.2686
G01 X11.3990 Y-12.2832
G01 X11.4189 Y-12.2973
G01 X11.4391 Y-12.3110
G01 X11.4597 Y-12.3241
G01 X11.4806 Y-12.3367
G01 X11.5018 Y-12.3488
G01 X11.5232 Y-12.3603
G01 X11.5450 Y-12.3714
G01 X11.5670 Y-12.3819
G01 X11.5892 Y-12.3918
G01 X11.6117 Y-12.4012
G01 X11.6345 Y-12.4101
G01 X11.6574 Y-12.4184
G01 X11.6805 Y-12.4261
G01 X11.7039 Y-12.4333
G01 X11.7937 Y-12.4594
G01 X11.8166 Y-12.4652
G01 X11.8396 Y-12.4705
G01 X11.8628 Y-12.4753
G01 X11.8861 Y-12.4795
G01 X11.9094 Y-12.4831
G01 X11.9329 Y-12.4862
G01 X11.9564 Y-12.4887
G01 X11.9800 Y-12.4907
G01 X12.0036 Y-12.4921
G01 X12.0272 Y-12.4929
G01 X12.0509 Y-12.4932
G01 X15.3755 Y-12.4932
G01 X15.3991 Y-12.4929
G01 X15.4228 Y-12.4921
G01 X15.4464 Y-12.4907
G01 X15.4700 Y-12.4887
G01 X15.4935 Y-12.4862
G01 X15.5169 Y-12.4831
G01 X15.5403 Y-12.4795
G01 X15.5636 Y-12.4753
G01 X15.6382 Y-12.4593
G01 X15.6624 Y-12.4537
G01 X15.6865 Y-12.4475
G01 X15.7104 Y-12.4408
G01 X15.7341 Y-12.4334
G01 X15.7576 Y-12.4254
G01 X15.7809 Y-12.4169
G01 X15.8040 Y-12.4077
G01 X15.8269 Y-12.3980
G01 X15.8495 Y-12.3877
G01 X15.8718 Y-12.3769
G01 X15.8939 Y-12.3655
G01 X15.9157 Y-12.3536
G01 X15.9371 Y-12.3411
G01 X15.9583 Y-12.3281
G01 X15.9791 Y-12.3145
G01 X15.9996 Y-12.3005
G01 X16.0197 Y-12.2859
G01 X16.0394 Y-12.2709
G01 X16.0588 Y-12.2553
G01 X16.0778 Y-12.2393
G01 X16.1490 Y-12.1772
G01 X16.1670 Y-12.1603
G01 X16.1847 Y-12.1430
G01 X16.2018 Y-12.1253
G01 X16.2186 Y-12.1072
G01 X16.2348 Y-12.0886
G01 X16.2507 Y-12.0697
G01 X16.2660 Y-12.0503
G01 X16.2808 Y-12.0306
G01 X16.2952 Y-12.0105
G01 X16.3090 Y-11.9901
G01 X16.3224 Y-11.9694
G01 X16.3352 Y-11.9483
G01 X16.3475 Y-11.9269
G01 X16.3593 Y-11.9052
G01 X16.3705 Y-11.8832
G01 X16.3812 Y-11.8610
G01 X16.3913 Y-11.8384
G01 X16.4008 Y-11.8157
G01 X16.4098 Y-11.7927
G01 X16.4182 Y-11.7695
G01 X16.4260 Y-11.7461
G01 X16.4333 Y-11.7225
G01 X16.4594 Y-11.6327
G01 X16.4652 Y-11.6098
G01 X16.4705 Y-11.5867
G01 X16.4753 Y-11.5636
G01 X16.4795 Y-11.5403
G01 X16.4831 Y-11.5169
G01 X16.4862 Y-11.4935
G01 X16.4887 Y-11.4700
G01 X16.4907 Y-11.4464
G01 X16.4921 Y-11.4228
G01 X16.4929 Y-11.3991
G01 X16.4932 Y-11.3755
G01 X16.4932 Y-9.5240
G01 X16.4929 Y-9.5004
G01 X16.4921 Y-9.4767
G01 X16.4907 Y-9.4531
G01 X16.4887 Y-9.4295
G01 X16.4862 Y-9.4060
G01 X16.4831 Y-9.3826
G01 X16.4795 Y-9.3592
G01 X16.4753 Y-9.3359
G01 X16.4705 Y-9.3128
G01 X16.4593 Y-9.2613
G01 X16.4537 Y-9.2371
G01 X16.4475 Y-9.2130
G01 X16.4408 Y-9.1891
G01 X16.4334 Y-9.1654
G01 X16.4254 Y-9.1419
G01 X16.4169 Y-9.1186
G01 X16.4077 Y-9.0955
G01 X16.3980 Y-9.0726
G01 X16.3877 Y-9.0500
G01 X16.3769 Y-9.0277
G01 X16.3623 Y-8.9998
G01 X16.3705 Y-8.9837
G01 X16.3812 Y-8.9615
G01 X16.3913 Y-8.9389
G01 X16.4008 Y-8.9162
G01 X16.4098 Y-8.8932
G01 X16.4182 Y-8.8700
G01 X16.4260 Y-8.8466
G01 X16.4333 Y-8.8230
G01 X16.4594 Y-8.7332
G01 X16.4652 Y-8.7103
G01 X16.4705 Y-8.6872
G01 X16.4753 Y-8.6641
G01 X16.4795 Y-8.6408
G01 X16.4831 Y-8.6174
G01 X16.4862 Y-8.5940
G01 X16.4887 Y-8.5705
G01 X16.4907 Y-8.5469
G01 X16.4921 Y-8.5233
G01 X16.4929 Y-8.4996
G01 X16.4932 Y-8.4760
G01 X16.4932 Y-5.8461
G01 X16.4929 Y-5.8195
G01 X16.4918 Y-5.7929
G01 X16.4900 Y-5.7663
G01 X16.4875 Y-5.7398
G01 X16.4818 Y-5.6893
G01 X16.4783 Y-5.6651
G01 X16.4742 Y-5.6411
G01 X16.4695 Y-5.6171
G01 X16.4643 Y-5.5933
G01 X16.4584 Y-5.5696
G01 X16.4520 Y-5.5461
G01 X16.4450 Y-5.5228
G01 X16.4374 Y-5.4996
G01 X16.4293 Y-5.4766
G01 X16.4206 Y-5.4538
G01 X16.4113 Y-5.4312
G01 X16.4015 Y-5.4089
G01 X16.3911 Y-5.3868
G01 X16.3803 Y-5.3650
G01 X16.3688 Y-5.3435
G01 X16.3353 Y-5.2821
G01 X16.3233 Y-5.2606
G01 X16.3106 Y-5.2394
G01 X16.2975 Y-5.2185
G01 X16.2838 Y-5.1980
G01 X16.2696 Y-5.1778
G01 X16.2550 Y-5.1579
G01 X16.2398 Y-5.1385
G01 X16.2242 Y-5.1194
G01 X16.2081 Y-5.1007
G01 X16.1915 Y-5.0824
G01 X16.1745 Y-5.0645
G01 X16.1571 Y-5.0470
G01 X16.1392 Y-5.0300
G01 X16.1209 Y-5.0135
G01 X16.1022 Y-4.9974
G01 X16.0831 Y-4.9817
G01 X16.0636 Y-4.9666
G01 X16.0438 Y-4.9519
G01 X16.0236 Y-4.9377
G01 X16.0030 Y-4.9241
G01 X15.9821 Y-4.9109
G01 X15.9609 Y-4.8983
G01 X15.8937 Y-4.8613
G01 X15.8937 Y-4.0661
G01 X15.9157 Y-4.0541
G01 X15.9371 Y-4.0416
G01 X15.9583 Y-4.0286
G01 X15.9791 Y-4.0150
G01 X15.9996 Y-4.0010
G01 X16.0197 Y-3.9864
G01 X16.0394 Y-3.9714
G01 X16.0588 Y-3.9558
G01 X16.0778 Y-3.9398
G01 X16.1490 Y-3.8777
G01 X16.1670 Y-3.8608
G01 X16.1847 Y-3.8435
G01 X16.2018 Y-3.8258
G01 X16.2186 Y-3.8077
G01 X16.2348 Y-3.7891
G01 X16.2507 Y-3.7702
G01 X16.2660 Y-3.7508
G01 X16.2808 Y-3.7311
G01 X16.2952 Y-3.7110
G01 X16.3090 Y-3.6906
G01 X16.3224 Y-3.6699
G01 X16.3352 Y-3.6488
G01 X16.3475 Y-3.6274
G01 X16.3593 Y-3.6057
G01 X16.3705 Y-3.5837
G01 X16.3812 Y-3.5615
G01 X16.3913 Y-3.5389
G01 X16.4008 Y-3.5162
G01 X16.4098 Y-3.4932
G01 X16.4182 Y-3.4700
G01 X16.4260 Y-3.4466
G01 X16.4333 Y-3.4230
G01 X16.4594 Y-3.3332
G01 X16.4652 Y-3.3103
G01 X16.4705 Y-3.2872
G01 X16.4753 Y-3.2641
G01 X16.4795 Y-3.2408
G01 X16.4831 Y-3.2174
G01 X16.4862 Y-3.1940
G01 X16.4887 Y-3.1705
G01 X16.4907 Y-3.1469
G01 X16.4921 Y-3.1233
G01 X16.4929 Y-3.0996
G01 X16.4932 Y-3.0760
G01 X16.4932 Y-2.6581
G01 X16.4929 Y-2.6336
G01 X16.4920 Y-2.6091
G01 X16.4905 Y-2.5847
G01 X16.4884 Y-2.5603
G01 X16.4857 Y-2.5360
G01 X16.4824 Y-2.5117
G01 X16.4785 Y-2.4876
G01 X16.4740 Y-2.4635
G01 X16.4689 Y-2.4396
G01 X16.4569 Y-2.3864
G01 X16.4513 Y-2.3630
G01 X16.4452 Y-2.3398
G01 X16.4385 Y-2.3167
G01 X16.4313 Y-2.2939
G01 X16.4235 Y-2.2711
G01 X16.4152 Y-2.2486
G01 X16.4063 Y-2.2263
G01 X16.3969 Y-2.2042
G01 X16.3869 Y-2.1824
G01 X16.3765 Y-2.1608
G01 X16.3655 Y-2.1394
G01 X16.3540 Y-2.1184
G01 X16.3420 Y-2.0976
G01 X16.3295 Y-2.0771
G01 X16.3165 Y-2.0569
G01 X16.3030 Y-2.0370
G01 X16.2890 Y-2.0175
G01 X16.2772 Y-2.0018
G01 X16.2952 Y-1.9770
G01 X16.3090 Y-1.9565
G01 X16.3224 Y-1.9358
G01 X16.3352 Y-1.9147
G01 X16.3475 Y-1.8933
G01 X16.3593 Y-1.8716
G01 X16.3705 Y-1.8496
G01 X16.3812 Y-1.8274
G01 X16.3913 Y-1.8049
G01 X16.4008 Y-1.7821
G01 X16.4098 Y-1.7591
G01 X16.4182 Y-1.7359
G01 X16.4260 Y-1.7125
G01 X16.4333 Y-1.6889
G01 X16.4594 Y-1.5991
G01 X16.4652 Y-1.5762
G01 X16.4705 Y-1.5531
G01 X16.4753 Y-1.5300
G01 X16.4795 Y-1.5067
G01 X16.4831 Y-1.4833
G01 X16.4862 Y-1.4599
G01 X16.4887 Y-1.4364
G01 X16.4907 Y-1.4128
G01 X16.4921 Y-1.3892
G01 X16.4929 Y-1.3656
G01 X16.4932 Y-1.3419
G01 X16.4932 Y-0.6245
G01 X16.4929 Y-0.6009
G01 X16.4921 Y-0.5772
G01 X16.4907 Y-0.5536
G01 X16.4887 Y-0.5300
G01 X16.4862 Y-0.5065
G01 X16.4831 Y-0.4831
G01 X16.4795 Y-0.4597
G01 X16.4753 Y-0.4364
G01 X16.4705 Y-0.4133
G01 X16.4593 Y-0.3618
G01 X16.4537 Y-0.3376
G01 X16.4475 Y-0.3135
G01 X16.4408 Y-0.2896
G01 X16.4334 Y-0.2659
G01 X16.4254 Y-0.2424
G01 X16.4169 Y-0.2191
G01 X16.4077 Y-0.1960
G01 X16.3980 Y-0.1731
G01 X16.3877 Y-0.1505
G01 X16.3769 Y-0.1282
G01 X16.3655 Y-0.1061
G01 X16.3536 Y-0.0843
G01 X16.3411 Y-0.0629
G01 X16.3281 Y-0.0417
G01 X16.3145 Y-0.0209
G01 X16.3005 Y-0.0004
G01 X16.2859 Y0.0197
G01 X16.2709 Y0.0394
G01 X16.2553 Y0.0588
G01 X16.2393 Y0.0778
G01 X16.1772 Y0.1490
G01 X16.1603 Y0.1670
G01 X16.1430 Y0.1847
G01 X16.1253 Y0.2018
G01 X16.1072 Y0.2186
G01 X16.0886 Y0.2348
G01 X16.0697 Y0.2507
G01 X16.0503 Y0.2660
G01 X16.0306 Y0.2808
G01 X16.0105 Y0.2952
G01 X15.9901 Y0.3090
G01 X15.9694 Y0.3224
G01 X15.9483 Y0.3352
G01 X15.9269 Y0.3475
G01 X15.9052 Y0.3593
G01 X15.8832 Y0.3705
G01 X15.8610 Y0.3812
G01 X15.8384 Y0.3913
G01 X15.8157 Y0.4008
G01 X15.7927 Y0.4098
G01 X15.7695 Y0.4182
G01 X15.7461 Y0.4260
G01 X15.6555 Y0.4530
G01 X15.6327 Y0.4594
G01 X15.6098 Y0.4652
G01 X15.5867 Y0.4705
G01 X15.5636 Y0.4753
G01 X15.5403 Y0.4795
G01 X15.5169 Y0.4831
G01 X15.4935 Y0.4862
G01 X15.4700 Y0.4887
G01 X15.4464 Y0.4907
G01 X15.4228 Y0.4921
G01 X15.3991 Y0.4929
G01 X15.3755 Y0.4932
G01 X14.6603 Y0.4932
G01 X14.6347 Y0.4929
G01 X14.6091 Y0.4919
G01 X14.5836 Y0.4903
G01 X14.5581 Y0.4879
G01 X14.5326 Y0.4850
G01 X14.5073 Y0.4814
G01 X14.4820 Y0.4771
G01 X14.4143 Y0.4644
G01 X14.3905 Y0.4592
G01 X14.3669 Y0.4534
G01 X14.3434 Y0.4469
G01 X14.3200 Y0.4400
G01 X14.2968 Y0.4324
G01 X14.2739 Y0.4243
G01 X14.2511 Y0.4156
G01 X14.2285 Y0.4064
G01 X14.2062 Y0.3966
G01 X14.1842 Y0.3862
G01 X14.1623 Y0.3754
G01 X14.1408 Y0.3639
G01 X14.1196 Y0.3520
G01 X14.0986 Y0.3396
G01 X14.0780 Y0.3266
G01 X14.0576 Y0.3132
G01 X14.0377 Y0.2992
G01 X14.0038 Y0.2740
G01 X13.9747 Y0.2952
G01 X13.9543 Y0.3090
G01 X13.9335 Y0.3224
G01 X13.9124 Y0.3352
G01 X13.8910 Y0.3475
G01 X13.8693 Y0.3593
G01 X13.8474 Y0.3705
G01 X13.8251 Y0.3812
G01 X13.8026 Y0.3913
G01 X13.7798 Y0.4008
G01 X13.7569 Y0.4098
G01 X13.7337 Y0.4182
G01 X13.7103 Y0.4260
G01 X13.6867 Y0.4333
G01 X13.5969 Y0.4594
G01 X13.5739 Y0.4652
G01 X13.5509 Y0.4705
G01 X13.5277 Y0.4753
G01 X13.5045 Y0.4795
G01 X13.4811 Y0.4831
G01 X13.4576 Y0.4862
G01 X13.4341 Y0.4887
G01 X13.4106 Y0.4907
G01 X13.3869 Y0.4921
G01 X13.3633 Y0.4929
G01 X13.3397 Y0.4932
G01 X12.3240 Y0.4932
G01 X12.3004 Y0.4929
G01 X12.2767 Y0.4921
G01 X12.2531 Y0.4907
G01 X12.2295 Y0.4887
G01 X12.2060 Y0.4862
G01 X12.1826 Y0.4831
G01 X12.1592 Y0.4795
G01 X12.1359 Y0.4753
G01 X12.0613 Y0.4593
G01 X12.0371 Y0.4537
G01 X12.0130 Y0.4475
G01 X11.9891 Y0.4408
G01 X11.9654 Y0.4334
G01 X11.9419 Y0.4254
G01 X11.9186 Y0.4169
G01 X11.8955 Y0.4077
G01 X11.8726 Y0.3980
G01 X11.8500 Y0.3877
G01 X11.8277 Y0.3769
G01 X11.8056 Y0.3655
G01 X11.7838 Y0.3536
G01 X11.7624 Y0.3411
G01 X11.7412 Y0.3281
G01 X11.7204 Y0.3145
G01 X11.6999 Y0.3005
G01 X11.6798 Y0.2859
G01 X11.6601 Y0.2709
G01 X11.6407 Y0.2553
G01 X11.6217 Y0.2393
G01 X11.5505 Y0.1772
G01 X11.5325 Y0.1603
G01 X11.5148 Y0.1430
G01 X11.4977 Y0.1253
G01 X11.4809 Y0.1072
G01 X11.4691 Y0.0937
G01 X9.4854 Y0.0937
G01 X9.4588 Y0.0934
G01 X9.4322 Y0.0923
G01 X9.4057 Y0.0905
G01 X9.3792 Y0.0880
G01 X9.3286 Y0.0823
G01 X9.3045 Y0.0788
G01 X9.2804 Y0.0747
G01 X9.2565 Y0.0700
G01 X9.2327 Y0.0648
G01 X9.2090 Y0.0589
G01 X9.1855 Y0.0525
G01 X9.1621 Y0.0455
G01 X9.1389 Y0.0379
G01 X9.1160 Y0.0298
G01 X9.0932 Y0.0211
G01 X9.0706 Y0.0118
G01 X9.0483 Y0.0020
G01 X9.0262 Y-0.0084
G01 X9.0044 Y-0.0192
G01 X8.9215 Y-0.0642
G01 X8.9000 Y-0.0762
G01 X8.8788 Y-0.0889
G01 X8.8579 Y-0.1020
G01 X8.8374 Y-0.1157
G01 X8.8172 Y-0.1299
G01 X8.7973 Y-0.1445
G01 X8.7778 Y-0.1597
G01 X8.7587 Y-0.1753
G01 X8.7400 Y-0.1914
G01 X8.7217 Y-0.2080
G01 X8.7039 Y-0.2250
G01 X8.6827 Y-0.2463
G01 X0.9000 Y-0.2463
G01 X0.8756 Y-0.2466
G01 X0.8512 Y-0.2475
G01 X0.8269 Y-0.2490
G01 X0.8026 Y-0.2511
G01 X0.7784 Y-0.2538
G01 X0.7542 Y-0.2570
G01 X0.7301 Y-0.2609
G01 X0.7061 Y-0.2654
G01 X0.6823 Y-0.2704
G01 X0.6585 Y-0.2761
G01 X0.6350 Y-0.2823
G01 X0.6115 Y-0.2891
G01 X0.5883 Y-0.2964
G01 X0.5652 Y-0.3044
G01 X0.5424 Y-0.3129
G01 X0.5197 Y-0.3219
G01 X0.4973 Y-0.3315
G01 X0.4751 Y-0.3417
G01 X0.4532 Y-0.3524
G01 X0.4316 Y-0.3636
G01 X0.4102 Y-0.3754
G01 X0.3891 Y-0.3877
G01 X0.3684 Y-0.4005
G01 X0.3479 Y-0.4138
G01 X0.3278 Y-0.4275
G01 X0.3080 Y-0.4418
G01 X0.2886 Y-0.4566
G01 X0.2696 Y-0.4718
G01 X0.2509 Y-0.4875
G01 X0.2327 Y-0.5037
G01 X0.2148 Y-0.5203
G01 X0.1973 Y-0.5373
G01 X0.1803 Y-0.5548
G01 X0.1637 Y-0.5727
G01 X0.1475 Y-0.5909
G01 X0.1318 Y-0.6096
G01 X0.1166 Y-0.6286
G01 X0.1018 Y-0.6480
G01 X0.0875 Y-0.6678
G01 X0.0738 Y-0.6879
G01 X0.0605 Y-0.7084
G01 X0.0477 Y-0.7291
G01 X0.0354 Y-0.7502
G01 X0.0236 Y-0.7716
G01 X0.0124 Y-0.7932
G01 X0.0017 Y-0.8151
G01 X-0.0085 Y-0.8373
G01 X-0.0181 Y-0.8597
G01 X-0.0271 Y-0.8824
G01 X-0.0356 Y-0.9052
G01 X-0.0436 Y-0.9283
G01 X-0.0509 Y-0.9515
G01 X-0.0577 Y-0.9750
G01 X-0.0639 Y-0.9985
G01 X-0.0696 Y-1.0223
G01 X-0.0746 Y-1.0461
G01 X-0.0791 Y-1.0701
G01 X-0.0830 Y-1.0942
G01 X-0.0862 Y-1.1184
G01 X-0.0889 Y-1.1426
G01 X-0.0910 Y-1.1669
G01 X-0.0925 Y-1.1912
G01 X-0.0934 Y-1.2156
G01 X-0.0937 Y-1.2400
G01 X-0.0937 Y-3.1400
G01 X-0.0934 Y-3.1644
G01 X-0.0925 Y-3.1888
G01 X-0.0910 Y-3.2131
G01 X-0.0889 Y-3.2374
G01 X-0.0862 Y-3.2616
G01 X-0.0830 Y-3.2858
G01 X-0.0791 Y-3.3099
G01 X-0.0746 Y-3.3339
G01 X-0.0696 Y-3.3577
G01 X-0.0639 Y-3.3815
G01 X-0.0577 Y-3.4050
G01 X-0.0509 Y-3.4285
G01 X-0.0436 Y-3.4517
G01 X-0.0356 Y-3.4748
G01 X-0.0271 Y-3.4976
G01 X-0.0181 Y-3.5203
G01 X-0.0085 Y-3.5427
G01 X0.0017 Y-3.5649
G01 X0.0124 Y-3.5868
G01 X0.0236 Y-3.6084
G01 X0.0354 Y-3.6298
G01 X0.0477 Y-3.6509
G01 X0.0605 Y-3.6716
G01 X0.0738 Y-3.6921
G01 X0.0875 Y-3.7122
G01 X0.1018 Y-3.7320
G01 X0.1166 Y-3.7514
G01 X0.1318 Y-3.7704
G01 X0.1475 Y-3.7891
G01 X0.1637 Y-3.8073
G01 X0.1803 Y-3.8252
G01 X0.1973 Y-3.8427
G01 X0.2148 Y-3.8597
G01 X0.2327 Y-3.8763
G01 X0.2509 Y-3.8925
G01 X0.2696 Y-3.9082
G01 X0.2886 Y-3.9234
G01 X0.3080 Y-3.9382
G01 X0.3278 Y-3.9525
G01 X0.3479 Y-3.9662
G01 X0.3684 Y-3.9795
G01 X0.3891 Y-3.9923
G01 X0.4063 Y-4.0023
G01 X0.4063 Y-5.7000
G01 X0.4066 Y-5.7244
G01 X0.4075 Y-5.7488
G01 X0.4090 Y-5.7731
G01 X0.4111 Y-5.7974
G01 X0.4138 Y-5.8216
G01 X0.4170 Y-5.8458
G01 X0.4209 Y-5.8699
G01 X0.4254 Y-5.8939
G01 X0.4304 Y-5.9177
G01 X0.4361 Y-5.9415
G01 X0.4423 Y-5.9650
G01 X0.4527 Y-6.0000
G01 X0.4423 Y-6.0350
G01 X0.4361 Y-6.0585
G01 X0.4304 Y-6.0823
G01 X0.4254 Y-6.1061
G01 X0.4209 Y-6.1301
G01 X0.4170 Y-6.1542
G01 X0.4138 Y-6.1784
G01 X0.4111 Y-6.2026
G01 X0.4090 Y-6.2269
G01 X0.4075 Y-6.2512
G01 X0.4066 Y-6.2756
G01 X0.4063 Y-6.3000
G01 X0.4063 Y-7.9977
G01 X0.3891 Y-8.0077
G01 X0.3684 Y-8.0205
G01 X0.3479 Y-8.0338
G01 X0.3278 Y-8.0475
G01 X0.3080 Y-8.0618
G01 X0.2886 Y-8.0766
G01 X0.2696 Y-8.0918
G01 X0.2509 Y-8.1075
G01 X0.2327 Y-8.1237
G01 X0.2148 Y-8.1403
G01 X0.1973 Y-8.1573
G01 X0.1803 Y-8.1748
G01 X0.1637 Y-8.1927
G01 X0.1475 Y-8.2109
G01 X0.1318 Y-8.2296
G01 X0.1166 Y-8.2486
G01 X0.1018 Y-8.2680
G01 X0.0875 Y-8.2878
G01 X0.0738 Y-8.3079
G01 X0.0605 Y-8.3284
G01 X0.0477 Y-8.3491
G01 X0.0354 Y-8.3702
G01 X0.0236 Y-8.3916
G01 X0.0124 Y-8.4132
G01 X0.0017 Y-8.4351
G01 X-0.0085 Y-8.4573
G01 X-0.0181 Y-8.4797
G01 X-0.0271 Y-8.5024
G01 X-0.0356 Y-8.5252
G01 X-0.0436 Y-8.5483
G01 X-0.0509 Y-8.5715
G01 X-0.0577 Y-8.5950
G01 X-0.0639 Y-8.6185
G01 X-0.0696 Y-8.6423
G01 X-0.0746 Y-8.6661
G01 X-0.0791 Y-8.6901
G01 X-0.0830 Y-8.7142
G01 X-0.0862 Y-8.7384
G01 X-0.0889 Y-8.7626
G01 X-0.0910 Y-8.7869
G01 X-0.0925 Y-8.8112
G01 X-0.0934 Y-8.8356
G01 X-0.0937 Y-8.8600
G01 X-0.0937 Y-10.7600
G01 X-0.0934 Y-10.7844
G01 X-0.0925 Y-10.8088
G01 X-0.0910 Y-10.8331
G01 X-0.0889 Y-10.8574
G01 X-0.0862 Y-10.8816
G01 X-0.0830 Y-10.9058
G01 X-0.0791 Y-10.9299
G01 X-0.0746 Y-10.9539
G01 X-0.0696 Y-10.9777
G01 X-0.0639 Y-11.0015
G01 X-0.0577 Y-11.0250
G01 X-0.0509 Y-11.0485
G01 X-0.0436 Y-11.0717
G01 X-0.0356 Y-11.0948
G01 X-0.0271 Y-11.1176
G01 X-0.0181 Y-11.1403
G01 X-0.0085 Y-11.1627
G01 X0.0017 Y-11.1849
G01 X0.0124 Y-11.2068
G01 X0.0236 Y-11.2284
G01 X0.0354 Y-11.2498
G01 X0.0477 Y-11.2709
G01 X0.0605 Y-11.2916
G01 X0.0738 Y-11.3121
G01 X0.0875 Y-11.3322
G01 X0.1018 Y-11.3520
G01 X0.1166 Y-11.3714
G01 X0.1318 Y-11.3904
G01 X0.1475 Y-11.4091
G01 X0.1637 Y-11.4273
G01 X0.1803 Y-11.4452
G01 X0.1973 Y-11.4627
G01 X0.2148 Y-11.4797
G01 X0.2327 Y-11.4963
G01 X0.2509 Y-11.5125
G01 X0.2696 Y-11.5282
G01 X0.2886 Y-11.5434
G01 X0.3080 Y-11.5582
G01 X0.3278 Y-11.5725
G01 X0.3479 Y-11.5862
G01 X0.3684 Y-11.5995
G01 X0.3891 Y-11.6123
G01 X0.4102 Y-11.6246
G01 X0.4316 Y-11.6364
G01 X0.4532 Y-11.6476
G01 X0.4751 Y-11.6583
G01 X0.4973 Y-11.6685
G01 X0.5197 Y-11.6781
G01 X0.5424 Y-11.6871
G01 X0.5652 Y-11.6956
G01 X0.5883 Y-11.7036
G01 X0.6115 Y-11.7109
G01 X0.6350 Y-11.7177
G01 X0.6585 Y-11.7239
G01 X0.6823 Y-11.7296
G01 X0.7061 Y-11.7346
G01 X0.7301 Y-11.7391
G01 X0.7542 Y-11.7430
G01 X0.7784 Y-11.7462
G01 X0.8026 Y-11.7489
G01 X0.8269 Y-11.7510
G01 X0.8512 Y-11.7525
G01 X0.8756 Y-11.7534
G01 X0.9000 Y-11.7537
G00 Z0.5000
G00 X0.9000 Y-12.1323
G01 F60.00
G01 Z-0.1500
G01 F240.00
G01 X8.7048 Y-12.1323
G01 X8.7228 Y-12.1439
G01 X8.7519 Y-12.1616
G01 X8.7815 Y-12.1786
G01 X8.8114 Y-12.1948
G01 X8.8418 Y-12.2103
G01 X8.8725 Y-12.2250
G01 X8.9036 Y-12.2390
G01 X8.9350 Y-12.2522
G01 X8.9668 Y-12.2646
G01 X8.9988 Y-12.2762
G01 X9.0311 Y-12.2870
G01 X9.0637 Y-12.2970
G01 X9.1308 Y-12.3167
G01 X9.1622 Y-12.3255
G01 X9.1938 Y-12.3336
G01 X9.2257 Y-12.3409
G01 X9.2577 Y-12.3475
G01 X9.2898 Y-12.3533
G01 X9.3221 Y-12.3583
G01 X9.3545 Y-12.3626
G01 X9.3869 Y-12.3661
G01 X9.4195 Y-12.3688
G01 X9.4521 Y-12.3707
G01 X9.4847 Y-12.3719
G01 X9.5174 Y-12.3723
G01 X10.9316 Y-12.3723
G01 X10.9928 Y-12.4335
G01 X11.0192 Y-12.4592
G01 X11.0462 Y-12.4841
G01 X11.0738 Y-12.5083
G01 X11.1021 Y-12.5317
G01 X11.1493 Y-12.5691
G01 X11.1762 Y-12.5893
G01 X11.2037 Y-12.6088
G01 X11.2316 Y-12.6276
G01 X11.2600 Y-12.6457
G01 X11.2889 Y-12.6631
G01 X11.3181 Y-12.6798
G01 X11.3478 Y-12.6958
G01 X11.3778 Y-12.7110
G01 X11.4082 Y-12.7255
G01 X11.4389 Y-12.7393
G01 X11.4700 Y-12.7523
G01 X11.5014 Y-12.7645
G01 X11.5331 Y-12.7759
G01 X11.5650 Y-12.7866
G01 X11.5972 Y-12.7965
G01 X11.6642 Y-12.8162
G01 X11.6957 Y-12.8250
G01 X11.7273 Y-12.8331
G01 X11.7592 Y-12.8404
G01 X11.7911 Y-12.8470
G01 X11.8233 Y-12.8528
G01 X11.8556 Y-12.8578
G01 X11.8879 Y-12.8621
G01 X11.9204 Y-12.8656
G01 X11.9530 Y-12.8683
G01 X11.9856 Y-12.8702
G01 X12.0182 Y-12.8714
G01 X12.0509 Y-12.8718
G01 X15.3755 Y-12.8718
G01 X15.4082 Y-12.8714
G01 X15.4408 Y-12.8702
G01 X15.4734 Y-12.8683
G01 X15.5059 Y-12.8656
G01 X15.5384 Y-12.8621
G01 X15.5708 Y-12.8578
G01 X15.6031 Y-12.8528
G01 X15.6352 Y-12.8470
G01 X15.7187 Y-12.8292
G01 X15.7521 Y-12.8215
G01 X15.7853 Y-12.8130
G01 X15.8183 Y-12.8036
G01 X15.8511 Y-12.7934
G01 X15.8836 Y-12.7824
G01 X15.9157 Y-12.7706
G01 X15.9476 Y-12.7580
G01 X15.9792 Y-12.7446
G01 X16.0104 Y-12.7304
G01 X16.0413 Y-12.7154
G01 X16.0717 Y-12.6997
G01 X16.1018 Y-12.6832
G01 X16.1315 Y-12.6660
G01 X16.1607 Y-12.6480
G01 X16.1894 Y-12.6293
G01 X16.2177 Y-12.6099
G01 X16.2455 Y-12.5898
G01 X16.2727 Y-12.5690
G01 X16.2995 Y-12.5475
G01 X16.3257 Y-12.5254
G01 X16.3785 Y-12.4796
G01 X16.4039 Y-12.4570
G01 X16.4288 Y-12.4337
G01 X16.4532 Y-12.4099
G01 X16.4769 Y-12.3854
G01 X16.5000 Y-12.3604
G01 X16.5225 Y-12.3347
G01 X16.5443 Y-12.3086
G01 X16.5655 Y-12.2819
G01 X16.5860 Y-12.2547
G01 X16.6058 Y-12.2269
G01 X16.6249 Y-12.1987
G01 X16.6434 Y-12.1701
G01 X16.6611 Y-12.1409
G01 X16.6781 Y-12.1114
G01 X16.6943 Y-12.0814
G01 X16.7098 Y-12.0511
G01 X16.7245 Y-12.0204
G01 X16.7385 Y-11.9893
G01 X16.7517 Y-11.9578
G01 X16.7641 Y-11.9261
G01 X16.7757 Y-11.8941
G01 X16.7865 Y-11.8617
G01 X16.7965 Y-11.8292
G01 X16.8162 Y-11.7621
G01 X16.8250 Y-11.7307
G01 X16.8331 Y-11.6990
G01 X16.8404 Y-11.6672
G01 X16.8470 Y-11.6352
G01 X16.8528 Y-11.6031
G01 X16.8578 Y-11.5708
G01 X16.8621 Y-11.5384
G01 X16.8656 Y-11.5059
G01 X16.8683 Y-11.4734
G01 X16.8702 Y-11.4408
G01 X16.8714 Y-11.4082
G01 X16.8718 Y-11.3755
G01 X16.8718 Y-9.5240
G01 X16.8714 Y-9.4913
G01 X16.8702 Y-9.4587
G01 X16.8683 Y-9.4261
G01 X16.8656 Y-9.3936
G01 X16.8621 Y-9.3611
G01 X16.8578 Y-9.3287
G01 X16.8528 Y-9.2964
G01 X16.8470 Y-9.2643
G01 X16.8404 Y-9.2323
G01 X16.8292 Y-9.1808
G01 X16.8215 Y-9.1474
G01 X16.8130 Y-9.1142
G01 X16.8036 Y-9.0812
G01 X16.7934 Y-9.0484
G01 X16.7824 Y-9.0159
G01 X16.7751 Y-8.9961
G01 X16.7865 Y-8.9622
G01 X16.7965 Y-8.9297
G01 X16.8162 Y-8.8626
G01 X16.8250 Y-8.8312
G01 X16.8331 Y-8.7995
G01 X16.8404 Y-8.7677
G01 X16.8470 Y-8.7357
G01 X16.8528 Y-8.7036
G01 X16.8578 Y-8.6713
G01 X16.8621 Y-8.6389
G01 X16.8656 Y-8.6064
G01 X16.8683 Y-8.5739
G01 X16.8702 Y-8.5413
G01 X16.8714 Y-8.5087
G01 X16.8718 Y-8.4760
G01 X16.8718 Y-5.8461
G01 X16.8713 Y-5.8093
G01 X16.8698 Y-5.7726
G01 X16.8674 Y-5.7359
G01 X16.8639 Y-5.6994
G01 X16.8571 Y-5.6396
G01 X16.8522 Y-5.6062
G01 X16.8466 Y-5.5730
G01 X16.8401 Y-5.5400
G01 X16.8329 Y-5.5071
G01 X16.8248 Y-5.4744
G01 X16.8159 Y-5.4419
G01 X16.8062 Y-5.4096
G01 X16.7958 Y-5.3776
G01 X16.7845 Y-5.3459
G01 X16.7725 Y-5.3144
G01 X16.7597 Y-5.2833
G01 X16.7462 Y-5.2524
G01 X16.7319 Y-5.2219
G01 X16.7169 Y-5.1918
G01 X16.7011 Y-5.1620
G01 X16.6676 Y-5.1007
G01 X16.6509 Y-5.0710
G01 X16.6335 Y-5.0417
G01 X16.6153 Y-5.0129
G01 X16.5964 Y-4.9845
G01 X16.5769 Y-4.9566
G01 X16.5566 Y-4.9292
G01 X16.5357 Y-4.9023
G01 X16.5141 Y-4.8759
G01 X16.4919 Y-4.8501
G01 X16.4690 Y-4.8248
G01 X16.4455 Y-4.8002
G01 X16.4214 Y-4.7761
G01 X16.3967 Y-4.7526
G01 X16.3715 Y-4.7297
G01 X16.3456 Y-4.7075
G01 X16.3193 Y-4.6859
G01 X16.2924 Y-4.6649
G01 X16.2723 Y-4.6501
G01 X16.2723 Y-4.2698
G01 X16.2995 Y-4.2480
G01 X16.3257 Y-4.2259
G01 X16.3785 Y-4.1801
G01 X16.4039 Y-4.1575
G01 X16.4288 Y-4.1342
G01 X16.4532 Y-4.1104
G01 X16.4769 Y-4.0859
G01 X16.5000 Y-4.0609
G01 X16.5225 Y-4.0352
G01 X16.5443 Y-4.0091
G01 X16.5655 Y-3.9824
G01 X16.5860 Y-3.9552
G01 X16.6058 Y-3.9274
G01 X16.6249 Y-3.8992
G01 X16.6434 Y-3.8706
G01 X16.6611 Y-3.8414
G01 X16.6781 Y-3.8119
G01 X16.6943 Y-3.7819
G01 X16.7098 Y-3.7516
G01 X16.7245 Y-3.7209
G01 X16.7385 Y-3.6898
G01 X16.7517 Y-3.6583
G01 X16.7641 Y-3.6266
G01 X16.7757 Y-3.5946
G01 X16.7865 Y-3.5622
G01 X16.7965 Y-3.5297
G01 X16.8162 Y-3.4626
G01 X16.8250 Y-3.4312
G01 X16.8331 Y-3.3995
G01 X16.8404 Y-3.3677
G01 X16.8470 Y-3.3357
G01 X16.8528 Y-3.3036
G01 X16.8578 Y-3.2713
G01 X16.8621 Y-3.2389
G01 X16.8656 Y-3.2064
G01 X16.8683 Y-3.1739
G01 X16.8702 Y-3.1413
G01 X16.8714 Y-3.1087
G01 X16.8718 Y-3.0760
G01 X16.8718 Y-2.6581
G01 X16.8714 Y-2.6243
G01 X16.8701 Y-2.5905
G01 X16.8680 Y-2.5568
G01 X16.8651 Y-2.5231
G01 X16.8614 Y-2.4895
G01 X16.8568 Y-2.4560
G01 X16.8514 Y-2.4226
G01 X16.8452 Y-2.3894
G01 X16.8382 Y-2.3563
G01 X16.8185 Y-2.2709
G01 X16.8101 Y-2.2388
G01 X16.8008 Y-2.2070
G01 X16.7908 Y-2.1754
G01 X16.7801 Y-2.1440
G01 X16.7686 Y-2.1129
G01 X16.7563 Y-2.0821
G01 X16.7433 Y-2.0516
G01 X16.7296 Y-2.0214
G01 X16.7187 Y-1.9989
G01 X16.7385 Y-1.9557
G01 X16.7517 Y-1.9242
G01 X16.7641 Y-1.8925
G01 X16.7757 Y-1.8605
G01 X16.7865 Y-1.8281
G01 X16.7965 Y-1.7956
G01 X16.8162 Y-1.7285
G01 X16.8250 Y-1.6971
G01 X16.8331 Y-1.6654
G01 X16.8404 Y-1.6336
G01 X16.8470 Y-1.6016
G01 X16.8528 Y-1.5695
G01 X16.8578 Y-1.5372
G01 X16.8621 Y-1.5048
G01 X16.8656 Y-1.4724
G01 X16.8683 Y-1.4398
G01 X16.8702 Y-1.4072
G01 X16.8714 Y-1.3746
G01 X16.8718 Y-1.3419
G01 X16.8718 Y-0.6245
G01 X16.8714 Y-0.5918
G01 X16.8702 Y-0.5592
G01 X16.8683 Y-0.5266
G01 X16.8656 Y-0.4941
G01 X16.8621 Y-0.4616
G01 X16.8578 Y-0.4292
G01 X16.8528 Y-0.3969
G01 X16.8470 Y-0.3648
G01 X16.8404 Y-0.3328
G01 X16.8292 Y-0.2813
G01 X16.8215 Y-0.2479
G01 X16.8130 Y-0.2147
G01 X16.8036 Y-0.1817
G01 X16.7934 Y-0.1489
G01 X16.7824 Y-0.1164
G01 X16.7706 Y-0.0843
G01 X16.7580 Y-0.0524
G01 X16.7446 Y-0.0208
G01 X16.7304 Y0.0104
G01 X16.7154 Y0.0413
G01 X16.6997 Y0.0717
G01 X16.6832 Y0.1018
G01 X16.6660 Y0.1315
G01 X16.6480 Y0.1607
G01 X16.6293 Y0.1894
G01 X16.6099 Y0.2177
G01 X16.5898 Y0.2455
G01 X16.5690 Y0.2727
G01 X16.5475 Y0.2995
G01 X16.5254 Y0.3257
G01 X16.4796 Y0.3785
G01 X16.4570 Y0.4039
G01 X16.4337 Y0.4288
G01 X16.4099 Y0.4532
G01 X16.3854 Y0.4769
G01 X16.3604 Y0.5000
G01 X16.3347 Y0.5225
G01 X16.3086 Y0.5443
G01 X16.2819 Y0.5655
G01 X16.2547 Y0.5860
G01 X16.2269 Y0.6058
G01 X16.1987 Y0.6249
G01 X16.1701 Y0.6434
G01 X16.1409 Y0.6611
G01 X16.1114 Y0.6781
G01 X16.0814 Y0.6943
G01 X16.0511 Y0.7098
G01 X16.0204 Y0.7245
G01 X15.9893 Y0.7385
G01 X15.9578 Y0.7517
G01 X15.9261 Y0.7641
G01 X15.8941 Y0.7757
G01 X15.8617 Y0.7865
G01 X15.8292 Y0.7965
G01 X15.7621 Y0.8162
G01 X15.7307 Y0.8250
G01 X15.6990 Y0.8331
G01 X15.6672 Y0.8404
G01 X15.6352 Y0.8470
G01 X15.6031 Y0.8528
G01 X15.5708 Y0.8578
G01 X15.5384 Y0.8621
G01 X15.5059 Y0.8656
G01 X15.4734 Y0.8683
G01 X15.4408 Y0.8702
G01 X15.4082 Y0.8714
G01 X15.3755 Y0.8718
G01 X14.6603 Y0.8718
G01 X14.6250 Y0.8713
G01 X14.5896 Y0.8700
G01 X14.5543 Y0.8677
G01 X14.5191 Y0.8645
G01 X14.4840 Y0.8604
G01 X14.4490 Y0.8554
G01 X14.4141 Y0.8495
G01 X14.3373 Y0.8351
G01 X14.3044 Y0.8278
G01 X14.2718 Y0.8198
G01 X14.2393 Y0.8109
G01 X14.2070 Y0.8013
G01 X14.1751 Y0.7908
G01 X14.1433 Y0.7796
G01 X14.1119 Y0.7676
G01 X14.0807 Y0.7549
G01 X14.0499 Y0.7413
G01 X14.0194 Y0.7271
G01 X13.9997 Y0.7172
G01 X13.9845 Y0.7245
G01 X13.9534 Y0.7385
G01 X13.9220 Y0.7517
G01 X13.8903 Y0.7641
G01 X13.8582 Y0.7757
G01 X13.8259 Y0.7865
G01 X13.7933 Y0.7965
G01 X13.7263 Y0.8162
G01 X13.6948 Y0.8250
G01 X13.6632 Y0.8331
G01 X13.6314 Y0.8404
G01 X13.5994 Y0.8470
G01 X13.5672 Y0.8528
G01 X13.5350 Y0.8578
G01 X13.5026 Y0.8621
G01 X13.4701 Y0.8656
G01 X13.4376 Y0.8683
G01 X13.4050 Y0.8702
G01 X13.3723 Y0.8714
G01 X13.3397 Y0.8718
G01 X12.3240 Y0.8718
G01 X12.2913 Y0.8714
G01 X12.2587 Y0.8702
G01 X12.2261 Y0.8683
G01 X12.1936 Y0.8656
G01 X12.1611 Y0.8621
G01 X12.1287 Y0.8578
G01 X12.0964 Y0.8528
G01 X12.0643 Y0.8470
G01 X12.0323 Y0.8404
G01 X11.9808 Y0.8292
G01 X11.9474 Y0.8215
G01 X11.9142 Y0.8130
G01 X11.8812 Y0.8036
G01 X11.8484 Y0.7934
G01 X11.8159 Y0.7824
G01 X11.7838 Y0.7706
G01 X11.7519 Y0.7580
G01 X11.7203 Y0.7446
G01 X11.6891 Y0.7304
G01 X11.6582 Y0.7154
G01 X11.6278 Y0.6997
G01 X11.5977 Y0.6832
G01 X11.5680 Y0.6660
G01 X11.5388 Y0.6480
G01 X11.5101 Y0.6293
G01 X11.4818 Y0.6099
G01 X11.4540 Y0.5898
G01 X11.4268 Y0.5690
G01 X11.4000 Y0.5475
G01 X11.3738 Y0.5254
G01 X11.3128 Y0.4723
G01 X9.4854 Y0.4723
G01 X9.4487 Y0.4718
G01 X9.4120 Y0.4703
G01 X9.3753 Y0.4679
G01 X9.3387 Y0.4644
G01 X9.2789 Y0.4576
G01 X9.2456 Y0.4527
G01 X9.2124 Y0.4471
G01 X9.1793 Y0.4406
G01 X9.1465 Y0.4334
G01 X9.1138 Y0.4253
G01 X9.0813 Y0.4164
G01 X9.0490 Y0.4067
G01 X9.0170 Y0.3963
G01 X8.9852 Y0.3850
G01 X8.9538 Y0.3730
G01 X8.9226 Y0.3602
G01 X8.8918 Y0.3467
G01 X8.8613 Y0.3324
G01 X8.8312 Y0.3174
G01 X8.8014 Y0.3016
G01 X8.7401 Y0.2681
G01 X8.7104 Y0.2514
G01 X8.6811 Y0.2340
G01 X8.6523 Y0.2158
G01 X8.6239 Y0.1969
G01 X8.5960 Y0.1774
G01 X8.5686 Y0.1571
G01 X8.5369 Y0.1323
G01 X0.9000 Y0.1323
G01 X0.8663 Y0.1319
G01 X0.8327 Y0.1306
G01 X0.7990 Y0.1286
G01 X0.7655 Y0.1257
G01 X0.7320 Y0.1220
G01 X0.6986 Y0.1174
G01 X0.6654 Y0.1121
G01 X0.6323 Y0.1059
G01 X0.5993 Y0.0989
G01 X0.5666 Y0.0912
G01 X0.5340 Y0.0826
G01 X0.5016 Y0.0732
G01 X0.4695 Y0.0630
G01 X0.4377 Y0.0521
G01 X0.4061 Y0.0403
G01 X0.3749 Y0.0278
G01 X0.3439 Y0.0146
G01 X0.3133 Y0.0005
G01 X0.2830 Y-0.0142
G01 X0.2531 Y-0.0298
G01 X0.2236 Y-0.0460
G01 X0.1945 Y-0.0630
G01 X0.1658 Y-0.0806
G01 X0.1376 Y-0.0990
G01 X0.1098 Y-0.1180
G01 X0.0825 Y-0.1378
G01 X0.0557 Y-0.1582
G01 X0.0294 Y-0.1792
G01 X0.0037 Y-0.2009
G01 X-0.0216 Y-0.2232
G01 X-0.0462 Y-0.2461
G01 X-0.0703 Y-0.2697
G01 X-0.0939 Y-0.2938
G01 X-0.1168 Y-0.3184
G01 X-0.1391 Y-0.3437
G01 X-0.1608 Y-0.3694
G01 X-0.1818 Y-0.3957
G01 X-0.2022 Y-0.4225
G01 X-0.2220 Y-0.4498
G01 X-0.2410 Y-0.4776
G01 X-0.2594 Y-0.5058
G01 X-0.2770 Y-0.5345
G01 X-0.2940 Y-0.5636
G01 X-0.3102 Y-0.5931
G01 X-0.3258 Y-0.6230
G01 X-0.3405 Y-0.6533
G01 X-0.3546 Y-0.6839
G01 X-0.3678 Y-0.7149
G01 X-0.3803 Y-0.7461
G01 X-0.3921 Y-0.7777
G01 X-0.4030 Y-0.8095
G01 X-0.4132 Y-0.8416
G01 X-0.4226 Y-0.8740
G01 X-0.4312 Y-0.9066
G01 X-0.4389 Y-0.9393
G01 X-0.4459 Y-0.9723
G01 X-0.4521 Y-1.0054
G01 X-0.4574 Y-1.0386
G01 X-0.4620 Y-1.0720
G01 X-0.4657 Y-1.1055
G01 X-0.4686 Y-1.1390
G01 X-0.4706 Y-1.1727
G01 X-0.4719 Y-1.2063
G01 X-0.4723 Y-1.2400
G01 X-0.4723 Y-3.1400
G01 X-0.4719 Y-3.1737
G01 X-0.4706 Y-3.2073
G01 X-0.4686 Y-3.2410
G01 X-0.4657 Y-3.2745
G01 X-0.4620 Y-3.3080
G01 X-0.4574 Y-3.3414
G01 X-0.4521 Y-3.3746
G01 X-0.4459 Y-3.4077
G01 X-0.4389 Y-3.4407
G01 X-0.4312 Y-3.4734
G01 X-0.4226 Y-3.5060
G01 X-0.4132 Y-3.5384
G01 X-0.4030 Y-3.5705
G01 X-0.3921 Y-3.6023
G01 X-0.3803 Y-3.6339
G01 X-0.3678 Y-3.6651
G01 X-0.3546 Y-3.6961
G01 X-0.3405 Y-3.7267
G01 X-0.3258 Y-3.7570
G01 X-0.3102 Y-3.7869
G01 X-0.2940 Y-3.8164
G01 X-0.2770 Y-3.8455
G01 X-0.2594 Y-3.8742
G01 X-0.2410 Y-3.9024
G01 X-0.2220 Y-3.9302
G01 X-0.2022 Y-3.9575
G01 X-0.1818 Y-3.9843
G01 X-0.1608 Y-4.0106
G01 X-0.1391 Y-4.0363
G01 X-0.1168 Y-4.0616
G01 X-0.0939 Y-4.0862
G01 X-0.0703 Y-4.1103
G01 X-0.0462 Y-4.1339
G01 X-0.0216 Y-4.1568
G01 X0.0037 Y-4.1791
G01 X0.0277 Y-4.1993
G01 X0.0277 Y-5.7000
G01 X0.0281 Y-5.7337
G01 X0.0294 Y-5.7673
G01 X0.0314 Y-5.8010
G01 X0.0343 Y-5.8345
G01 X0.0380 Y-5.8680
G01 X0.0426 Y-5.9014
G01 X0.0479 Y-5.9346
G01 X0.0541 Y-5.9677
G01 X0.0609 Y-6.0000
G01 X0.0541 Y-6.0323
G01 X0.0479 Y-6.0654
G01 X0.0426 Y-6.0986
G01 X0.0380 Y-6.1320
G01 X0.0343 Y-6.1655
G01 X0.0314 Y-6.1990
G01 X0.0294 Y-6.2327
G01 X0.0281 Y-6.2663
G01 X0.0277 Y-6.3000
G01 X0.0277 Y-7.8007
G01 X0.0037 Y-7.8209
G01 X-0.0216 Y-7.8432
G01 X-0.0462 Y-7.8661
G01 X-0.0703 Y-7.8897
G01 X-0.0939 Y-7.9138
G01 X-0.1168 Y-7.9384
G01 X-0.1391 Y-7.9637
G01 X-0.1608 Y-7.9894
G01 X-0.1818 Y-8.0157
G01 X-0.2022 Y-8.0425
G01 X-0.2220 Y-8.0698
G01 X-0.2410 Y-8.0976
G01 X-0.2594 Y-8.1258
G01 X-0.2770 Y-8.1545
G01 X-0.2940 Y-8.1836
G01 X-0.3102 Y-8.2131
G01 X-0.3258 Y-8.2430
G01 X-0.3405 Y-8.2733
G01 X-0.3546 Y-8.3039
G01 X-0.3678 Y-8.3349
G01 X-0.3803 Y-8.3661
G01 X-0.3921 Y-8.3977
G01 X-0.4030 Y-8.4295
G01 X-0.4132 Y-8.4616
G01 X-0.4226 Y-8.4940
G01 X-0.4312 Y-8.5266
G01 X-0.4389 Y-8.5593
G01 X-0.4459 Y-8.5923
G01 X-0.4521 Y-8.6254
G01 X-0.4574 Y-8.6586
G01 X-0.4620 Y-8.6920
G01 X-0.4657 Y-8.7255
G01 X-0.4686 Y-8.7590
G01 X-0.4706 Y-8.7927
G01 X-0.4719 Y-8.8263
G01 X-0.4723 Y-8.8600
G01 X-0.4723 Y-10.7600
G01 X-0.4719 Y-10.7937
G01 X-0.4706 Y-10.8273
G01 X-0.4686 Y-10.8610
G01 X-0.4657 Y-10.8945
G01 X-0.4620 Y-10.9280
G01 X-0.4574 Y-10.9614
G01 X-0.4521 Y-10.9946
G01 X-0.4459 Y-11.0277
G01 X-0.4389 Y-11.0607
G01 X-0.4312 Y-11.0934
G01 X-0.4226 Y-11.1260
G01 X-0.4132 Y-11.1584
G01 X-0.4030 Y-11.1905
G01 X-0.3921 Y-11.2223
G01 X-0.3803 Y-11.2539
G01 X-0.3678 Y-11.2851
G01 X-0.3546 Y-11.3161
G01 X-0.3405 Y-11.3467
G01 X-0.3258 Y-11.3770
G01 X-0.3102 Y-11.4069
G01 X-0.2940 Y-11.4364
G01 X-0.2770 Y-11.4655
G01 X-0.2594 Y-11.4942
G01 X-0.2410 Y-11.5224
G01 X-0.2220 Y-11.5502
G01 X-0.2022 Y-11.5775
G01 X-0.1818 Y-11.6043
G01 X-0.1608 Y-11.6306
G01 X-0.1391 Y-11.6563
G01 X-0.1168 Y-11.6816
G01 X-0.0939 Y-11.7062
G01 X-0.0703 Y-11.7303
G01 X-0.0462 Y-11.7539
G01 X-0.0216 Y-11.7768
G01 X0.0037 Y-11.7991
G01 X0.0294 Y-11.8208
G01 X0.0557 Y-11.8418
G01 X0.0825 Y-11.8622
G01 X0.1098 Y-11.8820
G01 X0.1376 Y-11.9010
G01 X0.1658 Y-11.9194
G01 X0.1945 Y-11.9370
G01 X0.2236 Y-11.9540
G01 X0.2531 Y-11.9702
G01 X0.2830 Y-11.9858
G01 X0.3133 Y-12.0005
G01 X0.3439 Y-12.0146
G01 X0.3749 Y-12.0278
G01 X0.4061 Y-12.0403
G01 X0.4377 Y-12.0521
G01 X0.4695 Y-12.0630
G01 X0.5016 Y-12.0732
G01 X0.5340 Y-12.0826
G01 X0.5666 Y-12.0912
G01 X0.5993 Y-12.0989
G01 X0.6323 Y-12.1059
G01 X0.6654 Y-12.1121
G01 X0.6986 Y-12.1174
G01 X0.7320 Y-12.1220
G01 X0.7655 Y-12.1257
G01 X0.7990 Y-12.1286
G01 X0.8327 Y-12.1306
G01 X0.8663 Y-12.1319
G01 X0.9000 Y-12.1323
G00 Z0.5000
G00 X9.4370 Y-6.0000
G01 F60.00
G01 Z-0.1500
G01 F240.00
G01 X9.4495 Y-6.0234
G01 X9.4561 Y-6.0370
G01 X9.4683 Y-6.0646
G01 X9.4739 Y-6.0786
G01 X9.4841 Y-6.1070
G01 X9.4929 Y-6.1359
G01 X9.5002 Y-6.1652
G01 X9.5033 Y-6.1800
G01 X9.5085 Y-6.2097
G01 X9.5105 Y-6.2247
G01 X9.5135 Y-6.2547
G01 X9.5150 Y-6.2849
G01 X9.5152 Y-8.3000
G01 X9.5150 Y-8.3151
G01 X9.5135 Y-8.3453
G01 X9.5122 Y-8.3603
G01 X9.5092 Y-8.3850
G01 X9.7017 Y-8.3850
G01 X9.7309 Y-8.3864
G01 X9.7455 Y-8.3876
G01 X9.7746 Y-8.3911
G01 X9.8034 Y-8.3960
G01 X9.8320 Y-8.4022
G01 X9.8462 Y-8.4058
G01 X9.9420 Y-8.4339
G01 X9.9708 Y-8.4440
G01 X9.9850 Y-8.4495
G01 X10.0130 Y-8.4617
G01 X10.0267 Y-8.4683
G01 X10.0403 Y-8.4752
G01 X10.0670 Y-8.4900
G01 X10.0928 Y-8.5062
G01 X10.1055 Y-8.5148
G01 X10.1301 Y-8.5328
G01 X10.1420 Y-8.5423
G01 X10.1652 Y-8.5621
G01 X10.2200 Y-8.6138
G01 X10.2398 Y-8.6343
G01 X10.2586 Y-8.6558
G01 X10.2765 Y-8.6781
G01 X10.2868 Y-8.6920
G01 X10.3314 Y-8.7321
G01 X10.3833 Y-8.7621
G01 X10.4403 Y-8.7806
G01 X10.4850 Y-8.7853
G01 X10.5150 Y-8.7853
G01 X10.5597 Y-8.7806
G01 X10.6167 Y-8.7621
G01 X10.6686 Y-8.7321
G01 X10.7132 Y-8.6920
G01 X10.7237 Y-8.6778
G01 X10.7421 Y-8.6550
G01 X10.7614 Y-8.6330
G01 X10.7715 Y-8.6224
G01 X10.7818 Y-8.6120
G01 X10.8032 Y-8.5920
G01 X10.8255 Y-8.5730
G01 X10.8924 Y-8.5213
G01 X10.9045 Y-8.5121
G01 X10.9296 Y-8.4947
G01 X10.9555 Y-8.4786
G01 X10.9687 Y-8.4710
G01 X10.9822 Y-8.4637
G01 X11.0095 Y-8.4502
G01 X11.0234 Y-8.4440
G01 X11.0517 Y-8.4326
G01 X11.0805 Y-8.4225
G01 X11.0951 Y-8.4181
G01 X11.1098 Y-8.4140
G01 X11.1395 Y-8.4069
G01 X11.2135 Y-8.3929
G01 X11.2276 Y-8.3908
G01 X11.2560 Y-8.3875
G01 X11.2844 Y-8.3855
G01 X11.3130 Y-8.3848
G01 X11.3848 Y-8.3848
G01 X11.3848 Y-3.6152
G01 X11.3130 Y-3.6152
G01 X11.2837 Y-3.6145
G01 X11.2691 Y-3.6136
G01 X11.2400 Y-3.6108
G01 X11.2110 Y-3.6066
G01 X11.1966 Y-3.6040
G01 X11.1822 Y-3.6011
G01 X11.1538 Y-3.5942
G01 X11.0580 Y-3.5661
G01 X11.0292 Y-3.5560
G01 X11.0010 Y-3.5446
G01 X10.9870 Y-3.5383
G01 X10.9733 Y-3.5317
G01 X10.9463 Y-3.5175
G01 X10.9200 Y-3.5020
G01 X10.9072 Y-3.4938
G01 X10.8821 Y-3.4764
G01 X10.8699 Y-3.4672
G01 X10.8463 Y-3.4479
G01 X10.8236 Y-3.4275
G01 X10.7903 Y-3.3961
G01 X10.7700 Y-3.3760
G01 X10.7507 Y-3.3550
G01 X10.7414 Y-3.3442
G01 X10.7235 Y-3.3219
G01 X10.7132 Y-3.3080
G01 X10.6686 Y-3.2679
G01 X10.6167 Y-3.2379
G01 X10.5597 Y-3.2194
G01 X10.5150 Y-3.2147
G01 X10.4850 Y-3.2147
G01 X10.4403 Y-3.2194
G01 X10.3833 Y-3.2379
G01 X10.3314 Y-3.2679
G01 X10.2868 Y-3.3080
G01 X10.2763 Y-3.3222
G01 X10.2579 Y-3.3450
G01 X10.2484 Y-3.3561
G01 X10.2285 Y-3.3776
G01 X10.2076 Y-3.3981
G01 X10.1857 Y-3.4176
G01 X10.1745 Y-3.4269
G01 X10.0955 Y-3.4879
G01 X10.0830 Y-3.4967
G01 X10.0576 Y-3.5135
G01 X10.0313 Y-3.5290
G01 X10.0043 Y-3.5432
G01 X9.9905 Y-3.5498
G01 X9.9625 Y-3.5619
G01 X9.9483 Y-3.5674
G01 X9.9195 Y-3.5775
G01 X9.8902 Y-3.5860
G01 X9.8754 Y-3.5898
G01 X9.8455 Y-3.5961
G01 X9.8006 Y-3.6046
G01 X9.7724 Y-3.6092
G01 X9.7582 Y-3.6110
G01 X9.7298 Y-3.6137
G01 X9.7013 Y-3.6150
G01 X9.5092 Y-3.6150
G01 X9.5122 Y-3.6397
G01 X9.5135 Y-3.6547
G01 X9.5144 Y-3.6698
G01 X9.5152 Y-3.7000
G01 X9.5150 Y-5.7151
G01 X9.5135 Y-5.7453
G01 X9.5122 Y-5.7603
G01 X9.5085 Y-5.7903
G01 X9.5033 Y-5.8200
G01 X9.5002 Y-5.8348
G01 X9.4929 Y-5.8641
G01 X9.4887 Y-5.8786
G01 X9.4792 Y-5.9072
G01 X9.4683 Y-5.9354
G01 X9.4561 Y-5.9630
G01 X9.4495 Y-5.9766
G01 X9.4370 Y-6.0000
G00 Z0.5000
G00 X9.8473 Y-6.0000
G01 F60.00
G01 Z-0.1500
G01 F240.00
G01 X9.8577 Y-6.0350
G01 X9.8639 Y-6.0585
G01 X9.8696 Y-6.0823
G01 X9.8746 Y-6.1061
G01 X9.8791 Y-6.1301
G01 X9.8830 Y-6.1542
G01 X9.8862 Y-6.1784
G01 X9.8889 Y-6.2026
G01 X9.8910 Y-6.2269
G01 X9.8925 Y-6.2512
G01 X9.8934 Y-6.2756
G01 X9.8937 Y-6.3000
G01 X9.8937 Y-8.0281
G01 X9.9213 Y-8.0343
G01 X9.9442 Y-8.0401
G01 X9.9670 Y-8.0465
G01 X10.0340 Y-8.0662
G01 X10.0576 Y-8.0735
G01 X10.0810 Y-8.0813
G01 X10.1041 Y-8.0897
G01 X10.1271 Y-8.0986
G01 X10.1498 Y-8.1082
G01 X10.1723 Y-8.1183
G01 X10.1945 Y-8.1289
G01 X10.2165 Y-8.1401
G01 X10.2381 Y-8.1518
G01 X10.2595 Y-8.1641
G01 X10.2806 Y-8.1769
G01 X10.3013 Y-8.1902
G01 X10.3217 Y-8.2041
G01 X10.3418 Y-8.2184
G01 X10.3615 Y-8.2332
G01 X10.3808 Y-8.2485
G01 X10.3997 Y-8.2643
G01 X10.4182 Y-8.2805
G01 X10.4696 Y-8.3287
G01 X10.5000 Y-8.3586
G01 X10.5167 Y-8.3418
G01 X10.5338 Y-8.3254
G01 X10.5513 Y-8.3095
G01 X10.5691 Y-8.2940
G01 X10.5873 Y-8.2788
G01 X10.6612 Y-8.2215
G01 X10.6809 Y-8.2067
G01 X10.7010 Y-8.1924
G01 X10.7214 Y-8.1786
G01 X10.7421 Y-8.1653
G01 X10.7632 Y-8.1525
G01 X10.7846 Y-8.1402
G01 X10.8062 Y-8.1285
G01 X10.8282 Y-8.1173
G01 X10.8504 Y-8.1067
G01 X10.8729 Y-8.0966
G01 X10.8957 Y-8.0871
G01 X10.9186 Y-8.0782
G01 X10.9418 Y-8.0698
G01 X10.9652 Y-8.0620
G01 X10.9888 Y-8.0548
G01 X11.0063 Y-8.0499
G01 X11.0063 Y-3.9456
G01 X10.9424 Y-3.9265
G01 X10.9190 Y-3.9187
G01 X10.8959 Y-3.9103
G01 X10.8729 Y-3.9014
G01 X10.8502 Y-3.8918
G01 X10.8277 Y-3.8817
G01 X10.8055 Y-3.8711
G01 X10.7835 Y-3.8599
G01 X10.7619 Y-3.8482
G01 X10.7405 Y-3.8359
G01 X10.7194 Y-3.8231
G01 X10.6987 Y-3.8098
G01 X10.6783 Y-3.7959
G01 X10.6582 Y-3.7816
G01 X10.6385 Y-3.7668
G01 X10.6192 Y-3.7515
G01 X10.6003 Y-3.7357
G01 X10.5818 Y-3.7195
G01 X10.5636 Y-3.7028
G01 X10.5304 Y-3.6713
G01 X10.5000 Y-3.6414
G01 X10.4833 Y-3.6582
G01 X10.4662 Y-3.6746
G01 X10.4487 Y-3.6905
G01 X10.4309 Y-3.7060
G01 X10.4127 Y-3.7211
G01 X10.3942 Y-3.7358
G01 X10.3388 Y-3.7785
G01 X10.3191 Y-3.7933
G01 X10.2991 Y-3.8076
G01 X10.2787 Y-3.8214
G01 X10.2579 Y-3.8347
G01 X10.2368 Y-3.8475
G01 X10.2154 Y-3.8597
G01 X10.1938 Y-3.8715
G01 X10.1718 Y-3.8826
G01 X10.1496 Y-3.8933
G01 X10.1271 Y-3.9034
G01 X10.1043 Y-3.9129
G01 X10.0814 Y-3.9218
G01 X10.0582 Y-3.9302
G01 X10.0348 Y-3.9380
G01 X10.0113 Y-3.9452
G01 X9.9875 Y-3.9519
G01 X9.9636 Y-3.9579
G01 X9.9396 Y-3.9633
G01 X9.8937 Y-3.9723
G01 X9.8937 Y-5.7000
G01 X9.8934 Y-5.7244
G01 X9.8925 Y-5.7488
G01 X9.8910 Y-5.7731
G01 X9.8889 Y-5.7974
G01 X9.8862 Y-5.8216
G01 X9.8830 Y-5.8458
G01 X9.8791 Y-5.8699
G01 X9.8746 Y-5.8939
G01 X9.8696 Y-5.9177
G01 X9.8639 Y-5.9415
G01 X9.8577 Y-5.9650
G01 X9.8473 Y-6.0000
G00 Z0.5000
G00 X10.2391 Y-6.0000
G01 F60.00
G01 Z-0.1500
G01 F240.00
G01 X10.2459 Y-6.0323
G01 X10.2521 Y-6.0654
G01 X10.2574 Y-6.0986
G01 X10.2620 Y-6.1320
G01 X10.2657 Y-6.1655
G01 X10.2686 Y-6.1990
G01 X10.2706 Y-6.2327
G01 X10.2719 Y-6.2663
G01 X10.2723 Y-6.3000
G01 X10.2723 Y-7.7491
G01 X10.3006 Y-7.7609
G01 X10.3316 Y-7.7749
G01 X10.3623 Y-7.7896
G01 X10.3926 Y-7.8050
G01 X10.4226 Y-7.8212
G01 X10.4521 Y-7.8382
G01 X10.4811 Y-7.8559
G01 X10.5025 Y-7.8696
G01 X10.5418 Y-7.8441
G01 X10.5709 Y-7.8264
G01 X10.6004 Y-7.8095
G01 X10.6277 Y-7.7947
G01 X10.6277 Y-4.2053
G01 X10.6074 Y-4.1950
G01 X10.5774 Y-4.1788
G01 X10.5479 Y-4.1618
G01 X10.5188 Y-4.1441
G01 X10.4975 Y-4.1304
G01 X10.4582 Y-4.1559
G01 X10.4291 Y-4.1736
G01 X10.3996 Y-4.1905
G01 X10.3697 Y-4.2067
G01 X10.3393 Y-4.2221
G01 X10.3086 Y-4.2368
G01 X10.2723 Y-4.2529
G01 X10.2723 Y-5.7000
G01 X10.2719 Y-5.7337
G01 X10.2706 Y-5.7673
G01 X10.2686 Y-5.8010
G01 X10.2657 Y-5.8345
G01 X10.2620 Y-5.8680
G01 X10.2574 Y-5.9014
G01 X10.2521 Y-5.9346
G01 X10.2459 Y-5.9677
G01 X10.2391 Y-6.0000
G00 Z0.5000
G00 X13.1000 Y-5.6766
G01 F60.00
G01 Z-0.1500
G01 F240.00
G01 X13.0884 Y-5.6763
G01 X13.0710 Y-5.6748
G01 X13.0538 Y-5.6721
G01 X13.0425 Y-5.6695
G01 X13.0313 Y-5.6664
G01 X13.0148 Y-5.6607
G01 X12.9988 Y-5.6539
G01 X12.9885 Y-5.6487
G01 X12.9734 Y-5.6399
G01 X12.9638 Y-5.6334
G01 X12.9499 Y-5.6229
G01 X12.9411 Y-5.6153
G01 X12.9327 Y-5.6073
G01 X12.9208 Y-5.5945
G01 X12.9135 Y-5.5856
G01 X12.9033 Y-5.5714
G01 X12.8941 Y-5.5566
G01 X12.8887 Y-5.5464
G01 X12.8814 Y-5.5305
G01 X12.8772 Y-5.5197
G01 X12.8736 Y-5.5087
G01 X12.8705 Y-5.4975
G01 X12.8679 Y-5.4862
G01 X12.8652 Y-5.4690
G01 X12.8640 Y-5.4574
G01 X12.8634 Y-5.4400
G01 X12.8634 Y-5.2766
G01 X12.8366 Y-5.2766
G01 X12.8366 Y-5.4752
G01 X12.8385 Y-5.4925
G01 X12.8664 Y-5.5675
G01 X12.9118 Y-5.6282
G01 X12.9725 Y-5.6736
G01 X13.0475 Y-5.7015
G01 X13.0648 Y-5.7034
G01 X13.2634 Y-5.7034
G01 X13.2634 Y-5.6766
G01 X13.1000 Y-5.6766
G00 Z0.5000
G00 X13.2105 Y-7.2634
G01 F60.00
G01 Z-0.1500
G01 F240.00
G01 X13.2549 Y-7.2634
G01 X13.2634 Y-7.2571
G01 X13.2634 Y-7.2236
G01 X13.2294 Y-7.2445
G01 X13.2105 Y-7.2634
G00 Z0.5000
G00 X14.7451 Y-7.2634
G01 F60.00
G01 Z-0.1500
G01 F240.00
G01 X14.7895 Y-7.2634
G01 X14.7706 Y-7.2445
G01 X14.7366 Y-7.2236
G01 X14.7366 Y-7.2571
G01 X14.7451 Y-7.2634
G00 Z0.5000
G00 X14.7366 Y-10.7764
G01 F60.00
G01 Z-0.1500
G01 F240.00
G01 X14.7706 Y-10.7555
G01 X14.7895 Y-10.7366
G01 X14.7451 Y-10.7366
G01 X14.7366 Y-10.7429
G01 X14.7366 Y-10.7764
G00 Z0.5000
G00 X13.2105 Y-10.7366
G01 F60.00
G01 Z-0.1500
G01 F240.00
G01 X13.2294 Y-10.7555
G01 X13.2634 Y-10.7764
G01 X13.2634 Y-10.7429
G01 X13.2549 Y-10.7366
G01 X13.2105 Y-10.7366
G00 Z0.5000
G00 X11.7634 Y-3.5240
G01 F60.00
G01 Z-0.1500
G01 F240.00
G01 X11.7634 Y-8.4760
G01 X11.7637 Y-8.4873
G01 X11.7645 Y-8.4985
G01 X11.7667 Y-8.5152
G01 X11.7800 Y-8.5778
G01 X11.7844 Y-8.5950
G01 X11.7901 Y-8.6118
G01 X11.7946 Y-8.6227
G01 X11.7996 Y-8.6334
G01 X11.8082 Y-8.6490
G01 X11.8178 Y-8.6638
G01 X11.8249 Y-8.6733
G01 X11.8324 Y-8.6825
G01 X11.8782 Y-8.7353
G01 X11.8902 Y-8.7481
G01 X11.9031 Y-8.7601
G01 X11.9122 Y-8.7675
G01 X11.9266 Y-8.7778
G01 X11.9365 Y-8.7840
G01 X11.9468 Y-8.7897
G01 X11.9573 Y-8.7949
G01 X11.9681 Y-8.7996
G01 X11.9791 Y-8.8037
G01 X12.0573 Y-8.8270
G01 X12.0682 Y-8.8299
G01 X12.0848 Y-8.8333
G01 X12.1015 Y-8.8355
G01 X12.1184 Y-8.8365
G01 X12.6831 Y-8.8366
G01 X12.7002 Y-8.8360
G01 X12.7116 Y-8.8349
G01 X12.7228 Y-8.8332
G01 X12.7396 Y-8.8298
G01 X12.8078 Y-8.8113
G01 X12.8247 Y-8.8060
G01 X12.8358 Y-8.8018
G01 X12.8466 Y-8.7970
G01 X12.8572 Y-8.7917
G01 X12.8675 Y-8.7859
G01 X12.8775 Y-8.7795
G01 X12.8872 Y-8.7727
G01 X12.8965 Y-8.7654
G01 X12.9055 Y-8.7576
G01 X12.9140 Y-8.7494
G01 X12.9262 Y-8.7366
G01 X13.2549 Y-8.7366
G01 X13.2749 Y-8.7513
G01 X13.2845 Y-8.7578
G01 X13.3206 Y-8.7791
G01 X13.3532 Y-8.7949
G01 X13.3638 Y-8.7996
G01 X13.3977 Y-8.8120
G01 X13.4087 Y-8.8156
G01 X13.4199 Y-8.8187
G01 X13.4494 Y-8.8260
G01 X13.4608 Y-8.8283
G01 X13.5023 Y-8.8343
G01 X13.5442 Y-8.8365
G01 X14.4500 Y-8.8366
G01 X14.4919 Y-8.8348
G01 X14.5035 Y-8.8336
G01 X14.5335 Y-8.8292
G01 X14.5449 Y-8.8273
G01 X14.5563 Y-8.8247
G01 X14.5913 Y-8.8156
G01 X14.6308 Y-8.8017
G01 X14.6416 Y-8.7973
G01 X14.6690 Y-8.7844
G01 X14.6845 Y-8.7763
G01 X14.7203 Y-8.7546
G01 X14.7451 Y-8.7366
G01 X15.0722 Y-8.7366
G01 X15.0831 Y-8.7481
G01 X15.0916 Y-8.7562
G01 X15.1005 Y-8.7638
G01 X15.1098 Y-8.7710
G01 X15.1244 Y-8.7809
G01 X15.1345 Y-8.7869
G01 X15.1449 Y-8.7924
G01 X15.1556 Y-8.7973
G01 X15.1665 Y-8.8017
G01 X15.1776 Y-8.8056
G01 X15.2556 Y-8.8285
G01 X15.2666 Y-8.8312
G01 X15.2776 Y-8.8333
G01 X15.2888 Y-8.8349
G01 X15.3056 Y-8.8363
G01 X15.3755 Y-8.8366
G01 X15.3868 Y-8.8363
G01 X15.3980 Y-8.8355
G01 X15.4092 Y-8.8342
G01 X15.4258 Y-8.8312
G01 X15.4831 Y-8.8187
G01 X15.4945 Y-8.8156
G01 X15.5057 Y-8.8119
G01 X15.5222 Y-8.8054
G01 X15.5329 Y-8.8004
G01 X15.5485 Y-8.7918
G01 X15.5633 Y-8.7822
G01 X15.5728 Y-8.7751
G01 X15.5820 Y-8.7676
G01 X15.6348 Y-8.7218
G01 X15.6476 Y-8.7098
G01 X15.6596 Y-8.6969
G01 X15.6670 Y-8.6878
G01 X15.6773 Y-8.6734
G01 X15.6835 Y-8.6635
G01 X15.6892 Y-8.6532
G01 X15.6968 Y-8.6373
G01 X15.7012 Y-8.6264
G01 X15.7068 Y-8.6097
G01 X15.7294 Y-8.5318
G01 X15.7318 Y-8.5208
G01 X15.7337 Y-8.5097
G01 X15.7350 Y-8.4985
G01 X15.7358 Y-8.4873
G01 X15.7361 Y-8.4760
G01 X15.7361 Y-5.8461
G01 X15.7353 Y-5.8271
G01 X15.7312 Y-5.7886
G01 X15.7294 Y-5.7772
G01 X15.7257 Y-5.7602
G01 X15.7225 Y-5.7490
G01 X15.7187 Y-5.7380
G01 X15.7144 Y-5.7272
G01 X15.7096 Y-5.7166
G01 X15.7043 Y-5.7063
G01 X15.6680 Y-5.6399
G01 X15.6618 Y-5.6298
G01 X15.6552 Y-5.6201
G01 X15.6444 Y-5.6062
G01 X15.6325 Y-5.5932
G01 X15.6198 Y-5.5810
G01 X15.6108 Y-5.5735
G01 X15.6014 Y-5.5664
G01 X15.5867 Y-5.5566
G01 X15.5152 Y-5.5172
G01 X15.4995 Y-5.5094
G01 X15.4887 Y-5.5048
G01 X15.4776 Y-5.5008
G01 X15.4664 Y-5.4973
G01 X15.4550 Y-5.4943
G01 X15.4377 Y-5.4910
G01 X15.4261 Y-5.4895
G01 X15.4143 Y-5.4886
G01 X15.3967 Y-5.4883
G01 X15.3850 Y-5.4889
G01 X15.3153 Y-5.4939
G01 X15.2978 Y-5.4958
G01 X15.2804 Y-5.4990
G01 X15.2634 Y-5.5035
G01 X15.2467 Y-5.5092
G01 X15.2305 Y-5.5162
G01 X15.2149 Y-5.5244
G01 X15.2000 Y-5.5337
G01 X15.1904 Y-5.5405
G01 X15.1300 Y-5.5858
G01 X15.1171 Y-5.5967
G01 X15.1089 Y-5.6044
G01 X15.0974 Y-5.6168
G01 X15.0882 Y-5.6281
G01 X15.0275 Y-5.6736
G01 X14.9525 Y-5.7015
G01 X14.9351 Y-5.7034
G01 X14.7366 Y-5.7034
G01 X14.7366 Y-5.6766
G01 X14.9000 Y-5.6766
G01 X14.9116 Y-5.6763
G01 X14.9232 Y-5.6755
G01 X14.9347 Y-5.6740
G01 X14.9462 Y-5.6721
G01 X14.9575 Y-5.6695
G01 X14.9687 Y-5.6664
G01 X14.9797 Y-5.6628
G01 X14.9905 Y-5.6586
G01 X15.0064 Y-5.6513
G01 X15.0166 Y-5.6459
G01 X15.0266 Y-5.6399
G01 X15.0362 Y-5.6334
G01 X15.0456 Y-5.6265
G01 X15.0589 Y-5.6153
G01 X15.0673 Y-5.6073
G01 X15.0792 Y-5.5945
G01 X15.0865 Y-5.5856
G01 X15.0934 Y-5.5762
G01 X15.0999 Y-5.5666
G01 X15.1059 Y-5.5566
G01 X15.1139 Y-5.5412
G01 X15.1186 Y-5.5305
G01 X15.1228 Y-5.5197
G01 X15.1280 Y-5.5031
G01 X15.1309 Y-5.4918
G01 X15.1331 Y-5.4804
G01 X15.1355 Y-5.4632
G01 X15.1363 Y-5.4516
G01 X15.1366 Y-5.4400
G01 X15.1365 Y-3.6342
G01 X15.1355 Y-3.6168
G01 X15.1331 Y-3.5996
G01 X15.1295 Y-3.5825
G01 X15.1247 Y-3.5658
G01 X15.1186 Y-3.5495
G01 X15.1113 Y-3.5336
G01 X15.1029 Y-3.5184
G01 X15.0934 Y-3.5038
G01 X15.0865 Y-3.4944
G01 X15.0792 Y-3.4855
G01 X15.0673 Y-3.4727
G01 X15.0589 Y-3.4647
G01 X15.0456 Y-3.4535
G01 X15.0362 Y-3.4466
G01 X15.0266 Y-3.4401
G01 X15.0115 Y-3.4313
G01 X14.9959 Y-3.4237
G01 X14.9852 Y-3.4193
G01 X14.9742 Y-3.4153
G01 X14.9631 Y-3.4120
G01 X14.9518 Y-3.4091
G01 X14.9404 Y-3.4069
G01 X14.9290 Y-3.4052
G01 X14.9116 Y-3.4037
G01 X14.9000 Y-3.4034
G01 X13.1000 Y-3.4034
G01 X13.0884 Y-3.4037
G01 X13.0710 Y-3.4052
G01 X13.0538 Y-3.4079
G01 X13.0425 Y-3.4105
G01 X13.0258 Y-3.4153
G01 X13.0148 Y-3.4193
G01 X12.9988 Y-3.4261
G01 X12.9885 Y-3.4313
G01 X12.9784 Y-3.4371
G01 X12.9686 Y-3.4433
G01 X12.9544 Y-3.4535
G01 X12.9455 Y-3.4608
G01 X12.9369 Y-3.4686
G01 X12.9286 Y-3.4769
G01 X12.9208 Y-3.4855
G01 X12.9100 Y-3.4991
G01 X12.9033 Y-3.5086
G01 X12.8971 Y-3.5184
G01 X12.8913 Y-3.5285
G01 X12.8861 Y-3.5388
G01 X12.8814 Y-3.5495
G01 X12.8772 Y-3.5603
G01 X12.8736 Y-3.5713
G01 X12.8691 Y-3.5882
G01 X12.8669 Y-3.5996
G01 X12.8652 Y-3.6110
G01 X12.8637 Y-3.6284
G01 X12.8634 Y-3.6400
G01 X12.8634 Y-3.8034
G01 X12.8366 Y-3.8034
G01 X12.8366 Y-3.6048
G01 X12.8417 Y-3.5568
G01 X12.8425 Y-3.5396
G01 X12.8423 Y-3.5280
G01 X12.8410 Y-3.5108
G01 X12.8395 Y-3.4994
G01 X12.8290 Y-3.4346
G01 X12.8256 Y-3.4179
G01 X12.8211 Y-3.4014
G01 X12.8174 Y-3.3907
G01 X12.8132 Y-3.3801
G01 X12.8085 Y-3.3697
G01 X12.8033 Y-3.3596
G01 X12.7977 Y-3.3497
G01 X12.7915 Y-3.3401
G01 X12.7849 Y-3.3308
G01 X12.7779 Y-3.3219
G01 X12.7285 Y-3.2647
G01 X12.7206 Y-3.2561
G01 X12.7079 Y-3.2438
G01 X12.6944 Y-3.2325
G01 X12.6849 Y-3.2255
G01 X12.6751 Y-3.2191
G01 X12.6650 Y-3.2131
G01 X12.6546 Y-3.2076
G01 X12.6385 Y-3.2004
G01 X12.6219 Y-3.1944
G01 X12.5493 Y-3.1730
G01 X12.5329 Y-3.1688
G01 X12.5163 Y-3.1658
G01 X12.4995 Y-3.1640
G01 X12.4826 Y-3.1634
G01 X12.1240 Y-3.1634
G01 X12.1127 Y-3.1637
G01 X12.1015 Y-3.1645
G01 X12.0848 Y-3.1667
G01 X12.0222 Y-3.1800
G01 X12.0107 Y-3.1828
G01 X11.9994 Y-3.1862
G01 X11.9882 Y-3.1901
G01 X11.9719 Y-3.1971
G01 X11.9613 Y-3.2023
G01 X11.9510 Y-3.2082
G01 X11.9362 Y-3.2178
G01 X11.9267 Y-3.2249
G01 X11.9175 Y-3.2324
G01 X11.8647 Y-3.2782
G01 X11.8519 Y-3.2902
G01 X11.8438 Y-3.2987
G01 X11.8362 Y-3.3076
G01 X11.8255 Y-3.3217
G01 X11.8191 Y-3.3315
G01 X11.8131 Y-3.3416
G01 X11.8076 Y-3.3520
G01 X11.8027 Y-3.3627
G01 X11.7983 Y-3.3736
G01 X11.7927 Y-3.3903
G01 X11.7701 Y-3.4682
G01 X11.7667 Y-3.4848
G01 X11.7651 Y-3.4959
G01 X11.7640 Y-3.5071
G01 X11.7634 Y-3.5240
G00 Z0.5000
G00 X12.8422 Y-1.8840
G01 F60.00
G01 Z-0.1500
G01 F240.00
G01 X12.8326 Y-2.0000
G01 X12.8449 Y-2.1483
G01 X12.8741 Y-2.1483
G01 X12.8695 Y-2.1172
G01 X12.8684 Y-2.1056
G01 X12.8635 Y-2.0058
G01 X12.8637 Y-1.9884
G01 X12.8676 Y-1.9093
G01 X12.8422 Y-1.8840
G00 Z0.5000
M05
G00 Z0.5000
G00 Z15.00


M30
