(G-CODE GENERATED BY FLATCAM v8.994 - www.flatcam.org - Version Date: 2020/11/7)

(Name: vmon-F_Cu.gbr_iso_combined_cnc)
(Type: G-code from Geometry)
(Units: MM)

(Created on Monday, 19 May 2025 at 01:41)

(This preprocessor is the default preprocessor used by FlatCAM.)
(It is made to work with MACH3 compatible motion controllers.)

(TOOL DIAMETER: 0.1722 mm)
(Feedrate_XY: 240.0 mm/min)
(Feedrate_Z: 90.0 mm/min)
(Feedrate rapids 1500.0 mm/min)

(Z_Cut: -0.08 mm)
(Z_Move: 0.5 mm)
(Z Start: None mm)
(Z End: 15.0 mm)
(X,Y End: None mm)
(Steps per circle: 64)
(Preprocessor Geometry: default)

(X range:    0.0011 ...   29.9989  mm)
(Y range:  -15.9995 ...   -0.0011  mm)

(Spindle Speed: 12000.0 RPM)
G21
G90
G94

G01 F240.00

M5
G00 Z45.0000
G00 X0.0000 Y0.0000
T2
M6    
(MSG, Change to Tool Dia = 0.1722)
M0
G00 Z45.0000

M03 S12000.0
G01 F240.00
G00 X0.4144 Y-0.6245
G01 F90.00
G01 Z-0.0800
G01 F240.00
G01 X0.4144 Y-15.3755
G01 X0.4148 Y-15.3837
G01 X0.4160 Y-15.3918
G01 X0.4281 Y-15.4474
G01 X0.4313 Y-15.4577
G01 X0.4367 Y-15.4693
G01 X0.4413 Y-15.4766
G01 X0.4452 Y-15.4818
G01 X0.4953 Y-15.5394
G01 X0.4999 Y-15.5438
G01 X0.5065 Y-15.5492
G01 X0.5136 Y-15.5539
G01 X0.5193 Y-15.5570
G01 X0.5312 Y-15.5618
G01 X0.6022 Y-15.5827
G01 X0.6122 Y-15.5847
G01 X0.6245 Y-15.5856
G01 X13.7352 Y-15.5856
G01 X13.7500 Y-15.5862
G01 X14.2542 Y-15.5861
G01 X14.2830 Y-15.5846
G01 X14.3114 Y-15.5805
G01 X14.3197 Y-15.5788
G01 X14.3476 Y-15.5717
G01 X14.3747 Y-15.5622
G01 X14.3825 Y-15.5589
G01 X14.4085 Y-15.5465
G01 X14.4368 Y-15.5296
G01 X14.4633 Y-15.5099
G01 X14.4862 Y-15.4892
G01 X14.6586 Y-15.3169
G01 X14.6705 Y-15.3367
G01 X14.6876 Y-15.3599
G01 X14.6930 Y-15.3664
G01 X14.7109 Y-15.3861
G01 X14.7368 Y-15.4098
G01 X14.7633 Y-15.4295
G01 X14.7916 Y-15.4464
G01 X14.8175 Y-15.4588
G01 X14.8253 Y-15.4620
G01 X14.8524 Y-15.4716
G01 X14.8803 Y-15.4787
G01 X14.8886 Y-15.4804
G01 X14.9150 Y-15.4842
G01 X14.9500 Y-15.4861
G01 X15.6021 Y-15.4861
G01 X15.6329 Y-15.4845
G01 X15.6656 Y-15.4796
G01 X15.6976 Y-15.4716
G01 X15.7306 Y-15.4597
G01 X15.7584 Y-15.4464
G01 X15.7867 Y-15.4295
G01 X15.8132 Y-15.4098
G01 X15.8346 Y-15.3906
G01 X15.8406 Y-15.3846
G01 X15.8598 Y-15.3632
G01 X15.8770 Y-15.3402
G01 X15.8806 Y-15.3350
G01 X15.8943 Y-15.3121
G01 X15.8983 Y-15.3047
G01 X15.9105 Y-15.2786
G01 X15.9210 Y-15.2496
G01 X15.9287 Y-15.2197
G01 X15.9304 Y-15.2114
G01 X15.9345 Y-15.1829
G01 X15.9361 Y-15.1521
G01 X15.9361 Y-14.8361
G01 X16.2639 Y-14.8361
G01 X16.2639 Y-15.1956
G01 X16.2548 Y-15.2846
G01 X16.2455 Y-15.3131
G01 X16.2390 Y-15.3402
G01 X16.2373 Y-15.3530
G01 X16.2375 Y-15.3658
G01 X16.2487 Y-15.4435
G01 X16.2521 Y-15.4558
G01 X16.2573 Y-15.4676
G01 X16.2617 Y-15.4749
G01 X16.2668 Y-15.4818
G01 X16.3153 Y-15.5378
G01 X16.3246 Y-15.5466
G01 X16.3298 Y-15.5505
G01 X16.3370 Y-15.5550
G01 X16.3447 Y-15.5588
G01 X16.3527 Y-15.5618
G01 X16.4218 Y-15.5821
G01 X16.4317 Y-15.5844
G01 X16.4419 Y-15.5855
G01 X17.0554 Y-15.5856
G01 X17.0872 Y-15.5828
G01 X17.0956 Y-15.5812
G01 X17.1059 Y-15.5780
G01 X17.1138 Y-15.5746
G01 X17.1782 Y-15.5424
G01 X17.1855 Y-15.5381
G01 X17.1924 Y-15.5330
G01 X17.2017 Y-15.5241
G01 X17.2096 Y-15.5140
G01 X17.2497 Y-15.4466
G01 X17.2533 Y-15.4389
G01 X17.2567 Y-15.4288
G01 X17.2588 Y-15.4183
G01 X17.2596 Y-15.4098
G01 X17.2568 Y-15.3274
G01 X17.2555 Y-15.3193
G01 X17.2541 Y-15.3133
G01 X17.2447 Y-15.2847
G01 X17.2356 Y-15.1956
G01 X17.2356 Y-14.6079
G01 X17.2353 Y-14.6010
G01 X17.2323 Y-14.5724
G01 X17.2300 Y-14.5599
G01 X17.2267 Y-14.5499
G01 X17.2222 Y-14.5403
G01 X17.1877 Y-14.4772
G01 X17.1845 Y-14.4720
G01 X17.1796 Y-14.4654
G01 X17.1741 Y-14.4594
G01 X16.8951 Y-14.1804
G01 X16.8169 Y-14.0634
G01 X16.7631 Y-13.9334
G01 X16.7356 Y-13.7954
G01 X16.7356 Y-13.4296
G01 X16.7631 Y-13.2916
G01 X16.7998 Y-13.2029
G01 X16.8027 Y-13.1947
G01 X16.8145 Y-13.1413
G01 X16.8155 Y-13.1330
G01 X16.8156 Y-13.1225
G01 X16.8150 Y-13.1162
G01 X16.8136 Y-13.1080
G01 X16.7948 Y-13.0342
G01 X16.7928 Y-13.0284
G01 X16.7895 Y-13.0209
G01 X16.7779 Y-13.0009
G01 X16.7375 Y-12.8620
G01 X16.7356 Y-12.8373
G01 X16.7356 Y-11.6745
G01 X16.7350 Y-11.6643
G01 X16.7336 Y-11.6562
G01 X16.7214 Y-11.6005
G01 X16.7171 Y-11.5883
G01 X16.7111 Y-11.5770
G01 X16.7034 Y-11.5666
G01 X16.6532 Y-11.5091
G01 X16.6485 Y-11.5048
G01 X16.6418 Y-11.4995
G01 X16.6345 Y-11.4950
G01 X16.6268 Y-11.4912
G01 X16.6168 Y-11.4876
G01 X16.5498 Y-11.4679
G01 X16.5418 Y-11.4660
G01 X16.5337 Y-11.4648
G01 X16.5255 Y-11.4644
G01 X16.3740 Y-11.4644
G01 X16.3658 Y-11.4648
G01 X16.3204 Y-11.4715
G01 X16.3100 Y-11.4745
G01 X16.3008 Y-11.4784
G01 X16.2938 Y-11.4805
G01 X16.2878 Y-11.4829
G01 X16.2802 Y-11.4867
G01 X16.2729 Y-11.4913
G01 X16.2678 Y-11.4952
G01 X16.2508 Y-11.5099
G01 X16.2320 Y-11.5220
G01 X16.2235 Y-11.5286
G01 X16.2174 Y-11.5345
G01 X16.2118 Y-11.5411
G01 X16.2064 Y-11.5491
G01 X16.1990 Y-11.5582
G01 X16.1925 Y-11.5693
G01 X16.1877 Y-11.5812
G01 X16.1814 Y-11.6026
G01 X16.1721 Y-11.6230
G01 X16.1698 Y-11.6290
G01 X16.1679 Y-11.6352
G01 X16.1662 Y-11.6435
G01 X16.1654 Y-11.6499
G01 X16.1652 Y-11.6596
G01 X16.1643 Y-11.6663
G01 X16.1639 Y-11.6745
G01 X16.1639 Y-11.9014
G01 X15.9361 Y-11.9014
G01 X15.9361 Y-11.5979
G01 X15.9350 Y-11.5769
G01 X15.9316 Y-11.5539
G01 X15.9259 Y-11.5315
G01 X15.9181 Y-11.5096
G01 X15.9082 Y-11.4887
G01 X15.8963 Y-11.4688
G01 X15.8825 Y-11.4502
G01 X15.8669 Y-11.4331
G01 X15.8498 Y-11.4175
G01 X15.8329 Y-11.4049
G01 X15.8113 Y-11.3918
G01 X15.7942 Y-11.3836
G01 X15.7864 Y-11.3804
G01 X15.7685 Y-11.3741
G01 X15.7502 Y-11.3694
G01 X15.7419 Y-11.3677
G01 X15.7231 Y-11.3650
G01 X15.7000 Y-11.3639
G01 X15.3979 Y-11.3639
G01 X15.3769 Y-11.3650
G01 X15.3581 Y-11.3677
G01 X15.3498 Y-11.3694
G01 X15.3315 Y-11.3741
G01 X15.3136 Y-11.3804
G01 X15.3058 Y-11.3836
G01 X15.2887 Y-11.3918
G01 X15.2688 Y-11.4037
G01 X15.2502 Y-11.4175
G01 X15.2361 Y-11.4301
G01 X15.2301 Y-11.4361
G01 X15.2175 Y-11.4502
G01 X15.2061 Y-11.4654
G01 X15.2014 Y-11.4724
G01 X15.1918 Y-11.4887
G01 X15.1827 Y-11.5077
G01 X15.1741 Y-11.5315
G01 X15.1689 Y-11.5519
G01 X15.1653 Y-11.5748
G01 X15.1640 Y-11.5958
G01 X15.1639 Y-11.9014
G01 X14.9361 Y-11.9014
G01 X14.9361 Y-11.8775
G01 X14.9349 Y-11.8652
G01 X14.9277 Y-11.8316
G01 X14.9268 Y-11.8227
G01 X14.9252 Y-11.8143
G01 X14.9221 Y-11.8041
G01 X14.9167 Y-11.7914
G01 X14.9116 Y-11.7820
G01 X14.9066 Y-11.7749
G01 X14.8848 Y-11.7496
G01 X14.8656 Y-11.7248
G01 X14.8568 Y-11.7155
G01 X14.8485 Y-11.7088
G01 X14.8350 Y-11.7000
G01 X14.8234 Y-11.6946
G01 X14.7893 Y-11.6844
G01 X14.7579 Y-11.6733
G01 X14.7479 Y-11.6709
G01 X14.7398 Y-11.6699
G01 X14.7319 Y-11.6694
G01 X14.6575 Y-11.6694
G01 X14.6117 Y-11.6628
G01 X14.6008 Y-11.6620
G01 X14.5925 Y-11.6620
G01 X14.5862 Y-11.6625
G01 X14.5720 Y-11.6644
G01 X14.5549 Y-11.6652
G01 X14.5464 Y-11.6662
G01 X14.5381 Y-11.6680
G01 X14.5190 Y-11.6737
G01 X14.5114 Y-11.6769
G01 X14.5042 Y-11.6809
G01 X14.4789 Y-11.6985
G01 X14.4522 Y-11.7139
G01 X14.4454 Y-11.7189
G01 X14.4391 Y-11.7246
G01 X14.4322 Y-11.7324
G01 X14.3149 Y-11.8497
G01 X14.1827 Y-11.9312
G01 X14.0347 Y-11.9803
G01 X13.9456 Y-11.9894
G01 X12.5544 Y-11.9894
G01 X12.4653 Y-11.9803
G01 X12.3173 Y-11.9312
G01 X12.1851 Y-11.8497
G01 X12.0616 Y-11.7262
G01 X12.0456 Y-11.7112
G01 X12.0405 Y-11.7072
G01 X12.0333 Y-11.7024
G01 X12.0237 Y-11.6975
G01 X11.9787 Y-11.6793
G01 X11.9727 Y-11.6758
G01 X11.9670 Y-11.6730
G01 X11.9550 Y-11.6687
G01 X11.8062 Y-11.6389
G01 X11.6853 Y-11.5888
G01 X11.5765 Y-11.5161
G01 X11.5077 Y-11.4473
G01 X11.4986 Y-11.4392
G01 X11.4757 Y-11.4223
G01 X11.4681 Y-11.4181
G01 X11.4620 Y-11.4153
G01 X11.4526 Y-11.4097
G01 X11.4468 Y-11.4069
G01 X11.4388 Y-11.4040
G01 X11.4306 Y-11.4018
G01 X11.4054 Y-11.3983
G01 X11.3811 Y-11.3914
G01 X11.3730 Y-11.3900
G01 X11.3669 Y-11.3895
G01 X11.0723 Y-11.3894
G01 X11.0147 Y-11.3842
G01 X10.8710 Y-11.3394
G01 X10.7433 Y-11.2622
G01 X10.6441 Y-11.1633
G01 X10.6342 Y-11.1559
G01 X10.5899 Y-11.1274
G01 X10.5805 Y-11.1222
G01 X10.5685 Y-11.1175
G01 X10.5601 Y-11.1154
G01 X10.5538 Y-11.1144
G01 X10.4798 Y-11.1090
G01 X10.4712 Y-11.1088
G01 X10.4627 Y-11.1094
G01 X10.4543 Y-11.1110
G01 X10.4461 Y-11.1133
G01 X10.4381 Y-11.1164
G01 X10.4324 Y-11.1193
G01 X10.3711 Y-11.1528
G01 X10.3641 Y-11.1570
G01 X10.3575 Y-11.1619
G01 X10.3529 Y-11.1660
G01 X10.3244 Y-11.1945
G01 X10.3190 Y-11.2007
G01 X10.2942 Y-11.2341
G01 X10.2888 Y-11.2432
G01 X10.2846 Y-11.2530
G01 X10.2814 Y-11.2639
G01 X10.2666 Y-11.3322
G01 X10.2652 Y-11.3402
G01 X10.2646 Y-11.3484
G01 X10.2647 Y-11.3546
G01 X10.2655 Y-11.3627
G01 X10.2670 Y-11.3708
G01 X10.2687 Y-11.3767
G01 X10.2945 Y-11.4460
G01 X10.2986 Y-11.4554
G01 X10.3027 Y-11.4625
G01 X10.3062 Y-11.4675
G01 X10.3675 Y-11.5494
G01 X10.4096 Y-11.6625
G01 X10.4144 Y-11.7067
G01 X10.4144 Y-13.2933
G01 X10.4096 Y-13.3375
G01 X10.3675 Y-13.4506
G01 X10.2960 Y-13.5460
G01 X10.2006 Y-13.6175
G01 X10.0875 Y-13.6596
G01 X10.0433 Y-13.6644
G01 X8.4567 Y-13.6644
G01 X8.4125 Y-13.6596
G01 X8.2994 Y-13.6174
G01 X8.2040 Y-13.5460
G01 X8.1325 Y-13.4506
G01 X8.0904 Y-13.3375
G01 X8.0856 Y-13.2933
G01 X8.0856 Y-11.7067
G01 X8.0904 Y-11.6625
G01 X8.1326 Y-11.5494
G01 X8.2040 Y-11.4540
G01 X8.2994 Y-11.3825
G01 X8.4142 Y-11.3397
G01 X8.4311 Y-11.3366
G01 X8.4433 Y-11.3326
G01 X8.4529 Y-11.3278
G01 X8.5191 Y-11.2899
G01 X8.5259 Y-11.2848
G01 X8.5322 Y-11.2790
G01 X8.5379 Y-11.2726
G01 X8.5430 Y-11.2657
G01 X8.5473 Y-11.2584
G01 X8.5806 Y-11.1946
G01 X8.5846 Y-11.1852
G01 X8.5874 Y-11.1753
G01 X8.6111 Y-11.0562
G01 X8.6204 Y-11.0338
G01 X8.6230 Y-11.0258
G01 X8.6301 Y-10.9913
G01 X8.6325 Y-10.9839
G01 X8.6342 Y-10.9759
G01 X8.6352 Y-10.9678
G01 X8.6356 Y-10.9584
G01 X8.6356 Y-10.8645
G01 X8.6592 Y-10.7458
G01 X8.7055 Y-10.6340
G01 X8.7728 Y-10.5333
G01 X8.8022 Y-10.5037
G01 X8.8219 Y-10.4795
G01 X8.8268 Y-10.4727
G01 X8.8301 Y-10.4673
G01 X8.8330 Y-10.4616
G01 X8.8361 Y-10.4538
G01 X8.8577 Y-10.3808
G01 X8.8594 Y-10.3728
G01 X8.8602 Y-10.3667
G01 X8.8606 Y-10.3585
G01 X8.8606 Y-10.1723
G01 X8.8658 Y-10.1147
G01 X8.9106 Y-9.9710
G01 X8.9688 Y-9.8745
G01 X8.9858 Y-9.8361
G01 X8.9886 Y-9.8281
G01 X8.9901 Y-9.8219
G01 X8.9915 Y-9.8135
G01 X8.9921 Y-9.8051
G01 X8.9916 Y-9.7520
G01 X8.9925 Y-9.7399
G01 X8.9920 Y-9.7294
G01 X8.9899 Y-9.7176
G01 X8.9606 Y-9.5704
G01 X8.9606 Y-8.9296
G01 X8.9852 Y-8.8056
G01 X8.9885 Y-8.7779
G01 X8.9888 Y-8.7694
G01 X8.9885 Y-8.7630
G01 X8.9877 Y-8.7567
G01 X8.9859 Y-8.7484
G01 X8.9681 Y-8.6809
G01 X8.9641 Y-8.6692
G01 X8.9585 Y-8.6583
G01 X8.9106 Y-8.5790
G01 X8.8658 Y-8.4353
G01 X8.8606 Y-8.3777
G01 X8.8606 Y-7.7223
G01 X8.8658 Y-7.6647
G01 X8.9106 Y-7.5210
G01 X8.9878 Y-7.3933
G01 X9.0933 Y-7.2878
G01 X9.2210 Y-7.2106
G01 X9.3647 Y-7.1658
G01 X9.4223 Y-7.1606
G01 X9.9277 Y-7.1606
G01 X9.9853 Y-7.1658
G01 X10.1290 Y-7.2106
G01 X10.2567 Y-7.2878
G01 X10.3559 Y-7.3867
G01 X10.3658 Y-7.3941
G01 X10.4138 Y-7.4248
G01 X10.4215 Y-7.4287
G01 X10.4295 Y-7.4319
G01 X10.4378 Y-7.4342
G01 X10.4462 Y-7.4356
G01 X10.5224 Y-7.4412
G01 X10.5288 Y-7.4412
G01 X10.5373 Y-7.4405
G01 X10.5498 Y-7.4380
G01 X10.5559 Y-7.4360
G01 X10.5638 Y-7.4327
G01 X10.6289 Y-7.3972
G01 X10.6359 Y-7.3930
G01 X10.6425 Y-7.3881
G01 X10.6486 Y-7.3825
G01 X10.7433 Y-7.2878
G01 X10.8710 Y-7.2106
G01 X11.0265 Y-7.1619
G01 X11.0322 Y-7.1594
G01 X11.0395 Y-7.1555
G01 X11.0903 Y-7.1248
G01 X11.0988 Y-7.1189
G01 X11.1066 Y-7.1120
G01 X11.1538 Y-7.0647
G01 X11.1590 Y-7.0584
G01 X11.1814 Y-7.0284
G01 X11.1871 Y-7.0191
G01 X11.1948 Y-7.0034
G01 X11.2050 Y-6.9790
G01 X11.2777 Y-6.8702
G01 X12.3296 Y-5.8183
G01 X12.4384 Y-5.7456
G01 X12.4608 Y-5.7363
G01 X12.4684 Y-5.7325
G01 X12.5191 Y-5.6986
G01 X12.5255 Y-5.6931
G01 X12.5532 Y-5.6654
G01 X12.5670 Y-5.6500
G01 X12.5736 Y-5.6416
G01 X12.5791 Y-5.6322
G01 X12.5873 Y-5.6206
G01 X12.5914 Y-5.6130
G01 X12.5947 Y-5.6050
G01 X12.5972 Y-5.5966
G01 X12.6015 Y-5.5767
G01 X12.6090 Y-5.5578
G01 X12.6109 Y-5.5519
G01 X12.6134 Y-5.5399
G01 X12.6158 Y-5.5147
G01 X12.6606 Y-5.3710
G01 X12.7378 Y-5.2433
G01 X12.8371 Y-5.1437
G01 X12.8444 Y-5.1339
G01 X12.8752 Y-5.0859
G01 X12.8791 Y-5.0782
G01 X12.8815 Y-5.0722
G01 X12.8840 Y-5.0640
G01 X12.8857 Y-5.0555
G01 X12.8916 Y-4.9752
G01 X12.8913 Y-4.9666
G01 X12.8899 Y-4.9560
G01 X12.8877 Y-4.9478
G01 X12.8848 Y-4.9397
G01 X12.8811 Y-4.9320
G01 X12.8476 Y-4.8707
G01 X12.8433 Y-4.8637
G01 X12.8384 Y-4.8571
G01 X12.8329 Y-4.8511
G01 X12.7382 Y-4.7564
G01 X12.6611 Y-4.6288
G01 X12.6244 Y-4.5111
G01 X12.9734 Y-4.5111
G01 X12.9849 Y-4.5304
G01 X12.9895 Y-4.5374
G01 X13.0038 Y-4.5565
G01 X13.0198 Y-4.5742
G01 X13.0258 Y-4.5802
G01 X13.0435 Y-4.5962
G01 X13.0661 Y-4.6129
G01 X13.0901 Y-4.6273
G01 X13.1117 Y-4.6376
G01 X13.1195 Y-4.6408
G01 X13.1419 Y-4.6488
G01 X13.1651 Y-4.6547
G01 X13.1713 Y-4.6560
G01 X13.1949 Y-4.6595
G01 X13.2250 Y-4.6611
G01 X13.7750 Y-4.6611
G01 X13.7988 Y-4.6600
G01 X13.8072 Y-4.6592
G01 X13.8308 Y-4.6556
G01 X13.8540 Y-4.6499
G01 X13.8621 Y-4.6475
G01 X13.8845 Y-4.6393
G01 X13.9061 Y-4.6292
G01 X13.9135 Y-4.6252
G01 X13.9339 Y-4.6129
G01 X13.9565 Y-4.5962
G01 X13.9742 Y-4.5802
G01 X13.9802 Y-4.5742
G01 X13.9962 Y-4.5565
G01 X14.0129 Y-4.5339
G01 X14.0252 Y-4.5135
G01 X14.0292 Y-4.5061
G01 X14.0393 Y-4.4845
G01 X14.0478 Y-4.4612
G01 X14.2500 Y-4.4612
G01 X14.2781 Y-4.4598
G01 X14.3058 Y-4.4557
G01 X14.3331 Y-4.4489
G01 X14.3595 Y-4.4394
G01 X14.3868 Y-4.4264
G01 X14.4090 Y-4.4130
G01 X14.4282 Y-4.3988
G01 X14.4348 Y-4.3935
G01 X14.4538 Y-4.3759
G01 X14.4712 Y-4.3566
G01 X14.4868 Y-4.3357
G01 X14.5014 Y-4.3118
G01 X14.5094 Y-4.2953
G01 X14.5810 Y-4.2237
G01 X14.7004 Y-4.2237
G01 X14.7040 Y-4.2371
G01 X14.7137 Y-4.2642
G01 X14.7296 Y-4.2978
G01 X14.7455 Y-4.3242
G01 X14.7626 Y-4.3474
G01 X14.7680 Y-4.3539
G01 X14.7889 Y-4.3766
G01 X14.8118 Y-4.3973
G01 X14.8348 Y-4.4145
G01 X14.8418 Y-4.4192
G01 X14.8666 Y-4.4339
G01 X14.8964 Y-4.4480
G01 X14.9234 Y-4.4578
G01 X14.9315 Y-4.4603
G01 X14.9615 Y-4.4675
G01 X14.9921 Y-4.4720
G01 X15.0250 Y-4.4736
G01 X15.9750 Y-4.4736
G01 X16.0079 Y-4.4720
G01 X16.0406 Y-4.4671
G01 X16.0685 Y-4.4603
G01 X16.0766 Y-4.4578
G01 X16.1017 Y-4.4488
G01 X16.1075 Y-4.4463
G01 X16.1334 Y-4.4339
G01 X16.1617 Y-4.4170
G01 X16.1882 Y-4.3973
G01 X16.2111 Y-4.3766
G01 X16.2320 Y-4.3539
G01 X16.2374 Y-4.3474
G01 X16.2545 Y-4.3242
G01 X16.2704 Y-4.2978
G01 X16.2838 Y-4.2700
G01 X16.2870 Y-4.2622
G01 X16.2966 Y-4.2351
G01 X16.3044 Y-4.2042
G01 X16.3109 Y-4.1984
G01 X16.3179 Y-4.1905
G01 X16.3239 Y-4.1818
G01 X16.3282 Y-4.1736
G01 X16.5389 Y-4.1736
G01 X16.5389 Y-4.1998
G01 X16.5370 Y-4.2244
G01 X16.4966 Y-4.3632
G01 X16.4241 Y-4.4859
G01 X16.3234 Y-4.5866
G01 X16.2044 Y-4.6570
G01 X16.1957 Y-4.6632
G01 X16.1879 Y-4.6704
G01 X16.1810 Y-4.6785
G01 X16.1752 Y-4.6874
G01 X16.1705 Y-4.6969
G01 X16.1671 Y-4.7069
G01 X16.1648 Y-4.7173
G01 X16.1640 Y-4.7258
G01 X16.1641 Y-4.7563
G01 X16.1656 Y-4.7668
G01 X16.1676 Y-4.7750
G01 X16.1713 Y-4.7849
G01 X16.1761 Y-4.7943
G01 X16.1821 Y-4.8030
G01 X16.1891 Y-4.8109
G01 X16.1970 Y-4.8179
G01 X16.2057 Y-4.8239
G01 X16.2151 Y-4.8287
G01 X16.2230 Y-4.8318
G01 X16.2311 Y-4.8340
G01 X16.2395 Y-4.8355
G01 X16.2500 Y-4.8361
G01 X16.2975 Y-4.8361
G01 X16.3099 Y-4.9109
G01 X16.3116 Y-4.9170
G01 X16.3146 Y-4.9250
G01 X16.3206 Y-4.9363
G01 X16.3281 Y-4.9467
G01 X16.3753 Y-4.9993
G01 X16.3821 Y-5.0062
G01 X16.3888 Y-5.0117
G01 X16.4387 Y-5.0616
G01 X16.4437 Y-5.0663
G01 X16.4662 Y-5.0844
G01 X16.4730 Y-5.0893
G01 X16.4822 Y-5.0946
G01 X16.4919 Y-5.0986
G01 X16.5689 Y-5.1211
G01 X16.5770 Y-5.1225
G01 X16.5831 Y-5.1230
G01 X16.6049 Y-5.1230
G01 X16.6421 Y-5.1189
G01 X16.6581 Y-5.1150
G01 X16.6683 Y-5.1115
G01 X16.6780 Y-5.1067
G01 X16.7050 Y-5.0895
G01 X16.7328 Y-5.0742
G01 X16.7379 Y-5.0708
G01 X16.7443 Y-5.0658
G01 X17.1415 Y-4.6689
G01 X17.2503 Y-4.5962
G01 X17.3712 Y-4.5461
G01 X17.4996 Y-4.5206
G01 X18.0743 Y-4.5206
G01 X18.0823 Y-4.5200
G01 X18.1109 Y-4.5167
G01 X18.1194 Y-4.5152
G01 X18.1319 Y-4.5115
G01 X18.1436 Y-4.5059
G01 X18.2079 Y-4.4691
G01 X18.2166 Y-4.4628
G01 X18.2243 Y-4.4555
G01 X18.2312 Y-4.4473
G01 X18.2369 Y-4.4383
G01 X18.2703 Y-4.3744
G01 X18.2746 Y-4.3647
G01 X18.2772 Y-4.3565
G01 X18.2790 Y-4.3482
G01 X18.2797 Y-4.3418
G01 X18.2800 Y-4.3333
G01 X18.2732 Y-4.2552
G01 X18.2714 Y-4.2451
G01 X18.2692 Y-4.2373
G01 X18.2550 Y-4.2011
G01 X18.5072 Y-4.2011
G01 X18.5175 Y-4.2148
G01 X18.5301 Y-4.2289
G01 X18.5346 Y-4.2334
G01 X18.5470 Y-4.2447
G01 X18.5519 Y-4.2488
G01 X18.5671 Y-4.2601
G01 X18.5869 Y-4.2722
G01 X18.6096 Y-4.2831
G01 X18.6315 Y-4.2909
G01 X18.6539 Y-4.2966
G01 X18.6727 Y-4.2994
G01 X18.6811 Y-4.3003
G01 X18.7000 Y-4.3011
G01 X20.0521 Y-4.3011
G01 X20.0710 Y-4.3001
G01 X20.0773 Y-4.2994
G01 X20.0961 Y-4.2966
G01 X20.1145 Y-4.2921
G01 X20.1225 Y-4.2896
G01 X20.1404 Y-4.2831
G01 X20.1631 Y-4.2722
G01 X20.1812 Y-4.2613
G01 X20.1998 Y-4.2475
G01 X20.2169 Y-4.2319
G01 X20.2311 Y-4.2164
G01 X20.2451 Y-4.1979
G01 X20.2561 Y-4.1800
G01 X20.2592 Y-4.1744
G01 X20.2664 Y-4.1592
G01 X20.2697 Y-4.1512
G01 X20.3172 Y-4.1512
G01 X20.4138 Y-4.2478
G01 X20.4138 Y-7.2522
G01 X20.1739 Y-7.4921
G01 X20.1503 Y-7.4777
G01 X20.1429 Y-7.4737
G01 X20.1191 Y-7.4626
G01 X20.0903 Y-7.4523
G01 X20.0648 Y-7.4458
G01 X20.0565 Y-7.4442
G01 X20.0305 Y-7.4404
G01 X20.0042 Y-7.4390
G01 X19.5458 Y-7.4390
G01 X19.5195 Y-7.4404
G01 X19.4893 Y-7.4449
G01 X19.4597 Y-7.4523
G01 X19.4309 Y-7.4626
G01 X19.4071 Y-7.4737
G01 X19.3997 Y-7.4777
G01 X19.3772 Y-7.4913
G01 X19.3526 Y-7.5095
G01 X19.3300 Y-7.5300
G01 X19.3123 Y-7.5494
G01 X19.3069 Y-7.5560
G01 X19.2913 Y-7.5772
G01 X19.2756 Y-7.6033
G01 X19.2643 Y-7.6271
G01 X19.2611 Y-7.6349
G01 X19.2523 Y-7.6597
G01 X19.2458 Y-7.6852
G01 X19.2442 Y-7.6935
G01 X19.2404 Y-7.7195
G01 X19.2389 Y-7.7479
G01 X19.2389 Y-8.2500
G01 X19.2404 Y-8.2805
G01 X19.2445 Y-8.3086
G01 X19.2523 Y-8.3403
G01 X19.2626 Y-8.3691
G01 X19.2756 Y-8.3967
G01 X19.2913 Y-8.4228
G01 X19.3095 Y-8.4474
G01 X19.3300 Y-8.4700
G01 X19.3526 Y-8.4905
G01 X19.3737 Y-8.5062
G01 X19.3807 Y-8.5109
G01 X19.4033 Y-8.5244
G01 X19.4271 Y-8.5357
G01 X19.4349 Y-8.5389
G01 X19.4597 Y-8.5477
G01 X19.4852 Y-8.5542
G01 X19.4935 Y-8.5558
G01 X19.5195 Y-8.5596
G01 X19.5500 Y-8.5611
G01 X20.0042 Y-8.5610
G01 X20.0305 Y-8.5596
G01 X20.0607 Y-8.5551
G01 X20.0903 Y-8.5477
G01 X20.1210 Y-8.5366
G01 X20.1467 Y-8.5244
G01 X20.1728 Y-8.5087
G01 X20.1974 Y-8.4905
G01 X20.2169 Y-8.4729
G01 X20.2229 Y-8.4669
G01 X20.2405 Y-8.4474
G01 X20.2562 Y-8.4263
G01 X20.2609 Y-8.4193
G01 X20.2744 Y-8.3967
G01 X20.2874 Y-8.3691
G01 X20.2964 Y-8.3443
G01 X20.2988 Y-8.3362
G01 X20.3051 Y-8.3107
G01 X20.3096 Y-8.2805
G01 X20.3111 Y-8.2521
G01 X20.3111 Y-8.0229
G01 X20.7478 Y-7.5862
G01 X20.7830 Y-7.5846
G01 X20.8156 Y-7.5798
G01 X20.8476 Y-7.5717
G01 X20.8787 Y-7.5606
G01 X20.9085 Y-7.5465
G01 X20.9368 Y-7.5296
G01 X20.9633 Y-7.5099
G01 X20.9847 Y-7.4907
G01 X20.9892 Y-7.4862
G01 X21.0071 Y-7.4665
G01 X21.0125 Y-7.4600
G01 X21.0296 Y-7.4368
G01 X21.0465 Y-7.4085
G01 X21.0606 Y-7.3787
G01 X21.0704 Y-7.3516
G01 X21.0729 Y-7.3435
G01 X21.0798 Y-7.3156
G01 X21.0846 Y-7.2830
G01 X21.0862 Y-7.2500
G01 X21.0862 Y-4.2500
G01 X21.0846 Y-4.2170
G01 X21.0798 Y-4.1844
G01 X21.0717 Y-4.1524
G01 X21.0606 Y-4.1213
G01 X21.0484 Y-4.0953
G01 X21.0444 Y-4.0878
G01 X21.0296 Y-4.0632
G01 X21.0125 Y-4.0400
G01 X21.0071 Y-4.0335
G01 X20.9877 Y-4.0123
G01 X20.9616 Y-3.9888
G01 X20.9368 Y-3.9704
G01 X20.9085 Y-3.9535
G01 X20.8787 Y-3.9394
G01 X20.8516 Y-3.9296
G01 X20.8456 Y-3.9277
G01 X20.8197 Y-3.9212
G01 X20.8114 Y-3.9195
G01 X20.7830 Y-3.9154
G01 X20.7478 Y-3.9138
G01 X20.5805 Y-3.7465
G01 X20.5648 Y-3.7324
G01 X20.5444 Y-3.7175
G01 X20.5245 Y-3.7057
G01 X20.5073 Y-3.6976
G01 X20.5014 Y-3.6953
G01 X20.4836 Y-3.6890
G01 X20.4652 Y-3.6843
G01 X20.4590 Y-3.6830
G01 X20.4423 Y-3.6805
G01 X20.4339 Y-3.6797
G01 X20.4150 Y-3.6788
G01 X20.2697 Y-3.6788
G01 X20.2664 Y-3.6708
G01 X20.2582 Y-3.6537
G01 X20.2463 Y-3.6338
G01 X20.2325 Y-3.6152
G01 X20.2199 Y-3.6011
G01 X20.2139 Y-3.5951
G01 X20.1998 Y-3.5825
G01 X20.1846 Y-3.5711
G01 X20.1794 Y-3.5675
G01 X20.1631 Y-3.5578
G01 X20.1404 Y-3.5469
G01 X20.1165 Y-3.5385
G01 X20.0961 Y-3.5334
G01 X20.0773 Y-3.5306
G01 X20.0689 Y-3.5297
G01 X20.0500 Y-3.5289
G01 X18.6958 Y-3.5290
G01 X18.6790 Y-3.5299
G01 X18.6727 Y-3.5306
G01 X18.6539 Y-3.5334
G01 X18.6355 Y-3.5379
G01 X18.6275 Y-3.5404
G01 X18.6096 Y-3.5469
G01 X18.5887 Y-3.5568
G01 X18.5688 Y-3.5687
G01 X18.5536 Y-3.5799
G01 X18.5470 Y-3.5853
G01 X18.5346 Y-3.5966
G01 X18.5301 Y-3.6011
G01 X18.5175 Y-3.6152
G01 X18.5072 Y-3.6289
G01 X18.2550 Y-3.6289
G01 X18.2903 Y-3.5394
G01 X18.2930 Y-3.5315
G01 X18.2945 Y-3.5254
G01 X18.2958 Y-3.5171
G01 X18.3032 Y-3.4478
G01 X18.3033 Y-3.4395
G01 X18.3029 Y-3.4333
G01 X18.3007 Y-3.4211
G01 X18.2982 Y-3.4132
G01 X18.2959 Y-3.4075
G01 X18.2640 Y-3.3406
G01 X18.2586 Y-3.3314
G01 X18.2521 Y-3.3229
G01 X18.2429 Y-3.3139
G01 X18.2344 Y-3.3075
G01 X18.1732 Y-3.2696
G01 X18.1657 Y-3.2654
G01 X18.1578 Y-3.2621
G01 X18.1497 Y-3.2595
G01 X18.1413 Y-3.2577
G01 X18.1328 Y-3.2568
G01 X18.0504 Y-3.2581
G01 X18.0423 Y-3.2593
G01 X18.0343 Y-3.2611
G01 X17.9603 Y-3.2842
G01 X17.9027 Y-3.2894
G01 X17.3973 Y-3.2894
G01 X17.3397 Y-3.2842
G01 X17.1960 Y-3.2394
G01 X17.0683 Y-3.1622
G01 X16.9628 Y-3.0567
G01 X16.9412 Y-3.0210
G01 X16.9328 Y-3.0085
G01 X16.9151 Y-2.9871
G01 X16.9074 Y-2.9795
G01 X16.8970 Y-2.9718
G01 X16.8757 Y-2.9598
G01 X16.8580 Y-2.9462
G01 X16.8471 Y-2.9394
G01 X16.8413 Y-2.9367
G01 X16.8333 Y-2.9337
G01 X16.8239 Y-2.9312
G01 X16.8126 Y-2.9274
G01 X16.8000 Y-2.9250
G01 X16.7872 Y-2.9244
G01 X16.7650 Y-2.9257
G01 X16.7427 Y-2.9239
G01 X16.7363 Y-2.9238
G01 X16.7256 Y-2.9246
G01 X16.7152 Y-2.9267
G01 X16.7059 Y-2.9298
G01 X16.6944 Y-2.9326
G01 X16.6825 Y-2.9374
G01 X16.6714 Y-2.9439
G01 X16.6534 Y-2.9570
G01 X16.6338 Y-2.9674
G01 X16.6285 Y-2.9706
G01 X16.6219 Y-2.9755
G01 X16.6158 Y-2.9809
G01 X16.4939 Y-3.0998
G01 X16.4760 Y-3.1208
G01 X16.4707 Y-3.1277
G01 X16.4606 Y-3.1438
G01 X16.4552 Y-3.1551
G01 X16.4520 Y-3.1651
G01 X16.4459 Y-3.1916
G01 X16.4372 Y-3.2174
G01 X16.4347 Y-3.2278
G01 X16.4339 Y-3.2342
G01 X16.4334 Y-3.2427
G01 X16.4338 Y-3.2607
G01 X16.4352 Y-3.2713
G01 X16.4379 Y-3.2816
G01 X16.4471 Y-3.3073
G01 X16.4538 Y-3.3336
G01 X16.4579 Y-3.3451
G01 X16.4626 Y-3.3542
G01 X16.4966 Y-3.4118
G01 X16.5370 Y-3.5506
G01 X16.5389 Y-3.5752
G01 X16.5389 Y-3.6014
G01 X16.3282 Y-3.6014
G01 X16.3239 Y-3.5932
G01 X16.3179 Y-3.5845
G01 X16.3109 Y-3.5766
G01 X16.3044 Y-3.5708
G01 X16.2977 Y-3.5437
G01 X16.3106 Y-3.5162
G01 X16.3217 Y-3.4851
G01 X16.3298 Y-3.4531
G01 X16.3346 Y-3.4205
G01 X16.3362 Y-3.3875
G01 X16.3362 Y-3.2000
G01 X16.3348 Y-3.1691
G01 X16.3298 Y-3.1344
G01 X16.3211 Y-3.1004
G01 X16.3098 Y-3.0694
G01 X16.2965 Y-3.0415
G01 X16.2862 Y-3.0241
G01 X16.2862 Y-2.9478
G01 X16.3095 Y-2.9393
G01 X16.3330 Y-2.9283
G01 X16.3554 Y-2.9151
G01 X16.3624 Y-2.9105
G01 X16.3815 Y-2.8962
G01 X16.4023 Y-2.8773
G01 X16.4212 Y-2.8565
G01 X16.4355 Y-2.8374
G01 X16.4390 Y-2.8322
G01 X16.4502 Y-2.8135
G01 X16.4542 Y-2.8061
G01 X16.4643 Y-2.7845
G01 X16.4738 Y-2.7581
G01 X16.4806 Y-2.7308
G01 X16.4842 Y-2.7072
G01 X16.4850 Y-2.6988
G01 X16.4861 Y-2.6750
G01 X16.4861 Y-2.1250
G01 X16.4845 Y-2.0949
G01 X16.4810 Y-2.0713
G01 X16.4797 Y-2.0651
G01 X16.4738 Y-2.0419
G01 X16.4658 Y-2.0195
G01 X16.4626 Y-2.0117
G01 X16.4523 Y-1.9901
G01 X16.4379 Y-1.9661
G01 X16.4212 Y-1.9435
G01 X16.4052 Y-1.9258
G01 X16.3992 Y-1.9198
G01 X16.3815 Y-1.9038
G01 X16.3624 Y-1.8895
G01 X16.3554 Y-1.8849
G01 X16.3361 Y-1.8734
G01 X16.3361 Y-1.5244
G01 X16.4538 Y-1.5611
G01 X16.5814 Y-1.6382
G01 X16.6806 Y-1.7371
G01 X16.6904 Y-1.7444
G01 X16.7348 Y-1.7729
G01 X16.7422 Y-1.7772
G01 X16.7481 Y-1.7799
G01 X16.7562 Y-1.7829
G01 X16.7645 Y-1.7850
G01 X16.7709 Y-1.7860
G01 X16.8513 Y-1.7916
G01 X16.8598 Y-1.7911
G01 X16.8703 Y-1.7894
G01 X16.8786 Y-1.7871
G01 X16.8865 Y-1.7839
G01 X16.9536 Y-1.7476
G01 X16.9606 Y-1.7433
G01 X16.9671 Y-1.7384
G01 X16.9732 Y-1.7329
G01 X17.0683 Y-1.6378
G01 X17.1960 Y-1.5606
G01 X17.3397 Y-1.5158
G01 X17.3973 Y-1.5106
G01 X17.9027 Y-1.5106
G01 X17.9603 Y-1.5158
G01 X18.1040 Y-1.5606
G01 X18.2317 Y-1.6378
G01 X18.3372 Y-1.7433
G01 X18.3487 Y-1.7613
G01 X18.3568 Y-1.7710
G01 X18.3629 Y-1.7767
G01 X18.3832 Y-1.7930
G01 X18.4015 Y-1.8114
G01 X18.4110 Y-1.8192
G01 X18.4179 Y-1.8236
G01 X18.4317 Y-1.8309
G01 X18.4910 Y-1.8555
G01 X18.5566 Y-1.8993
G01 X18.5702 Y-1.9068
G01 X18.5801 Y-1.9109
G01 X18.5900 Y-1.9137
G01 X18.6130 Y-1.9232
G01 X18.6192 Y-1.9250
G01 X18.6276 Y-1.9267
G01 X18.6361 Y-1.9276
G01 X18.6448 Y-1.9277
G01 X18.6564 Y-1.9299
G01 X18.6671 Y-1.9306
G01 X20.1123 Y-1.9306
G01 X20.1370 Y-1.9325
G01 X20.2759 Y-1.9729
G01 X20.3987 Y-2.0455
G01 X20.5027 Y-2.1495
G01 X20.5089 Y-2.1569
G01 X20.5151 Y-2.1631
G01 X20.5218 Y-2.1734
G01 X20.5299 Y-2.1827
G01 X20.5436 Y-2.1953
G01 X20.5598 Y-2.2066
G01 X20.6352 Y-2.2821
G01 X20.6416 Y-2.2880
G01 X20.6468 Y-2.2921
G01 X20.6547 Y-2.2972
G01 X20.6792 Y-2.3148
G01 X20.6903 Y-2.3209
G01 X20.7018 Y-2.3253
G01 X20.8422 Y-2.3837
G01 X20.9510 Y-2.4564
G01 X22.0161 Y-3.5215
G01 X22.0888 Y-3.6303
G01 X22.1389 Y-3.7512
G01 X22.1644 Y-3.8796
G01 X22.1644 Y-7.5554
G01 X22.1672 Y-7.5872
G01 X22.1688 Y-7.5956
G01 X22.1712 Y-7.6039
G01 X22.1754 Y-7.6138
G01 X22.2066 Y-7.6763
G01 X22.2119 Y-7.6855
G01 X22.2198 Y-7.6956
G01 X22.2275 Y-7.7031
G01 X22.2378 Y-7.7107
G01 X22.2996 Y-7.7476
G01 X22.3072 Y-7.7516
G01 X22.3151 Y-7.7548
G01 X22.3233 Y-7.7572
G01 X22.3317 Y-7.7588
G01 X22.3402 Y-7.7596
G01 X22.4226 Y-7.7568
G01 X22.4307 Y-7.7555
G01 X22.4367 Y-7.7541
G01 X22.4653 Y-7.7447
G01 X22.5544 Y-7.7356
G01 X23.6456 Y-7.7356
G01 X23.7347 Y-7.7447
G01 X23.8827 Y-7.7938
G01 X24.0149 Y-7.8753
G01 X24.1247 Y-7.9851
G01 X24.2062 Y-8.1173
G01 X24.2553 Y-8.2653
G01 X24.2644 Y-8.3544
G01 X24.2645 Y-8.6912
G01 X24.2658 Y-8.7022
G01 X24.2775 Y-8.7579
G01 X24.2793 Y-8.7640
G01 X24.2824 Y-8.7719
G01 X24.2885 Y-8.7830
G01 X24.2947 Y-8.7915
G01 X24.3395 Y-8.8451
G01 X24.3466 Y-8.8526
G01 X24.3561 Y-8.8603
G01 X24.4248 Y-8.9063
G01 X24.6382 Y-9.1195
G01 X24.6468 Y-9.1263
G01 X24.6866 Y-9.1538
G01 X24.6943 Y-9.1581
G01 X24.7238 Y-9.1716
G01 X24.8339 Y-9.2423
G01 X24.8588 Y-9.2657
G01 X25.0559 Y-9.4628
G01 X25.1347 Y-9.5681
G01 X25.1623 Y-9.6186
G01 X25.2075 Y-9.7397
G01 X25.2144 Y-9.7825
G01 X25.2167 Y-9.8042
G01 X25.2194 Y-9.8537
G01 X25.2194 Y-12.6729
G01 X25.2191 Y-12.6804
G01 X25.2195 Y-12.6887
G01 X25.2208 Y-12.6971
G01 X25.2351 Y-12.7676
G01 X25.2384 Y-12.7774
G01 X25.2420 Y-12.7849
G01 X25.2462 Y-12.7921
G01 X25.2511 Y-12.7988
G01 X25.3028 Y-12.8545
G01 X25.3102 Y-12.8616
G01 X25.3202 Y-12.8688
G01 X25.3737 Y-12.9005
G01 X25.4745 Y-13.0013
G01 X25.5471 Y-13.1241
G01 X25.5875 Y-13.2630
G01 X25.5894 Y-13.2877
G01 X25.5894 Y-13.7123
G01 X25.5875 Y-13.7370
G01 X25.5471 Y-13.8759
G01 X25.4745 Y-13.9987
G01 X25.3737 Y-14.0995
G01 X25.2509 Y-14.1721
G01 X25.1120 Y-14.2125
G01 X25.0873 Y-14.2144
G01 X23.7877 Y-14.2144
G01 X23.7630 Y-14.2125
G01 X23.6226 Y-14.1717
G01 X23.6147 Y-14.1700
G01 X23.5761 Y-14.1645
G01 X23.5659 Y-14.1639
G01 X23.3428 Y-14.1639
G01 X23.3325 Y-14.1502
G01 X23.3199 Y-14.1361
G01 X23.3154 Y-14.1316
G01 X23.3030 Y-14.1203
G01 X23.2964 Y-14.1149
G01 X23.2812 Y-14.1037
G01 X23.2613 Y-14.0918
G01 X23.2404 Y-14.0819
G01 X23.2225 Y-14.0754
G01 X23.2145 Y-14.0729
G01 X23.1961 Y-14.0684
G01 X23.1773 Y-14.0656
G01 X23.1710 Y-14.0649
G01 X23.1521 Y-14.0639
G01 X21.9750 Y-14.0639
G01 X21.9561 Y-14.0647
G01 X21.9477 Y-14.0656
G01 X21.9289 Y-14.0684
G01 X21.9065 Y-14.0741
G01 X21.8846 Y-14.0819
G01 X21.8619 Y-14.0928
G01 X21.8421 Y-14.1049
G01 X21.8269 Y-14.1162
G01 X21.8220 Y-14.1203
G01 X21.8096 Y-14.1316
G01 X21.8051 Y-14.1361
G01 X21.7925 Y-14.1502
G01 X21.7818 Y-14.1644
G01 X21.4346 Y-14.1644
G01 X21.3062 Y-14.1389
G01 X21.1853 Y-14.0888
G01 X21.0765 Y-14.0161
G01 X20.2863 Y-13.2259
G01 X20.2795 Y-13.2198
G01 X20.2555 Y-13.2006
G01 X20.2466 Y-13.1949
G01 X20.2390 Y-13.1912
G01 X20.2291 Y-13.1876
G01 X20.1601 Y-13.1673
G01 X20.1500 Y-13.1653
G01 X20.1398 Y-13.1644
G01 X19.2820 Y-13.1644
G01 X19.2754 Y-13.1649
G01 X19.2688 Y-13.1658
G01 X19.2152 Y-13.1769
G01 X19.2071 Y-13.1792
G01 X19.1992 Y-13.1824
G01 X19.1899 Y-13.1873
G01 X19.1829 Y-13.1920
G01 X19.1243 Y-13.2408
G01 X19.1182 Y-13.2468
G01 X19.1114 Y-13.2550
G01 X19.1047 Y-13.2659
G01 X19.1004 Y-13.2757
G01 X19.0781 Y-13.3464
G01 X19.0764 Y-13.3526
G01 X19.0748 Y-13.3610
G01 X19.0741 Y-13.3738
G01 X19.0750 Y-13.3845
G01 X19.0766 Y-13.3929
G01 X19.0956 Y-13.4623
G01 X19.0981 Y-13.4701
G01 X19.1014 Y-13.4776
G01 X19.1043 Y-13.4830
G01 X19.1562 Y-13.5673
G01 X19.2053 Y-13.7153
G01 X19.2144 Y-13.8044
G01 X19.2144 Y-15.1956
G01 X19.2053 Y-15.2847
G01 X19.1960 Y-15.3131
G01 X19.1900 Y-15.3381
G01 X19.1882 Y-15.3487
G01 X19.1877 Y-15.3594
G01 X19.1886 Y-15.3701
G01 X19.1989 Y-15.4414
G01 X19.2013 Y-15.4518
G01 X19.2050 Y-15.4618
G01 X19.2099 Y-15.4713
G01 X19.2160 Y-15.4801
G01 X19.2644 Y-15.5362
G01 X19.2719 Y-15.5438
G01 X19.2803 Y-15.5505
G01 X19.2894 Y-15.5560
G01 X19.2992 Y-15.5604
G01 X19.3743 Y-15.5827
G01 X19.3843 Y-15.5847
G01 X19.3965 Y-15.5856
G01 X29.3755 Y-15.5856
G01 X29.3837 Y-15.5852
G01 X29.3918 Y-15.5840
G01 X29.4474 Y-15.5719
G01 X29.4577 Y-15.5687
G01 X29.4693 Y-15.5633
G01 X29.4748 Y-15.5599
G01 X29.4818 Y-15.5548
G01 X29.5394 Y-15.5047
G01 X29.5438 Y-15.5001
G01 X29.5492 Y-15.4935
G01 X29.5528 Y-15.4882
G01 X29.5570 Y-15.4807
G01 X29.5618 Y-15.4688
G01 X29.5827 Y-15.3978
G01 X29.5850 Y-15.3857
G01 X29.5856 Y-15.3755
G01 X29.5856 Y-0.6245
G01 X29.5852 Y-0.6163
G01 X29.5840 Y-0.6082
G01 X29.5719 Y-0.5526
G01 X29.5680 Y-0.5403
G01 X29.5633 Y-0.5307
G01 X29.5587 Y-0.5234
G01 X29.5548 Y-0.5182
G01 X29.5047 Y-0.4606
G01 X29.5001 Y-0.4562
G01 X29.4935 Y-0.4508
G01 X29.4864 Y-0.4461
G01 X29.4807 Y-0.4430
G01 X29.4688 Y-0.4382
G01 X29.3978 Y-0.4173
G01 X29.3878 Y-0.4153
G01 X29.3755 Y-0.4144
G01 X0.6245 Y-0.4144
G01 X0.6163 Y-0.4148
G01 X0.6082 Y-0.4160
G01 X0.5547 Y-0.4276
G01 X0.5443 Y-0.4305
G01 X0.5344 Y-0.4347
G01 X0.5270 Y-0.4389
G01 X0.5182 Y-0.4452
G01 X0.4591 Y-0.4968
G01 X0.4521 Y-0.5048
G01 X0.4472 Y-0.5118
G01 X0.4430 Y-0.5193
G01 X0.4389 Y-0.5291
G01 X0.4173 Y-0.6022
G01 X0.4153 Y-0.6122
G01 X0.4144 Y-0.6245
G00 Z0.5000
G00 X1.2526 Y-0.9725
G01 F90.00
G01 Z-0.0800
G01 F240.00
G01 X1.2526 Y-1.9640
G01 X1.2547 Y-1.9695
G01 X1.2561 Y-1.9704
G01 X1.2577 Y-1.9701
G01 X1.2584 Y-1.9695
G01 X1.2604 Y-1.9640
G01 X1.2604 Y-1.5800
G01 X1.2608 Y-1.5736
G01 X1.2621 Y-1.5653
G01 X1.2641 Y-1.5571
G01 X1.2670 Y-1.5491
G01 X1.2716 Y-1.5396
G01 X1.2761 Y-1.5325
G01 X1.2813 Y-1.5258
G01 X1.2887 Y-1.5183
G01 X1.2969 Y-1.5117
G01 X1.3041 Y-1.5072
G01 X1.3116 Y-1.5034
G01 X1.3215 Y-1.4997
G01 X1.3318 Y-1.4972
G01 X1.3444 Y-1.4960
G01 X1.4478 Y-1.4960
G01 X1.4562 Y-1.4964
G01 X1.4667 Y-1.4981
G01 X1.4748 Y-1.5003
G01 X1.4847 Y-1.5043
G01 X1.4921 Y-1.5083
G01 X1.5009 Y-1.5143
G01 X1.5073 Y-1.5198
G01 X1.5145 Y-1.5276
G01 X1.8223 Y-1.9670
G01 X1.8271 Y-1.9703
G01 X1.8288 Y-1.9703
G01 X1.8300 Y-1.9691
G01 X1.8302 Y-1.9682
G01 X1.8287 Y-1.9626
G01 X1.5915 Y-1.6235
G01 X1.5865 Y-1.6143
G01 X1.5826 Y-1.6044
G01 X1.5799 Y-1.5942
G01 X1.5784 Y-1.5816
G01 X1.5784 Y-1.5732
G01 X1.5796 Y-1.5627
G01 X1.5821 Y-1.5524
G01 X1.5849 Y-1.5445
G01 X1.5896 Y-1.5350
G01 X1.5941 Y-1.5279
G01 X1.5993 Y-1.5212
G01 X1.6067 Y-1.5137
G01 X1.6150 Y-1.5071
G01 X1.6240 Y-1.5016
G01 X1.6317 Y-1.4980
G01 X1.6430 Y-1.4937
G01 X1.7307 Y-1.4498
G01 X1.7347 Y-1.4473
G01 X1.7385 Y-1.4442
G01 X1.7801 Y-1.4026
G01 X1.7831 Y-1.3989
G01 X1.7857 Y-1.3948
G01 X1.8295 Y-1.3071
G01 X1.8309 Y-1.3035
G01 X1.8318 Y-1.2974
G01 X1.8318 Y-1.1630
G01 X1.8315 Y-1.1591
G01 X1.8295 Y-1.1532
G01 X1.7857 Y-1.0655
G01 X1.7831 Y-1.0615
G01 X1.7801 Y-1.0577
G01 X1.7385 Y-1.0161
G01 X1.7347 Y-1.0131
G01 X1.7307 Y-1.0105
G01 X1.6430 Y-0.9667
G01 X1.6371 Y-0.9647
G01 X1.6332 Y-0.9644
G01 X1.2607 Y-0.9644
G01 X1.2553 Y-0.9664
G01 X1.2547 Y-0.9670
G01 X1.2526 Y-0.9725
G00 Z0.5000
G00 X1.3465 Y-1.4882
G01 F90.00
G01 Z-0.0800
G01 F240.00
G01 X1.6162 Y-1.4882
G01 X1.6246 Y-1.4878
G01 X1.6350 Y-1.4861
G01 X1.6451 Y-1.4832
G01 X1.6528 Y-1.4800
G01 X1.7179 Y-1.4475
G01 X1.7253 Y-1.4433
G01 X1.7323 Y-1.4384
G01 X1.7387 Y-1.4329
G01 X1.7672 Y-1.4044
G01 X1.7730 Y-1.3981
G01 X1.7780 Y-1.3912
G01 X1.7824 Y-1.3839
G01 X1.8150 Y-1.3189
G01 X1.8191 Y-1.3092
G01 X1.8220 Y-1.2991
G01 X1.8234 Y-1.2908
G01 X1.8240 Y-1.2824
G01 X1.8240 Y-1.1800
G01 X1.8236 Y-1.1716
G01 X1.8215 Y-1.1592
G01 X1.8197 Y-1.1531
G01 X1.8167 Y-1.1453
G01 X1.7803 Y-1.0727
G01 X1.7756 Y-1.0656
G01 X1.7687 Y-1.0575
G01 X1.7403 Y-1.0290
G01 X1.7340 Y-1.0232
G01 X1.7271 Y-1.0182
G01 X1.7198 Y-1.0138
G01 X1.6509 Y-0.9795
G01 X1.6431 Y-0.9765
G01 X1.6370 Y-0.9747
G01 X1.6288 Y-0.9731
G01 X1.6204 Y-0.9723
G01 X1.3465 Y-0.9722
G01 X1.3381 Y-0.9726
G01 X1.3297 Y-0.9738
G01 X1.3215 Y-0.9759
G01 X1.3136 Y-0.9787
G01 X1.3059 Y-0.9823
G01 X1.2987 Y-0.9867
G01 X1.2919 Y-0.9917
G01 X1.2856 Y-0.9974
G01 X1.2800 Y-1.0036
G01 X1.2727 Y-1.0140
G01 X1.2687 Y-1.0214
G01 X1.2662 Y-1.0273
G01 X1.2625 Y-1.0394
G01 X1.2613 Y-1.0456
G01 X1.2605 Y-1.0540
G01 X1.2604 Y-1.4021
G01 X1.2613 Y-1.4147
G01 X1.2625 Y-1.4209
G01 X1.2648 Y-1.4291
G01 X1.2670 Y-1.4350
G01 X1.2706 Y-1.4427
G01 X1.2749 Y-1.4499
G01 X1.2800 Y-1.4567
G01 X1.2856 Y-1.4629
G01 X1.2903 Y-1.4673
G01 X1.2969 Y-1.4725
G01 X1.3023 Y-1.4759
G01 X1.3097 Y-1.4799
G01 X1.3155 Y-1.4824
G01 X1.3236 Y-1.4850
G01 X1.3318 Y-1.4869
G01 X1.3402 Y-1.4879
G01 X1.3465 Y-1.4882
G00 Z0.5000
G00 X2.2050 Y-1.4487
G01 F90.00
G01 Z-0.0800
G01 F240.00
G01 X2.2050 Y-1.8212
G01 X2.2054 Y-1.8250
G01 X2.2073 Y-1.8309
G01 X2.2515 Y-1.9192
G01 X2.2585 Y-1.9260
G01 X2.3462 Y-1.9699
G01 X2.3522 Y-1.9718
G01 X2.3560 Y-1.9722
G01 X2.5380 Y-1.9722
G01 X2.5418 Y-1.9718
G01 X2.5478 Y-1.9699
G01 X2.6360 Y-1.9257
G01 X2.6394 Y-1.9217
G01 X2.6396 Y-1.9201
G01 X2.6386 Y-1.9187
G01 X2.6377 Y-1.9184
G01 X2.6325 Y-1.9188
G01 X2.5538 Y-1.9579
G01 X2.5458 Y-1.9607
G01 X2.5377 Y-1.9627
G01 X2.5315 Y-1.9637
G01 X2.5231 Y-1.9643
G01 X2.3730 Y-1.9644
G01 X2.3604 Y-1.9634
G01 X2.3481 Y-1.9607
G01 X2.3383 Y-1.9571
G01 X2.2851 Y-1.9306
G01 X2.2741 Y-1.9240
G01 X2.2658 Y-1.9174
G01 X2.2584 Y-1.9098
G01 X2.2519 Y-1.9013
G01 X2.2466 Y-1.8921
G01 X2.2219 Y-1.8427
G01 X2.2171 Y-1.8310
G01 X2.2141 Y-1.8188
G01 X2.2128 Y-1.8063
G01 X2.2128 Y-1.7087
G01 X2.2137 Y-1.6961
G01 X2.2165 Y-1.6837
G01 X2.2193 Y-1.6758
G01 X2.2220 Y-1.6700
G01 X2.2285 Y-1.6592
G01 X2.2365 Y-1.6494
G01 X2.2459 Y-1.6409
G01 X2.2564 Y-1.6338
G01 X2.2620 Y-1.6309
G01 X2.2698 Y-1.6277
G01 X2.2820 Y-1.6243
G01 X2.6816 Y-1.5444
G01 X2.6870 Y-1.5415
G01 X2.6875 Y-1.5406
G01 X2.6890 Y-1.5355
G01 X2.6890 Y-1.4487
G01 X2.6886 Y-1.4449
G01 X2.6867 Y-1.4389
G01 X2.6425 Y-1.3507
G01 X2.6355 Y-1.3439
G01 X2.5478 Y-1.3000
G01 X2.5418 Y-1.2981
G01 X2.5380 Y-1.2977
G01 X2.3560 Y-1.2977
G01 X2.3522 Y-1.2981
G01 X2.3462 Y-1.3000
G01 X2.2585 Y-1.3439
G01 X2.2515 Y-1.3507
G01 X2.2073 Y-1.4389
G01 X2.2054 Y-1.4449
G01 X2.2050 Y-1.4487
G00 Z0.5000
G00 X2.2128 Y-1.4657
G01 F90.00
G01 Z-0.0800
G01 F240.00
G01 X2.2128 Y-1.5251
G01 X2.2134 Y-1.5357
G01 X2.2149 Y-1.5440
G01 X2.2171 Y-1.5522
G01 X2.2202 Y-1.5601
G01 X2.2251 Y-1.5694
G01 X2.2310 Y-1.5781
G01 X2.2380 Y-1.5861
G01 X2.2476 Y-1.5943
G01 X2.2565 Y-1.6001
G01 X2.2660 Y-1.6047
G01 X2.2760 Y-1.6081
G01 X2.2884 Y-1.6106
G01 X2.2990 Y-1.6112
G01 X2.3074 Y-1.6108
G01 X2.3158 Y-1.6096
G01 X2.6120 Y-1.5503
G01 X2.6181 Y-1.5489
G01 X2.6261 Y-1.5462
G01 X2.6376 Y-1.5408
G01 X2.6481 Y-1.5337
G01 X2.6545 Y-1.5282
G01 X2.6589 Y-1.5237
G01 X2.6667 Y-1.5137
G01 X2.6729 Y-1.5027
G01 X2.6775 Y-1.4909
G01 X2.6803 Y-1.4785
G01 X2.6812 Y-1.4659
G01 X2.6808 Y-1.4573
G01 X2.6796 Y-1.4490
G01 X2.6769 Y-1.4388
G01 X2.6739 Y-1.4310
G01 X2.6454 Y-1.3740
G01 X2.6396 Y-1.3651
G01 X2.6313 Y-1.3554
G01 X2.6216 Y-1.3471
G01 X2.6127 Y-1.3413
G01 X2.5557 Y-1.3128
G01 X2.5458 Y-1.3092
G01 X2.5377 Y-1.3071
G01 X2.5294 Y-1.3059
G01 X2.5210 Y-1.3055
G01 X2.3730 Y-1.3055
G01 X2.3604 Y-1.3064
G01 X2.3481 Y-1.3092
G01 X2.3383 Y-1.3128
G01 X2.2832 Y-1.3403
G01 X2.2724 Y-1.3471
G01 X2.2642 Y-1.3539
G01 X2.2557 Y-1.3634
G01 X2.2486 Y-1.3740
G01 X2.2219 Y-1.4272
G01 X2.2185 Y-1.4349
G01 X2.2159 Y-1.4429
G01 X2.2144 Y-1.4490
G01 X2.2132 Y-1.4573
G01 X2.2128 Y-1.4657
G00 Z0.5000
G00 X3.0160 Y-1.3063
G01 F90.00
G01 Z-0.0800
G01 F240.00
G01 X3.2514 Y-1.9656
G01 X3.2522 Y-1.9673
G01 X3.2552 Y-1.9702
G01 X3.2570 Y-1.9705
G01 X3.2578 Y-1.9702
G01 X3.2608 Y-1.9673
G01 X3.2616 Y-1.9656
G01 X3.4969 Y-1.3069
G01 X3.4968 Y-1.3011
G01 X3.4957 Y-1.2997
G01 X3.4941 Y-1.2994
G01 X3.4933 Y-1.2998
G01 X3.4895 Y-1.3043
G01 X3.3376 Y-1.7296
G01 X3.3334 Y-1.7393
G01 X3.3281 Y-1.7485
G01 X3.3203 Y-1.7585
G01 X3.3128 Y-1.7658
G01 X3.3026 Y-1.7734
G01 X3.2933 Y-1.7785
G01 X3.2815 Y-1.7831
G01 X3.2692 Y-1.7858
G01 X3.2565 Y-1.7868
G01 X3.2439 Y-1.7858
G01 X3.2335 Y-1.7836
G01 X3.2236 Y-1.7802
G01 X3.2122 Y-1.7745
G01 X3.2035 Y-1.7685
G01 X3.1941 Y-1.7600
G01 X3.1861 Y-1.7502
G01 X3.1796 Y-1.7393
G01 X3.1754 Y-1.7296
G01 X3.0235 Y-1.3043
G01 X3.0197 Y-1.2998
G01 X3.0181 Y-1.2994
G01 X3.0166 Y-1.3003
G01 X3.0163 Y-1.3011
G01 X3.0160 Y-1.3063
G00 Z0.5000
G00 X3.8278 Y-1.9259
G01 F90.00
G01 Z-0.0800
G01 F240.00
G01 X3.8698 Y-1.9680
G01 X3.8751 Y-1.9704
G01 X3.8760 Y-1.9704
G01 X3.8813 Y-1.9680
G01 X3.9229 Y-1.9264
G01 X3.9254 Y-1.9211
G01 X3.9254 Y-1.9202
G01 X3.9230 Y-1.9149
G01 X3.8813 Y-1.8733
G01 X3.8760 Y-1.8708
G01 X3.8751 Y-1.8708
G01 X3.8698 Y-1.8733
G01 X3.8282 Y-1.9149
G01 X3.8258 Y-1.9202
G01 X3.8258 Y-1.9211
G01 X3.8278 Y-1.9259
G00 Z0.5000
G00 X4.2000 Y-3.0074
G01 F90.00
G01 Z-0.0800
G01 F240.00
G01 X4.2095 Y-3.1242
G01 X4.2351 Y-3.2181
G01 X4.2743 Y-3.2943
G01 X4.3276 Y-3.3581
G01 X4.3939 Y-3.4094
G01 X4.4734 Y-3.4476
G01 X4.5705 Y-3.4725
G01 X4.6901 Y-3.4817
G01 X4.8102 Y-3.4725
G01 X4.9078 Y-3.4476
G01 X4.9876 Y-3.4093
G01 X5.0542 Y-3.3580
G01 X5.1080 Y-3.2940
G01 X5.1473 Y-3.2185
G01 X5.1727 Y-3.1267
G01 X5.1821 Y-3.0136
G01 X5.1727 Y-2.8976
G01 X5.1471 Y-2.8036
G01 X5.1078 Y-2.7266
G01 X5.0542 Y-2.6618
G01 X4.9877 Y-2.6097
G01 X4.9080 Y-2.5710
G01 X4.8104 Y-2.5458
G01 X4.6899 Y-2.5364
G01 X4.5639 Y-2.5456
G01 X4.4642 Y-2.5703
G01 X4.3855 Y-2.6072
G01 X4.3225 Y-2.6555
G01 X4.2723 Y-2.7161
G01 X4.2346 Y-2.7913
G01 X4.2094 Y-2.8865
G01 X4.2000 Y-3.0074
G00 Z0.5000
G00 X4.2260 Y-3.0144
G01 F90.00
G01 Z-0.0800
G01 F240.00
G01 X4.2359 Y-3.0924
G01 X4.2385 Y-3.1051
G01 X4.2429 Y-3.1171
G01 X4.2717 Y-3.1806
G01 X4.2782 Y-3.1918
G01 X4.2849 Y-3.2003
G01 X4.3337 Y-3.2525
G01 X4.3435 Y-3.2611
G01 X4.3527 Y-3.2671
G01 X4.4200 Y-3.3051
G01 X4.4296 Y-3.3098
G01 X4.4398 Y-3.3133
G01 X4.5352 Y-3.3391
G01 X4.5432 Y-3.3409
G01 X4.5513 Y-3.3419
G01 X4.6898 Y-3.3519
G01 X4.8194 Y-3.3433
G01 X4.8256 Y-3.3427
G01 X4.8338 Y-3.3411
G01 X4.9262 Y-3.3187
G01 X4.9361 Y-3.3157
G01 X4.9437 Y-3.3124
G01 X5.0120 Y-3.2792
G01 X5.0193 Y-3.2752
G01 X5.0245 Y-3.2717
G01 X5.0724 Y-3.2319
G01 X5.0804 Y-3.2244
G01 X5.0873 Y-3.2159
G01 X5.1172 Y-3.1740
G01 X5.1236 Y-3.1634
G01 X5.1278 Y-3.1540
G01 X5.1460 Y-3.1050
G01 X5.1491 Y-3.0948
G01 X5.1509 Y-3.0843
G01 X5.1573 Y-3.0262
G01 X5.1578 Y-3.0160
G01 X5.1571 Y-3.0059
G01 X5.1471 Y-2.9269
G01 X5.1451 Y-2.9164
G01 X5.1410 Y-2.9042
G01 X5.1120 Y-2.8400
G01 X5.1058 Y-2.8286
G01 X5.0979 Y-2.8183
G01 X5.0488 Y-2.7656
G01 X5.0389 Y-2.7570
G01 X5.0298 Y-2.7510
G01 X4.9619 Y-2.7125
G01 X4.9522 Y-2.7078
G01 X4.9420 Y-2.7044
G01 X4.8459 Y-2.6783
G01 X4.8379 Y-2.6765
G01 X4.8297 Y-2.6755
G01 X4.6904 Y-2.6653
G01 X4.5521 Y-2.6743
G01 X4.5436 Y-2.6753
G01 X4.5373 Y-2.6766
G01 X4.4443 Y-2.6995
G01 X4.4345 Y-2.7025
G01 X4.4252 Y-2.7066
G01 X4.3616 Y-2.7395
G01 X4.3559 Y-2.7427
G01 X4.3488 Y-2.7477
G01 X4.3406 Y-2.7548
G01 X4.2911 Y-2.8038
G01 X4.2830 Y-2.8131
G01 X4.2794 Y-2.8182
G01 X4.2752 Y-2.8254
G01 X4.2436 Y-2.8904
G01 X4.2392 Y-2.9022
G01 X4.2366 Y-2.9145
G01 X4.2258 Y-2.9939
G01 X4.2253 Y-3.0041
G01 X4.2260 Y-3.0144
G00 Z0.5000
G00 X5.0204 Y-4.0048
G01 F90.00
G01 Z-0.0800
G01 F240.00
G01 X5.1589 Y-4.0048
G01 X5.1589 Y-3.8808
G01 X5.0204 Y-3.8808
G01 X5.0204 Y-4.0048
G00 Z0.5000
G00 X4.2232 Y-4.3492
G01 F90.00
G01 Z-0.0800
G01 F240.00
G01 X4.8670 Y-4.4939
G01 X5.0016 Y-4.5225
G01 X5.0097 Y-4.5246
G01 X5.0215 Y-4.5293
G01 X5.0289 Y-4.5334
G01 X5.0341 Y-4.5369
G01 X5.0391 Y-4.5408
G01 X5.0453 Y-4.5466
G01 X5.0534 Y-4.5562
G01 X5.0581 Y-4.5633
G01 X5.0610 Y-4.5689
G01 X5.0657 Y-4.5806
G01 X5.0687 Y-4.5929
G01 X5.0695 Y-4.5992
G01 X5.0698 Y-4.6076
G01 X5.0687 Y-4.6202
G01 X5.0658 Y-4.6326
G01 X5.0629 Y-4.6405
G01 X5.0602 Y-4.6462
G01 X5.0536 Y-4.6570
G01 X5.0483 Y-4.6636
G01 X5.0440 Y-4.6682
G01 X5.0343 Y-4.6764
G01 X5.0236 Y-4.6830
G01 X5.0178 Y-4.6857
G01 X5.0099 Y-4.6887
G01 X5.0018 Y-4.6909
G01 X4.8081 Y-4.7325
G01 X4.2232 Y-4.8853
G01 X4.2232 Y-5.0611
G01 X4.8083 Y-5.2177
G01 X4.9250 Y-5.2426
G01 X4.9997 Y-5.2568
G01 X5.0100 Y-5.2594
G01 X5.0178 Y-5.2623
G01 X5.0236 Y-5.2650
G01 X5.0343 Y-5.2717
G01 X5.0439 Y-5.2799
G01 X5.0483 Y-5.2844
G01 X5.0535 Y-5.2910
G01 X5.0602 Y-5.3018
G01 X5.0637 Y-5.3095
G01 X5.0658 Y-5.3154
G01 X5.0687 Y-5.3277
G01 X5.0696 Y-5.3361
G01 X5.0698 Y-5.3424
G01 X5.0695 Y-5.3487
G01 X5.0683 Y-5.3571
G01 X5.0651 Y-5.3693
G01 X5.0620 Y-5.3771
G01 X5.0592 Y-5.3828
G01 X5.0523 Y-5.3934
G01 X5.0483 Y-5.3983
G01 X5.0424 Y-5.4043
G01 X5.0326 Y-5.4122
G01 X5.0273 Y-5.4156
G01 X5.0198 Y-5.4195
G01 X5.0080 Y-5.4240
G01 X4.2232 Y-5.5933
G01 X4.2232 Y-5.6830
G01 X5.1589 Y-5.4408
G01 X5.1589 Y-5.2693
G01 X4.5507 Y-5.1084
G01 X4.3226 Y-5.0554
G01 X4.3145 Y-5.0531
G01 X4.3028 Y-5.0481
G01 X4.2972 Y-5.0450
G01 X4.2902 Y-5.0402
G01 X4.2807 Y-5.0319
G01 X4.2764 Y-5.0272
G01 X4.2713 Y-5.0205
G01 X4.2648 Y-5.0095
G01 X4.2601 Y-4.9978
G01 X4.2571 Y-4.9854
G01 X4.2563 Y-4.9791
G01 X4.2560 Y-4.9707
G01 X4.2571 Y-4.9580
G01 X4.2588 Y-4.9497
G01 X4.2606 Y-4.9437
G01 X4.2637 Y-4.9358
G01 X4.2666 Y-4.9301
G01 X4.2735 Y-4.9195
G01 X4.2789 Y-4.9130
G01 X4.2834 Y-4.9085
G01 X4.2933 Y-4.9006
G01 X4.3043 Y-4.8942
G01 X4.3161 Y-4.8894
G01 X4.3242 Y-4.8873
G01 X4.5495 Y-4.8395
G01 X5.1589 Y-4.6805
G01 X5.1589 Y-4.5092
G01 X4.2232 Y-4.2634
G01 X4.2232 Y-4.3492
G00 Z0.5000
G00 X4.1999 Y-6.3682
G01 F90.00
G01 Z-0.0800
G01 F240.00
G01 X4.2058 Y-6.4709
G01 X4.2215 Y-6.5523
G01 X4.2443 Y-6.6152
G01 X4.2723 Y-6.6630
G01 X4.3082 Y-6.7022
G01 X4.3470 Y-6.7280
G01 X4.3929 Y-6.7441
G01 X4.4519 Y-6.7503
G01 X4.4987 Y-6.7463
G01 X4.5359 Y-6.7359
G01 X4.5643 Y-6.7210
G01 X4.6067 Y-6.6827
G01 X4.6442 Y-6.6243
G01 X4.6772 Y-6.5325
G01 X4.7281 Y-6.3142
G01 X4.7559 Y-6.2114
G01 X4.7587 Y-6.2034
G01 X4.7613 Y-6.1975
G01 X4.7878 Y-6.1443
G01 X4.7920 Y-6.1369
G01 X4.7968 Y-6.1299
G01 X4.8009 Y-6.1250
G01 X4.8275 Y-6.0969
G01 X4.8340 Y-6.0910
G01 X4.8392 Y-6.0870
G01 X4.8466 Y-6.0824
G01 X4.8782 Y-6.0658
G01 X4.8838 Y-6.0633
G01 X4.8915 Y-6.0606
G01 X4.9036 Y-6.0579
G01 X4.9434 Y-6.0521
G01 X4.9543 Y-6.0520
G01 X4.9630 Y-6.0529
G01 X5.0080 Y-6.0601
G01 X5.0161 Y-6.0622
G01 X5.0240 Y-6.0650
G01 X5.0316 Y-6.0687
G01 X5.0669 Y-6.0889
G01 X5.0757 Y-6.0951
G01 X5.0837 Y-6.1022
G01 X5.0894 Y-6.1087
G01 X5.1154 Y-6.1412
G01 X5.1202 Y-6.1482
G01 X5.1243 Y-6.1557
G01 X5.1284 Y-6.1656
G01 X5.1509 Y-6.2319
G01 X5.1530 Y-6.2401
G01 X5.1543 Y-6.2485
G01 X5.1637 Y-6.3626
G01 X5.1639 Y-6.3718
G01 X5.1588 Y-6.4663
G01 X5.1576 Y-6.4745
G01 X5.1455 Y-6.5352
G01 X5.1433 Y-6.5430
G01 X5.1412 Y-6.5487
G01 X5.1235 Y-6.5896
G01 X5.1186 Y-6.5987
G01 X5.1127 Y-6.6071
G01 X5.0845 Y-6.6408
G01 X5.0770 Y-6.6484
G01 X5.0686 Y-6.6550
G01 X5.0294 Y-6.6817
G01 X5.0408 Y-6.7577
G01 X5.0549 Y-6.7495
G01 X5.0918 Y-6.7163
G01 X5.1215 Y-6.6760
G01 X5.1516 Y-6.6081
G01 X5.1735 Y-6.5091
G01 X5.1822 Y-6.3693
G01 X5.1761 Y-6.2619
G01 X5.1598 Y-6.1760
G01 X5.1357 Y-6.1082
G01 X5.1058 Y-6.0554
G01 X5.0675 Y-6.0117
G01 X5.0270 Y-5.9836
G01 X4.9806 Y-5.9665
G01 X4.9229 Y-5.9602
G01 X4.8539 Y-5.9677
G01 X4.8090 Y-5.9856
G01 X4.7710 Y-6.0146
G01 X4.7383 Y-6.0548
G01 X4.7106 Y-6.1084
G01 X4.6813 Y-6.1933
G01 X4.6273 Y-6.4202
G01 X4.6036 Y-6.5083
G01 X4.6001 Y-6.5186
G01 X4.5727 Y-6.5736
G01 X4.5682 Y-6.5811
G01 X4.5644 Y-6.5864
G01 X4.5555 Y-6.5960
G01 X4.5189 Y-6.6284
G01 X4.5103 Y-6.6349
G01 X4.5028 Y-6.6392
G01 X4.4929 Y-6.6435
G01 X4.4825 Y-6.6466
G01 X4.4371 Y-6.6568
G01 X4.4306 Y-6.6579
G01 X4.4220 Y-6.6585
G01 X4.4090 Y-6.6578
G01 X4.3643 Y-6.6507
G01 X4.3519 Y-6.6472
G01 X4.3402 Y-6.6418
G01 X4.3078 Y-6.6228
G01 X4.3025 Y-6.6193
G01 X4.2960 Y-6.6140
G01 X4.2899 Y-6.6081
G01 X4.2858 Y-6.6033
G01 X4.2618 Y-6.5715
G01 X4.2553 Y-6.5610
G01 X4.2510 Y-6.5515
G01 X4.2297 Y-6.4851
G01 X4.2279 Y-6.4764
G01 X4.2271 Y-6.4698
G01 X4.2192 Y-6.3681
G01 X4.2240 Y-6.2925
G01 X4.2246 Y-6.2861
G01 X4.2262 Y-6.2778
G01 X4.2382 Y-6.2286
G01 X4.2415 Y-6.2180
G01 X4.2451 Y-6.2099
G01 X4.2624 Y-6.1758
G01 X4.2680 Y-6.1664
G01 X4.2719 Y-6.1611
G01 X4.2763 Y-6.1561
G01 X4.3020 Y-6.1285
G01 X4.3083 Y-6.1224
G01 X4.3188 Y-6.1146
G01 X4.3492 Y-6.0963
G01 X4.3412 Y-6.0198
G01 X4.3336 Y-6.0238
G01 X4.2964 Y-6.0550
G01 X4.2644 Y-6.0955
G01 X4.2312 Y-6.1631
G01 X4.2086 Y-6.2514
G01 X4.1999 Y-6.3682
G00 Z0.5000
G00 X4.2280 Y-8.1632
G01 F90.00
G01 Z-0.0800
G01 F240.00
G01 X4.2274 Y-8.1522
G01 X4.2280 Y-8.1434
G01 X4.2377 Y-8.0732
G01 X4.2407 Y-8.0608
G01 X4.2446 Y-8.0510
G01 X4.2725 Y-7.9944
G01 X4.2790 Y-7.9838
G01 X4.2870 Y-7.9744
G01 X4.3322 Y-7.9299
G01 X4.3420 Y-7.9216
G01 X4.3530 Y-7.9148
G01 X4.4207 Y-7.8798
G01 X4.4281 Y-7.8766
G01 X4.4358 Y-7.8741
G01 X4.5372 Y-7.8491
G01 X4.5478 Y-7.8477
G01 X4.6863 Y-7.8385
G01 X4.6932 Y-7.8387
G01 X4.8375 Y-7.8485
G01 X4.8459 Y-7.8501
G01 X4.9438 Y-7.8740
G01 X4.9515 Y-7.8763
G01 X4.9626 Y-7.8810
G01 X5.0321 Y-7.9166
G01 X5.0411 Y-7.9222
G01 X5.0494 Y-7.9290
G01 X5.0958 Y-7.9739
G01 X5.1027 Y-7.9816
G01 X5.1076 Y-7.9882
G01 X5.1119 Y-7.9954
G01 X5.1403 Y-8.0523
G01 X5.1443 Y-8.0623
G01 X5.1469 Y-8.0727
G01 X5.1572 Y-8.1453
G01 X5.1578 Y-8.1541
G01 X5.1576 Y-8.1607
G01 X5.1551 Y-8.1834
G01 X5.1639 Y-8.1644
G01 X5.1772 Y-8.1120
G01 X5.1820 Y-8.0506
G01 X5.1738 Y-7.9699
G01 X5.1519 Y-7.9062
G01 X5.1170 Y-7.8528
G01 X5.0653 Y-7.8050
G01 X5.0028 Y-7.7680
G01 X4.9218 Y-7.7383
G01 X4.8182 Y-7.7181
G01 X4.6874 Y-7.7106
G01 X4.5578 Y-7.7179
G01 X4.4552 Y-7.7373
G01 X4.3752 Y-7.7658
G01 X4.3139 Y-7.8011
G01 X4.2630 Y-7.8468
G01 X4.2291 Y-7.8972
G01 X4.2080 Y-7.9567
G01 X4.2002 Y-8.0318
G01 X4.2077 Y-8.1160
G01 X4.2275 Y-8.1807
G01 X4.2307 Y-8.1862
G01 X4.2280 Y-8.1632
G00 Z0.5000
G00 X4.9892 Y-8.4166
G01 F90.00
G01 Z-0.0800
G01 F240.00
G01 X4.9417 Y-8.4387
G01 X4.9314 Y-8.4427
G01 X4.8324 Y-8.4661
G01 X4.8204 Y-8.4678
G01 X4.7014 Y-8.4757
G01 X4.6946 Y-8.4759
G01 X4.5704 Y-8.4678
G01 X4.5586 Y-8.4662
G01 X4.4585 Y-8.4429
G01 X4.4484 Y-8.4391
G01 X4.3993 Y-8.4167
G01 X4.3955 Y-8.4264
G01 X4.3904 Y-8.4356
G01 X4.3856 Y-8.4425
G01 X4.3787 Y-8.4504
G01 X4.3725 Y-8.4561
G01 X4.3640 Y-8.4623
G01 X4.3567 Y-8.4664
G01 X4.3471 Y-8.4706
G01 X4.3350 Y-8.4741
G01 X4.3225 Y-8.4757
G01 X4.2232 Y-8.4791
G01 X4.2232 Y-8.5929
G01 X4.3918 Y-8.5875
G01 X5.5927 Y-8.5875
G01 X5.5927 Y-8.4718
G01 X5.2583 Y-8.4718
G01 X5.0746 Y-8.4779
G01 X5.0640 Y-8.4776
G01 X5.0514 Y-8.4756
G01 X5.0393 Y-8.4717
G01 X5.0279 Y-8.4660
G01 X5.0174 Y-8.4587
G01 X5.0082 Y-8.4500
G01 X5.0003 Y-8.4400
G01 X4.9940 Y-8.4289
G01 X4.9914 Y-8.4230
G01 X4.9892 Y-8.4166
G00 Z0.5000
G00 X3.8129 Y-9.6383
G01 F90.00
G01 Z-0.0800
G01 F240.00
G01 X3.8129 Y-9.7540
G01 X5.1589 Y-9.7540
G01 X5.1589 Y-9.6383
G01 X4.8271 Y-9.6382
G01 X4.8208 Y-9.6378
G01 X4.8124 Y-9.6366
G01 X4.8041 Y-9.6345
G01 X4.7961 Y-9.6316
G01 X4.7866 Y-9.6269
G01 X4.7777 Y-9.6211
G01 X4.7696 Y-9.6142
G01 X4.7624 Y-9.6064
G01 X4.6725 Y-9.4773
G01 X4.6661 Y-9.4664
G01 X4.6613 Y-9.4547
G01 X4.6596 Y-9.4486
G01 X4.6580 Y-9.4403
G01 X4.6572 Y-9.4276
G01 X4.6579 Y-9.4171
G01 X4.6599 Y-9.4067
G01 X4.6631 Y-9.3967
G01 X4.6676 Y-9.3871
G01 X4.6732 Y-9.3782
G01 X4.6799 Y-9.3700
G01 X4.6859 Y-9.3641
G01 X4.6942 Y-9.3575
G01 X5.1589 Y-9.0830
G01 X5.1589 Y-8.9722
G01 X4.6128 Y-9.3109
G01 X4.6054 Y-9.3148
G01 X4.5957 Y-9.3186
G01 X4.5855 Y-9.3212
G01 X4.5752 Y-9.3225
G01 X4.5668 Y-9.3227
G01 X4.5585 Y-9.3221
G01 X4.5502 Y-9.3206
G01 X4.5421 Y-9.3184
G01 X4.5343 Y-9.3153
G01 X4.5269 Y-9.3116
G01 X4.5215 Y-9.3083
G01 X4.5148 Y-9.3033
G01 X4.2232 Y-9.0407
G01 X4.2232 Y-9.1172
G01 X4.6520 Y-9.4870
G01 X4.6596 Y-9.4943
G01 X4.6662 Y-9.5026
G01 X4.6707 Y-9.5097
G01 X4.6753 Y-9.5192
G01 X4.6788 Y-9.5292
G01 X4.6806 Y-9.5374
G01 X4.6818 Y-9.5479
G01 X4.6818 Y-9.5564
G01 X4.6810 Y-9.5648
G01 X4.6793 Y-9.5731
G01 X4.6769 Y-9.5812
G01 X4.6727 Y-9.5909
G01 X4.6674 Y-9.6000
G01 X4.6624 Y-9.6068
G01 X4.6567 Y-9.6130
G01 X4.6504 Y-9.6187
G01 X4.6436 Y-9.6237
G01 X4.6345 Y-9.6291
G01 X4.6248 Y-9.6332
G01 X4.6147 Y-9.6362
G01 X4.6042 Y-9.6378
G01 X4.5958 Y-9.6383
G01 X3.8129 Y-9.6383
G00 Z0.5000
G00 X4.2341 Y-10.5346
G01 F90.00
G01 Z-0.0800
G01 F240.00
G01 X4.2359 Y-10.5239
G01 X4.2391 Y-10.5136
G01 X4.2581 Y-10.4638
G01 X4.2619 Y-10.4560
G01 X4.2665 Y-10.4487
G01 X4.2972 Y-10.4073
G01 X4.3057 Y-10.3979
G01 X4.3121 Y-10.3924
G01 X4.3523 Y-10.3609
G01 X4.3575 Y-10.3571
G01 X4.3648 Y-10.3527
G01 X4.4346 Y-10.3217
G01 X4.4428 Y-10.3185
G01 X4.4513 Y-10.3163
G01 X4.5424 Y-10.2967
G01 X4.5554 Y-10.2949
G01 X4.6840 Y-10.2873
G01 X4.6926 Y-10.2875
G01 X4.8310 Y-10.2966
G01 X4.8394 Y-10.2976
G01 X4.8456 Y-10.2988
G01 X4.9438 Y-10.3226
G01 X4.9544 Y-10.3259
G01 X4.9625 Y-10.3295
G01 X5.0302 Y-10.3638
G01 X5.0376 Y-10.3681
G01 X5.0428 Y-10.3717
G01 X5.0509 Y-10.3786
G01 X5.0957 Y-10.4217
G01 X5.1040 Y-10.4310
G01 X5.1076 Y-10.4361
G01 X5.1119 Y-10.4432
G01 X5.1412 Y-10.5016
G01 X5.1449 Y-10.5117
G01 X5.1473 Y-10.5222
G01 X5.1572 Y-10.5920
G01 X5.1577 Y-10.5986
G01 X5.1576 Y-10.6074
G01 X5.1548 Y-10.6326
G01 X5.1638 Y-10.6137
G01 X5.1772 Y-10.5614
G01 X5.1820 Y-10.4994
G01 X5.1737 Y-10.4177
G01 X5.1515 Y-10.3537
G01 X5.1164 Y-10.3005
G01 X5.0644 Y-10.2531
G01 X5.0011 Y-10.2163
G01 X4.9197 Y-10.1868
G01 X4.8164 Y-10.1668
G01 X4.6869 Y-10.1594
G01 X4.5578 Y-10.1665
G01 X4.4553 Y-10.1857
G01 X4.3753 Y-10.2138
G01 X4.3138 Y-10.2486
G01 X4.2632 Y-10.2936
G01 X4.2294 Y-10.3437
G01 X4.2082 Y-10.4038
G01 X4.2002 Y-10.4804
G01 X4.2079 Y-10.5635
G01 X4.2282 Y-10.6276
G01 X4.2304 Y-10.6312
G01 X4.2278 Y-10.6074
G01 X4.2275 Y-10.5968
G01 X4.2341 Y-10.5346
G00 Z0.5000
G00 X4.9887 Y-10.8660
G01 F90.00
G01 Z-0.0800
G01 F240.00
G01 X4.9396 Y-10.8883
G01 X4.9296 Y-10.8922
G01 X4.8310 Y-10.9151
G01 X4.8193 Y-10.9167
G01 X4.6996 Y-10.9246
G01 X4.6906 Y-10.9245
G01 X4.5676 Y-10.9165
G01 X4.5577 Y-10.9153
G01 X4.4549 Y-10.8914
G01 X4.4466 Y-10.8884
G01 X4.4069 Y-10.8701
G01 X4.4017 Y-10.8810
G01 X4.3947 Y-10.8915
G01 X4.3877 Y-10.8994
G01 X4.3782 Y-10.9077
G01 X4.3693 Y-10.9134
G01 X4.3579 Y-10.9189
G01 X4.3458 Y-10.9225
G01 X4.3333 Y-10.9244
G01 X4.3248 Y-10.9246
G01 X4.1468 Y-10.9205
G01 X3.8129 Y-10.9205
G01 X3.8129 Y-11.0363
G01 X4.9923 Y-11.0363
G01 X5.1589 Y-11.0417
G01 X5.1589 Y-10.9270
G01 X5.0633 Y-10.9223
G01 X5.0508 Y-10.9205
G01 X5.0407 Y-10.9175
G01 X5.0328 Y-10.9143
G01 X5.0236 Y-10.9092
G01 X5.0150 Y-10.9030
G01 X5.0087 Y-10.8974
G01 X5.0017 Y-10.8895
G01 X4.9969 Y-10.8825
G01 X4.9927 Y-10.8752
G01 X4.9887 Y-10.8660
G00 Z0.5000
G00 X3.9653 Y-12.1864
G01 F90.00
G01 Z-0.0800
G01 F240.00
G01 X3.9653 Y-12.2196
G01 X4.1675 Y-12.2903
G01 X4.1734 Y-12.2928
G01 X4.1809 Y-12.2968
G01 X4.1880 Y-12.3014
G01 X4.1946 Y-12.3068
G01 X4.1992 Y-12.3112
G01 X4.2048 Y-12.3176
G01 X4.2119 Y-12.3282
G01 X4.2174 Y-12.3397
G01 X4.2211 Y-12.3519
G01 X4.2226 Y-12.3603
G01 X4.2232 Y-12.3688
G01 X4.2232 Y-12.4395
G01 X4.2457 Y-12.4395
G01 X4.2457 Y-12.3853
G01 X4.2462 Y-12.3768
G01 X4.2474 Y-12.3685
G01 X4.2489 Y-12.3623
G01 X4.2515 Y-12.3543
G01 X4.2549 Y-12.3465
G01 X4.2602 Y-12.3374
G01 X4.2653 Y-12.3306
G01 X4.2725 Y-12.3229
G01 X4.2805 Y-12.3161
G01 X4.2894 Y-12.3103
G01 X4.2969 Y-12.3065
G01 X4.3048 Y-12.3035
G01 X4.3150 Y-12.3008
G01 X4.3234 Y-12.2996
G01 X4.3318 Y-12.2992
G01 X4.9803 Y-12.2992
G01 X5.0568 Y-12.2918
G01 X5.1030 Y-12.2758
G01 X5.1324 Y-12.2546
G01 X5.1541 Y-12.2254
G01 X5.1696 Y-12.1833
G01 X5.1762 Y-12.1195
G01 X5.1680 Y-12.0018
G01 X5.1593 Y-11.9641
G01 X5.1493 Y-11.9641
G01 X5.1499 Y-11.9739
G01 X5.1496 Y-11.9821
G01 X5.1444 Y-12.0274
G01 X5.1424 Y-12.0374
G01 X5.1392 Y-12.0470
G01 X5.1246 Y-12.0818
G01 X5.1207 Y-12.0896
G01 X5.1159 Y-12.0969
G01 X5.1105 Y-12.1037
G01 X5.0885 Y-12.1284
G01 X5.0824 Y-12.1343
G01 X5.0742 Y-12.1407
G01 X5.0651 Y-12.1461
G01 X5.0163 Y-12.1699
G01 X5.0086 Y-12.1730
G01 X4.9987 Y-12.1757
G01 X4.9905 Y-12.1771
G01 X4.9165 Y-12.1858
G01 X4.9084 Y-12.1864
G01 X4.3297 Y-12.1864
G01 X4.3192 Y-12.1855
G01 X4.3068 Y-12.1827
G01 X4.2969 Y-12.1790
G01 X4.2858 Y-12.1731
G01 X4.2756 Y-12.1655
G01 X4.2680 Y-12.1581
G01 X4.2602 Y-12.1482
G01 X4.2549 Y-12.1390
G01 X4.2515 Y-12.1313
G01 X4.2489 Y-12.1233
G01 X4.2467 Y-12.1130
G01 X4.2458 Y-12.1045
G01 X4.2457 Y-11.9764
G01 X4.2232 Y-11.9764
G01 X4.2232 Y-12.1003
G01 X4.2228 Y-12.1088
G01 X4.2219 Y-12.1150
G01 X4.2201 Y-12.1233
G01 X4.2182 Y-12.1293
G01 X4.2149 Y-12.1371
G01 X4.2110 Y-12.1446
G01 X4.2063 Y-12.1516
G01 X4.2023 Y-12.1566
G01 X4.1980 Y-12.1612
G01 X4.1917 Y-12.1669
G01 X4.1814 Y-12.1742
G01 X4.1701 Y-12.1799
G01 X4.1580 Y-12.1838
G01 X4.1456 Y-12.1860
G01 X4.1371 Y-12.1864
G01 X3.9653 Y-12.1864
G00 Z0.5000
G00 X4.6521 Y-12.9468
G01 F90.00
G01 Z-0.0800
G01 F240.00
G01 X4.6569 Y-12.9370
G01 X4.6640 Y-12.9266
G01 X4.6725 Y-12.9173
G01 X4.6823 Y-12.9094
G01 X4.6931 Y-12.9029
G01 X4.7047 Y-12.8981
G01 X4.7149 Y-12.8955
G01 X4.7273 Y-12.8940
G01 X4.7940 Y-12.8940
G01 X4.8737 Y-12.9029
G01 X4.8823 Y-12.9048
G01 X4.8885 Y-12.9067
G01 X4.9561 Y-12.9305
G01 X4.9647 Y-12.9341
G01 X4.9661 Y-12.9254
G01 X4.9690 Y-12.9153
G01 X4.9722 Y-12.9075
G01 X4.9772 Y-12.8984
G01 X4.9833 Y-12.8898
G01 X4.9889 Y-12.8836
G01 X4.9967 Y-12.8766
G01 X5.0053 Y-12.8706
G01 X5.0164 Y-12.8649
G01 X5.0283 Y-12.8608
G01 X5.0927 Y-12.8486
G01 X5.1258 Y-12.8350
G01 X5.1455 Y-12.8205
G01 X5.1582 Y-12.8033
G01 X5.1687 Y-12.7734
G01 X5.1739 Y-12.7192
G01 X5.1722 Y-12.6747
G01 X5.1679 Y-12.6379
G01 X5.1660 Y-12.6287
G01 X5.1573 Y-12.6681
G01 X5.1538 Y-12.6779
G01 X5.1501 Y-12.6853
G01 X5.1458 Y-12.6924
G01 X5.1394 Y-12.7006
G01 X5.1090 Y-12.7323
G01 X5.1028 Y-12.7378
G01 X5.0979 Y-12.7415
G01 X5.0909 Y-12.7459
G01 X5.0836 Y-12.7496
G01 X5.0759 Y-12.7526
G01 X5.0265 Y-12.7690
G01 X5.0181 Y-12.7707
G01 X5.0117 Y-12.7714
G01 X4.9214 Y-12.7781
G01 X4.5169 Y-12.7781
G01 X4.4338 Y-12.7850
G01 X4.3717 Y-12.8025
G01 X4.3224 Y-12.8287
G01 X4.2815 Y-12.8644
G01 X4.2490 Y-12.9087
G01 X4.2237 Y-12.9649
G01 X4.2065 Y-13.0372
G01 X4.1999 Y-13.1301
G01 X4.2053 Y-13.2244
G01 X4.2198 Y-13.3006
G01 X4.2413 Y-13.3610
G01 X4.2681 Y-13.4085
G01 X4.3028 Y-13.4490
G01 X4.3437 Y-13.4803
G01 X4.3620 Y-13.4891
G01 X4.3675 Y-13.3733
G01 X4.3572 Y-13.3708
G01 X4.3512 Y-13.3688
G01 X4.3434 Y-13.3655
G01 X4.3378 Y-13.3625
G01 X4.2863 Y-13.3291
G01 X4.2782 Y-13.3226
G01 X4.2724 Y-13.3167
G01 X4.2671 Y-13.3102
G01 X4.2469 Y-13.2813
G01 X4.2405 Y-13.2706
G01 X4.2357 Y-13.2591
G01 X4.2225 Y-13.2190
G01 X4.2204 Y-13.2105
G01 X4.2191 Y-13.2018
G01 X4.2144 Y-13.1497
G01 X4.2140 Y-13.1416
G01 X4.2147 Y-13.1316
G01 X4.2216 Y-13.0747
G01 X4.2238 Y-13.0641
G01 X4.2274 Y-13.0539
G01 X4.2462 Y-13.0118
G01 X4.2502 Y-13.0040
G01 X4.2549 Y-12.9967
G01 X4.2603 Y-12.9900
G01 X4.2919 Y-12.9576
G01 X4.2996 Y-12.9506
G01 X4.3099 Y-12.9435
G01 X4.3511 Y-12.9220
G01 X4.3613 Y-12.9175
G01 X4.3698 Y-12.9149
G01 X4.4224 Y-12.9015
G01 X4.4310 Y-12.8998
G01 X4.5138 Y-12.8939
G01 X4.5748 Y-12.8939
G01 X4.5811 Y-12.8943
G01 X4.5895 Y-12.8955
G01 X4.5998 Y-12.8982
G01 X4.6096 Y-12.9022
G01 X4.6189 Y-12.9073
G01 X4.6275 Y-12.9136
G01 X4.6352 Y-12.9208
G01 X4.6420 Y-12.9290
G01 X4.6478 Y-12.9379
G01 X4.6521 Y-12.9468
G00 Z0.5000
G00 X5.1455 Y-13.1600
G01 F90.00
G01 Z-0.0800
G01 F240.00
G01 X5.1531 Y-13.2127
G01 X5.1537 Y-13.2212
G01 X5.1534 Y-13.2298
G01 X5.1523 Y-13.2382
G01 X5.1414 Y-13.2977
G01 X5.1375 Y-13.3100
G01 X5.1319 Y-13.3216
G01 X5.0972 Y-13.3720
G01 X5.0887 Y-13.3815
G01 X5.0807 Y-13.3884
G01 X5.0473 Y-13.4112
G01 X5.0377 Y-13.4166
G01 X5.0275 Y-13.4206
G01 X4.9891 Y-13.4332
G01 X4.9807 Y-13.4355
G01 X4.9700 Y-13.4371
G01 X4.9182 Y-13.4418
G01 X4.9099 Y-13.4421
G01 X4.9015 Y-13.4417
G01 X4.8413 Y-13.4354
G01 X4.8310 Y-13.4334
G01 X4.8230 Y-13.4310
G01 X4.7800 Y-13.4143
G01 X4.7702 Y-13.4098
G01 X4.7629 Y-13.4054
G01 X4.7577 Y-13.4016
G01 X4.7238 Y-13.3734
G01 X4.7160 Y-13.3661
G01 X4.7092 Y-13.3578
G01 X4.6826 Y-13.3152
G01 X4.6786 Y-13.3080
G01 X4.6739 Y-13.2965
G01 X4.6667 Y-13.2703
G01 X4.6698 Y-13.3147
G01 X4.6860 Y-13.3897
G01 X4.7088 Y-13.4466
G01 X4.7364 Y-13.4892
G01 X4.7712 Y-13.5233
G01 X4.8123 Y-13.5475
G01 X4.8646 Y-13.5636
G01 X4.9333 Y-13.5699
G01 X4.9975 Y-13.5648
G01 X5.0475 Y-13.5514
G01 X5.0866 Y-13.5317
G01 X5.1185 Y-13.5056
G01 X5.1442 Y-13.4728
G01 X5.1638 Y-13.4324
G01 X5.1770 Y-13.3810
G01 X5.1820 Y-13.3158
G01 X5.1746 Y-13.2381
G01 X5.1543 Y-13.1748
G01 X5.1455 Y-13.1600
G00 Z0.5000
G00 X4.2341 Y-14.2657
G01 F90.00
G01 Z-0.0800
G01 F240.00
G01 X4.2359 Y-14.2550
G01 X4.2391 Y-14.2446
G01 X4.2581 Y-14.1948
G01 X4.2619 Y-14.1871
G01 X4.2665 Y-14.1798
G01 X4.2972 Y-14.1383
G01 X4.3057 Y-14.1290
G01 X4.3121 Y-14.1234
G01 X4.3523 Y-14.0919
G01 X4.3593 Y-14.0870
G01 X4.3648 Y-14.0838
G01 X4.4346 Y-14.0527
G01 X4.4428 Y-14.0496
G01 X4.4513 Y-14.0473
G01 X4.5424 Y-14.0277
G01 X4.5554 Y-14.0260
G01 X4.6840 Y-14.0184
G01 X4.6926 Y-14.0185
G01 X4.8310 Y-14.0276
G01 X4.8394 Y-14.0286
G01 X4.8456 Y-14.0299
G01 X4.9438 Y-14.0536
G01 X4.9544 Y-14.0569
G01 X4.9625 Y-14.0606
G01 X5.0302 Y-14.0949
G01 X5.0376 Y-14.0991
G01 X5.0428 Y-14.1028
G01 X5.0509 Y-14.1097
G01 X5.0957 Y-14.1528
G01 X5.1040 Y-14.1621
G01 X5.1087 Y-14.1689
G01 X5.1119 Y-14.1742
G01 X5.1412 Y-14.2327
G01 X5.1449 Y-14.2428
G01 X5.1473 Y-14.2533
G01 X5.1572 Y-14.3230
G01 X5.1577 Y-14.3296
G01 X5.1576 Y-14.3384
G01 X5.1548 Y-14.3637
G01 X5.1638 Y-14.3447
G01 X5.1772 Y-14.2924
G01 X5.1820 Y-14.2305
G01 X5.1737 Y-14.1487
G01 X5.1515 Y-14.0848
G01 X5.1164 Y-14.0316
G01 X5.0644 Y-13.9842
G01 X5.0011 Y-13.9473
G01 X4.9197 Y-13.9178
G01 X4.8164 Y-13.8979
G01 X4.6869 Y-13.8904
G01 X4.5578 Y-13.8976
G01 X4.4553 Y-13.9167
G01 X4.3753 Y-13.9449
G01 X4.3138 Y-13.9797
G01 X4.2632 Y-14.0246
G01 X4.2294 Y-14.0747
G01 X4.2082 Y-14.1348
G01 X4.2002 Y-14.2114
G01 X4.2079 Y-14.2946
G01 X4.2282 Y-14.3586
G01 X4.2304 Y-14.3622
G01 X4.2278 Y-14.3385
G01 X4.2275 Y-14.3278
G01 X4.2341 Y-14.2657
G00 Z0.5000
G00 X4.9887 Y-14.5970
G01 F90.00
G01 Z-0.0800
G01 F240.00
G01 X4.9396 Y-14.6194
G01 X4.9296 Y-14.6232
G01 X4.8310 Y-14.6462
G01 X4.8193 Y-14.6478
G01 X4.6996 Y-14.6556
G01 X4.6906 Y-14.6555
G01 X4.5676 Y-14.6475
G01 X4.5577 Y-14.6463
G01 X4.4549 Y-14.6225
G01 X4.4466 Y-14.6194
G01 X4.4069 Y-14.6011
G01 X4.4017 Y-14.6120
G01 X4.3947 Y-14.6225
G01 X4.3862 Y-14.6319
G01 X4.3781 Y-14.6387
G01 X4.3675 Y-14.6455
G01 X4.3559 Y-14.6506
G01 X4.3458 Y-14.6536
G01 X4.3333 Y-14.6555
G01 X4.3248 Y-14.6557
G01 X4.1468 Y-14.6516
G01 X3.8129 Y-14.6516
G01 X3.8129 Y-14.7674
G01 X4.9923 Y-14.7674
G01 X5.1589 Y-14.7727
G01 X5.1589 Y-14.6580
G01 X5.0633 Y-14.6534
G01 X5.0508 Y-14.6515
G01 X5.0407 Y-14.6486
G01 X5.0309 Y-14.6444
G01 X5.0236 Y-14.6403
G01 X5.0167 Y-14.6354
G01 X5.0087 Y-14.6284
G01 X5.0031 Y-14.6222
G01 X4.9969 Y-14.6136
G01 X4.9927 Y-14.6062
G01 X4.9887 Y-14.5970
G00 Z0.5000
G00 X1.6800 Y-14.3866
G01 F90.00
G01 Z-0.0800
G01 F240.00
G01 X1.6894 Y-14.4972
G01 X1.7144 Y-14.5850
G01 X1.7529 Y-14.6560
G01 X1.8057 Y-14.7155
G01 X1.8710 Y-14.7628
G01 X1.9517 Y-14.7989
G01 X2.0521 Y-14.8228
G01 X2.1772 Y-14.8317
G01 X2.2989 Y-14.8230
G01 X2.3967 Y-14.7994
G01 X2.4753 Y-14.7637
G01 X2.5392 Y-14.7169
G01 X2.5907 Y-14.6581
G01 X2.6283 Y-14.5878
G01 X2.6529 Y-14.5007
G01 X2.6621 Y-14.3905
G01 X2.6572 Y-14.3144
G01 X2.6433 Y-14.2463
G01 X2.6211 Y-14.1854
G01 X2.5902 Y-14.1298
G01 X2.5534 Y-14.0838
G01 X2.5098 Y-14.0454
G01 X2.4600 Y-14.0148
G01 X2.4384 Y-14.0061
G01 X2.4333 Y-14.1150
G01 X2.4407 Y-14.1174
G01 X2.4463 Y-14.1197
G01 X2.4971 Y-14.1429
G01 X2.5066 Y-14.1480
G01 X2.5154 Y-14.1542
G01 X2.5552 Y-14.1864
G01 X2.5612 Y-14.1920
G01 X2.5678 Y-14.1997
G01 X2.5979 Y-14.2408
G01 X2.6035 Y-14.2495
G01 X2.6079 Y-14.2588
G01 X2.6261 Y-14.3059
G01 X2.6293 Y-14.3163
G01 X2.6310 Y-14.3249
G01 X2.6373 Y-14.3796
G01 X2.6378 Y-14.3884
G01 X2.6376 Y-14.3950
G01 X2.6369 Y-14.4015
G01 X2.6277 Y-14.4662
G01 X2.6249 Y-14.4789
G01 X2.6220 Y-14.4871
G01 X2.6192 Y-14.4930
G01 X2.5918 Y-14.5470
G01 X2.5864 Y-14.5558
G01 X2.5812 Y-14.5624
G01 X2.5755 Y-14.5684
G01 X2.5292 Y-14.6126
G01 X2.5209 Y-14.6192
G01 X2.5100 Y-14.6258
G01 X2.4423 Y-14.6599
G01 X2.4342 Y-14.6635
G01 X2.4236 Y-14.6668
G01 X2.3251 Y-14.6904
G01 X2.3169 Y-14.6920
G01 X2.3106 Y-14.6926
G01 X2.1715 Y-14.7017
G01 X2.1648 Y-14.7019
G01 X2.0192 Y-14.6922
G01 X2.0109 Y-14.6906
G01 X1.9132 Y-14.6669
G01 X1.9048 Y-14.6641
G01 X1.8967 Y-14.6605
G01 X1.8308 Y-14.6271
G01 X1.8199 Y-14.6205
G01 X1.8101 Y-14.6123
G01 X1.7665 Y-14.5704
G01 X1.7608 Y-14.5643
G01 X1.7557 Y-14.5578
G01 X1.7503 Y-14.5489
G01 X1.7235 Y-14.4958
G01 X1.7186 Y-14.4839
G01 X1.7159 Y-14.4734
G01 X1.7062 Y-14.4055
G01 X1.7053 Y-14.3948
G01 X1.7058 Y-14.3841
G01 X1.7121 Y-14.3261
G01 X1.7140 Y-14.3152
G01 X1.7173 Y-14.3046
G01 X1.7347 Y-14.2591
G01 X1.7400 Y-14.2477
G01 X1.7470 Y-14.2372
G01 X1.7748 Y-14.2013
G01 X1.7802 Y-14.1950
G01 X1.7861 Y-14.1893
G01 X1.7909 Y-14.1854
G01 X1.8277 Y-14.1574
G01 X1.8347 Y-14.1527
G01 X1.8441 Y-14.1477
G01 X1.8910 Y-14.1263
G01 X1.8857 Y-14.0190
G01 X1.8533 Y-14.0344
G01 X1.8039 Y-14.0705
G01 X1.7611 Y-14.1164
G01 X1.7272 Y-14.1695
G01 X1.7020 Y-14.2306
G01 X1.6858 Y-14.3023
G01 X1.6800 Y-14.3866
G00 Z0.5000
G00 X1.2929 Y-13.4851
G01 F90.00
G01 Z-0.0800
G01 F240.00
G01 X1.2929 Y-13.6009
G01 X2.6389 Y-13.6009
G01 X2.6389 Y-13.4851
G01 X2.1256 Y-13.4850
G01 X2.0312 Y-13.4770
G01 X2.0208 Y-13.4755
G01 X1.9368 Y-13.4516
G01 X1.9269 Y-13.4478
G01 X1.9146 Y-13.4413
G01 X1.9096 Y-13.4512
G01 X1.9024 Y-13.4615
G01 X1.8937 Y-13.4707
G01 X1.8856 Y-13.4773
G01 X1.8767 Y-13.4829
G01 X1.8652 Y-13.4881
G01 X1.8531 Y-13.4915
G01 X1.8407 Y-13.4932
G01 X1.8323 Y-13.4933
G01 X1.6172 Y-13.4851
G01 X1.2929 Y-13.4851
G00 Z0.5000
G00 X1.7307 Y-13.2178
G01 F90.00
G01 Z-0.0800
G01 F240.00
G01 X1.7245 Y-13.1773
G01 X1.7239 Y-13.1707
G01 X1.7238 Y-13.1641
G01 X1.7245 Y-13.1554
G01 X1.7324 Y-13.0947
G01 X1.7342 Y-13.0862
G01 X1.7376 Y-13.0759
G01 X1.7626 Y-13.0217
G01 X1.7682 Y-13.0124
G01 X1.7749 Y-13.0039
G01 X1.8116 Y-12.9654
G01 X1.8196 Y-12.9580
G01 X1.8303 Y-12.9505
G01 X1.8879 Y-12.9186
G01 X1.8937 Y-12.9160
G01 X1.9018 Y-12.9132
G01 X1.9777 Y-12.8930
G01 X1.9856 Y-12.8913
G01 X1.9936 Y-12.8903
G01 X2.0985 Y-12.8827
G01 X2.6389 Y-12.8826
G01 X2.6389 Y-12.7678
G01 X2.0236 Y-12.7678
G01 X1.9270 Y-12.7741
G01 X1.8549 Y-12.7901
G01 X1.8004 Y-12.8130
G01 X1.7594 Y-12.8413
G01 X1.7263 Y-12.8774
G01 X1.7023 Y-12.9206
G01 X1.6862 Y-12.9755
G01 X1.6801 Y-13.0466
G01 X1.6855 Y-13.1108
G01 X1.7003 Y-13.1640
G01 X1.7235 Y-13.2091
G01 X1.7307 Y-13.2178
G00 Z0.5000
G00 X1.3458 Y-11.9782
G01 F90.00
G01 Z-0.0800
G01 F240.00
G01 X1.3523 Y-12.0725
G01 X1.3698 Y-12.1504
G01 X1.3966 Y-12.2152
G01 X1.4322 Y-12.2698
G01 X1.4772 Y-12.3162
G01 X1.5290 Y-12.3514
G01 X1.5766 Y-12.3712
G01 X1.5846 Y-12.2583
G01 X1.5351 Y-12.2352
G01 X1.5260 Y-12.2299
G01 X1.5175 Y-12.2235
G01 X1.4818 Y-12.1929
G01 X1.4729 Y-12.1841
G01 X1.4665 Y-12.1757
G01 X1.4400 Y-12.1366
G01 X1.4348 Y-12.1279
G01 X1.4300 Y-12.1167
G01 X1.4118 Y-12.0636
G01 X1.4095 Y-12.0518
G01 X1.4034 Y-11.9922
G01 X1.4030 Y-11.9835
G01 X1.4034 Y-11.9748
G01 X1.4097 Y-11.9132
G01 X1.4115 Y-11.9026
G01 X1.4145 Y-11.8924
G01 X1.4326 Y-11.8432
G01 X1.4360 Y-11.8356
G01 X1.4413 Y-11.8265
G01 X1.4709 Y-11.7869
G01 X1.4792 Y-11.7774
G01 X1.4889 Y-11.7691
G01 X1.5273 Y-11.7410
G01 X1.5328 Y-11.7374
G01 X1.5386 Y-11.7343
G01 X1.5467 Y-11.7309
G01 X1.5944 Y-11.7133
G01 X1.6026 Y-11.7110
G01 X1.6131 Y-11.7092
G01 X1.6705 Y-11.7032
G01 X1.6814 Y-11.7027
G01 X1.6901 Y-11.7034
G01 X1.7499 Y-11.7108
G01 X1.7582 Y-11.7123
G01 X1.7643 Y-11.7139
G01 X1.7741 Y-11.7175
G01 X1.8214 Y-11.7384
G01 X1.8326 Y-11.7444
G01 X1.8378 Y-11.7480
G01 X1.8444 Y-11.7533
G01 X1.8822 Y-11.7875
G01 X1.8892 Y-11.7947
G01 X1.8740 Y-11.7411
G01 X1.8438 Y-11.6827
G01 X1.8077 Y-11.6405
G01 X1.7637 Y-11.6098
G01 X1.7111 Y-11.5906
G01 X1.6432 Y-11.5834
G01 X1.5734 Y-11.5901
G01 X1.5174 Y-11.6083
G01 X1.4706 Y-11.6370
G01 X1.4289 Y-11.6788
G01 X1.3959 Y-11.7299
G01 X1.3699 Y-11.7945
G01 X1.3524 Y-11.8761
G01 X1.3458 Y-11.9782
G00 Z0.5000
G00 X1.9353 Y-11.8777
G01 F90.00
G01 Z-0.0800
G01 F240.00
G01 X1.9511 Y-11.9325
G01 X1.9535 Y-11.9431
G01 X1.9609 Y-12.0309
G01 X1.9611 Y-12.0460
G01 X2.0216 Y-12.0460
G01 X2.0218 Y-12.0253
G01 X2.0289 Y-11.9308
G01 X2.0307 Y-11.9210
G01 X2.0448 Y-11.8679
G01 X2.0385 Y-11.8733
G01 X2.0333 Y-11.8770
G01 X2.0261 Y-11.8813
G01 X2.0204 Y-11.8840
G01 X2.0126 Y-11.8870
G01 X2.0066 Y-11.8888
G01 X1.9942 Y-11.8909
G01 X1.9879 Y-11.8913
G01 X1.9774 Y-11.8912
G01 X1.9712 Y-11.8907
G01 X1.9629 Y-11.8892
G01 X1.9568 Y-11.8876
G01 X1.9488 Y-11.8848
G01 X1.9412 Y-11.8812
G01 X1.9353 Y-11.8777
G00 Z0.5000
G00 X2.0750 Y-11.7989
G01 F90.00
G01 Z-0.0800
G01 F240.00
G01 X2.0865 Y-11.7782
G01 X2.0901 Y-11.7731
G01 X2.0954 Y-11.7666
G01 X2.1386 Y-11.7238
G01 X2.1464 Y-11.7172
G01 X2.1550 Y-11.7116
G01 X2.2105 Y-11.6847
G01 X2.2222 Y-11.6804
G01 X2.2344 Y-11.6779
G01 X2.2992 Y-11.6692
G01 X2.3075 Y-11.6689
G01 X2.3136 Y-11.6692
G01 X2.3857 Y-11.6768
G01 X2.3958 Y-11.6788
G01 X2.4055 Y-11.6819
G01 X2.4584 Y-11.7022
G01 X2.4658 Y-11.7057
G01 X2.4712 Y-11.7088
G01 X2.4796 Y-11.7148
G01 X2.5192 Y-11.7468
G01 X2.5241 Y-11.7512
G01 X2.5299 Y-11.7577
G01 X2.5351 Y-11.7647
G01 X2.5626 Y-11.8058
G01 X2.5687 Y-11.8167
G01 X2.5726 Y-11.8263
G01 X2.5901 Y-11.8789
G01 X2.5929 Y-11.8894
G01 X2.5942 Y-11.8980
G01 X2.6005 Y-11.9652
G01 X2.6009 Y-11.9741
G01 X2.6003 Y-11.9830
G01 X2.5903 Y-12.0692
G01 X2.5882 Y-12.0777
G01 X2.5853 Y-12.0859
G01 X2.5605 Y-12.1458
G01 X2.5558 Y-12.1555
G01 X2.5524 Y-12.1610
G01 X2.5473 Y-12.1679
G01 X2.5052 Y-12.2162
G01 X2.4974 Y-12.2237
G01 X2.4888 Y-12.2301
G01 X2.4293 Y-12.2649
G01 X2.4235 Y-12.2680
G01 X2.4154 Y-12.2714
G01 X2.4009 Y-12.2756
G01 X2.4116 Y-12.3986
G01 X2.4738 Y-12.3731
G01 X2.5281 Y-12.3365
G01 X2.5737 Y-12.2889
G01 X2.6094 Y-12.2323
G01 X2.6371 Y-12.1629
G01 X2.6554 Y-12.0773
G01 X2.6622 Y-11.9723
G01 X2.6549 Y-11.8601
G01 X2.6356 Y-11.7716
G01 X2.6073 Y-11.7026
G01 X2.5713 Y-11.6488
G01 X2.5257 Y-11.6051
G01 X2.4724 Y-11.5740
G01 X2.4069 Y-11.5539
G01 X2.3251 Y-11.5465
G01 X2.2560 Y-11.5545
G01 X2.2023 Y-11.5758
G01 X2.1562 Y-11.6111
G01 X2.1194 Y-11.6588
G01 X2.0905 Y-11.7246
G01 X2.0750 Y-11.7989
G00 Z0.5000
G00 X1.3458 Y-10.8077
G01 F90.00
G01 Z-0.0800
G01 F240.00
G01 X1.3524 Y-10.9036
G01 X1.3700 Y-10.9808
G01 X1.3966 Y-11.0430
G01 X1.4312 Y-11.0939
G01 X1.4751 Y-11.1364
G01 X1.5291 Y-11.1706
G01 X1.5908 Y-11.1946
G01 X1.5974 Y-11.0772
G01 X1.5885 Y-11.0739
G01 X1.5400 Y-11.0526
G01 X1.5320 Y-11.0486
G01 X1.5228 Y-11.0425
G01 X1.4868 Y-11.0154
G01 X1.4785 Y-11.0082
G01 X1.4740 Y-11.0034
G01 X1.4699 Y-10.9983
G01 X1.4432 Y-10.9629
G01 X1.4375 Y-10.9542
G01 X1.4320 Y-10.9429
G01 X1.4144 Y-10.8950
G01 X1.4113 Y-10.8847
G01 X1.4098 Y-10.8763
G01 X1.4034 Y-10.8146
G01 X1.4030 Y-10.8062
G01 X1.4036 Y-10.7957
G01 X1.4120 Y-10.7238
G01 X1.4140 Y-10.7132
G01 X1.4180 Y-10.7009
G01 X1.4416 Y-10.6480
G01 X1.4453 Y-10.6405
G01 X1.4498 Y-10.6334
G01 X1.4578 Y-10.6237
G01 X1.4962 Y-10.5851
G01 X1.5059 Y-10.5771
G01 X1.5167 Y-10.5706
G01 X1.5751 Y-10.5444
G01 X1.5855 Y-10.5411
G01 X1.5962 Y-10.5391
G01 X1.6675 Y-10.5307
G01 X1.6780 Y-10.5301
G01 X1.6884 Y-10.5308
G01 X1.7378 Y-10.5370
G01 X1.7458 Y-10.5384
G01 X1.7536 Y-10.5405
G01 X1.8092 Y-10.5614
G01 X1.8173 Y-10.5649
G01 X1.8249 Y-10.5692
G01 X1.8823 Y-10.6056
G01 X1.8924 Y-10.6135
G01 X1.9760 Y-10.6896
G01 X1.9814 Y-10.6952
G01 X2.1021 Y-10.8330
G01 X2.2296 Y-10.9793
G01 X2.3398 Y-11.0864
G01 X2.4523 Y-11.1730
G01 X2.5475 Y-11.2259
G01 X2.6389 Y-11.2259
G01 X2.6389 Y-10.3878
G01 X2.5744 Y-10.3878
G01 X2.5744 Y-10.9717
G01 X2.5740 Y-10.9801
G01 X2.5719 Y-10.9926
G01 X2.5679 Y-11.0046
G01 X2.5622 Y-11.0159
G01 X2.5550 Y-11.0262
G01 X2.5463 Y-11.0354
G01 X2.5364 Y-11.0432
G01 X2.5273 Y-11.0485
G01 X2.5156 Y-11.0534
G01 X2.5075 Y-11.0557
G01 X2.5013 Y-11.0569
G01 X2.4887 Y-11.0578
G01 X2.4803 Y-11.0575
G01 X2.4740 Y-11.0566
G01 X2.4678 Y-11.0554
G01 X2.4597 Y-11.0530
G01 X2.4519 Y-11.0498
G01 X2.4463 Y-11.0469
G01 X2.3810 Y-11.0104
G01 X2.3708 Y-11.0033
G01 X2.3077 Y-10.9499
G01 X2.2989 Y-10.9413
G01 X2.1816 Y-10.8089
G01 X2.0633 Y-10.6604
G01 X2.0037 Y-10.5910
G01 X1.9431 Y-10.5314
G01 X1.8791 Y-10.4811
G01 X1.8128 Y-10.4429
G01 X1.7443 Y-10.4190
G01 X1.6647 Y-10.4107
G01 X1.5872 Y-10.4177
G01 X1.5254 Y-10.4364
G01 X1.4751 Y-10.4651
G01 X1.4319 Y-10.5056
G01 X1.3980 Y-10.5553
G01 X1.3711 Y-10.6193
G01 X1.3528 Y-10.7021
G01 X1.3458 Y-10.8077
G00 Z0.5000
G00 X1.7032 Y-9.2989
G01 F90.00
G01 Z-0.0800
G01 F240.00
G01 X2.3701 Y-9.5148
G01 X2.5160 Y-9.5565
G01 X2.5240 Y-9.5592
G01 X2.5355 Y-9.5647
G01 X2.5460 Y-9.5719
G01 X2.5553 Y-9.5805
G01 X2.5633 Y-9.5904
G01 X2.5697 Y-9.6014
G01 X2.5744 Y-9.6132
G01 X2.5774 Y-9.6256
G01 X2.5785 Y-9.6382
G01 X2.5777 Y-9.6509
G01 X2.5750 Y-9.6634
G01 X2.5722 Y-9.6714
G01 X2.5696 Y-9.6772
G01 X2.5632 Y-9.6882
G01 X2.5552 Y-9.6981
G01 X2.5459 Y-9.7067
G01 X2.5354 Y-9.7138
G01 X2.5298 Y-9.7168
G01 X2.5219 Y-9.7201
G01 X2.2611 Y-9.7945
G01 X1.7032 Y-9.9690
G01 X1.7032 Y-10.0877
G01 X2.6389 Y-9.7528
G01 X2.6389 Y-9.5292
G01 X1.7032 Y-9.1839
G01 X1.7032 Y-9.2989
G00 Z0.5000
G00 X1.3459 Y-8.4645
G01 F90.00
G01 Z-0.0800
G01 F240.00
G01 X1.3543 Y-8.5657
G01 X1.3760 Y-8.6425
G01 X1.4081 Y-8.7009
G01 X1.4531 Y-8.7500
G01 X1.5174 Y-8.7940
G01 X1.6077 Y-8.8326
G01 X1.7074 Y-8.8582
G01 X1.8379 Y-8.8759
G01 X2.0037 Y-8.8825
G01 X2.1791 Y-8.8743
G01 X2.3167 Y-8.8522
G01 X2.4225 Y-8.8200
G01 X2.5020 Y-8.7807
G01 X2.5609 Y-8.7360
G01 X2.6039 Y-8.6859
G01 X2.6348 Y-8.6281
G01 X2.6547 Y-8.5585
G01 X2.6620 Y-8.4726
G01 X2.6551 Y-8.3887
G01 X2.6362 Y-8.3199
G01 X2.6069 Y-8.2624
G01 X2.5663 Y-8.2126
G01 X2.5117 Y-8.1683
G01 X2.4304 Y-8.1251
G01 X2.3229 Y-8.0900
G01 X2.1828 Y-8.0659
G01 X2.0039 Y-8.0569
G01 X1.8205 Y-8.0656
G01 X1.6785 Y-8.0887
G01 X1.5712 Y-8.1220
G01 X1.4921 Y-8.1624
G01 X1.4398 Y-8.2037
G01 X1.4006 Y-8.2514
G01 X1.3718 Y-8.3080
G01 X1.3530 Y-8.3777
G01 X1.3459 Y-8.4645
G00 Z0.5000
G00 X1.4053 Y-8.4045
G01 F90.00
G01 Z-0.0800
G01 F240.00
G01 X1.3994 Y-8.4570
G01 X1.3989 Y-8.4675
G01 X1.3993 Y-8.4759
G01 X1.4054 Y-8.5319
G01 X1.4066 Y-8.5400
G01 X1.4081 Y-8.5459
G01 X1.4107 Y-8.5537
G01 X1.4273 Y-8.5966
G01 X1.4329 Y-8.6084
G01 X1.4389 Y-8.6175
G01 X1.4665 Y-8.6520
G01 X1.4719 Y-8.6582
G01 X1.4764 Y-8.6625
G01 X1.4845 Y-8.6689
G01 X1.5197 Y-8.6936
G01 X1.5284 Y-8.6989
G01 X1.5358 Y-8.7024
G01 X1.5873 Y-8.7239
G01 X1.5967 Y-8.7273
G01 X1.6794 Y-8.7468
G01 X1.8100 Y-8.7613
G01 X2.0041 Y-8.7669
G01 X2.1966 Y-8.7610
G01 X2.3281 Y-8.7457
G01 X2.4076 Y-8.7266
G01 X2.4163 Y-8.7240
G01 X2.4720 Y-8.7009
G01 X2.4793 Y-8.6975
G01 X2.4878 Y-8.6923
G01 X2.5227 Y-8.6682
G01 X2.5307 Y-8.6619
G01 X2.5380 Y-8.6547
G01 X2.5680 Y-8.6178
G01 X2.5741 Y-8.6087
G01 X2.5781 Y-8.6009
G01 X2.5962 Y-8.5557
G01 X2.5989 Y-8.5478
G01 X2.6014 Y-8.5355
G01 X2.6080 Y-8.4759
G01 X2.6081 Y-8.4694
G01 X2.6076 Y-8.4608
G01 X2.6014 Y-8.4084
G01 X2.6000 Y-8.3999
G01 X2.5963 Y-8.3875
G01 X2.5776 Y-8.3423
G01 X2.5719 Y-8.3315
G01 X2.5647 Y-8.3216
G01 X2.5343 Y-8.2855
G01 X2.5281 Y-8.2795
G01 X2.5213 Y-8.2742
G01 X2.4830 Y-8.2481
G01 X2.4736 Y-8.2426
G01 X2.4149 Y-8.2179
G01 X2.4065 Y-8.2149
G01 X2.3224 Y-8.1947
G01 X2.1914 Y-8.1794
G01 X2.0041 Y-8.1735
G01 X1.8098 Y-8.1793
G01 X1.6787 Y-8.1942
G01 X1.5952 Y-8.2140
G01 X1.5867 Y-8.2170
G01 X1.5353 Y-8.2382
G01 X1.5272 Y-8.2421
G01 X1.5195 Y-8.2467
G01 X1.4830 Y-8.2717
G01 X1.4767 Y-8.2767
G01 X1.4723 Y-8.2809
G01 X1.4668 Y-8.2869
G01 X1.4394 Y-8.3202
G01 X1.4347 Y-8.3268
G01 X1.4316 Y-8.3321
G01 X1.4273 Y-8.3413
G01 X1.4102 Y-8.3840
G01 X1.4071 Y-8.3941
G01 X1.4053 Y-8.4045
G00 Z0.5000
G00 X1.3459 Y-7.2980
G01 F90.00
G01 Z-0.0800
G01 F240.00
G01 X1.3543 Y-7.3992
G01 X1.3760 Y-7.4760
G01 X1.4081 Y-7.5344
G01 X1.4531 Y-7.5834
G01 X1.5174 Y-7.6275
G01 X1.6077 Y-7.6661
G01 X1.7074 Y-7.6917
G01 X1.8379 Y-7.7094
G01 X2.0037 Y-7.7160
G01 X2.1791 Y-7.7078
G01 X2.3167 Y-7.6857
G01 X2.4225 Y-7.6535
G01 X2.5020 Y-7.6142
G01 X2.5609 Y-7.5695
G01 X2.6039 Y-7.5194
G01 X2.6348 Y-7.4616
G01 X2.6547 Y-7.3920
G01 X2.6620 Y-7.3061
G01 X2.6551 Y-7.2222
G01 X2.6362 Y-7.1534
G01 X2.6069 Y-7.0959
G01 X2.5663 Y-7.0461
G01 X2.5117 Y-7.0018
G01 X2.4304 Y-6.9586
G01 X2.3229 Y-6.9235
G01 X2.1828 Y-6.8994
G01 X2.0039 Y-6.8904
G01 X1.8205 Y-6.8991
G01 X1.6785 Y-6.9222
G01 X1.5712 Y-6.9555
G01 X1.4921 Y-6.9959
G01 X1.4398 Y-7.0372
G01 X1.4006 Y-7.0849
G01 X1.3718 Y-7.1415
G01 X1.3530 Y-7.2112
G01 X1.3459 Y-7.2980
G00 Z0.5000
G00 X1.4053 Y-7.2380
G01 F90.00
G01 Z-0.0800
G01 F240.00
G01 X1.3994 Y-7.2905
G01 X1.3989 Y-7.3010
G01 X1.3993 Y-7.3094
G01 X1.4054 Y-7.3654
G01 X1.4066 Y-7.3734
G01 X1.4081 Y-7.3794
G01 X1.4107 Y-7.3872
G01 X1.4273 Y-7.4301
G01 X1.4329 Y-7.4419
G01 X1.4389 Y-7.4510
G01 X1.4665 Y-7.4855
G01 X1.4719 Y-7.4917
G01 X1.4764 Y-7.4960
G01 X1.4845 Y-7.5024
G01 X1.5197 Y-7.5271
G01 X1.5284 Y-7.5324
G01 X1.5358 Y-7.5359
G01 X1.5873 Y-7.5574
G01 X1.5967 Y-7.5608
G01 X1.6794 Y-7.5803
G01 X1.8100 Y-7.5948
G01 X2.0041 Y-7.6004
G01 X2.1966 Y-7.5945
G01 X2.3281 Y-7.5792
G01 X2.4076 Y-7.5601
G01 X2.4163 Y-7.5575
G01 X2.4720 Y-7.5344
G01 X2.4793 Y-7.5310
G01 X2.4878 Y-7.5258
G01 X2.5227 Y-7.5017
G01 X2.5307 Y-7.4954
G01 X2.5380 Y-7.4882
G01 X2.5680 Y-7.4513
G01 X2.5730 Y-7.4441
G01 X2.5781 Y-7.4344
G01 X2.5962 Y-7.3892
G01 X2.5989 Y-7.3813
G01 X2.6014 Y-7.3690
G01 X2.6080 Y-7.3094
G01 X2.6081 Y-7.3029
G01 X2.6076 Y-7.2943
G01 X2.6014 Y-7.2419
G01 X2.6000 Y-7.2334
G01 X2.5963 Y-7.2210
G01 X2.5776 Y-7.1758
G01 X2.5719 Y-7.1650
G01 X2.5647 Y-7.1551
G01 X2.5343 Y-7.1190
G01 X2.5281 Y-7.1130
G01 X2.5213 Y-7.1077
G01 X2.4830 Y-7.0816
G01 X2.4736 Y-7.0761
G01 X2.4149 Y-7.0514
G01 X2.4065 Y-7.0484
G01 X2.3224 Y-7.0282
G01 X2.1914 Y-7.0129
G01 X2.0041 Y-7.0070
G01 X1.8098 Y-7.0128
G01 X1.6787 Y-7.0277
G01 X1.5952 Y-7.0475
G01 X1.5867 Y-7.0505
G01 X1.5353 Y-7.0717
G01 X1.5272 Y-7.0755
G01 X1.5195 Y-7.0802
G01 X1.4830 Y-7.1052
G01 X1.4782 Y-7.1089
G01 X1.4723 Y-7.1144
G01 X1.4668 Y-7.1204
G01 X1.4394 Y-7.1537
G01 X1.4358 Y-7.1586
G01 X1.4316 Y-7.1656
G01 X1.4273 Y-7.1748
G01 X1.4102 Y-7.2175
G01 X1.4071 Y-7.2276
G01 X1.4053 Y-7.2380
G00 Z0.5000
G00 X1.3458 Y-6.1457
G01 F90.00
G01 Z-0.0800
G01 F240.00
G01 X1.3523 Y-6.2399
G01 X1.3698 Y-6.3178
G01 X1.3966 Y-6.3826
G01 X1.4322 Y-6.4373
G01 X1.4772 Y-6.4837
G01 X1.5290 Y-6.5189
G01 X1.5766 Y-6.5387
G01 X1.5846 Y-6.4258
G01 X1.5351 Y-6.4026
G01 X1.5260 Y-6.3974
G01 X1.5175 Y-6.3910
G01 X1.4818 Y-6.3604
G01 X1.4729 Y-6.3515
G01 X1.4665 Y-6.3432
G01 X1.4400 Y-6.3041
G01 X1.4348 Y-6.2954
G01 X1.4300 Y-6.2842
G01 X1.4118 Y-6.2311
G01 X1.4095 Y-6.2193
G01 X1.4034 Y-6.1597
G01 X1.4030 Y-6.1510
G01 X1.4034 Y-6.1422
G01 X1.4097 Y-6.0807
G01 X1.4115 Y-6.0701
G01 X1.4145 Y-6.0599
G01 X1.4326 Y-6.0107
G01 X1.4370 Y-6.0012
G01 X1.4413 Y-5.9940
G01 X1.4709 Y-5.9544
G01 X1.4792 Y-5.9448
G01 X1.4889 Y-5.9366
G01 X1.5273 Y-5.9085
G01 X1.5328 Y-5.9049
G01 X1.5386 Y-5.9018
G01 X1.5467 Y-5.8983
G01 X1.5944 Y-5.8808
G01 X1.6026 Y-5.8785
G01 X1.6131 Y-5.8767
G01 X1.6705 Y-5.8707
G01 X1.6814 Y-5.8702
G01 X1.6901 Y-5.8709
G01 X1.7499 Y-5.8783
G01 X1.7561 Y-5.8793
G01 X1.7643 Y-5.8813
G01 X1.7741 Y-5.8850
G01 X1.8214 Y-5.9059
G01 X1.8326 Y-5.9119
G01 X1.8395 Y-5.9167
G01 X1.8444 Y-5.9208
G01 X1.8822 Y-5.9550
G01 X1.8892 Y-5.9622
G01 X1.8740 Y-5.9086
G01 X1.8438 Y-5.8502
G01 X1.8077 Y-5.8080
G01 X1.7637 Y-5.7773
G01 X1.7111 Y-5.7581
G01 X1.6432 Y-5.7509
G01 X1.5734 Y-5.7576
G01 X1.5174 Y-5.7758
G01 X1.4706 Y-5.8045
G01 X1.4289 Y-5.8463
G01 X1.3959 Y-5.8974
G01 X1.3699 Y-5.9620
G01 X1.3524 Y-6.0436
G01 X1.3458 Y-6.1457
G00 Z0.5000
G00 X1.9353 Y-6.0452
G01 F90.00
G01 Z-0.0800
G01 F240.00
G01 X1.9511 Y-6.1000
G01 X1.9535 Y-6.1106
G01 X1.9609 Y-6.1984
G01 X1.9611 Y-6.2135
G01 X2.0216 Y-6.2135
G01 X2.0218 Y-6.1928
G01 X2.0289 Y-6.0983
G01 X2.0307 Y-6.0884
G01 X2.0448 Y-6.0354
G01 X2.0385 Y-6.0408
G01 X2.0333 Y-6.0445
G01 X2.0280 Y-6.0477
G01 X2.0204 Y-6.0515
G01 X2.0126 Y-6.0545
G01 X2.0066 Y-6.0562
G01 X1.9942 Y-6.0584
G01 X1.9879 Y-6.0588
G01 X1.9774 Y-6.0587
G01 X1.9691 Y-6.0579
G01 X1.9629 Y-6.0567
G01 X1.9548 Y-6.0545
G01 X1.9488 Y-6.0523
G01 X1.9412 Y-6.0487
G01 X1.9353 Y-6.0452
G00 Z0.5000
G00 X2.0750 Y-5.9664
G01 F90.00
G01 Z-0.0800
G01 F240.00
G01 X2.0865 Y-5.9457
G01 X2.0914 Y-5.9389
G01 X2.0954 Y-5.9341
G01 X2.1386 Y-5.8912
G01 X2.1464 Y-5.8847
G01 X2.1550 Y-5.8790
G01 X2.2105 Y-5.8522
G01 X2.2222 Y-5.8479
G01 X2.2344 Y-5.8453
G01 X2.2992 Y-5.8367
G01 X2.3054 Y-5.8364
G01 X2.3136 Y-5.8367
G01 X2.3857 Y-5.8443
G01 X2.3958 Y-5.8462
G01 X2.4055 Y-5.8493
G01 X2.4584 Y-5.8697
G01 X2.4658 Y-5.8732
G01 X2.4712 Y-5.8763
G01 X2.4796 Y-5.8823
G01 X2.5192 Y-5.9143
G01 X2.5241 Y-5.9187
G01 X2.5299 Y-5.9252
G01 X2.5351 Y-5.9321
G01 X2.5626 Y-5.9733
G01 X2.5687 Y-5.9841
G01 X2.5726 Y-5.9938
G01 X2.5901 Y-6.0464
G01 X2.5929 Y-6.0569
G01 X2.5942 Y-6.0655
G01 X2.6005 Y-6.1326
G01 X2.6009 Y-6.1416
G01 X2.6003 Y-6.1505
G01 X2.5903 Y-6.2367
G01 X2.5882 Y-6.2451
G01 X2.5853 Y-6.2534
G01 X2.5605 Y-6.3133
G01 X2.5558 Y-6.3230
G01 X2.5512 Y-6.3302
G01 X2.5473 Y-6.3354
G01 X2.5052 Y-6.3837
G01 X2.4974 Y-6.3911
G01 X2.4888 Y-6.3976
G01 X2.4293 Y-6.4324
G01 X2.4235 Y-6.4355
G01 X2.4154 Y-6.4389
G01 X2.4009 Y-6.4430
G01 X2.4116 Y-6.5661
G01 X2.4738 Y-6.5406
G01 X2.5281 Y-6.5040
G01 X2.5737 Y-6.4564
G01 X2.6094 Y-6.3997
G01 X2.6371 Y-6.3303
G01 X2.6554 Y-6.2448
G01 X2.6622 Y-6.1398
G01 X2.6549 Y-6.0276
G01 X2.6356 Y-5.9391
G01 X2.6073 Y-5.8701
G01 X2.5713 Y-5.8163
G01 X2.5257 Y-5.7725
G01 X2.4724 Y-5.7415
G01 X2.4069 Y-5.7214
G01 X2.3251 Y-5.7139
G01 X2.2560 Y-5.7220
G01 X2.2023 Y-5.7433
G01 X2.1562 Y-5.7786
G01 X2.1194 Y-5.8263
G01 X2.0905 Y-5.8921
G01 X2.0750 Y-5.9664
G00 Z0.5000
G00 X5.2037 Y-1.9644
G01 F90.00
G01 Z-0.0800
G01 F240.00
G01 X5.4734 Y-1.9644
G01 X5.4818 Y-1.9639
G01 X5.4901 Y-1.9627
G01 X5.5002 Y-1.9601
G01 X5.5100 Y-1.9562
G01 X5.5750 Y-1.9237
G01 X5.5825 Y-1.9195
G01 X5.5894 Y-1.9146
G01 X5.5959 Y-1.9090
G01 X5.6287 Y-1.8759
G01 X5.6352 Y-1.8674
G01 X5.6405 Y-1.8582
G01 X5.6730 Y-1.7931
G01 X5.6762 Y-1.7854
G01 X5.6791 Y-1.7753
G01 X5.6805 Y-1.7670
G01 X5.6812 Y-1.7586
G01 X5.6810 Y-1.6499
G01 X5.6799 Y-1.6415
G01 X5.6786 Y-1.6354
G01 X5.6762 Y-1.6273
G01 X5.6739 Y-1.6215
G01 X5.6385 Y-1.5507
G01 X5.6340 Y-1.5435
G01 X5.6273 Y-1.5352
G01 X5.5975 Y-1.5056
G01 X5.5909 Y-1.5004
G01 X5.5838 Y-1.4959
G01 X5.5782 Y-1.4930
G01 X5.5704 Y-1.4897
G01 X5.4576 Y-1.4521
G01 X5.4472 Y-1.4496
G01 X5.4366 Y-1.4485
G01 X5.2037 Y-1.4483
G01 X5.1952 Y-1.4488
G01 X5.1869 Y-1.4500
G01 X5.1787 Y-1.4521
G01 X5.1707 Y-1.4549
G01 X5.1631 Y-1.4585
G01 X5.1576 Y-1.4617
G01 X5.1507 Y-1.4666
G01 X5.1443 Y-1.4721
G01 X5.1385 Y-1.4782
G01 X5.1333 Y-1.4849
G01 X5.1298 Y-1.4902
G01 X5.1258 Y-1.4976
G01 X5.1233 Y-1.5035
G01 X5.1197 Y-1.5156
G01 X5.1182 Y-1.5239
G01 X5.1177 Y-1.5302
G01 X5.1176 Y-1.8783
G01 X5.1182 Y-1.8888
G01 X5.1192 Y-1.8951
G01 X5.1213 Y-1.9033
G01 X5.1241 Y-1.9112
G01 X5.1277 Y-1.9188
G01 X5.1309 Y-1.9243
G01 X5.1358 Y-1.9312
G01 X5.1399 Y-1.9361
G01 X5.1458 Y-1.9421
G01 X5.1524 Y-1.9474
G01 X5.1594 Y-1.9521
G01 X5.1668 Y-1.9561
G01 X5.1727 Y-1.9586
G01 X5.1807 Y-1.9612
G01 X5.1869 Y-1.9627
G01 X5.1952 Y-1.9639
G01 X5.2037 Y-1.9644
G00 Z0.5000
G00 X5.2037 Y-1.4405
G01 F90.00
G01 Z-0.0800
G01 F240.00
G01 X5.4257 Y-1.4405
G01 X5.4362 Y-1.4399
G01 X5.4466 Y-1.4380
G01 X5.4546 Y-1.4356
G01 X5.4624 Y-1.4324
G01 X5.5274 Y-1.3999
G01 X5.5348 Y-1.3957
G01 X5.5418 Y-1.3908
G01 X5.5483 Y-1.3852
G01 X5.5768 Y-1.3568
G01 X5.5825 Y-1.3505
G01 X5.5887 Y-1.3418
G01 X5.5929 Y-1.3344
G01 X5.6254 Y-1.2693
G01 X5.6279 Y-1.2635
G01 X5.6305 Y-1.2556
G01 X5.6326 Y-1.2453
G01 X5.6335 Y-1.2348
G01 X5.6336 Y-1.1800
G01 X5.6329 Y-1.1695
G01 X5.6305 Y-1.1571
G01 X5.6263 Y-1.1453
G01 X5.5898 Y-1.0727
G01 X5.5838 Y-1.0639
G01 X5.5783 Y-1.0575
G01 X5.5498 Y-1.0290
G01 X5.5435 Y-1.0232
G01 X5.5366 Y-1.0182
G01 X5.5293 Y-1.0138
G01 X5.4604 Y-0.9795
G01 X5.4526 Y-0.9765
G01 X5.4445 Y-0.9742
G01 X5.4362 Y-0.9728
G01 X5.4299 Y-0.9723
G01 X5.2037 Y-0.9722
G01 X5.1952 Y-0.9726
G01 X5.1869 Y-0.9738
G01 X5.1787 Y-0.9759
G01 X5.1707 Y-0.9787
G01 X5.1631 Y-0.9823
G01 X5.1558 Y-0.9867
G01 X5.1490 Y-0.9917
G01 X5.1428 Y-0.9974
G01 X5.1371 Y-1.0036
G01 X5.1333 Y-1.0087
G01 X5.1287 Y-1.0158
G01 X5.1233 Y-1.0273
G01 X5.1197 Y-1.0394
G01 X5.1182 Y-1.0477
G01 X5.1177 Y-1.0540
G01 X5.1176 Y-1.3544
G01 X5.1185 Y-1.3671
G01 X5.1197 Y-1.3733
G01 X5.1219 Y-1.3815
G01 X5.1249 Y-1.3893
G01 X5.1287 Y-1.3969
G01 X5.1333 Y-1.4040
G01 X5.1371 Y-1.4091
G01 X5.1413 Y-1.4138
G01 X5.1474 Y-1.4196
G01 X5.1524 Y-1.4236
G01 X5.1594 Y-1.4283
G01 X5.1668 Y-1.4323
G01 X5.1747 Y-1.4355
G01 X5.1807 Y-1.4374
G01 X5.1889 Y-1.4393
G01 X5.1973 Y-1.4403
G01 X5.2037 Y-1.4405
G00 Z0.5000
G00 X5.1098 Y-0.9725
G01 F90.00
G01 Z-0.0800
G01 F240.00
G01 X5.1098 Y-1.9647
G01 X5.1118 Y-1.9695
G01 X5.1124 Y-1.9701
G01 X5.1179 Y-1.9722
G01 X5.4904 Y-1.9722
G01 X5.4966 Y-1.9712
G01 X5.5001 Y-1.9699
G01 X5.5878 Y-1.9260
G01 X5.5919 Y-1.9235
G01 X5.5956 Y-1.9204
G01 X5.6372 Y-1.8788
G01 X5.6403 Y-1.8751
G01 X5.6428 Y-1.8710
G01 X5.6867 Y-1.7833
G01 X5.6886 Y-1.7774
G01 X5.6890 Y-1.7736
G01 X5.6890 Y-1.6392
G01 X5.6881 Y-1.6330
G01 X5.6867 Y-1.6294
G01 X5.6428 Y-1.5417
G01 X5.6403 Y-1.5377
G01 X5.6372 Y-1.5339
G01 X5.5956 Y-1.4923
G01 X5.5841 Y-1.4823
G01 X5.5758 Y-1.4727
G01 X5.5690 Y-1.4620
G01 X5.5646 Y-1.4524
G01 X5.5609 Y-1.4403
G01 X5.5591 Y-1.4277
G01 X5.5589 Y-1.4172
G01 X5.5601 Y-1.4067
G01 X5.5632 Y-1.3944
G01 X5.5671 Y-1.3846
G01 X5.5711 Y-1.3771
G01 X5.5758 Y-1.3701
G01 X5.5811 Y-1.3636
G01 X5.5896 Y-1.3550
G01 X5.5927 Y-1.3512
G01 X5.5952 Y-1.3472
G01 X5.6391 Y-1.2595
G01 X5.6404 Y-1.2559
G01 X5.6414 Y-1.2497
G01 X5.6414 Y-1.1630
G01 X5.6410 Y-1.1591
G01 X5.6391 Y-1.1532
G01 X5.5952 Y-1.0655
G01 X5.5927 Y-1.0615
G01 X5.5896 Y-1.0577
G01 X5.5480 Y-1.0161
G01 X5.5443 Y-1.0131
G01 X5.5402 Y-1.0105
G01 X5.4525 Y-0.9667
G01 X5.4489 Y-0.9653
G01 X5.4428 Y-0.9644
G01 X5.1179 Y-0.9644
G01 X5.1124 Y-0.9664
G01 X5.1118 Y-0.9670
G01 X5.1098 Y-0.9725
G00 Z0.5000
G00 X12.6244 Y-3.8389
G01 F90.00
G01 Z-0.0800
G01 F240.00
G01 X12.9734 Y-3.8389
G01 X12.9871 Y-3.8161
G01 X13.0038 Y-3.7935
G01 X13.0227 Y-3.7727
G01 X13.0403 Y-3.7566
G01 X13.0468 Y-3.7512
G01 X13.0678 Y-3.7360
G01 X13.0883 Y-3.7237
G01 X13.0939 Y-3.7208
G01 X13.1136 Y-3.7115
G01 X13.1195 Y-3.7092
G01 X13.1419 Y-3.7012
G01 X13.1639 Y-3.6956
G01 X13.1639 Y-3.3619
G01 X13.1148 Y-3.3663
G01 X12.9712 Y-3.4111
G01 X12.8436 Y-3.4882
G01 X12.7382 Y-3.5936
G01 X12.6611 Y-3.7212
G01 X12.6244 Y-3.8389
G00 Z0.5000
G00 X12.8342 Y-3.7011
G01 F90.00
G01 Z-0.0800
G01 F240.00
G01 X12.9016 Y-3.7011
G01 X12.9253 Y-3.6753
G01 X12.9478 Y-3.6545
G01 X12.9561 Y-3.6474
G01 X12.9805 Y-3.6289
G01 X12.9895 Y-3.6226
G01 X13.0156 Y-3.6066
G01 X13.0261 Y-3.6007
G01 X13.0261 Y-3.5388
G01 X12.9292 Y-3.5974
G01 X12.8474 Y-3.6792
G01 X12.8342 Y-3.7011
G00 Z0.5000
G00 X13.8361 Y-3.6956
G01 F90.00
G01 Z-0.0800
G01 F240.00
G01 X13.8581 Y-3.7012
G01 X13.8805 Y-3.7092
G01 X13.8883 Y-3.7124
G01 X13.9099 Y-3.7227
G01 X13.9304 Y-3.7349
G01 X13.9374 Y-3.7395
G01 X13.9565 Y-3.7538
G01 X13.9742 Y-3.7698
G01 X13.9802 Y-3.7758
G01 X13.9962 Y-3.7935
G01 X14.0140 Y-3.8178
G01 X14.0263 Y-3.8383
G01 X14.0292 Y-3.8439
G01 X14.0393 Y-3.8655
G01 X14.0478 Y-3.8888
G01 X14.1065 Y-3.8888
G01 X14.1857 Y-3.8095
G01 X14.1908 Y-3.7899
G01 X14.2011 Y-3.7608
G01 X14.2150 Y-3.7309
G01 X14.2329 Y-3.7007
G01 X14.2513 Y-3.6759
G01 X14.2718 Y-3.6528
G01 X14.2778 Y-3.6468
G01 X14.2992 Y-3.6276
G01 X14.3240 Y-3.6091
G01 X14.3540 Y-3.5910
G01 X14.3838 Y-3.5769
G01 X14.4149 Y-3.5658
G01 X14.4428 Y-3.5587
G01 X14.4511 Y-3.5570
G01 X14.4795 Y-3.5529
G01 X14.5104 Y-3.5513
G01 X14.7004 Y-3.5513
G01 X14.7040 Y-3.5379
G01 X14.7137 Y-3.5108
G01 X14.7276 Y-3.4809
G01 X14.7455 Y-3.4508
G01 X14.7666 Y-3.4227
G01 X14.7844 Y-3.4029
G01 X14.7904 Y-3.3969
G01 X14.8118 Y-3.3777
G01 X14.8348 Y-3.3605
G01 X14.8418 Y-3.3558
G01 X14.8666 Y-3.3411
G01 X14.8983 Y-3.3262
G01 X14.9274 Y-3.3159
G01 X14.9594 Y-3.3079
G01 X14.9921 Y-3.3030
G01 X15.0229 Y-3.3014
G01 X15.6106 Y-3.3014
G01 X15.6638 Y-3.2482
G01 X15.6638 Y-3.1979
G01 X15.6651 Y-3.1713
G01 X15.6659 Y-3.1628
G01 X15.6707 Y-3.1323
G01 X15.6783 Y-3.1024
G01 X15.6886 Y-3.0733
G01 X15.7025 Y-3.0434
G01 X15.7138 Y-3.0241
G01 X15.7138 Y-2.9478
G01 X15.6905 Y-2.9393
G01 X15.6689 Y-2.9292
G01 X15.6633 Y-2.9263
G01 X15.6428 Y-2.9140
G01 X15.6185 Y-2.8962
G01 X15.6008 Y-2.8802
G01 X15.5948 Y-2.8742
G01 X15.5788 Y-2.8565
G01 X15.5645 Y-2.8374
G01 X15.5599 Y-2.8304
G01 X15.5477 Y-2.8099
G01 X15.5374 Y-2.7883
G01 X15.5342 Y-2.7805
G01 X15.5262 Y-2.7581
G01 X15.5206 Y-2.7361
G01 X15.1869 Y-2.7361
G01 X15.1880 Y-2.7527
G01 X15.1876 Y-2.7609
G01 X15.1867 Y-2.7670
G01 X15.1724 Y-2.8396
G01 X15.1701 Y-2.8478
G01 X15.1670 Y-2.8558
G01 X15.1609 Y-2.8671
G01 X15.1533 Y-2.8774
G01 X15.1019 Y-2.9309
G01 X15.0957 Y-2.9367
G01 X15.0890 Y-2.9419
G01 X15.0817 Y-2.9464
G01 X15.0741 Y-2.9502
G01 X15.0681 Y-2.9525
G01 X14.9966 Y-2.9717
G01 X14.9865 Y-2.9732
G01 X14.9796 Y-2.9736
G01 X14.8904 Y-2.9827
G01 X14.7425 Y-3.0317
G01 X14.6104 Y-3.1132
G01 X14.5007 Y-3.2229
G01 X14.4181 Y-3.3567
G01 X14.4148 Y-3.3634
G01 X14.4105 Y-3.3707
G01 X14.3704 Y-3.4282
G01 X14.3638 Y-3.4364
G01 X14.3546 Y-3.4452
G01 X14.3461 Y-3.4514
G01 X14.3368 Y-3.4566
G01 X14.2664 Y-3.4859
G01 X14.2563 Y-3.4891
G01 X14.2457 Y-3.4911
G01 X14.2351 Y-3.4917
G01 X14.2244 Y-3.4910
G01 X14.1514 Y-3.4780
G01 X14.1451 Y-3.4767
G01 X14.1368 Y-3.4741
G01 X14.1251 Y-3.4687
G01 X14.1133 Y-3.4621
G01 X14.0288 Y-3.4111
G01 X13.8852 Y-3.3663
G01 X13.8361 Y-3.3619
G01 X13.8361 Y-3.6956
G00 Z0.5000
G00 X13.9739 Y-3.6007
G01 F90.00
G01 Z-0.0800
G01 F240.00
G01 X13.9844 Y-3.6066
G01 X14.0105 Y-3.6226
G01 X14.0396 Y-3.6439
G01 X14.0481 Y-3.6509
G01 X14.0668 Y-3.6677
G01 X14.0747 Y-3.6753
G01 X14.0841 Y-3.6853
G01 X14.0920 Y-3.6689
G01 X14.0971 Y-3.6593
G01 X14.1154 Y-3.6288
G01 X14.1260 Y-3.6134
G01 X14.1107 Y-3.6101
G01 X14.0945 Y-3.6052
G01 X14.0840 Y-3.6014
G01 X14.0686 Y-3.5946
G01 X14.0459 Y-3.5823
G01 X13.9739 Y-3.5388
G01 X13.9739 Y-3.6007
G00 Z0.5000
G00 X14.5450 Y-3.4135
G01 F90.00
G01 Z-0.0800
G01 F240.00
G01 X14.6074 Y-3.4135
G01 X14.6251 Y-3.3835
G01 X14.6310 Y-3.3742
G01 X14.6373 Y-3.3653
G01 X14.6587 Y-3.3369
G01 X14.6659 Y-3.3286
G01 X14.6899 Y-3.3024
G01 X14.7161 Y-3.2784
G01 X14.7287 Y-3.2678
G01 X14.7617 Y-3.2435
G01 X14.7921 Y-3.2250
G01 X14.8065 Y-3.2171
G01 X14.8336 Y-3.2042
G01 X14.8488 Y-3.1977
G01 X14.8822 Y-3.1857
G01 X14.8980 Y-3.1811
G01 X14.9326 Y-3.1727
G01 X14.9676 Y-3.1673
G01 X14.9840 Y-3.1655
G01 X15.0195 Y-3.1637
G01 X15.5275 Y-3.1636
G01 X15.5283 Y-3.1535
G01 X15.5296 Y-3.1426
G01 X15.5341 Y-3.1129
G01 X15.5363 Y-3.1022
G01 X15.5464 Y-3.0624
G01 X15.5599 Y-3.0242
G01 X15.5354 Y-3.0061
G01 X15.5228 Y-2.9955
G01 X15.5003 Y-2.9747
G01 X15.4795 Y-2.9522
G01 X15.4689 Y-2.9396
G01 X15.4507 Y-2.9150
G01 X15.4417 Y-2.9012
G01 X15.4257 Y-2.8739
G01 X15.3058 Y-2.8739
G01 X15.3026 Y-2.8858
G01 X15.2991 Y-2.8963
G01 X15.2929 Y-2.9118
G01 X15.2881 Y-2.9219
G01 X15.2800 Y-2.9364
G01 X15.2741 Y-2.9458
G01 X15.2676 Y-2.9549
G01 X15.2607 Y-2.9636
G01 X15.2496 Y-2.9761
G01 X15.1933 Y-3.0342
G01 X15.1850 Y-3.0416
G01 X15.1720 Y-3.0519
G01 X15.1629 Y-3.0582
G01 X15.1487 Y-3.0668
G01 X15.1388 Y-3.0720
G01 X15.1288 Y-3.0766
G01 X15.1185 Y-3.0808
G01 X15.1080 Y-3.0844
G01 X15.0974 Y-3.0875
G01 X15.0256 Y-3.1063
G01 X15.0048 Y-3.1098
G01 X14.9888 Y-3.1111
G01 X14.9194 Y-3.1182
G01 X14.8011 Y-3.1574
G01 X14.6964 Y-3.2220
G01 X14.6095 Y-3.3089
G01 X14.5450 Y-3.4135
G00 Z0.5000
G00 X14.7580 Y-4.8375
G01 F90.00
G01 Z-0.0800
G01 F240.00
G01 X14.7382 Y-4.8298
G01 X14.7270 Y-4.8250
G01 X14.6826 Y-4.8040
G01 X14.6610 Y-4.7925
G01 X14.6204 Y-4.7682
G01 X14.6011 Y-4.7798
G01 X14.5797 Y-4.7919
G01 X14.5578 Y-4.8029
G01 X14.5289 Y-4.8164
G01 X14.5063 Y-4.8258
G01 X14.4948 Y-4.8301
G01 X14.4647 Y-4.8407
G01 X14.4530 Y-4.8444
G01 X14.4294 Y-4.8509
G01 X14.3985 Y-4.8585
G01 X14.3865 Y-4.8610
G01 X14.3623 Y-4.8652
G01 X14.3307 Y-4.8698
G01 X14.3186 Y-4.8711
G01 X14.2941 Y-4.8729
G01 X14.2647 Y-4.8742
G01 X14.2372 Y-4.8996
G01 X14.2187 Y-4.9156
G01 X14.1994 Y-4.9307
G01 X14.1737 Y-4.9496
G01 X14.1533 Y-4.9632
G01 X14.1260 Y-4.9797
G01 X14.1047 Y-4.9918
G01 X14.0886 Y-5.0000
G01 X14.1047 Y-5.0082
G01 X14.1260 Y-5.0203
G01 X14.1533 Y-5.0368
G01 X14.1719 Y-5.0492
G01 X14.2022 Y-5.0446
G01 X14.2265 Y-5.0416
G01 X14.2510 Y-5.0398
G01 X14.2755 Y-5.0386
G01 X14.3000 Y-5.0380
G01 X14.4668 Y-5.0380
G01 X14.4865 Y-5.0164
G01 X14.4951 Y-5.0076
G01 X14.5129 Y-4.9907
G01 X14.5310 Y-4.9742
G01 X14.5496 Y-4.9582
G01 X14.5592 Y-4.9506
G01 X14.5986 Y-4.9213
G01 X14.6189 Y-4.9077
G01 X14.6294 Y-4.9013
G01 X14.6504 Y-4.8887
G01 X14.6717 Y-4.8766
G01 X14.6936 Y-4.8656
G01 X14.7270 Y-4.8500
G01 X14.7382 Y-4.8452
G01 X14.7580 Y-4.8375
G00 Z0.5000
G00 X15.9341 Y-4.9259
G01 F90.00
G01 Z-0.0800
G01 F240.00
G01 X15.9231 Y-4.9046
G01 X15.9126 Y-4.8801
G01 X15.9040 Y-4.8550
G01 X15.8992 Y-4.8379
G01 X15.8937 Y-4.8118
G01 X15.8911 Y-4.7943
G01 X15.8888 Y-4.7677
G01 X15.8884 Y-4.7491
G01 X15.0250 Y-4.7491
G01 X15.0073 Y-4.7487
G01 X14.9828 Y-4.7475
G01 X14.9562 Y-4.7452
G01 X14.9232 Y-4.7404
G01 X14.9057 Y-4.7374
G01 X14.8884 Y-4.7335
G01 X14.8560 Y-4.7253
G01 X14.8390 Y-4.7201
G01 X14.8075 Y-4.7090
G01 X14.7828 Y-4.6991
G01 X14.7525 Y-4.6849
G01 X14.7367 Y-4.6769
G01 X14.7212 Y-4.6682
G01 X14.6926 Y-4.6509
G01 X14.6779 Y-4.6410
G01 X14.6510 Y-4.6212
G01 X14.6370 Y-4.6103
G01 X14.6211 Y-4.5965
G01 X14.6131 Y-4.6035
G01 X14.5994 Y-4.6148
G01 X14.5694 Y-4.6370
G01 X14.5546 Y-4.6469
G01 X14.5226 Y-4.6661
G01 X14.5069 Y-4.6745
G01 X14.4731 Y-4.6905
G01 X14.4567 Y-4.6973
G01 X14.4215 Y-4.7099
G01 X14.4045 Y-4.7150
G01 X14.3683 Y-4.7241
G01 X14.3509 Y-4.7276
G01 X14.3139 Y-4.7330
G01 X14.2962 Y-4.7348
G01 X14.2589 Y-4.7366
G01 X14.2046 Y-4.7367
G01 X14.1844 Y-4.7593
G01 X14.1721 Y-4.7721
G01 X14.1593 Y-4.7844
G01 X14.1381 Y-4.8034
G01 X14.1244 Y-4.8147
G01 X14.1015 Y-4.8317
G01 X14.0870 Y-4.8420
G01 X14.0720 Y-4.8515
G01 X14.0475 Y-4.8660
G01 X14.0319 Y-4.8744
G01 X14.0061 Y-4.8867
G01 X13.9899 Y-4.8939
G01 X13.9734 Y-4.9003
G01 X13.9380 Y-4.9124
G01 X13.9209 Y-4.9172
G01 X13.8932 Y-4.9240
G01 X13.8758 Y-4.9275
G01 X13.8389 Y-4.9329
G01 X13.8212 Y-4.9347
G01 X13.7839 Y-4.9365
G01 X13.2250 Y-4.9366
G01 X13.1877 Y-4.9352
G01 X13.1649 Y-4.9334
G01 X13.1666 Y-4.9542
G01 X13.1670 Y-4.9811
G01 X13.1662 Y-4.9991
G01 X13.1613 Y-5.0670
G01 X13.1877 Y-5.0648
G01 X13.2250 Y-5.0634
G01 X13.7750 Y-5.0634
G01 X13.8123 Y-5.0648
G01 X13.8389 Y-5.0671
G01 X13.8671 Y-5.0711
G01 X13.8846 Y-5.0742
G01 X13.9019 Y-5.0781
G01 X13.9295 Y-5.0851
G01 X13.9465 Y-5.0902
G01 X13.9734 Y-5.0997
G01 X13.9981 Y-5.1096
G01 X14.0239 Y-5.1217
G01 X14.0397 Y-5.1297
G01 X14.0552 Y-5.1384
G01 X14.0796 Y-5.1532
G01 X14.0943 Y-5.1631
G01 X14.1173 Y-5.1799
G01 X14.1313 Y-5.1909
G01 X14.1391 Y-5.1975
G01 X14.1720 Y-5.1893
G01 X14.1894 Y-5.1859
G01 X14.2312 Y-5.1797
G01 X14.2577 Y-5.1774
G01 X14.2823 Y-5.1762
G01 X14.3000 Y-5.1758
G01 X14.5322 Y-5.1758
G01 X14.5467 Y-5.1564
G01 X14.5579 Y-5.1427
G01 X14.5863 Y-5.1114
G01 X14.5989 Y-5.0988
G01 X14.6302 Y-5.0704
G01 X14.6439 Y-5.0592
G01 X14.6779 Y-5.0340
G01 X14.6926 Y-5.0241
G01 X14.7289 Y-5.0024
G01 X14.7446 Y-4.9940
G01 X14.7828 Y-4.9759
G01 X14.7992 Y-4.9691
G01 X14.8390 Y-4.9549
G01 X14.8560 Y-4.9497
G01 X14.8970 Y-4.9395
G01 X14.9232 Y-4.9346
G01 X14.9562 Y-4.9298
G01 X14.9739 Y-4.9281
G01 X15.0073 Y-4.9263
G01 X15.0250 Y-4.9259
G01 X15.9341 Y-4.9259
G00 Z0.5000
G00 X18.3511 Y-5.7467
G01 F90.00
G01 Z-0.0800
G01 F240.00
G01 X18.3688 Y-5.7632
G01 X18.3812 Y-5.7762
G01 X18.4330 Y-5.8357
G01 X18.4444 Y-5.8495
G01 X18.4509 Y-5.8582
G01 X18.4667 Y-5.8497
G01 X18.4961 Y-5.8358
G01 X18.5125 Y-5.8290
G01 X18.5375 Y-5.8200
G01 X18.5125 Y-5.8110
G01 X18.4961 Y-5.8042
G01 X18.4747 Y-5.7942
G01 X18.4588 Y-5.7862
G01 X18.4434 Y-5.7775
G01 X18.4232 Y-5.7652
G01 X18.4084 Y-5.7554
G01 X18.3966 Y-5.7467
G01 X18.3511 Y-5.7467
G00 Z0.5000
G00 X18.5375 Y-4.5500
G01 F90.00
G01 Z-0.0800
G01 F240.00
G01 X18.5125 Y-4.5410
G01 X18.4974 Y-4.5347
G01 X18.4760 Y-4.5752
G01 X18.5042 Y-4.5623
G01 X18.5375 Y-4.5500
G00 Z0.5000
G00 X18.1298 Y-2.7345
G01 F90.00
G01 Z-0.0800
G01 F240.00
G01 X18.2426 Y-2.8474
G01 X18.2602 Y-2.8635
G01 X18.2668 Y-2.8688
G01 X18.2860 Y-2.8830
G01 X18.3101 Y-2.8974
G01 X18.3355 Y-2.9094
G01 X18.3579 Y-2.9176
G01 X18.3660 Y-2.9200
G01 X18.3912 Y-2.9261
G01 X18.4169 Y-2.9298
G01 X18.4408 Y-2.9311
G01 X18.5073 Y-2.9312
G01 X18.5175 Y-2.9448
G01 X18.5301 Y-2.9589
G01 X18.5346 Y-2.9634
G01 X18.5470 Y-2.9747
G01 X18.5519 Y-2.9788
G01 X18.5671 Y-2.9901
G01 X18.5850 Y-3.0011
G01 X18.5906 Y-3.0042
G01 X18.6077 Y-3.0123
G01 X18.6294 Y-3.0203
G01 X18.6539 Y-3.0266
G01 X18.6748 Y-3.0297
G01 X18.7000 Y-3.0311
G01 X20.0521 Y-3.0311
G01 X20.0731 Y-3.0300
G01 X20.0919 Y-3.0273
G01 X20.1002 Y-3.0256
G01 X20.1206 Y-3.0203
G01 X20.1404 Y-3.0131
G01 X20.1594 Y-3.0042
G01 X20.1794 Y-2.9925
G01 X20.1917 Y-2.9836
G01 X20.1929 Y-3.0055
G01 X20.1977 Y-3.0381
G01 X20.2058 Y-3.0701
G01 X20.2161 Y-3.0992
G01 X20.2291 Y-3.1272
G01 X20.2331 Y-3.1347
G01 X20.2479 Y-3.1593
G01 X20.2690 Y-3.1874
G01 X20.2898 Y-3.2102
G01 X21.1638 Y-4.0843
G01 X21.1638 Y-7.3607
G01 X21.0623 Y-7.4623
G01 X21.0401 Y-7.4867
G01 X21.0204 Y-7.5132
G01 X21.0056 Y-7.5378
G01 X21.0016 Y-7.5453
G01 X20.9886 Y-7.5733
G01 X20.9783 Y-7.6024
G01 X20.9712 Y-7.6303
G01 X20.9695 Y-7.6386
G01 X20.9652 Y-7.6691
G01 X20.9638 Y-7.7000
G01 X20.9638 Y-7.8956
G01 X20.9419 Y-7.9012
G01 X20.9195 Y-7.9092
G01 X20.9117 Y-7.9124
G01 X20.8901 Y-7.9227
G01 X20.8696 Y-7.9349
G01 X20.8626 Y-7.9395
G01 X20.8435 Y-7.9538
G01 X20.8258 Y-7.9698
G01 X20.8198 Y-7.9758
G01 X20.8038 Y-7.9935
G01 X20.7895 Y-8.0126
G01 X20.7849 Y-8.0196
G01 X20.7727 Y-8.0401
G01 X20.7624 Y-8.0617
G01 X20.7599 Y-8.0675
G01 X20.7519 Y-8.0899
G01 X20.7453 Y-8.1151
G01 X20.7437 Y-8.1233
G01 X20.7403 Y-8.1470
G01 X20.7389 Y-8.1729
G01 X20.7389 Y-8.5750
G01 X20.7405 Y-8.6051
G01 X20.7444 Y-8.6308
G01 X20.7501 Y-8.6540
G01 X20.7525 Y-8.6621
G01 X20.7607 Y-8.6845
G01 X20.7727 Y-8.7099
G01 X20.7849 Y-8.7304
G01 X20.7883 Y-8.7357
G01 X20.8012 Y-8.7532
G01 X20.8066 Y-8.7597
G01 X20.8227 Y-8.7773
G01 X20.8435 Y-8.7962
G01 X20.8661 Y-8.8129
G01 X20.8865 Y-8.8252
G01 X20.8939 Y-8.8292
G01 X20.9136 Y-8.8385
G01 X20.9195 Y-8.8408
G01 X20.9419 Y-8.8488
G01 X20.9671 Y-8.8552
G01 X20.9970 Y-8.8597
G01 X21.0250 Y-8.8611
G01 X21.5792 Y-8.8610
G01 X21.6030 Y-8.8597
G01 X21.6267 Y-8.8563
G01 X21.6329 Y-8.8552
G01 X21.6560 Y-8.8494
G01 X21.6845 Y-8.8393
G01 X21.7061 Y-8.8292
G01 X21.7135 Y-8.8252
G01 X21.7339 Y-8.8129
G01 X21.7532 Y-8.7988
G01 X21.7597 Y-8.7934
G01 X21.7773 Y-8.7773
G01 X21.7934 Y-8.7597
G01 X21.7988 Y-8.7532
G01 X21.8129 Y-8.7339
G01 X21.8252 Y-8.7135
G01 X21.8292 Y-8.7061
G01 X21.8393 Y-8.6845
G01 X21.8475 Y-8.6621
G01 X21.8499 Y-8.6540
G01 X21.8556 Y-8.6308
G01 X21.8592 Y-8.6072
G01 X21.8599 Y-8.6009
G01 X21.8611 Y-8.5771
G01 X21.8611 Y-8.1729
G01 X21.8597 Y-8.1470
G01 X21.8563 Y-8.1233
G01 X21.8547 Y-8.1151
G01 X21.8481 Y-8.0899
G01 X21.8401 Y-8.0675
G01 X21.8376 Y-8.0617
G01 X21.8273 Y-8.0401
G01 X21.8151 Y-8.0196
G01 X21.8105 Y-8.0126
G01 X21.7962 Y-7.9935
G01 X21.7802 Y-7.9758
G01 X21.7742 Y-7.9698
G01 X21.7565 Y-7.9538
G01 X21.7374 Y-7.9395
G01 X21.7304 Y-7.9349
G01 X21.7099 Y-7.9227
G01 X21.6883 Y-7.9124
G01 X21.6805 Y-7.9092
G01 X21.6581 Y-7.9012
G01 X21.6362 Y-7.8956
G01 X21.6362 Y-7.8393
G01 X21.7377 Y-7.7377
G01 X21.7585 Y-7.7149
G01 X21.7796 Y-7.6868
G01 X21.7975 Y-7.6566
G01 X21.8106 Y-7.6287
G01 X21.8204 Y-7.6016
G01 X21.8229 Y-7.5935
G01 X21.8298 Y-7.5656
G01 X21.8341 Y-7.5372
G01 X21.8348 Y-7.5309
G01 X21.8361 Y-7.5042
G01 X21.8362 Y-3.9450
G01 X21.8349 Y-3.9163
G01 X21.8341 Y-3.9079
G01 X21.8298 Y-3.8794
G01 X21.8229 Y-3.8515
G01 X21.8204 Y-3.8434
G01 X21.8106 Y-3.8163
G01 X21.7984 Y-3.7903
G01 X21.7944 Y-3.7828
G01 X21.7796 Y-3.7582
G01 X21.7625 Y-3.7350
G01 X21.7571 Y-3.7285
G01 X21.7377 Y-3.7073
G01 X20.7622 Y-2.7318
G01 X20.7408 Y-2.7126
