%
(02_DRILL_3P0)
(MACHINE)
(  VENDOR AUTODESK)
(  MODEL GENERIC 3-AXIS)
(  DESCRIPTION THIS MACHINE HAS XY AXIS ON THE TABLE AND Z AXIS ON THE HEAD)
(T1 D=3. CR=0. TAPER=118DEG - ZMIN=-4.101 - DRILL)
N10 G90 G94 G17 G91.1
N15 G21
N20 G28 G91 Z0.
N25 G90
(DRILL_3P0)
N30 T1 M6
N35 S7200 M3
N40 G17 G90 G94
N45 G54
N50 M8
N55 G0 X13.094 Y-22.281
N60 G43 Z15. H1
N65 G0 Z5.
N70 G98 G81 X13.094 Y-22.281 Z-4.101 R2. F300.
N75 X32.204 Y-12.298
N80 X52.022 Y-24.332
N85 X62.704 Y-11.583
N90 X82.97 Y-11.881
N95 X90.406 Y-24.644
N100 X110.47 Y-12.596
N105 X71.301 Y-38.188
N110 X52.022 Y-56.082
N115 X32.204 Y-44.048
N120 X24.522 Y-56.797
N125 X16.99 Y-74.417
N130 X35.99
N135 X54.99
N140 X73.99
N145 X92.99
N150 X111.99
N155 X120.906 Y-57.109
N160 X110.47 Y-44.346
N165 X90.406 Y-56.394
N170 G80
N175 G0 Z15.
N180 M9
N185 G28 G91 Z0.
N190 G90
N195 G28 G91 X0. Y0.
N200 G90
N205 M30
%
