(G-CODE GENERATED BY FLATCAM v8.994 - www.flatcam.org - Version Date: 2020/11/7)

(Name: pb_orangepi-F_Cu.gbr_1.5000_iso_cnc)
(Type: G-code from Geometry)
(Units: MM)

(Created on Friday, 19 May 2023 at 04:33)

(This preprocessor is the default preprocessor used by FlatCAM.)
(It is made to work with MACH3 compatible motion controllers.)

(TOOL DIAMETER: 1.5 mm)
(Feedrate_XY: 120.0 mm/min)
(Feedrate_Z: 60.0 mm/min)
(Feedrate rapids 1500.0 mm/min)

(Z_Cut: -0.1 mm)
(Z_Move: 2.0 mm)
(Z Start: None mm)
(Z End: 15.0 mm)
(X,Y End: None mm)
(Steps per circle: 64)
(Preprocessor Geometry: default)

(X range:    4.8500 ...   63.1500  mm)
(Y range: -108.3060 ...   -2.6500  mm)

(Spindle Speed: 8000.0 RPM)
G21
G90
G94

G01 F120.00

M5
G00 Z15.0000
G00 X0.0000 Y0.0000
T3
M6    
(MSG, Change to Tool Dia = 1.5000)
M0
G00 Z15.0000

M03 S8000.0
G01 F120.00
G00 X12.4897 Y-8.8355
G01 F60.00
G01 Z-0.1000
G01 F120.00
G01 X12.4752 Y-8.8684
G01 X12.4683 Y-8.8855
G01 X12.4322 Y-8.9859
G01 X12.4206 Y-9.0209
G01 X12.4108 Y-9.0564
G01 X12.3893 Y-9.1421
G01 X12.3813 Y-9.1780
G01 X12.3750 Y-9.2143
G01 X12.3620 Y-9.3017
G01 X12.3575 Y-9.3382
G01 X12.3548 Y-9.3749
G01 X12.3505 Y-9.4632
G01 X12.3495 Y-9.5000
G01 X12.3498 Y-9.5184
G01 X12.3548 Y-9.6251
G01 X12.3575 Y-9.6618
G01 X12.3595 Y-9.6801
G01 X12.3779 Y-9.8039
G01 X12.3851 Y-9.8400
G01 X12.3893 Y-9.8579
G01 X12.4108 Y-9.9436
G01 X12.4206 Y-9.9791
G01 X12.4322 Y-10.0141
G01 X12.4619 Y-10.0973
G01 X12.4683 Y-10.1145
G01 X12.4824 Y-10.1485
G01 X12.5279 Y-10.2451
G01 X12.5444 Y-10.2780
G01 X12.5533 Y-10.2941
G01 X12.6177 Y-10.4015
G01 X12.6381 Y-10.4321
G01 X12.6489 Y-10.4470
G01 X12.7015 Y-10.5180
G01 X12.7242 Y-10.5470
G01 X12.7482 Y-10.5749
G01 X12.8076 Y-10.6404
G01 X12.8330 Y-10.6670
G01 X12.8596 Y-10.6924
G01 X12.9251 Y-10.7518
G01 X12.9530 Y-10.7758
G01 X12.9820 Y-10.7985
G01 X13.0530 Y-10.8511
G01 X13.0831 Y-10.8723
G01 X13.1142 Y-10.8920
G01 X13.1900 Y-10.9374
G01 X13.2220 Y-10.9556
G01 X13.2549 Y-10.9721
G01 X13.3347 Y-11.0099
G01 X13.3515 Y-11.0176
G01 X13.3855 Y-11.0317
G01 X13.5034 Y-11.0738
G01 X13.5386 Y-11.0845
G01 X13.5564 Y-11.0892
G01 X13.6421 Y-11.1107
G01 X13.6780 Y-11.1187
G01 X13.7143 Y-11.1250
G01 X13.8017 Y-11.1380
G01 X13.8382 Y-11.1425
G01 X13.8566 Y-11.1441
G01 X13.9816 Y-11.1502
G01 X15.5000 Y-11.1505
G01 X15.5368 Y-11.1495
G01 X15.6434 Y-11.1441
G01 X15.6618 Y-11.1425
G01 X15.6983 Y-11.1380
G01 X15.7857 Y-11.1250
G01 X15.8220 Y-11.1187
G01 X15.8579 Y-11.1107
G01 X15.9436 Y-11.0892
G01 X15.9791 Y-11.0794
G01 X16.0141 Y-11.0678
G01 X16.0973 Y-11.0381
G01 X16.1145 Y-11.0317
G01 X16.1485 Y-11.0176
G01 X16.2617 Y-10.9640
G01 X16.2780 Y-10.9556
G01 X16.3100 Y-10.9374
G01 X16.3858 Y-10.8920
G01 X16.4169 Y-10.8723
G01 X16.4470 Y-10.8511
G01 X16.5180 Y-10.7985
G01 X16.5327 Y-10.7873
G01 X16.5611 Y-10.7640
G01 X16.6404 Y-10.6924
G01 X16.6670 Y-10.6670
G01 X16.6924 Y-10.6404
G01 X16.7518 Y-10.5749
G01 X16.7640 Y-10.5611
G01 X16.7873 Y-10.5327
G01 X16.8619 Y-10.4321
G01 X16.8723 Y-10.4169
G01 X16.8920 Y-10.3858
G01 X16.9374 Y-10.3100
G01 X16.9556 Y-10.2780
G01 X16.9721 Y-10.2451
G01 X17.0099 Y-10.1653
G01 X17.0248 Y-10.1316
G01 X17.0317 Y-10.1145
G01 X17.0738 Y-9.9966
G01 X17.0845 Y-9.9614
G01 X17.1107 Y-9.8579
G01 X17.1187 Y-9.8220
G01 X17.1221 Y-9.8039
G01 X17.1380 Y-9.6983
G01 X17.1425 Y-9.6618
G01 X17.1452 Y-9.6251
G01 X17.1495 Y-9.5368
G01 X17.1505 Y-9.5000
G01 X17.1502 Y-9.4816
G01 X17.1452 Y-9.3749
G01 X17.1425 Y-9.3382
G01 X17.1380 Y-9.3017
G01 X17.1221 Y-9.1961
G01 X17.1187 Y-9.1780
G01 X17.1107 Y-9.1421
G01 X17.0892 Y-9.0564
G01 X17.0794 Y-9.0209
G01 X17.0678 Y-8.9859
G01 X17.0381 Y-8.9027
G01 X17.0248 Y-8.8684
G01 X17.0176 Y-8.8515
G01 X16.9721 Y-8.7549
G01 X16.9556 Y-8.7220
G01 X16.9374 Y-8.6900
G01 X16.8823 Y-8.5985
G01 X16.8619 Y-8.5679
G01 X16.8511 Y-8.5530
G01 X16.7985 Y-8.4820
G01 X16.7758 Y-8.4530
G01 X16.7518 Y-8.4251
G01 X16.6799 Y-8.3461
G01 X16.6539 Y-8.3201
G01 X16.6404 Y-8.3076
G01 X16.5749 Y-8.2482
G01 X16.5470 Y-8.2242
G01 X16.5180 Y-8.2015
G01 X16.4321 Y-8.1381
G01 X16.4169 Y-8.1277
G01 X16.3858 Y-8.1080
G01 X16.3100 Y-8.0626
G01 X16.2780 Y-8.0444
G01 X16.2451 Y-8.0279
G01 X16.1653 Y-7.9901
G01 X16.1316 Y-7.9752
G01 X16.1145 Y-7.9683
G01 X16.0141 Y-7.9322
G01 X15.9791 Y-7.9206
G01 X15.9436 Y-7.9108
G01 X15.8579 Y-7.8893
G01 X15.8220 Y-7.8813
G01 X15.7857 Y-7.8750
G01 X15.6983 Y-7.8620
G01 X15.6618 Y-7.8575
G01 X15.6434 Y-7.8559
G01 X15.5368 Y-7.8505
G01 X15.5000 Y-7.8495
G01 X14.9902 Y-7.8495
G01 X14.9900 Y-3.4000
G01 X14.9891 Y-3.3632
G01 X14.9864 Y-3.3265
G01 X14.9844 Y-3.3082
G01 X14.9790 Y-3.2718
G01 X14.9756 Y-3.2537
G01 X14.9675 Y-3.2178
G01 X14.9577 Y-3.1823
G01 X14.9521 Y-3.1647
G01 X14.9397 Y-3.1301
G01 X14.9329 Y-3.1130
G01 X14.9180 Y-3.0793
G01 X14.9099 Y-3.0628
G01 X14.9014 Y-3.0465
G01 X14.8833 Y-3.0144
G01 X14.8636 Y-2.9833
G01 X14.8532 Y-2.9681
G01 X14.8424 Y-2.9532
G01 X14.8198 Y-2.9242
G01 X14.8079 Y-2.9101
G01 X14.7832 Y-2.8828
G01 X14.7572 Y-2.8568
G01 X14.7437 Y-2.8443
G01 X14.7299 Y-2.8321
G01 X14.7014 Y-2.8087
G01 X14.6868 Y-2.7976
G01 X14.6567 Y-2.7764
G01 X14.6256 Y-2.7567
G01 X14.6097 Y-2.7474
G01 X14.5772 Y-2.7301
G01 X14.5607 Y-2.7220
G01 X14.5439 Y-2.7143
G01 X14.5099 Y-2.7003
G01 X14.4753 Y-2.6879
G01 X14.4400 Y-2.6772
G01 X14.4222 Y-2.6725
G01 X14.3863 Y-2.6644
G01 X14.3500 Y-2.6581
G01 X14.3135 Y-2.6536
G01 X14.2952 Y-2.6520
G01 X14.2584 Y-2.6502
G01 X14.2400 Y-2.6500
G01 X13.2216 Y-2.6502
G01 X13.1848 Y-2.6520
G01 X13.1482 Y-2.6556
G01 X13.1118 Y-2.6610
G01 X13.0937 Y-2.6644
G01 X13.0578 Y-2.6725
G01 X13.0400 Y-2.6772
G01 X13.0048 Y-2.6878
G01 X12.9874 Y-2.6938
G01 X12.9530 Y-2.7071
G01 X12.9194 Y-2.7220
G01 X12.9028 Y-2.7301
G01 X12.8704 Y-2.7474
G01 X12.8388 Y-2.7663
G01 X12.8082 Y-2.7868
G01 X12.7933 Y-2.7976
G01 X12.7786 Y-2.8087
G01 X12.7502 Y-2.8320
G01 X12.7229 Y-2.8568
G01 X12.6969 Y-2.8828
G01 X12.6843 Y-2.8963
G01 X12.6603 Y-2.9241
G01 X12.6488 Y-2.9385
G01 X12.6269 Y-2.9681
G01 X12.6064 Y-2.9987
G01 X12.5875 Y-3.0302
G01 X12.5701 Y-3.0627
G01 X12.5621 Y-3.0792
G01 X12.5471 Y-3.1129
G01 X12.5339 Y-3.1472
G01 X12.5279 Y-3.1646
G01 X12.5172 Y-3.1998
G01 X12.5083 Y-3.2355
G01 X12.5011 Y-3.2716
G01 X12.4981 Y-3.2898
G01 X12.4936 Y-3.3263
G01 X12.4920 Y-3.3447
G01 X12.4902 Y-3.3814
G01 X12.4900 Y-3.3999
G01 X12.4897 Y-8.8355
G00 Z2.0000
G00 X19.2497 Y-5.8495
G01 F60.00
G01 Z-0.1000
G01 F120.00
G01 X18.9816 Y-5.8498
G01 X18.8749 Y-5.8548
G01 X18.8382 Y-5.8575
G01 X18.8199 Y-5.8595
G01 X18.6961 Y-5.8779
G01 X18.6600 Y-5.8851
G01 X18.5564 Y-5.9108
G01 X18.5209 Y-5.9206
G01 X18.4859 Y-5.9322
G01 X18.4027 Y-5.9619
G01 X18.3684 Y-5.9752
G01 X18.3347 Y-5.9901
G01 X18.2383 Y-6.0360
G01 X18.2059 Y-6.0533
G01 X18.1142 Y-6.1080
G01 X18.0831 Y-6.1277
G01 X18.0530 Y-6.1489
G01 X17.9820 Y-6.2015
G01 X17.9530 Y-6.2242
G01 X17.9251 Y-6.2482
G01 X17.8596 Y-6.3076
G01 X17.8330 Y-6.3330
G01 X17.8076 Y-6.3596
G01 X17.7360 Y-6.4389
G01 X17.7242 Y-6.4530
G01 X17.7015 Y-6.4820
G01 X17.6489 Y-6.5530
G01 X17.6277 Y-6.5831
G01 X17.6080 Y-6.6142
G01 X17.5533 Y-6.7059
G01 X17.5360 Y-6.7383
G01 X17.4901 Y-6.8347
G01 X17.4752 Y-6.8684
G01 X17.4619 Y-6.9027
G01 X17.4322 Y-6.9859
G01 X17.4206 Y-7.0209
G01 X17.4108 Y-7.0564
G01 X17.3893 Y-7.1421
G01 X17.3813 Y-7.1780
G01 X17.3750 Y-7.2143
G01 X17.3595 Y-7.3199
G01 X17.3559 Y-7.3566
G01 X17.3548 Y-7.3749
G01 X17.3505 Y-7.4632
G01 X17.3495 Y-7.5000
G01 X17.3505 Y-7.5368
G01 X17.3548 Y-7.6251
G01 X17.3575 Y-7.6618
G01 X17.3620 Y-7.6983
G01 X17.3750 Y-7.7857
G01 X17.3813 Y-7.8220
G01 X17.3893 Y-7.8579
G01 X17.4108 Y-7.9436
G01 X17.4155 Y-7.9614
G01 X17.4262 Y-7.9966
G01 X17.4619 Y-8.0973
G01 X17.4752 Y-8.1316
G01 X17.4901 Y-8.1653
G01 X17.5360 Y-8.2617
G01 X17.5444 Y-8.2780
G01 X17.5626 Y-8.3100
G01 X17.6080 Y-8.3858
G01 X17.6277 Y-8.4169
G01 X17.6489 Y-8.4470
G01 X17.7127 Y-8.5327
G01 X17.7242 Y-8.5470
G01 X17.7482 Y-8.5749
G01 X17.8076 Y-8.6404
G01 X17.8330 Y-8.6670
G01 X17.8596 Y-8.6924
G01 X17.9251 Y-8.7518
G01 X17.9530 Y-8.7758
G01 X17.9820 Y-8.7985
G01 X18.0530 Y-8.8511
G01 X18.0831 Y-8.8723
G01 X18.1142 Y-8.8920
G01 X18.1900 Y-8.9374
G01 X18.2220 Y-8.9556
G01 X18.2549 Y-8.9721
G01 X18.3347 Y-9.0099
G01 X18.3684 Y-9.0248
G01 X18.4027 Y-9.0381
G01 X18.4859 Y-9.0678
G01 X18.5209 Y-9.0794
G01 X18.5564 Y-9.0892
G01 X18.6421 Y-9.1107
G01 X18.6780 Y-9.1187
G01 X18.7143 Y-9.1250
G01 X18.8017 Y-9.1380
G01 X18.8382 Y-9.1425
G01 X18.8566 Y-9.1441
G01 X18.9632 Y-9.1495
G01 X19.0000 Y-9.1505
G01 X20.5000 Y-9.1505
G01 X20.5368 Y-9.1495
G01 X20.6251 Y-9.1452
G01 X20.6434 Y-9.1441
G01 X20.6801 Y-9.1405
G01 X20.7857 Y-9.1250
G01 X20.8220 Y-9.1187
G01 X20.8579 Y-9.1107
G01 X20.9436 Y-9.0892
G01 X20.9614 Y-9.0845
G01 X20.9966 Y-9.0738
G01 X21.0973 Y-9.0381
G01 X21.1316 Y-9.0248
G01 X21.1653 Y-9.0099
G01 X21.2617 Y-8.9640
G01 X21.2941 Y-8.9467
G01 X21.3100 Y-8.9374
G01 X21.3858 Y-8.8920
G01 X21.4169 Y-8.8723
G01 X21.4470 Y-8.8511
G01 X21.5327 Y-8.7873
G01 X21.5611 Y-8.7640
G01 X21.5749 Y-8.7518
G01 X21.6404 Y-8.6924
G01 X21.6670 Y-8.6670
G01 X21.6924 Y-8.6404
G01 X21.7518 Y-8.5749
G01 X21.7758 Y-8.5470
G01 X21.7985 Y-8.5180
G01 X21.8511 Y-8.4470
G01 X21.8723 Y-8.4169
G01 X21.8823 Y-8.4015
G01 X21.9467 Y-8.2941
G01 X21.9556 Y-8.2780
G01 X21.9721 Y-8.2451
G01 X22.0099 Y-8.1653
G01 X22.0248 Y-8.1316
G01 X22.0381 Y-8.0973
G01 X22.0678 Y-8.0141
G01 X22.0794 Y-7.9791
G01 X22.0845 Y-7.9614
G01 X22.1107 Y-7.8579
G01 X22.1149 Y-7.8400
G01 X22.1221 Y-7.8039
G01 X22.1405 Y-7.6801
G01 X22.1441 Y-7.6434
G01 X22.1452 Y-7.6251
G01 X22.1495 Y-7.5368
G01 X22.1505 Y-7.5000
G01 X22.1495 Y-7.4632
G01 X22.1452 Y-7.3749
G01 X22.1425 Y-7.3382
G01 X22.1380 Y-7.3017
G01 X22.1250 Y-7.2143
G01 X22.1187 Y-7.1780
G01 X22.1107 Y-7.1421
G01 X22.0892 Y-7.0564
G01 X22.0794 Y-7.0209
G01 X22.0678 Y-6.9859
G01 X22.0317 Y-6.8855
G01 X22.0176 Y-6.8515
G01 X22.0099 Y-6.8347
G01 X21.9640 Y-6.7383
G01 X21.9467 Y-6.7059
G01 X21.8920 Y-6.6142
G01 X21.8723 Y-6.5831
G01 X21.8619 Y-6.5679
G01 X21.7985 Y-6.4820
G01 X21.7758 Y-6.4530
G01 X21.7640 Y-6.4389
G01 X21.7503 Y-6.4234
G01 X21.7503 Y-6.3165
G01 X21.7632 Y-6.2957
G01 X21.7725 Y-6.2798
G01 X21.7814 Y-6.2636
G01 X21.7979 Y-6.2308
G01 X21.8129 Y-6.1971
G01 X21.8261 Y-6.1628
G01 X21.8321 Y-6.1454
G01 X21.8428 Y-6.1102
G01 X21.8517 Y-6.0745
G01 X21.8556 Y-6.0564
G01 X21.8619 Y-6.0202
G01 X21.8643 Y-6.0019
G01 X21.8680 Y-5.9653
G01 X21.8691 Y-5.9469
G01 X21.8700 Y-5.9101
G01 X21.8702 Y-4.6551
G01 X21.8700 Y-3.4000
G01 X21.8691 Y-3.3632
G01 X21.8664 Y-3.3265
G01 X21.8619 Y-3.2900
G01 X21.8556 Y-3.2537
G01 X21.8475 Y-3.2178
G01 X21.8428 Y-3.2000
G01 X21.8321 Y-3.1647
G01 X21.8197 Y-3.1301
G01 X21.8057 Y-3.0961
G01 X21.7980 Y-3.0793
G01 X21.7814 Y-3.0465
G01 X21.7726 Y-3.0303
G01 X21.7536 Y-2.9988
G01 X21.7332 Y-2.9681
G01 X21.7113 Y-2.9386
G01 X21.6879 Y-2.9101
G01 X21.6632 Y-2.8828
G01 X21.6372 Y-2.8568
G01 X21.6099 Y-2.8321
G01 X21.5814 Y-2.8087
G01 X21.5668 Y-2.7976
G01 X21.5367 Y-2.7764
G01 X21.5056 Y-2.7567
G01 X21.4897 Y-2.7474
G01 X21.4572 Y-2.7301
G01 X21.4407 Y-2.7220
G01 X21.4239 Y-2.7143
G01 X21.3899 Y-2.7003
G01 X21.3553 Y-2.6879
G01 X21.3200 Y-2.6772
G01 X21.3022 Y-2.6725
G01 X21.2843 Y-2.6682
G01 X21.2482 Y-2.6610
G01 X21.2300 Y-2.6581
G01 X21.1935 Y-2.6536
G01 X21.1568 Y-2.6509
G01 X21.1200 Y-2.6500
G01 X20.1200 Y-2.6500
G01 X20.1016 Y-2.6502
G01 X20.0648 Y-2.6520
G01 X20.0282 Y-2.6556
G01 X19.9918 Y-2.6610
G01 X19.9557 Y-2.6682
G01 X19.9200 Y-2.6772
G01 X19.8847 Y-2.6879
G01 X19.8501 Y-2.7003
G01 X19.8330 Y-2.7071
G01 X19.7993 Y-2.7220
G01 X19.7665 Y-2.7386
G01 X19.7344 Y-2.7567
G01 X19.7188 Y-2.7664
G01 X19.6881 Y-2.7868
G01 X19.6586 Y-2.8087
G01 X19.6301 Y-2.8321
G01 X19.6028 Y-2.8568
G01 X19.5768 Y-2.8828
G01 X19.5521 Y-2.9101
G01 X19.5287 Y-2.9386
G01 X19.5068 Y-2.9681
G01 X19.4964 Y-2.9833
G01 X19.4864 Y-2.9988
G01 X19.4674 Y-3.0303
G01 X19.4501 Y-3.0628
G01 X19.4420 Y-3.0793
G01 X19.4271 Y-3.1130
G01 X19.4203 Y-3.1301
G01 X19.4138 Y-3.1473
G01 X19.4023 Y-3.1823
G01 X19.3925 Y-3.2178
G01 X19.3844 Y-3.2537
G01 X19.3810 Y-3.2718
G01 X19.3781 Y-3.2900
G01 X19.3736 Y-3.3265
G01 X19.3709 Y-3.3632
G01 X19.3700 Y-3.4000
G01 X19.3700 Y-4.2414
G01 X19.3522 Y-4.2796
G01 X19.3449 Y-4.2966
G01 X19.3317 Y-4.3309
G01 X19.3151 Y-4.3771
G01 X19.3091 Y-4.3945
G01 X19.2985 Y-4.4298
G01 X19.2818 Y-4.4952
G01 X19.2738 Y-4.5311
G01 X19.2704 Y-4.5492
G01 X19.2578 Y-4.6342
G01 X19.2542 Y-4.6708
G01 X19.2507 Y-4.7382
G01 X19.2498 Y-4.7750
G01 X19.2497 Y-5.8495
G00 Z2.0000
G00 X24.1536 Y-10.4534
G01 F60.00
G01 Z-0.1000
G01 F120.00
G01 X24.1472 Y-10.4988
G01 X24.1409 Y-10.5351
G01 X24.1328 Y-10.5710
G01 X24.1222 Y-10.6126
G01 X24.1115 Y-10.6479
G01 X24.0972 Y-10.6884
G01 X24.0840 Y-10.7227
G01 X24.0691 Y-10.7564
G01 X24.0505 Y-10.7951
G01 X24.0332 Y-10.8276
G01 X24.0113 Y-10.8645
G01 X23.9916 Y-10.8956
G01 X23.9812 Y-10.9108
G01 X23.9558 Y-10.9455
G01 X23.9331 Y-10.9745
G01 X23.9091 Y-11.0023
G01 X23.8801 Y-11.0340
G01 X19.5001 Y-15.4143
G01 X19.5001 Y-19.4930
G01 X29.8427 Y-9.1505
G01 X29.0000 Y-9.1505
G01 X28.9632 Y-9.1495
G01 X28.8566 Y-9.1441
G01 X28.8382 Y-9.1425
G01 X28.8017 Y-9.1380
G01 X28.7143 Y-9.1250
G01 X28.6780 Y-9.1187
G01 X28.6421 Y-9.1107
G01 X28.6002 Y-9.1002
G01 X28.6149 Y-9.1600
G01 X28.6221 Y-9.1961
G01 X28.6405 Y-9.3199
G01 X28.6425 Y-9.3382
G01 X28.6452 Y-9.3749
G01 X28.6502 Y-9.4816
G01 X28.6505 Y-9.5000
G01 X28.6495 Y-9.5368
G01 X28.6452 Y-9.6251
G01 X28.6425 Y-9.6618
G01 X28.6380 Y-9.6983
G01 X28.6221 Y-9.8039
G01 X28.6187 Y-9.8220
G01 X28.6107 Y-9.8579
G01 X28.5892 Y-9.9436
G01 X28.5794 Y-9.9791
G01 X28.5678 Y-10.0141
G01 X28.5381 Y-10.0973
G01 X28.5248 Y-10.1316
G01 X28.5099 Y-10.1653
G01 X28.4721 Y-10.2451
G01 X28.4556 Y-10.2780
G01 X28.4374 Y-10.3100
G01 X28.3823 Y-10.4015
G01 X28.3619 Y-10.4321
G01 X28.3511 Y-10.4470
G01 X28.2985 Y-10.5180
G01 X28.2758 Y-10.5470
G01 X28.2518 Y-10.5749
G01 X28.1924 Y-10.6404
G01 X28.1670 Y-10.6670
G01 X28.1404 Y-10.6924
G01 X28.0749 Y-10.7518
G01 X28.0470 Y-10.7758
G01 X28.0180 Y-10.7985
G01 X27.9470 Y-10.8511
G01 X27.9169 Y-10.8723
G01 X27.8858 Y-10.8920
G01 X27.8100 Y-10.9374
G01 X27.7780 Y-10.9556
G01 X27.7451 Y-10.9721
G01 X27.6653 Y-11.0099
G01 X27.6316 Y-11.0248
G01 X27.5973 Y-11.0381
G01 X27.5141 Y-11.0678
G01 X27.4791 Y-11.0794
G01 X27.4436 Y-11.0892
G01 X27.3400 Y-11.1149
G01 X27.3220 Y-11.1187
G01 X27.2857 Y-11.1250
G01 X27.1983 Y-11.1380
G01 X27.1618 Y-11.1425
G01 X27.1251 Y-11.1452
G01 X27.0368 Y-11.1495
G01 X27.0000 Y-11.1505
G01 X25.4816 Y-11.1502
G01 X25.3749 Y-11.1452
G01 X25.3382 Y-11.1425
G01 X25.3017 Y-11.1380
G01 X25.2143 Y-11.1250
G01 X25.1780 Y-11.1187
G01 X25.1421 Y-11.1107
G01 X25.0564 Y-11.0892
G01 X25.0209 Y-11.0794
G01 X24.9859 Y-11.0678
G01 X24.9027 Y-11.0381
G01 X24.8684 Y-11.0248
G01 X24.8347 Y-11.0099
G01 X24.7549 Y-10.9721
G01 X24.7220 Y-10.9556
G01 X24.6900 Y-10.9374
G01 X24.5985 Y-10.8823
G01 X24.5679 Y-10.8619
G01 X24.5530 Y-10.8511
G01 X24.4820 Y-10.7985
G01 X24.4530 Y-10.7758
G01 X24.4251 Y-10.7518
G01 X24.3461 Y-10.6799
G01 X24.3330 Y-10.6670
G01 X24.3076 Y-10.6404
G01 X24.2360 Y-10.5611
G01 X24.2127 Y-10.5327
G01 X24.1536 Y-10.4534
G00 Z2.0000
G00 X48.3697 Y-7.8551
G01 F60.00
G01 Z-0.1000
G01 F120.00
G01 X48.3382 Y-7.8575
G01 X48.3017 Y-7.8620
G01 X48.1961 Y-7.8779
G01 X48.1600 Y-7.8851
G01 X48.0564 Y-7.9108
G01 X48.0209 Y-7.9206
G01 X47.9859 Y-7.9322
G01 X47.8855 Y-7.9683
G01 X47.8515 Y-7.9824
G01 X47.8347 Y-7.9901
G01 X47.7383 Y-8.0360
G01 X47.7059 Y-8.0533
G01 X47.6142 Y-8.1080
G01 X47.5831 Y-8.1277
G01 X47.5530 Y-8.1489
G01 X47.4820 Y-8.2015
G01 X47.4673 Y-8.2127
G01 X47.4389 Y-8.2360
G01 X47.3596 Y-8.3076
G01 X47.3330 Y-8.3330
G01 X47.3076 Y-8.3596
G01 X47.2360 Y-8.4389
G01 X47.2127 Y-8.4673
G01 X47.2015 Y-8.4820
G01 X47.1489 Y-8.5530
G01 X47.1277 Y-8.5831
G01 X47.1080 Y-8.6142
G01 X47.0533 Y-8.7059
G01 X47.0360 Y-8.7383
G01 X46.9901 Y-8.8347
G01 X46.9752 Y-8.8684
G01 X46.9619 Y-8.9027
G01 X46.9322 Y-8.9859
G01 X46.9206 Y-9.0209
G01 X46.9108 Y-9.0564
G01 X46.8893 Y-9.1421
G01 X46.8813 Y-9.1780
G01 X46.8779 Y-9.1961
G01 X46.8620 Y-9.3017
G01 X46.8575 Y-9.3382
G01 X46.8548 Y-9.3749
G01 X46.8505 Y-9.4632
G01 X46.8495 Y-9.5000
G01 X46.8505 Y-9.5368
G01 X46.8548 Y-9.6251
G01 X46.8559 Y-9.6434
G01 X46.8595 Y-9.6801
G01 X46.8750 Y-9.7857
G01 X46.8813 Y-9.8220
G01 X46.8893 Y-9.8579
G01 X46.9155 Y-9.9614
G01 X46.9262 Y-9.9966
G01 X46.9322 Y-10.0141
G01 X46.9619 Y-10.0973
G01 X46.9752 Y-10.1316
G01 X46.9901 Y-10.1653
G01 X47.0279 Y-10.2451
G01 X47.0444 Y-10.2780
G01 X47.0626 Y-10.3100
G01 X47.1177 Y-10.4015
G01 X47.1381 Y-10.4321
G01 X47.1489 Y-10.4470
G01 X47.2015 Y-10.5180
G01 X47.2242 Y-10.5470
G01 X47.2482 Y-10.5749
G01 X47.3076 Y-10.6404
G01 X47.3330 Y-10.6670
G01 X47.3596 Y-10.6924
G01 X47.4251 Y-10.7518
G01 X47.4530 Y-10.7758
G01 X47.4820 Y-10.7985
G01 X47.5530 Y-10.8511
G01 X47.5679 Y-10.8619
G01 X47.5985 Y-10.8823
G01 X47.6900 Y-10.9374
G01 X47.7220 Y-10.9556
G01 X47.7549 Y-10.9721
G01 X47.8347 Y-11.0099
G01 X47.8684 Y-11.0248
G01 X47.9027 Y-11.0381
G01 X47.9859 Y-11.0678
G01 X48.0209 Y-11.0794
G01 X48.0564 Y-11.0892
G01 X48.1600 Y-11.1149
G01 X48.1961 Y-11.1221
G01 X48.3017 Y-11.1380
G01 X48.3382 Y-11.1425
G01 X48.3749 Y-11.1452
G01 X48.4816 Y-11.1502
G01 X50.0000 Y-11.1505
G01 X50.0368 Y-11.1495
G01 X50.1251 Y-11.1452
G01 X50.1618 Y-11.1425
G01 X50.1983 Y-11.1380
G01 X50.2857 Y-11.1250
G01 X50.3220 Y-11.1187
G01 X50.3579 Y-11.1107
G01 X50.4436 Y-11.0892
G01 X50.4791 Y-11.0794
G01 X50.5141 Y-11.0678
G01 X50.5973 Y-11.0381
G01 X50.6316 Y-11.0248
G01 X50.6653 Y-11.0099
G01 X50.7451 Y-10.9721
G01 X50.7780 Y-10.9556
G01 X50.8100 Y-10.9374
G01 X50.8858 Y-10.8920
G01 X50.9169 Y-10.8723
G01 X50.9470 Y-10.8511
G01 X51.0180 Y-10.7985
G01 X51.0470 Y-10.7758
G01 X51.0749 Y-10.7518
G01 X51.1404 Y-10.6924
G01 X51.1670 Y-10.6670
G01 X51.1924 Y-10.6404
G01 X51.2518 Y-10.5749
G01 X51.2640 Y-10.5611
G01 X51.2873 Y-10.5327
G01 X51.3619 Y-10.4321
G01 X51.3723 Y-10.4169
G01 X51.3920 Y-10.3858
G01 X51.4467 Y-10.2941
G01 X51.4556 Y-10.2780
G01 X51.4721 Y-10.2451
G01 X51.5099 Y-10.1653
G01 X51.5248 Y-10.1316
G01 X51.5381 Y-10.0973
G01 X51.5678 Y-10.0141
G01 X51.5738 Y-9.9966
G01 X51.5845 Y-9.9614
G01 X51.6149 Y-9.8400
G01 X51.6187 Y-9.8220
G01 X51.6250 Y-9.7857
G01 X51.6380 Y-9.6983
G01 X51.6425 Y-9.6618
G01 X51.6452 Y-9.6251
G01 X51.6495 Y-9.5368
G01 X51.6505 Y-9.5000
G01 X51.6495 Y-9.4632
G01 X51.6452 Y-9.3749
G01 X51.6425 Y-9.3382
G01 X51.6380 Y-9.3017
G01 X51.6250 Y-9.2143
G01 X51.6221 Y-9.1961
G01 X51.6149 Y-9.1600
G01 X51.5845 Y-9.0386
G01 X51.5738 Y-9.0034
G01 X51.5678 Y-8.9859
G01 X51.5381 Y-8.9027
G01 X51.5248 Y-8.8684
G01 X51.5099 Y-8.8347
G01 X51.4721 Y-8.7549
G01 X51.4556 Y-8.7220
G01 X51.4467 Y-8.7059
G01 X51.3823 Y-8.5985
G01 X51.3723 Y-8.5831
G01 X51.3511 Y-8.5530
G01 X51.2985 Y-8.4820
G01 X51.2758 Y-8.4530
G01 X51.2518 Y-8.4251
G01 X51.1924 Y-8.3596
G01 X51.1670 Y-8.3330
G01 X51.1404 Y-8.3076
G01 X51.0749 Y-8.2482
G01 X51.0470 Y-8.2242
G01 X51.0327 Y-8.2127
G01 X50.9321 Y-8.1381
G01 X50.9015 Y-8.1177
G01 X50.8702 Y-8.0987
G01 X50.8700 Y-3.4000
G01 X50.8691 Y-3.3632
G01 X50.8664 Y-3.3265
G01 X50.8619 Y-3.2900
G01 X50.8590 Y-3.2718
G01 X50.8518 Y-3.2357
G01 X50.8475 Y-3.2178
G01 X50.8377 Y-3.1823
G01 X50.8321 Y-3.1647
G01 X50.8197 Y-3.1301
G01 X50.8129 Y-3.1130
G01 X50.7980 Y-3.0793
G01 X50.7814 Y-3.0465
G01 X50.7726 Y-3.0303
G01 X50.7633 Y-3.0144
G01 X50.7436 Y-2.9833
G01 X50.7332 Y-2.9681
G01 X50.7113 Y-2.9386
G01 X50.6879 Y-2.9101
G01 X50.6757 Y-2.8963
G01 X50.6632 Y-2.8828
G01 X50.6372 Y-2.8568
G01 X50.6099 Y-2.8321
G01 X50.5814 Y-2.8087
G01 X50.5668 Y-2.7976
G01 X50.5519 Y-2.7868
G01 X50.5212 Y-2.7664
G01 X50.4897 Y-2.7474
G01 X50.4572 Y-2.7301
G01 X50.4407 Y-2.7220
G01 X50.4070 Y-2.7071
G01 X50.3899 Y-2.7003
G01 X50.3553 Y-2.6879
G01 X50.3200 Y-2.6772
G01 X50.3022 Y-2.6725
G01 X50.2663 Y-2.6644
G01 X50.2300 Y-2.6581
G01 X50.2118 Y-2.6556
G01 X50.1752 Y-2.6520
G01 X50.1384 Y-2.6502
G01 X49.1016 Y-2.6502
G01 X49.0648 Y-2.6520
G01 X49.0282 Y-2.6556
G01 X48.9918 Y-2.6610
G01 X48.9557 Y-2.6682
G01 X48.9200 Y-2.6772
G01 X48.8848 Y-2.6878
G01 X48.8674 Y-2.6938
G01 X48.8501 Y-2.7002
G01 X48.8161 Y-2.7143
G01 X48.7828 Y-2.7301
G01 X48.7665 Y-2.7385
G01 X48.7345 Y-2.7567
G01 X48.7034 Y-2.7764
G01 X48.6882 Y-2.7868
G01 X48.6586 Y-2.8087
G01 X48.6302 Y-2.8320
G01 X48.6029 Y-2.8568
G01 X48.5897 Y-2.8696
G01 X48.5643 Y-2.8963
G01 X48.5403 Y-2.9241
G01 X48.5288 Y-2.9385
G01 X48.5069 Y-2.9681
G01 X48.4864 Y-2.9987
G01 X48.4675 Y-3.0302
G01 X48.4586 Y-3.0464
G01 X48.4501 Y-3.0627
G01 X48.4344 Y-3.0960
G01 X48.4203 Y-3.1300
G01 X48.4079 Y-3.1646
G01 X48.3972 Y-3.1998
G01 X48.3883 Y-3.2355
G01 X48.3811 Y-3.2716
G01 X48.3757 Y-3.3081
G01 X48.3720 Y-3.3447
G01 X48.3702 Y-3.3814
G01 X48.3700 Y-3.3999
G01 X48.3697 Y-7.8551
G00 Z2.0000
G00 X57.9999 Y-6.8146
G01 F60.00
G01 Z-0.1000
G01 F120.00
G01 X57.9999 Y-6.4688
G01 X57.9828 Y-6.4532
G01 X57.9697 Y-6.4403
G01 X57.9443 Y-6.4137
G01 X57.9202 Y-6.3858
G01 X57.8976 Y-6.3568
G01 X57.8764 Y-6.3267
G01 X57.8567 Y-6.2956
G01 X57.8386 Y-6.2635
G01 X57.8220 Y-6.2307
G01 X57.8071 Y-6.1970
G01 X57.7938 Y-6.1627
G01 X57.7823 Y-6.1277
G01 X57.7725 Y-6.0922
G01 X57.7644 Y-6.0563
G01 X57.7581 Y-6.0200
G01 X57.7536 Y-5.9835
G01 X57.7520 Y-5.9652
G01 X57.7502 Y-5.9291
G01 X57.7502 Y-6.4241
G01 X57.7755 Y-6.4533
G01 X57.7981 Y-6.4823
G01 X57.8615 Y-6.5681
G01 X57.8820 Y-6.5987
G01 X57.9370 Y-6.6902
G01 X57.9552 Y-6.7222
G01 X57.9717 Y-6.7551
G01 X57.9999 Y-6.8146
G00 Z2.0000
G00 X13.1482 Y-50.6100
G01 F60.00
G01 Z-0.1000
G01 F120.00
G01 X13.1193 Y-50.5883
G01 X13.0909 Y-50.5650
G01 X13.0153 Y-50.4968
G01 X12.9886 Y-50.4714
G01 X12.9632 Y-50.4447
G01 X12.8950 Y-50.3691
G01 X12.8717 Y-50.3407
G01 X12.8500 Y-50.3118
G01 X12.8283 Y-50.3407
G01 X12.8050 Y-50.3691
G01 X12.7368 Y-50.4447
G01 X12.7114 Y-50.4714
G01 X12.6847 Y-50.4968
G01 X12.6091 Y-50.5650
G01 X12.5807 Y-50.5883
G01 X12.5518 Y-50.6100
G01 X12.5807 Y-50.6317
G01 X12.6091 Y-50.6550
G01 X12.6847 Y-50.7232
G01 X12.7114 Y-50.7486
G01 X12.7368 Y-50.7753
G01 X12.8050 Y-50.8509
G01 X12.8283 Y-50.8793
G01 X12.8500 Y-50.9082
G01 X12.8717 Y-50.8793
G01 X12.8950 Y-50.8509
G01 X12.9632 Y-50.7753
G01 X12.9886 Y-50.7486
G01 X13.0153 Y-50.7232
G01 X13.0909 Y-50.6550
G01 X13.1193 Y-50.6317
G01 X13.1482 Y-50.6100
G00 Z2.0000
G00 X12.8500 Y-52.8518
G01 F60.00
G01 Z-0.1000
G01 F120.00
G01 X12.8283 Y-52.8807
G01 X12.8050 Y-52.9091
G01 X12.7368 Y-52.9847
G01 X12.7114 Y-53.0114
G01 X12.6847 Y-53.0368
G01 X12.6091 Y-53.1050
G01 X12.5807 Y-53.1283
G01 X12.5518 Y-53.1500
G01 X12.5807 Y-53.1717
G01 X12.6091 Y-53.1950
G01 X12.6847 Y-53.2632
G01 X12.7114 Y-53.2886
G01 X12.7368 Y-53.3153
G01 X12.8050 Y-53.3909
G01 X12.8283 Y-53.4193
G01 X12.8500 Y-53.4482
G01 X12.8717 Y-53.4193
G01 X12.8950 Y-53.3909
G01 X12.9632 Y-53.3153
G01 X12.9886 Y-53.2886
G01 X13.0153 Y-53.2632
G01 X13.0909 Y-53.1950
G01 X13.1193 Y-53.1717
G01 X13.1482 Y-53.1500
G01 X13.1193 Y-53.1283
G01 X13.0909 Y-53.1050
G01 X13.0153 Y-53.0368
G01 X12.9886 Y-53.0114
G01 X12.9632 Y-52.9847
G01 X12.8950 Y-52.9091
G01 X12.8717 Y-52.8807
G01 X12.8500 Y-52.8518
G00 Z2.0000
G00 X12.8500 Y-55.3918
G01 F60.00
G01 Z-0.1000
G01 F120.00
G01 X12.8283 Y-55.4207
G01 X12.8050 Y-55.4491
G01 X12.7368 Y-55.5247
G01 X12.7114 Y-55.5514
G01 X12.6847 Y-55.5768
G01 X12.6091 Y-55.6450
G01 X12.5807 Y-55.6683
G01 X12.5518 Y-55.6900
G01 X12.5807 Y-55.7117
G01 X12.6091 Y-55.7350
G01 X12.6847 Y-55.8032
G01 X12.7114 Y-55.8286
G01 X12.7368 Y-55.8553
G01 X12.8050 Y-55.9309
G01 X12.8283 Y-55.9593
G01 X12.8500 Y-55.9882
G01 X12.8717 Y-55.9593
G01 X12.8950 Y-55.9309
G01 X12.9632 Y-55.8553
G01 X12.9886 Y-55.8286
G01 X13.0153 Y-55.8032
G01 X13.0909 Y-55.7350
G01 X13.1193 Y-55.7117
G01 X13.1482 Y-55.6900
G01 X13.1193 Y-55.6683
G01 X13.0909 Y-55.6450
G01 X13.0153 Y-55.5768
G01 X12.9886 Y-55.5514
G01 X12.9632 Y-55.5247
G01 X12.8950 Y-55.4491
G01 X12.8717 Y-55.4207
G01 X12.8500 Y-55.3918
G00 Z2.0000
G00 X12.8500 Y-57.9318
G01 F60.00
G01 Z-0.1000
G01 F120.00
G01 X12.8283 Y-57.9607
G01 X12.8050 Y-57.9891
G01 X12.7368 Y-58.0647
G01 X12.7114 Y-58.0914
G01 X12.6847 Y-58.1168
G01 X12.6091 Y-58.1850
G01 X12.5807 Y-58.2083
G01 X12.5518 Y-58.2300
G01 X12.5807 Y-58.2517
G01 X12.6091 Y-58.2750
G01 X12.6847 Y-58.3432
G01 X12.7114 Y-58.3686
G01 X12.7368 Y-58.3953
G01 X12.8050 Y-58.4709
G01 X12.8283 Y-58.4993
G01 X12.8500 Y-58.5282
G01 X12.8717 Y-58.4993
G01 X12.8950 Y-58.4709
G01 X12.9632 Y-58.3953
G01 X12.9886 Y-58.3686
G01 X13.0153 Y-58.3432
G01 X13.0909 Y-58.2750
G01 X13.1193 Y-58.2517
G01 X13.1482 Y-58.2300
G01 X13.1193 Y-58.2083
G01 X13.0909 Y-58.1850
G01 X13.0153 Y-58.1168
G01 X12.9886 Y-58.0914
G01 X12.9632 Y-58.0647
G01 X12.8950 Y-57.9891
G01 X12.8717 Y-57.9607
G01 X12.8500 Y-57.9318
G00 Z2.0000
G00 X12.8500 Y-60.4718
G01 F60.00
G01 Z-0.1000
G01 F120.00
G01 X12.8283 Y-60.5007
G01 X12.8050 Y-60.5291
G01 X12.7368 Y-60.6047
G01 X12.7114 Y-60.6314
G01 X12.6847 Y-60.6568
G01 X12.6091 Y-60.7250
G01 X12.5807 Y-60.7483
G01 X12.5518 Y-60.7700
G01 X12.5807 Y-60.7917
G01 X12.6091 Y-60.8150
G01 X12.6847 Y-60.8832
G01 X12.7114 Y-60.9086
G01 X12.7368 Y-60.9353
G01 X12.8050 Y-61.0109
G01 X12.8283 Y-61.0393
G01 X12.8500 Y-61.0682
G01 X12.8717 Y-61.0393
G01 X12.8950 Y-61.0109
G01 X12.9632 Y-60.9353
G01 X12.9886 Y-60.9086
G01 X13.0153 Y-60.8832
G01 X13.0909 Y-60.8150
G01 X13.1193 Y-60.7917
G01 X13.1482 Y-60.7700
G01 X13.1193 Y-60.7483
G01 X13.0909 Y-60.7250
G01 X13.0153 Y-60.6568
G01 X12.9886 Y-60.6314
G01 X12.9632 Y-60.6047
G01 X12.8950 Y-60.5291
G01 X12.8717 Y-60.5007
G01 X12.8500 Y-60.4718
G00 Z2.0000
G00 X12.5518 Y-63.3100
G01 F60.00
G01 Z-0.1000
G01 F120.00
G01 X12.5807 Y-63.3317
G01 X12.6091 Y-63.3550
G01 X12.6847 Y-63.4232
G01 X12.7114 Y-63.4486
G01 X12.7368 Y-63.4753
G01 X12.8050 Y-63.5509
G01 X12.8283 Y-63.5793
G01 X12.8500 Y-63.6082
G01 X12.8717 Y-63.5793
G01 X12.8950 Y-63.5509
G01 X12.9632 Y-63.4753
G01 X12.9886 Y-63.4486
G01 X13.0153 Y-63.4232
G01 X13.0909 Y-63.3550
G01 X13.1193 Y-63.3317
G01 X13.1482 Y-63.3100
G01 X13.1193 Y-63.2883
G01 X13.0909 Y-63.2650
G01 X13.0153 Y-63.1968
G01 X12.9886 Y-63.1714
G01 X12.9632 Y-63.1447
G01 X12.8950 Y-63.0691
G01 X12.8717 Y-63.0407
G01 X12.8500 Y-63.0118
G01 X12.8283 Y-63.0407
G01 X12.8050 Y-63.0691
G01 X12.7368 Y-63.1447
G01 X12.7114 Y-63.1714
G01 X12.6847 Y-63.1968
G01 X12.6091 Y-63.2650
G01 X12.5807 Y-63.2883
G01 X12.5518 Y-63.3100
G00 Z2.0000
G00 X12.8500 Y-65.5518
G01 F60.00
G01 Z-0.1000
G01 F120.00
G01 X12.8283 Y-65.5807
G01 X12.8050 Y-65.6091
G01 X12.7368 Y-65.6847
G01 X12.7114 Y-65.7114
G01 X12.6847 Y-65.7368
G01 X12.6091 Y-65.8050
G01 X12.5807 Y-65.8283
G01 X12.5518 Y-65.8500
G01 X12.5807 Y-65.8717
G01 X12.6091 Y-65.8950
G01 X12.6847 Y-65.9632
G01 X12.7114 Y-65.9886
G01 X12.7368 Y-66.0153
G01 X12.8050 Y-66.0909
G01 X12.8283 Y-66.1193
G01 X12.8500 Y-66.1482
G01 X12.8717 Y-66.1193
G01 X12.8950 Y-66.0909
G01 X12.9632 Y-66.0153
G01 X12.9886 Y-65.9886
G01 X13.0153 Y-65.9632
G01 X13.0909 Y-65.8950
G01 X13.1193 Y-65.8717
G01 X13.1482 Y-65.8500
G01 X13.1193 Y-65.8283
G01 X13.0909 Y-65.8050
G01 X13.0153 Y-65.7368
G01 X12.9886 Y-65.7114
G01 X12.9632 Y-65.6847
G01 X12.8950 Y-65.6091
G01 X12.8717 Y-65.5807
G01 X12.8500 Y-65.5518
G00 Z2.0000
G00 X12.5518 Y-68.3900
G01 F60.00
G01 Z-0.1000
G01 F120.00
G01 X12.5807 Y-68.4117
G01 X12.6091 Y-68.4350
G01 X12.6847 Y-68.5032
G01 X12.7114 Y-68.5286
G01 X12.7368 Y-68.5553
G01 X12.8050 Y-68.6309
G01 X12.8283 Y-68.6593
G01 X12.8500 Y-68.6882
G01 X12.8717 Y-68.6593
G01 X12.8950 Y-68.6309
G01 X12.9632 Y-68.5553
G01 X12.9886 Y-68.5286
G01 X13.0153 Y-68.5032
G01 X13.0909 Y-68.4350
G01 X13.1193 Y-68.4117
G01 X13.1482 Y-68.3900
G01 X13.1193 Y-68.3683
G01 X13.0909 Y-68.3450
G01 X13.0153 Y-68.2768
G01 X12.9886 Y-68.2514
G01 X12.9632 Y-68.2247
G01 X12.8950 Y-68.1491
G01 X12.8717 Y-68.1207
G01 X12.8500 Y-68.0918
G01 X12.8283 Y-68.1207
G01 X12.8050 Y-68.1491
G01 X12.7368 Y-68.2247
G01 X12.7114 Y-68.2514
G01 X12.6847 Y-68.2768
G01 X12.6091 Y-68.3450
G01 X12.5807 Y-68.3683
G01 X12.5518 Y-68.3900
G00 Z2.0000
G00 X12.5518 Y-70.9300
G01 F60.00
G01 Z-0.1000
G01 F120.00
G01 X12.5807 Y-70.9517
G01 X12.6091 Y-70.9750
G01 X12.6847 Y-71.0432
G01 X12.7114 Y-71.0686
G01 X12.7368 Y-71.0953
G01 X12.8050 Y-71.1709
G01 X12.8283 Y-71.1993
G01 X12.8500 Y-71.2282
G01 X12.8717 Y-71.1993
G01 X12.8950 Y-71.1709
G01 X12.9632 Y-71.0953
G01 X12.9886 Y-71.0686
G01 X13.0153 Y-71.0432
G01 X13.0909 Y-70.9750
G01 X13.1193 Y-70.9517
G01 X13.1482 Y-70.9300
G01 X13.1193 Y-70.9083
G01 X13.0909 Y-70.8850
G01 X13.0153 Y-70.8168
G01 X12.9886 Y-70.7914
G01 X12.9632 Y-70.7647
G01 X12.8950 Y-70.6891
G01 X12.8717 Y-70.6607
G01 X12.8500 Y-70.6318
G01 X12.8283 Y-70.6607
G01 X12.8050 Y-70.6891
G01 X12.7368 Y-70.7647
G01 X12.7114 Y-70.7914
G01 X12.6847 Y-70.8168
G01 X12.6091 Y-70.8850
G01 X12.5807 Y-70.9083
G01 X12.5518 Y-70.9300
G00 Z2.0000
G00 X12.5518 Y-73.4700
G01 F60.00
G01 Z-0.1000
G01 F120.00
G01 X12.5807 Y-73.4917
G01 X12.6091 Y-73.5150
G01 X12.6847 Y-73.5832
G01 X12.7114 Y-73.6086
G01 X12.7368 Y-73.6353
G01 X12.8050 Y-73.7109
G01 X12.8283 Y-73.7393
G01 X12.8500 Y-73.7682
G01 X12.8717 Y-73.7393
G01 X12.8950 Y-73.7109
G01 X12.9632 Y-73.6353
G01 X12.9886 Y-73.6086
G01 X13.0153 Y-73.5832
G01 X13.0909 Y-73.5150
G01 X13.1193 Y-73.4917
G01 X13.1482 Y-73.4700
G01 X13.1193 Y-73.4483
G01 X13.0909 Y-73.4250
G01 X13.0153 Y-73.3568
G01 X12.9886 Y-73.3314
G01 X12.9632 Y-73.3047
G01 X12.8950 Y-73.2291
G01 X12.8717 Y-73.2007
G01 X12.8500 Y-73.1718
G01 X12.8283 Y-73.2007
G01 X12.8050 Y-73.2291
G01 X12.7368 Y-73.3047
G01 X12.7114 Y-73.3314
G01 X12.6847 Y-73.3568
G01 X12.6091 Y-73.4250
G01 X12.5807 Y-73.4483
G01 X12.5518 Y-73.4700
G00 Z2.0000
G00 X12.5518 Y-76.0100
G01 F60.00
G01 Z-0.1000
G01 F120.00
G01 X12.5807 Y-76.0317
G01 X12.6091 Y-76.0550
G01 X12.6847 Y-76.1232
G01 X12.7114 Y-76.1486
G01 X12.7368 Y-76.1753
G01 X12.8050 Y-76.2509
G01 X12.8283 Y-76.2793
G01 X12.8500 Y-76.3082
G01 X12.8717 Y-76.2793
G01 X12.8950 Y-76.2509
G01 X12.9632 Y-76.1753
G01 X12.9886 Y-76.1486
G01 X13.0153 Y-76.1232
G01 X13.0909 Y-76.0550
G01 X13.1193 Y-76.0317
G01 X13.1482 Y-76.0100
G01 X13.1193 Y-75.9883
G01 X13.0909 Y-75.9650
G01 X13.0153 Y-75.8968
G01 X12.9886 Y-75.8714
G01 X12.9632 Y-75.8447
G01 X12.8950 Y-75.7691
G01 X12.8717 Y-75.7407
G01 X12.8500 Y-75.7118
G01 X12.8283 Y-75.7407
G01 X12.8050 Y-75.7691
G01 X12.7368 Y-75.8447
G01 X12.7114 Y-75.8714
G01 X12.6847 Y-75.8968
G01 X12.6091 Y-75.9650
G01 X12.5807 Y-75.9883
G01 X12.5518 Y-76.0100
G00 Z2.0000
G00 X12.5518 Y-78.5500
G01 F60.00
G01 Z-0.1000
G01 F120.00
G01 X12.5807 Y-78.5717
G01 X12.6091 Y-78.5950
G01 X12.6847 Y-78.6632
G01 X12.7114 Y-78.6886
G01 X12.7368 Y-78.7153
G01 X12.8050 Y-78.7909
G01 X12.8283 Y-78.8193
G01 X12.8500 Y-78.8482
G01 X12.8717 Y-78.8193
G01 X12.8950 Y-78.7909
G01 X12.9632 Y-78.7153
G01 X12.9886 Y-78.6886
G01 X13.0153 Y-78.6632
G01 X13.0909 Y-78.5950
G01 X13.1193 Y-78.5717
G01 X13.1482 Y-78.5500
G01 X13.1193 Y-78.5283
G01 X13.0909 Y-78.5050
G01 X13.0153 Y-78.4368
G01 X12.9886 Y-78.4114
G01 X12.9632 Y-78.3847
G01 X12.8950 Y-78.3091
G01 X12.8717 Y-78.2807
G01 X12.8500 Y-78.2518
G01 X12.8283 Y-78.2807
G01 X12.8050 Y-78.3091
G01 X12.7368 Y-78.3847
G01 X12.7114 Y-78.4114
G01 X12.6847 Y-78.4368
G01 X12.6091 Y-78.5050
G01 X12.5807 Y-78.5283
G01 X12.5518 Y-78.5500
G00 Z2.0000
G00 X12.5518 Y-81.0900
G01 F60.00
G01 Z-0.1000
G01 F120.00
G01 X12.5807 Y-81.1117
G01 X12.6091 Y-81.1350
G01 X12.6847 Y-81.2032
G01 X12.7114 Y-81.2286
G01 X12.7368 Y-81.2553
G01 X12.8050 Y-81.3309
G01 X12.8283 Y-81.3593
G01 X12.8500 Y-81.3882
G01 X12.8717 Y-81.3593
G01 X12.8950 Y-81.3309
G01 X12.9632 Y-81.2553
G01 X12.9886 Y-81.2286
G01 X13.0153 Y-81.2032
G01 X13.0909 Y-81.1350
G01 X13.1193 Y-81.1117
G01 X13.1482 Y-81.0900
G01 X13.1193 Y-81.0683
G01 X13.0909 Y-81.0450
G01 X13.0153 Y-80.9768
G01 X12.9886 Y-80.9514
G01 X12.9632 Y-80.9247
G01 X12.8950 Y-80.8491
G01 X12.8717 Y-80.8207
G01 X12.8500 Y-80.7918
G01 X12.8283 Y-80.8207
G01 X12.8050 Y-80.8491
G01 X12.7368 Y-80.9247
G01 X12.7114 Y-80.9514
G01 X12.6847 Y-80.9768
G01 X12.6091 Y-81.0450
G01 X12.5807 Y-81.0683
G01 X12.5518 Y-81.0900
G00 Z2.0000
G00 X12.8500 Y-83.3318
G01 F60.00
G01 Z-0.1000
G01 F120.00
G01 X12.8283 Y-83.3607
G01 X12.8050 Y-83.3891
G01 X12.7368 Y-83.4647
G01 X12.7114 Y-83.4914
G01 X12.6847 Y-83.5168
G01 X12.6091 Y-83.5850
G01 X12.5807 Y-83.6083
G01 X12.5518 Y-83.6300
G01 X12.5807 Y-83.6517
G01 X12.6091 Y-83.6750
G01 X12.6847 Y-83.7432
G01 X12.7114 Y-83.7686
G01 X12.7368 Y-83.7953
G01 X12.8050 Y-83.8709
G01 X12.8283 Y-83.8993
G01 X12.8500 Y-83.9282
G01 X12.8717 Y-83.8993
G01 X12.8950 Y-83.8709
G01 X12.9632 Y-83.7953
G01 X12.9886 Y-83.7686
G01 X13.0153 Y-83.7432
G01 X13.0909 Y-83.6750
G01 X13.1193 Y-83.6517
G01 X13.1482 Y-83.6300
G01 X13.1193 Y-83.6083
G01 X13.0909 Y-83.5850
G01 X13.0153 Y-83.5168
G01 X12.9886 Y-83.4914
G01 X12.9632 Y-83.4647
G01 X12.8950 Y-83.3891
G01 X12.8717 Y-83.3607
G01 X12.8500 Y-83.3318
G00 Z2.0000
G00 X12.8500 Y-86.4682
G01 F60.00
G01 Z-0.1000
G01 F120.00
G01 X12.8717 Y-86.4393
G01 X12.8950 Y-86.4109
G01 X12.9632 Y-86.3353
G01 X12.9886 Y-86.3086
G01 X13.0153 Y-86.2832
G01 X13.0909 Y-86.2150
G01 X13.1193 Y-86.1917
G01 X13.1482 Y-86.1700
G01 X13.1193 Y-86.1483
G01 X13.0909 Y-86.1250
G01 X13.0153 Y-86.0568
G01 X12.9886 Y-86.0314
G01 X12.9632 Y-86.0047
G01 X12.8950 Y-85.9291
G01 X12.8717 Y-85.9007
G01 X12.8500 Y-85.8718
G01 X12.8283 Y-85.9007
G01 X12.8050 Y-85.9291
G01 X12.7368 Y-86.0047
G01 X12.7114 Y-86.0314
G01 X12.6847 Y-86.0568
G01 X12.6091 Y-86.1250
G01 X12.5807 Y-86.1483
G01 X12.5518 Y-86.1700
G01 X12.5807 Y-86.1917
G01 X12.6091 Y-86.2150
G01 X12.6847 Y-86.2832
G01 X12.7114 Y-86.3086
G01 X12.7368 Y-86.3353
G01 X12.8050 Y-86.4109
G01 X12.8283 Y-86.4393
G01 X12.8500 Y-86.4682
G00 Z2.0000
G00 X12.5518 Y-88.7100
G01 F60.00
G01 Z-0.1000
G01 F120.00
G01 X12.5807 Y-88.7317
G01 X12.6091 Y-88.7550
G01 X12.6847 Y-88.8232
G01 X12.7114 Y-88.8486
G01 X12.7368 Y-88.8753
G01 X12.8050 Y-88.9509
G01 X12.8283 Y-88.9793
G01 X12.8500 Y-89.0082
G01 X12.8717 Y-88.9793
G01 X12.8950 Y-88.9509
G01 X12.9632 Y-88.8753
G01 X12.9886 Y-88.8486
G01 X13.0153 Y-88.8232
G01 X13.0909 Y-88.7550
G01 X13.1193 Y-88.7317
G01 X13.1482 Y-88.7100
G01 X13.1193 Y-88.6883
G01 X13.0909 Y-88.6650
G01 X13.0153 Y-88.5968
G01 X12.9886 Y-88.5714
G01 X12.9632 Y-88.5447
G01 X12.8950 Y-88.4691
G01 X12.8717 Y-88.4407
G01 X12.8500 Y-88.4118
G01 X12.8283 Y-88.4407
G01 X12.8050 Y-88.4691
G01 X12.7368 Y-88.5447
G01 X12.7114 Y-88.5714
G01 X12.6847 Y-88.5968
G01 X12.6091 Y-88.6650
G01 X12.5807 Y-88.6883
G01 X12.5518 Y-88.7100
G00 Z2.0000
G00 X12.8500 Y-91.5482
G01 F60.00
G01 Z-0.1000
G01 F120.00
G01 X12.8717 Y-91.5193
G01 X12.8950 Y-91.4909
G01 X12.9632 Y-91.4153
G01 X12.9886 Y-91.3886
G01 X13.0153 Y-91.3632
G01 X13.0909 Y-91.2950
G01 X13.1193 Y-91.2717
G01 X13.1482 Y-91.2500
G01 X13.1193 Y-91.2283
G01 X13.0909 Y-91.2050
G01 X13.0153 Y-91.1368
G01 X12.9886 Y-91.1114
G01 X12.9632 Y-91.0847
G01 X12.8950 Y-91.0091
G01 X12.8717 Y-90.9807
G01 X12.8500 Y-90.9518
G01 X12.8283 Y-90.9807
G01 X12.8050 Y-91.0091
G01 X12.7368 Y-91.0847
G01 X12.7114 Y-91.1114
G01 X12.6847 Y-91.1368
G01 X12.6091 Y-91.2050
G01 X12.5807 Y-91.2283
G01 X12.5518 Y-91.2500
G01 X12.5807 Y-91.2717
G01 X12.6091 Y-91.2950
G01 X12.6847 Y-91.3632
G01 X12.7114 Y-91.3886
G01 X12.7368 Y-91.4153
G01 X12.8050 Y-91.4909
G01 X12.8283 Y-91.5193
G01 X12.8500 Y-91.5482
G00 Z2.0000
G00 X10.6082 Y-91.2500
G01 F60.00
G01 Z-0.1000
G01 F120.00
G01 X10.5793 Y-91.2283
G01 X10.5509 Y-91.2050
G01 X10.4618 Y-91.1242
G01 X10.4358 Y-91.0982
G01 X10.4232 Y-91.0847
G01 X10.3550 Y-91.0091
G01 X10.3432 Y-90.9950
G01 X10.3205 Y-90.9660
G01 X10.2708 Y-90.8990
G01 X10.2496 Y-90.8689
G01 X10.2300 Y-90.8378
G01 X10.1871 Y-90.7663
G01 X10.1689 Y-90.7342
G01 X10.1604 Y-90.7179
G01 X10.1090 Y-90.6092
G01 X10.0950 Y-90.5752
G01 X10.0885 Y-90.5579
G01 X10.0604 Y-90.4794
G01 X10.0489 Y-90.4445
G01 X10.0391 Y-90.4090
G01 X10.0188 Y-90.3281
G01 X10.0107 Y-90.2921
G01 X10.0074 Y-90.2740
G01 X9.9897 Y-90.1551
G01 X9.9877 Y-90.1368
G01 X9.9850 Y-90.1001
G01 X9.9802 Y-89.9984
G01 X9.9800 Y-89.9800
G01 X9.9809 Y-89.9432
G01 X9.9850 Y-89.8599
G01 X9.9877 Y-89.8232
G01 X9.9922 Y-89.7866
G01 X10.0045 Y-89.7041
G01 X10.0107 Y-89.6679
G01 X10.0146 Y-89.6498
G01 X10.0438 Y-89.5332
G01 X10.0489 Y-89.5155
G01 X10.0604 Y-89.4806
G01 X10.0885 Y-89.4021
G01 X10.1018 Y-89.3677
G01 X10.1167 Y-89.3341
G01 X10.1524 Y-89.2586
G01 X10.1604 Y-89.2421
G01 X10.1778 Y-89.2096
G01 X10.2396 Y-89.1065
G01 X10.2601 Y-89.0759
G01 X10.2708 Y-89.0610
G01 X10.3205 Y-88.9940
G01 X10.3432 Y-88.9650
G01 X10.3672 Y-88.9371
G01 X10.4232 Y-88.8753
G01 X10.4486 Y-88.8486
G01 X10.4618 Y-88.8358
G01 X10.5509 Y-88.7550
G01 X10.5793 Y-88.7317
G01 X10.6082 Y-88.7100
G01 X10.5793 Y-88.6883
G01 X10.5509 Y-88.6650
G01 X10.4618 Y-88.5842
G01 X10.4358 Y-88.5582
G01 X10.4232 Y-88.5447
G01 X10.3550 Y-88.4691
G01 X10.3432 Y-88.4550
G01 X10.3205 Y-88.4260
G01 X10.2708 Y-88.3590
G01 X10.2496 Y-88.3289
G01 X10.2300 Y-88.2978
G01 X10.1871 Y-88.2263
G01 X10.1689 Y-88.1942
G01 X10.1604 Y-88.1779
G01 X10.1090 Y-88.0692
G01 X10.0950 Y-88.0352
G01 X10.0885 Y-88.0179
G01 X10.0604 Y-87.9394
G01 X10.0489 Y-87.9045
G01 X10.0391 Y-87.8690
G01 X10.0188 Y-87.7881
G01 X10.0107 Y-87.7521
G01 X10.0074 Y-87.7340
G01 X9.9897 Y-87.6151
G01 X9.9877 Y-87.5968
G01 X9.9850 Y-87.5601
G01 X9.9802 Y-87.4584
G01 X9.9800 Y-87.4400
G01 X9.9809 Y-87.4032
G01 X9.9850 Y-87.3199
G01 X9.9877 Y-87.2832
G01 X9.9922 Y-87.2466
G01 X10.0045 Y-87.1641
G01 X10.0107 Y-87.1279
G01 X10.0146 Y-87.1098
G01 X10.0438 Y-86.9932
G01 X10.0489 Y-86.9755
G01 X10.0604 Y-86.9406
G01 X10.0885 Y-86.8621
G01 X10.1018 Y-86.8277
G01 X10.1167 Y-86.7941
G01 X10.1524 Y-86.7186
G01 X10.1604 Y-86.7021
G01 X10.1778 Y-86.6696
G01 X10.2396 Y-86.5665
G01 X10.2601 Y-86.5359
G01 X10.2708 Y-86.5210
G01 X10.3205 Y-86.4540
G01 X10.3432 Y-86.4250
G01 X10.3672 Y-86.3971
G01 X10.4232 Y-86.3353
G01 X10.4486 Y-86.3086
G01 X10.4618 Y-86.2958
G01 X10.5509 Y-86.2150
G01 X10.5793 Y-86.1917
G01 X10.6082 Y-86.1700
G01 X10.5793 Y-86.1483
G01 X10.5509 Y-86.1250
G01 X10.4618 Y-86.0442
G01 X10.4358 Y-86.0182
G01 X10.4232 Y-86.0047
G01 X10.3550 Y-85.9291
G01 X10.3432 Y-85.9150
G01 X10.3205 Y-85.8860
G01 X10.2708 Y-85.8190
G01 X10.2496 Y-85.7889
G01 X10.2300 Y-85.7578
G01 X10.1871 Y-85.6863
G01 X10.1689 Y-85.6542
G01 X10.1604 Y-85.6379
G01 X10.1090 Y-85.5292
G01 X10.0950 Y-85.4952
G01 X10.0885 Y-85.4779
G01 X10.0604 Y-85.3994
G01 X10.0489 Y-85.3645
G01 X10.0391 Y-85.3290
G01 X10.0188 Y-85.2481
G01 X10.0107 Y-85.2121
G01 X10.0074 Y-85.1940
G01 X9.9897 Y-85.0751
G01 X9.9877 Y-85.0568
G01 X9.9850 Y-85.0201
G01 X9.9802 Y-84.9184
G01 X9.9800 Y-84.9000
G01 X9.9809 Y-84.8632
G01 X9.9850 Y-84.7799
G01 X9.9877 Y-84.7432
G01 X9.9922 Y-84.7066
G01 X10.0045 Y-84.6241
G01 X10.0107 Y-84.5879
G01 X10.0146 Y-84.5698
G01 X10.0438 Y-84.4532
G01 X10.0489 Y-84.4355
G01 X10.0604 Y-84.4006
G01 X10.0885 Y-84.3221
G01 X10.1018 Y-84.2877
G01 X10.1167 Y-84.2541
G01 X10.1524 Y-84.1786
G01 X10.1604 Y-84.1621
G01 X10.1778 Y-84.1296
G01 X10.2396 Y-84.0265
G01 X10.2601 Y-83.9959
G01 X10.2708 Y-83.9810
G01 X10.3205 Y-83.9140
G01 X10.3432 Y-83.8850
G01 X10.3672 Y-83.8571
G01 X10.4232 Y-83.7953
G01 X10.4486 Y-83.7686
G01 X10.4618 Y-83.7558
G01 X10.5509 Y-83.6750
G01 X10.5793 Y-83.6517
G01 X10.6082 Y-83.6300
G01 X10.5793 Y-83.6083
G01 X10.5509 Y-83.5850
G01 X10.4618 Y-83.5042
G01 X10.4358 Y-83.4782
G01 X10.4232 Y-83.4647
G01 X10.3550 Y-83.3891
G01 X10.3432 Y-83.3750
G01 X10.3205 Y-83.3460
G01 X10.2708 Y-83.2790
G01 X10.2496 Y-83.2489
G01 X10.2300 Y-83.2178
G01 X10.1871 Y-83.1463
G01 X10.1689 Y-83.1142
G01 X10.1604 Y-83.0979
G01 X10.1090 Y-82.9892
G01 X10.0950 Y-82.9552
G01 X10.0885 Y-82.9379
G01 X10.0604 Y-82.8594
G01 X10.0489 Y-82.8245
G01 X10.0391 Y-82.7890
G01 X10.0188 Y-82.7081
G01 X10.0107 Y-82.6721
G01 X10.0074 Y-82.6540
G01 X9.9897 Y-82.5351
G01 X9.9877 Y-82.5168
G01 X9.9850 Y-82.4801
G01 X9.9802 Y-82.3784
G01 X9.9800 Y-82.3600
G01 X9.9809 Y-82.3232
G01 X9.9850 Y-82.2399
G01 X9.9877 Y-82.2032
G01 X9.9922 Y-82.1666
G01 X10.0045 Y-82.0841
G01 X10.0107 Y-82.0479
G01 X10.0146 Y-82.0298
G01 X10.0438 Y-81.9132
G01 X10.0489 Y-81.8955
G01 X10.0604 Y-81.8606
G01 X10.0885 Y-81.7821
G01 X10.1018 Y-81.7477
G01 X10.1167 Y-81.7141
G01 X10.1524 Y-81.6386
G01 X10.1604 Y-81.6221
G01 X10.1778 Y-81.5896
G01 X10.2396 Y-81.4865
G01 X10.2601 Y-81.4559
G01 X10.2708 Y-81.4410
G01 X10.3205 Y-81.3740
G01 X10.3432 Y-81.3450
G01 X10.3672 Y-81.3171
G01 X10.4232 Y-81.2553
G01 X10.4486 Y-81.2286
G01 X10.4618 Y-81.2158
G01 X10.5509 Y-81.1350
G01 X10.5793 Y-81.1117
G01 X10.6082 Y-81.0900
G01 X10.5793 Y-81.0683
G01 X10.5509 Y-81.0450
G01 X10.4618 Y-80.9642
G01 X10.4358 Y-80.9382
G01 X10.4232 Y-80.9247
G01 X10.3550 Y-80.8491
G01 X10.3432 Y-80.8350
G01 X10.3205 Y-80.8060
G01 X10.2708 Y-80.7390
G01 X10.2496 Y-80.7089
G01 X10.2300 Y-80.6778
G01 X10.1871 Y-80.6063
G01 X10.1689 Y-80.5742
G01 X10.1604 Y-80.5579
G01 X10.1090 Y-80.4492
G01 X10.0950 Y-80.4152
G01 X10.0885 Y-80.3979
G01 X10.0604 Y-80.3194
G01 X10.0489 Y-80.2845
G01 X10.0391 Y-80.2490
G01 X10.0188 Y-80.1681
G01 X10.0107 Y-80.1321
G01 X10.0074 Y-80.1140
G01 X9.9897 Y-79.9951
G01 X9.9877 Y-79.9768
G01 X9.9850 Y-79.9401
G01 X9.9802 Y-79.8384
G01 X9.9800 Y-79.8200
G01 X9.9809 Y-79.7832
G01 X9.9850 Y-79.6999
G01 X9.9877 Y-79.6632
G01 X9.9922 Y-79.6266
G01 X10.0045 Y-79.5441
G01 X10.0107 Y-79.5079
G01 X10.0146 Y-79.4898
G01 X10.0438 Y-79.3732
G01 X10.0489 Y-79.3555
G01 X10.0604 Y-79.3206
G01 X10.0885 Y-79.2421
G01 X10.1018 Y-79.2077
G01 X10.1167 Y-79.1741
G01 X10.1524 Y-79.0986
G01 X10.1604 Y-79.0821
G01 X10.1778 Y-79.0496
G01 X10.2396 Y-78.9465
G01 X10.2601 Y-78.9159
G01 X10.2708 Y-78.9010
G01 X10.3205 Y-78.8340
G01 X10.3432 Y-78.8050
G01 X10.3672 Y-78.7771
G01 X10.4232 Y-78.7153
G01 X10.4486 Y-78.6886
G01 X10.4618 Y-78.6758
G01 X10.5509 Y-78.5950
G01 X10.5793 Y-78.5717
G01 X10.6082 Y-78.5500
G01 X10.5793 Y-78.5283
G01 X10.5509 Y-78.5050
G01 X10.4618 Y-78.4242
G01 X10.4358 Y-78.3982
G01 X10.4232 Y-78.3847
G01 X10.3550 Y-78.3091
G01 X10.3432 Y-78.2950
G01 X10.3205 Y-78.2660
G01 X10.2708 Y-78.1990
G01 X10.2496 Y-78.1689
G01 X10.2300 Y-78.1378
G01 X10.1871 Y-78.0663
G01 X10.1689 Y-78.0342
G01 X10.1604 Y-78.0179
G01 X10.1090 Y-77.9092
G01 X10.0950 Y-77.8752
G01 X10.0885 Y-77.8579
G01 X10.0604 Y-77.7794
G01 X10.0489 Y-77.7445
G01 X10.0391 Y-77.7090
G01 X10.0188 Y-77.6281
G01 X10.0107 Y-77.5921
G01 X10.0074 Y-77.5740
G01 X9.9897 Y-77.4551
G01 X9.9877 Y-77.4368
G01 X9.9850 Y-77.4001
G01 X9.9802 Y-77.2984
G01 X9.9800 Y-77.2800
G01 X9.9809 Y-77.2432
G01 X9.9850 Y-77.1599
G01 X9.9877 Y-77.1232
G01 X9.9922 Y-77.0866
G01 X10.0045 Y-77.0041
G01 X10.0107 Y-76.9679
G01 X10.0146 Y-76.9498
G01 X10.0438 Y-76.8332
G01 X10.0489 Y-76.8155
G01 X10.0604 Y-76.7806
G01 X10.0885 Y-76.7021
G01 X10.1018 Y-76.6677
G01 X10.1167 Y-76.6341
G01 X10.1524 Y-76.5586
G01 X10.1604 Y-76.5421
G01 X10.1778 Y-76.5096
G01 X10.2396 Y-76.4065
G01 X10.2601 Y-76.3759
G01 X10.2708 Y-76.3610
G01 X10.3205 Y-76.2940
G01 X10.3432 Y-76.2650
G01 X10.3672 Y-76.2371
G01 X10.4232 Y-76.1753
G01 X10.4486 Y-76.1486
G01 X10.4618 Y-76.1358
G01 X10.5509 Y-76.0550
G01 X10.5793 Y-76.0317
G01 X10.6082 Y-76.0100
G01 X10.5793 Y-75.9883
G01 X10.5509 Y-75.9650
G01 X10.4618 Y-75.8842
G01 X10.4358 Y-75.8582
G01 X10.4232 Y-75.8447
G01 X10.3550 Y-75.7691
G01 X10.3432 Y-75.7550
G01 X10.3205 Y-75.7260
G01 X10.2708 Y-75.6590
G01 X10.2496 Y-75.6289
G01 X10.2300 Y-75.5978
G01 X10.1871 Y-75.5263
G01 X10.1689 Y-75.4942
G01 X10.1604 Y-75.4779
G01 X10.1090 Y-75.3692
G01 X10.0950 Y-75.3352
G01 X10.0885 Y-75.3179
G01 X10.0604 Y-75.2394
G01 X10.0489 Y-75.2045
G01 X10.0391 Y-75.1690
G01 X10.0188 Y-75.0881
G01 X10.0107 Y-75.0521
G01 X10.0074 Y-75.0340
G01 X9.9897 Y-74.9151
G01 X9.9877 Y-74.8968
G01 X9.9850 Y-74.8601
G01 X9.9802 Y-74.7584
G01 X9.9800 Y-74.7400
G01 X9.9809 Y-74.7032
G01 X9.9850 Y-74.6199
G01 X9.9877 Y-74.5832
G01 X9.9922 Y-74.5466
G01 X10.0045 Y-74.4641
G01 X10.0107 Y-74.4279
G01 X10.0146 Y-74.4098
G01 X10.0438 Y-74.2932
G01 X10.0489 Y-74.2755
G01 X10.0604 Y-74.2406
G01 X10.0885 Y-74.1621
G01 X10.1018 Y-74.1277
G01 X10.1167 Y-74.0941
G01 X10.1524 Y-74.0186
G01 X10.1604 Y-74.0021
G01 X10.1778 Y-73.9696
G01 X10.2396 Y-73.8665
G01 X10.2601 Y-73.8359
G01 X10.2708 Y-73.8210
G01 X10.3205 Y-73.7540
G01 X10.3432 Y-73.7250
G01 X10.3672 Y-73.6971
G01 X10.4232 Y-73.6353
G01 X10.4486 Y-73.6086
G01 X10.4618 Y-73.5958
G01 X10.5509 Y-73.5150
G01 X10.5793 Y-73.4917
G01 X10.6082 Y-73.4700
G01 X10.5793 Y-73.4483
G01 X10.5509 Y-73.4250
G01 X10.4618 Y-73.3442
G01 X10.4358 Y-73.3182
G01 X10.4232 Y-73.3047
G01 X10.3550 Y-73.2291
G01 X10.3432 Y-73.2150
G01 X10.3205 Y-73.1860
G01 X10.2708 Y-73.1190
G01 X10.2496 Y-73.0889
G01 X10.2300 Y-73.0578
G01 X10.1871 Y-72.9863
G01 X10.1689 Y-72.9542
G01 X10.1604 Y-72.9379
G01 X10.1090 Y-72.8292
G01 X10.0950 Y-72.7952
G01 X10.0885 Y-72.7779
G01 X10.0604 Y-72.6994
G01 X10.0489 Y-72.6645
G01 X10.0391 Y-72.6290
G01 X10.0188 Y-72.5481
G01 X10.0107 Y-72.5121
G01 X10.0074 Y-72.4940
G01 X9.9897 Y-72.3751
G01 X9.9877 Y-72.3568
G01 X9.9850 Y-72.3201
G01 X9.9802 Y-72.2184
G01 X9.9800 Y-72.2000
G01 X9.9809 Y-72.1632
G01 X9.9850 Y-72.0799
G01 X9.9877 Y-72.0432
G01 X9.9922 Y-72.0066
G01 X10.0045 Y-71.9241
G01 X10.0107 Y-71.8879
G01 X10.0146 Y-71.8698
G01 X10.0438 Y-71.7532
G01 X10.0489 Y-71.7355
G01 X10.0604 Y-71.7006
G01 X10.0885 Y-71.6221
G01 X10.1018 Y-71.5877
G01 X10.1167 Y-71.5541
G01 X10.1524 Y-71.4786
G01 X10.1604 Y-71.4621
G01 X10.1778 Y-71.4296
G01 X10.2396 Y-71.3265
G01 X10.2601 Y-71.2959
G01 X10.2708 Y-71.2810
G01 X10.3205 Y-71.2140
G01 X10.3432 Y-71.1850
G01 X10.3672 Y-71.1571
G01 X10.4232 Y-71.0953
G01 X10.4486 Y-71.0686
G01 X10.4618 Y-71.0558
G01 X10.5509 Y-70.9750
G01 X10.5793 Y-70.9517
G01 X10.6082 Y-70.9300
G01 X10.5793 Y-70.9083
G01 X10.5509 Y-70.8850
G01 X10.4618 Y-70.8042
G01 X10.4358 Y-70.7782
G01 X10.4232 Y-70.7647
G01 X10.3550 Y-70.6891
G01 X10.3432 Y-70.6750
G01 X10.3205 Y-70.6460
G01 X10.2708 Y-70.5790
G01 X10.2496 Y-70.5489
G01 X10.2300 Y-70.5178
G01 X10.1871 Y-70.4463
G01 X10.1689 Y-70.4142
G01 X10.1604 Y-70.3979
G01 X10.1090 Y-70.2892
G01 X10.0950 Y-70.2552
G01 X10.0885 Y-70.2379
G01 X10.0604 Y-70.1594
G01 X10.0489 Y-70.1245
G01 X10.0391 Y-70.0890
G01 X10.0188 Y-70.0081
G01 X10.0107 Y-69.9721
G01 X10.0074 Y-69.9540
G01 X9.9897 Y-69.8351
G01 X9.9877 Y-69.8168
G01 X9.9850 Y-69.7801
G01 X9.9802 Y-69.6784
G01 X9.9800 Y-69.6600
G01 X9.9809 Y-69.6232
G01 X9.9850 Y-69.5399
G01 X9.9877 Y-69.5032
G01 X9.9922 Y-69.4666
G01 X10.0045 Y-69.3841
G01 X10.0107 Y-69.3479
G01 X10.0146 Y-69.3298
G01 X10.0438 Y-69.2132
G01 X10.0489 Y-69.1955
G01 X10.0604 Y-69.1606
G01 X10.0885 Y-69.0821
G01 X10.1018 Y-69.0477
G01 X10.1167 Y-69.0141
G01 X10.1524 Y-68.9386
G01 X10.1604 Y-68.9221
G01 X10.1778 Y-68.8896
G01 X10.2396 Y-68.7865
G01 X10.2601 Y-68.7559
G01 X10.2708 Y-68.7410
G01 X10.3205 Y-68.6740
G01 X10.3432 Y-68.6450
G01 X10.3672 Y-68.6171
G01 X10.4232 Y-68.5553
G01 X10.4486 Y-68.5286
G01 X10.4618 Y-68.5158
G01 X10.5509 Y-68.4350
G01 X10.5793 Y-68.4117
G01 X10.6082 Y-68.3900
G01 X10.5793 Y-68.3683
G01 X10.5509 Y-68.3450
G01 X10.4618 Y-68.2642
G01 X10.4358 Y-68.2382
G01 X10.4232 Y-68.2247
G01 X10.3550 Y-68.1491
G01 X10.3432 Y-68.1350
G01 X10.3205 Y-68.1060
G01 X10.2708 Y-68.0390
G01 X10.2496 Y-68.0089
G01 X10.2300 Y-67.9778
G01 X10.1871 Y-67.9063
G01 X10.1689 Y-67.8742
G01 X10.1604 Y-67.8579
G01 X10.1090 Y-67.7492
G01 X10.0950 Y-67.7152
G01 X10.0885 Y-67.6979
G01 X10.0604 Y-67.6194
G01 X10.0489 Y-67.5845
G01 X10.0391 Y-67.5490
G01 X10.0188 Y-67.4681
G01 X10.0107 Y-67.4321
G01 X10.0074 Y-67.4140
G01 X9.9897 Y-67.2951
G01 X9.9877 Y-67.2768
G01 X9.9850 Y-67.2401
G01 X9.9802 Y-67.1384
G01 X9.9800 Y-67.1200
G01 X9.9809 Y-67.0832
G01 X9.9850 Y-66.9999
G01 X9.9877 Y-66.9632
G01 X9.9922 Y-66.9266
G01 X10.0045 Y-66.8441
G01 X10.0107 Y-66.8079
G01 X10.0146 Y-66.7898
G01 X10.0438 Y-66.6732
G01 X10.0489 Y-66.6555
G01 X10.0604 Y-66.6206
G01 X10.0885 Y-66.5421
G01 X10.1018 Y-66.5077
G01 X10.1167 Y-66.4741
G01 X10.1524 Y-66.3986
G01 X10.1604 Y-66.3821
G01 X10.1778 Y-66.3496
G01 X10.2396 Y-66.2465
G01 X10.2601 Y-66.2159
G01 X10.2708 Y-66.2010
G01 X10.3205 Y-66.1340
G01 X10.3432 Y-66.1050
G01 X10.3672 Y-66.0771
G01 X10.4232 Y-66.0153
G01 X10.4486 Y-65.9886
G01 X10.4618 Y-65.9758
G01 X10.5509 Y-65.8950
G01 X10.5793 Y-65.8717
G01 X10.6082 Y-65.8500
G01 X10.5793 Y-65.8283
G01 X10.5509 Y-65.8050
G01 X10.4618 Y-65.7242
G01 X10.4358 Y-65.6982
G01 X10.4232 Y-65.6847
G01 X10.3550 Y-65.6091
G01 X10.3432 Y-65.5950
G01 X10.3205 Y-65.5660
G01 X10.2708 Y-65.4990
G01 X10.2496 Y-65.4689
G01 X10.2300 Y-65.4378
G01 X10.1871 Y-65.3663
G01 X10.1689 Y-65.3342
G01 X10.1604 Y-65.3179
G01 X10.1167 Y-65.2259
G01 X10.1090 Y-65.2092
G01 X10.0950 Y-65.1752
G01 X10.0545 Y-65.0620
G01 X10.0438 Y-65.0268
G01 X10.0391 Y-65.0090
G01 X10.0188 Y-64.9281
G01 X10.0107 Y-64.8921
G01 X10.0045 Y-64.8559
G01 X9.9922 Y-64.7734
G01 X9.9877 Y-64.7368
G01 X9.9861 Y-64.7185
G01 X9.9809 Y-64.6168
G01 X9.9802 Y-64.5984
G01 X9.9802 Y-64.5616
G01 X9.9850 Y-64.4599
G01 X9.9877 Y-64.4232
G01 X9.9922 Y-64.3866
G01 X10.0045 Y-64.3041
G01 X10.0107 Y-64.2679
G01 X10.0146 Y-64.2498
G01 X10.0438 Y-64.1332
G01 X10.0489 Y-64.1155
G01 X10.0604 Y-64.0806
G01 X10.0885 Y-64.0021
G01 X10.1018 Y-63.9677
G01 X10.1167 Y-63.9341
G01 X10.1524 Y-63.8586
G01 X10.1689 Y-63.8258
G01 X10.1778 Y-63.8096
G01 X10.2396 Y-63.7065
G01 X10.2496 Y-63.6911
G01 X10.2708 Y-63.6610
G01 X10.3205 Y-63.5940
G01 X10.3432 Y-63.5650
G01 X10.3672 Y-63.5371
G01 X10.4232 Y-63.4753
G01 X10.4358 Y-63.4618
G01 X10.4618 Y-63.4358
G01 X10.5509 Y-63.3550
G01 X10.5793 Y-63.3317
G01 X10.6082 Y-63.3100
G01 X10.5793 Y-63.2883
G01 X10.5509 Y-63.2650
G01 X10.4618 Y-63.1842
G01 X10.4486 Y-63.1714
G01 X10.4232 Y-63.1447
G01 X10.3550 Y-63.0691
G01 X10.3432 Y-63.0550
G01 X10.3205 Y-63.0260
G01 X10.2708 Y-62.9590
G01 X10.2496 Y-62.9289
G01 X10.2300 Y-62.8978
G01 X10.1871 Y-62.8263
G01 X10.1689 Y-62.7942
G01 X10.1604 Y-62.7779
G01 X10.1167 Y-62.6859
G01 X10.1090 Y-62.6692
G01 X10.0950 Y-62.6352
G01 X10.0545 Y-62.5220
G01 X10.0438 Y-62.4868
G01 X10.0391 Y-62.4690
G01 X10.0146 Y-62.3702
G01 X10.0074 Y-62.3340
G01 X10.0045 Y-62.3159
G01 X9.9922 Y-62.2334
G01 X9.9877 Y-62.1968
G01 X9.9850 Y-62.1601
G01 X9.9809 Y-62.0768
G01 X9.9802 Y-62.0584
G01 X9.9802 Y-62.0216
G01 X9.9850 Y-61.9199
G01 X9.9877 Y-61.8832
G01 X9.9922 Y-61.8466
G01 X10.0045 Y-61.7641
G01 X10.0074 Y-61.7460
G01 X10.0146 Y-61.7098
G01 X10.0438 Y-61.5932
G01 X10.0489 Y-61.5755
G01 X10.0604 Y-61.5406
G01 X10.0885 Y-61.4621
G01 X10.1018 Y-61.4277
G01 X10.1167 Y-61.3941
G01 X10.1524 Y-61.3186
G01 X10.1689 Y-61.2858
G01 X10.1778 Y-61.2696
G01 X10.2396 Y-61.1665
G01 X10.2601 Y-61.1359
G01 X10.2708 Y-61.1210
G01 X10.3205 Y-61.0540
G01 X10.3432 Y-61.0250
G01 X10.3672 Y-60.9971
G01 X10.4232 Y-60.9353
G01 X10.4358 Y-60.9218
G01 X10.4618 Y-60.8958
G01 X10.5509 Y-60.8150
G01 X10.5793 Y-60.7917
G01 X10.6082 Y-60.7700
G01 X10.5793 Y-60.7483
G01 X10.5509 Y-60.7250
G01 X10.4618 Y-60.6442
G01 X10.4486 Y-60.6314
G01 X10.4232 Y-60.6047
G01 X10.3550 Y-60.5291
G01 X10.3432 Y-60.5150
G01 X10.3205 Y-60.4860
G01 X10.2708 Y-60.4190
G01 X10.2496 Y-60.3889
G01 X10.2300 Y-60.3578
G01 X10.1871 Y-60.2863
G01 X10.1689 Y-60.2542
G01 X10.1524 Y-60.2214
G01 X10.1167 Y-60.1459
G01 X10.1018 Y-60.1123
G01 X10.0885 Y-60.0779
G01 X10.0604 Y-59.9994
G01 X10.0489 Y-59.9645
G01 X10.0391 Y-59.9290
G01 X10.0188 Y-59.8481
G01 X10.0146 Y-59.8302
G01 X10.0074 Y-59.7940
G01 X9.9897 Y-59.6751
G01 X9.9877 Y-59.6568
G01 X9.9850 Y-59.6201
G01 X9.9809 Y-59.5368
G01 X9.9800 Y-59.5000
G01 X9.9809 Y-59.4632
G01 X9.9850 Y-59.3799
G01 X9.9861 Y-59.3615
G01 X9.9897 Y-59.3249
G01 X10.0074 Y-59.2060
G01 X10.0146 Y-59.1698
G01 X10.0188 Y-59.1519
G01 X10.0391 Y-59.0710
G01 X10.0489 Y-59.0355
G01 X10.0604 Y-59.0006
G01 X10.0885 Y-58.9221
G01 X10.0950 Y-58.9048
G01 X10.1090 Y-58.8708
G01 X10.1524 Y-58.7786
G01 X10.1689 Y-58.7458
G01 X10.1871 Y-58.7137
G01 X10.2300 Y-58.6422
G01 X10.2396 Y-58.6265
G01 X10.2601 Y-58.5959
G01 X10.3317 Y-58.4993
G01 X10.3550 Y-58.4709
G01 X10.4232 Y-58.3953
G01 X10.4358 Y-58.3818
G01 X10.4618 Y-58.3558
G01 X10.5509 Y-58.2750
G01 X10.5793 Y-58.2517
G01 X10.6082 Y-58.2300
G01 X10.5793 Y-58.2083
G01 X10.5509 Y-58.1850
G01 X10.4618 Y-58.1042
G01 X10.4486 Y-58.0914
G01 X10.4232 Y-58.0647
G01 X10.3550 Y-57.9891
G01 X10.3432 Y-57.9750
G01 X10.3205 Y-57.9460
G01 X10.2708 Y-57.8790
G01 X10.2496 Y-57.8489
G01 X10.2300 Y-57.8178
G01 X10.1871 Y-57.7463
G01 X10.1689 Y-57.7142
G01 X10.1524 Y-57.6814
G01 X10.1167 Y-57.6059
G01 X10.1018 Y-57.5723
G01 X10.0885 Y-57.5379
G01 X10.0604 Y-57.4594
G01 X10.0489 Y-57.4245
G01 X10.0391 Y-57.3890
G01 X10.0188 Y-57.3081
G01 X10.0107 Y-57.2721
G01 X10.0045 Y-57.2359
G01 X9.9922 Y-57.1534
G01 X9.9877 Y-57.1168
G01 X9.9861 Y-57.0985
G01 X9.9802 Y-56.9784
G01 X9.9802 Y-56.9416
G01 X9.9809 Y-56.9232
G01 X9.9850 Y-56.8399
G01 X9.9877 Y-56.8032
G01 X9.9922 Y-56.7666
G01 X10.0045 Y-56.6841
G01 X10.0074 Y-56.6660
G01 X10.0146 Y-56.6298
G01 X10.0391 Y-56.5310
G01 X10.0489 Y-56.4955
G01 X10.0604 Y-56.4606
G01 X10.0885 Y-56.3821
G01 X10.0950 Y-56.3648
G01 X10.1090 Y-56.3308
G01 X10.1524 Y-56.2386
G01 X10.1689 Y-56.2058
G01 X10.1871 Y-56.1737
G01 X10.2300 Y-56.1022
G01 X10.2396 Y-56.0865
G01 X10.2601 Y-56.0559
G01 X10.3317 Y-55.9593
G01 X10.3550 Y-55.9309
G01 X10.4232 Y-55.8553
G01 X10.4358 Y-55.8418
G01 X10.4618 Y-55.8158
G01 X10.5509 Y-55.7350
G01 X10.5793 Y-55.7117
G01 X10.6082 Y-55.6900
G01 X10.5793 Y-55.6683
G01 X10.5509 Y-55.6450
G01 X10.4618 Y-55.5642
G01 X10.4486 Y-55.5514
G01 X10.4232 Y-55.5247
G01 X10.3550 Y-55.4491
G01 X10.3432 Y-55.4350
G01 X10.3205 Y-55.4060
G01 X10.2708 Y-55.3390
G01 X10.2496 Y-55.3089
G01 X10.2300 Y-55.2778
G01 X10.1778 Y-55.1904
G01 X10.1604 Y-55.1579
G01 X10.1524 Y-55.1414
G01 X10.1167 Y-55.0659
G01 X10.1018 Y-55.0323
G01 X10.0885 Y-54.9979
G01 X10.0604 Y-54.9194
G01 X10.0489 Y-54.8845
G01 X10.0391 Y-54.8490
G01 X10.0188 Y-54.7681
G01 X10.0107 Y-54.7321
G01 X10.0045 Y-54.6959
G01 X9.9922 Y-54.6134
G01 X9.9877 Y-54.5768
G01 X9.9850 Y-54.5401
G01 X9.9802 Y-54.4384
G01 X9.9802 Y-54.4016
G01 X9.9809 Y-54.3832
G01 X9.9850 Y-54.2999
G01 X9.9877 Y-54.2632
G01 X9.9922 Y-54.2266
G01 X10.0045 Y-54.1441
G01 X10.0074 Y-54.1260
G01 X10.0146 Y-54.0898
G01 X10.0391 Y-53.9910
G01 X10.0489 Y-53.9555
G01 X10.0604 Y-53.9206
G01 X10.0885 Y-53.8421
G01 X10.0950 Y-53.8248
G01 X10.1090 Y-53.7908
G01 X10.1524 Y-53.6986
G01 X10.1689 Y-53.6658
G01 X10.1871 Y-53.6337
G01 X10.2300 Y-53.5622
G01 X10.2396 Y-53.5465
G01 X10.2601 Y-53.5159
G01 X10.3317 Y-53.4193
G01 X10.3550 Y-53.3909
G01 X10.4232 Y-53.3153
G01 X10.4358 Y-53.3018
G01 X10.4618 Y-53.2758
G01 X10.5509 Y-53.1950
G01 X10.5793 Y-53.1717
G01 X10.6082 Y-53.1500
G01 X10.5793 Y-53.1283
G01 X10.5650 Y-53.1168
G01 X10.5371 Y-53.0928
G01 X10.4618 Y-53.0242
G01 X10.4486 Y-53.0114
G01 X10.4232 Y-52.9847
G01 X10.3550 Y-52.9091
G01 X10.3317 Y-52.8807
G01 X10.2601 Y-52.7841
G01 X10.2396 Y-52.7535
G01 X10.2300 Y-52.7378
G01 X10.1778 Y-52.6504
G01 X10.1604 Y-52.6179
G01 X10.1167 Y-52.5259
G01 X10.1090 Y-52.5092
G01 X10.0950 Y-52.4752
G01 X10.0604 Y-52.3794
G01 X10.0545 Y-52.3620
G01 X10.0438 Y-52.3268
G01 X10.0146 Y-52.2102
G01 X10.0074 Y-52.1740
G01 X10.0045 Y-52.1559
G01 X9.9922 Y-52.0734
G01 X9.9877 Y-52.0368
G01 X9.9850 Y-52.0001
G01 X9.9809 Y-51.9168
G01 X9.9802 Y-51.8984
G01 X9.9802 Y-51.8616
G01 X9.9850 Y-51.7599
G01 X9.9877 Y-51.7232
G01 X9.9922 Y-51.6866
G01 X10.0074 Y-51.5860
G01 X10.0146 Y-51.5498
G01 X10.0188 Y-51.5319
G01 X10.0391 Y-51.4510
G01 X10.0489 Y-51.4155
G01 X10.0604 Y-51.3806
G01 X10.0950 Y-51.2848
G01 X10.1090 Y-51.2508
G01 X10.1167 Y-51.2341
G01 X10.1604 Y-51.1421
G01 X10.1778 Y-51.1096
G01 X10.2300 Y-51.0222
G01 X10.2496 Y-50.9911
G01 X10.2708 Y-50.9610
G01 X10.3205 Y-50.8940
G01 X10.3317 Y-50.8793
G01 X10.3550 Y-50.8509
G01 X10.4232 Y-50.7753
G01 X10.4486 Y-50.7486
G01 X10.4753 Y-50.7232
G01 X10.5509 Y-50.6550
G01 X10.5793 Y-50.6317
G01 X10.6082 Y-50.6100
G01 X10.5793 Y-50.5883
G01 X10.5509 Y-50.5650
G01 X10.4618 Y-50.4842
G01 X10.4486 Y-50.4714
G01 X10.4232 Y-50.4447
G01 X10.3550 Y-50.3691
G01 X10.3317 Y-50.3407
G01 X10.2708 Y-50.2590
G01 X10.2496 Y-50.2289
G01 X10.2300 Y-50.1978
G01 X10.1871 Y-50.1263
G01 X10.1689 Y-50.0942
G01 X10.1604 Y-50.0779
G01 X10.1167 Y-49.9859
G01 X10.1018 Y-49.9523
G01 X10.0885 Y-49.9179
G01 X10.0545 Y-49.8220
G01 X10.0438 Y-49.7868
G01 X10.0391 Y-49.7690
G01 X10.0188 Y-49.6881
G01 X10.0107 Y-49.6521
G01 X10.0045 Y-49.6159
G01 X9.9922 Y-49.5334
G01 X9.9877 Y-49.4968
G01 X9.9861 Y-49.4785
G01 X9.9809 Y-49.3768
G01 X9.9800 Y-49.3400
G01 X9.9809 Y-49.3032
G01 X9.9850 Y-49.2199
G01 X9.9861 Y-49.2015
G01 X9.9897 Y-49.1649
G01 X10.0045 Y-49.0641
G01 X10.0107 Y-49.0279
G01 X10.0188 Y-48.9919
G01 X10.0391 Y-48.9110
G01 X10.0489 Y-48.8755
G01 X10.0604 Y-48.8406
G01 X10.0885 Y-48.7621
G01 X10.1018 Y-48.7277
G01 X10.1167 Y-48.6941
G01 X10.1604 Y-48.6021
G01 X10.1778 Y-48.5696
G01 X10.1871 Y-48.5537
G01 X10.2396 Y-48.4665
G01 X10.2601 Y-48.4359
G01 X10.3205 Y-48.3540
G01 X10.3317 Y-48.3393
G01 X10.3550 Y-48.3109
G01 X10.4232 Y-48.2353
G01 X10.4486 Y-48.2086
G01 X10.4753 Y-48.1832
G01 X10.5371 Y-48.1272
G01 X10.5650 Y-48.1032
G01 X10.5940 Y-48.0805
G01 X10.6610 Y-48.0308
G01 X10.6911 Y-48.0096
G01 X10.7222 Y-47.9900
G01 X10.7937 Y-47.9471
G01 X10.8258 Y-47.9289
G01 X10.8586 Y-47.9124
G01 X10.9341 Y-47.8767
G01 X10.9677 Y-47.8618
G01 X11.0021 Y-47.8485
G01 X11.0806 Y-47.8204
G01 X11.1155 Y-47.8089
G01 X11.1510 Y-47.7991
G01 X11.2319 Y-47.7788
G01 X11.2679 Y-47.7707
G01 X11.3041 Y-47.7645
G01 X11.3866 Y-47.7522
G01 X11.4232 Y-47.7477
G01 X11.4599 Y-47.7450
G01 X11.5432 Y-47.7409
G01 X11.5616 Y-47.7402
G01 X11.5984 Y-47.7402
G01 X11.7001 Y-47.7450
G01 X11.7368 Y-47.7477
G01 X11.7734 Y-47.7522
G01 X11.8559 Y-47.7645
G01 X11.8921 Y-47.7707
G01 X11.9102 Y-47.7746
G01 X12.0268 Y-47.8038
G01 X12.0445 Y-47.8089
G01 X12.0794 Y-47.8204
G01 X12.1579 Y-47.8485
G01 X12.1923 Y-47.8618
G01 X12.2259 Y-47.8767
G01 X12.3014 Y-47.9124
G01 X12.3342 Y-47.9289
G01 X12.3504 Y-47.9378
G01 X12.4535 Y-47.9996
G01 X12.4841 Y-48.0201
G01 X12.4990 Y-48.0308
G01 X12.5660 Y-48.0805
G01 X12.5950 Y-48.1032
G01 X12.6229 Y-48.1272
G01 X12.6847 Y-48.1832
G01 X12.6982 Y-48.1958
G01 X12.7242 Y-48.2218
G01 X12.8050 Y-48.3109
G01 X12.8283 Y-48.3393
G01 X12.8500 Y-48.3682
G01 X12.8717 Y-48.3393
G01 X12.8950 Y-48.3109
G01 X12.9632 Y-48.2353
G01 X12.9758 Y-48.2218
G01 X13.0018 Y-48.1958
G01 X13.0771 Y-48.1272
G01 X13.1050 Y-48.1032
G01 X13.1340 Y-48.0805
G01 X13.2159 Y-48.0201
G01 X13.2465 Y-47.9996
G01 X13.3337 Y-47.9471
G01 X13.3658 Y-47.9289
G01 X13.3986 Y-47.9124
G01 X13.4741 Y-47.8767
G01 X13.5077 Y-47.8618
G01 X13.5421 Y-47.8485
G01 X13.6380 Y-47.8145
G01 X13.6732 Y-47.8038
G01 X13.7719 Y-47.7788
G01 X13.8079 Y-47.7707
G01 X13.8441 Y-47.7645
G01 X13.9266 Y-47.7522
G01 X13.9632 Y-47.7477
G01 X13.9999 Y-47.7450
G01 X14.0832 Y-47.7409
G01 X14.1200 Y-47.7400
G01 X14.1568 Y-47.7409
G01 X14.2585 Y-47.7461
G01 X14.2951 Y-47.7497
G01 X14.3134 Y-47.7522
G01 X14.3959 Y-47.7645
G01 X14.4321 Y-47.7707
G01 X14.4681 Y-47.7788
G01 X14.5668 Y-47.8038
G01 X14.5845 Y-47.8089
G01 X14.6194 Y-47.8204
G01 X14.6979 Y-47.8485
G01 X14.7323 Y-47.8618
G01 X14.7659 Y-47.8767
G01 X14.8579 Y-47.9204
G01 X14.8904 Y-47.9378
G01 X14.9063 Y-47.9471
G01 X14.9778 Y-47.9900
G01 X15.0089 Y-48.0096
G01 X15.0390 Y-48.0308
G01 X15.1060 Y-48.0805
G01 X15.1350 Y-48.1032
G01 X15.1491 Y-48.1150
G01 X15.2247 Y-48.1832
G01 X15.2514 Y-48.2086
G01 X15.2768 Y-48.2353
G01 X15.3450 Y-48.3109
G01 X15.3683 Y-48.3393
G01 X15.3795 Y-48.3540
G01 X15.4292 Y-48.4210
G01 X15.4504 Y-48.4511
G01 X15.4700 Y-48.4822
G01 X15.5222 Y-48.5696
G01 X15.5396 Y-48.6021
G01 X15.5476 Y-48.6186
G01 X15.5833 Y-48.6941
G01 X15.5982 Y-48.7277
G01 X15.6115 Y-48.7621
G01 X15.6455 Y-48.8580
G01 X15.6562 Y-48.8932
G01 X15.6637 Y-48.9220
G01 X16.4999 Y-48.0857
G01 X16.4999 Y-43.6846
G01 X16.4723 Y-43.7302
G01 X16.4519 Y-43.7608
G01 X16.4411 Y-43.7757
G01 X16.2949 Y-43.9728
G01 X16.2723 Y-44.0018
G01 X16.2604 Y-44.0159
G01 X16.0835 Y-44.2114
G01 X16.0581 Y-44.2381
G01 X16.0314 Y-44.2635
G01 X15.8497 Y-44.4282
G01 X15.8218 Y-44.4523
G01 X15.7928 Y-44.4749
G01 X15.5957 Y-44.6211
G01 X15.5656 Y-44.6423
G01 X15.5345 Y-44.6620
G01 X15.3241 Y-44.7881
G01 X15.2920 Y-44.8062
G01 X15.2592 Y-44.8228
G01 X15.0374 Y-44.9277
G01 X15.0037 Y-44.9426
G01 X14.9694 Y-44.9559
G01 X14.7384 Y-45.0385
G01 X14.7034 Y-45.0501
G01 X14.6679 Y-45.0599
G01 X14.4300 Y-45.1195
G01 X14.3940 Y-45.1276
G01 X14.3578 Y-45.1338
G01 X14.1151 Y-45.1698
G01 X14.0786 Y-45.1744
G01 X14.0418 Y-45.1771
G01 X13.7968 Y-45.1891
G01 X13.7600 Y-45.1900
G01 X13.7232 Y-45.1891
G01 X13.4782 Y-45.1771
G01 X13.4414 Y-45.1744
G01 X13.4049 Y-45.1698
G01 X13.1622 Y-45.1338
G01 X13.1260 Y-45.1276
G01 X13.0900 Y-45.1195
G01 X12.8521 Y-45.0599
G01 X12.8343 Y-45.0552
G01 X12.7990 Y-45.0445
G01 X12.5506 Y-44.9559
G01 X12.5163 Y-44.9426
G01 X12.4826 Y-44.9277
G01 X12.2608 Y-44.8228
G01 X12.2280 Y-44.8062
G01 X12.1959 Y-44.7881
G01 X11.9855 Y-44.6620
G01 X11.9544 Y-44.6423
G01 X11.9243 Y-44.6211
G01 X11.7272 Y-44.4749
G01 X11.6982 Y-44.4523
G01 X11.6703 Y-44.4282
G01 X11.4886 Y-44.2635
G01 X11.4619 Y-44.2381
G01 X11.4365 Y-44.2114
G01 X11.2718 Y-44.0297
G01 X11.2477 Y-44.0018
G01 X11.2251 Y-43.9728
G01 X11.0789 Y-43.7757
G01 X11.0577 Y-43.7456
G01 X11.0380 Y-43.7145
G01 X10.9119 Y-43.5041
G01 X10.8938 Y-43.4720
G01 X10.8772 Y-43.4392
G01 X10.7723 Y-43.2174
G01 X10.7574 Y-43.1837
G01 X10.7441 Y-43.1494
G01 X10.6615 Y-42.9184
G01 X10.6499 Y-42.8834
G01 X10.6401 Y-42.8479
G01 X10.5805 Y-42.6100
G01 X10.5724 Y-42.5740
G01 X10.5662 Y-42.5378
G01 X10.5302 Y-42.2951
G01 X10.5256 Y-42.2586
G01 X10.5229 Y-42.2218
G01 X10.5109 Y-41.9768
G01 X10.5100 Y-41.9400
G01 X10.5109 Y-41.9032
G01 X10.5241 Y-41.6398
G01 X10.5256 Y-41.6214
G01 X10.5302 Y-41.5849
G01 X10.5662 Y-41.3422
G01 X10.5724 Y-41.3060
G01 X10.5805 Y-41.2700
G01 X10.6401 Y-41.0321
G01 X10.6499 Y-40.9966
G01 X10.6615 Y-40.9616
G01 X10.7441 Y-40.7306
G01 X10.7574 Y-40.6963
G01 X10.7723 Y-40.6626
G01 X10.8772 Y-40.4408
G01 X10.8938 Y-40.4080
G01 X10.9119 Y-40.3759
G01 X11.0380 Y-40.1655
G01 X11.0577 Y-40.1344
G01 X11.0789 Y-40.1043
G01 X11.2251 Y-39.9072
G01 X11.2477 Y-39.8782
G01 X11.2718 Y-39.8503
G01 X11.4365 Y-39.6686
G01 X11.4619 Y-39.6419
G01 X11.4886 Y-39.6165
G01 X11.6703 Y-39.4518
G01 X11.6982 Y-39.4277
G01 X11.7272 Y-39.4051
G01 X11.9243 Y-39.2589
G01 X11.9544 Y-39.2377
G01 X11.9855 Y-39.2180
G01 X12.1959 Y-39.0919
G01 X12.2280 Y-39.0738
G01 X12.2608 Y-39.0572
G01 X12.4826 Y-38.9523
G01 X12.5163 Y-38.9374
G01 X12.5506 Y-38.9241
G01 X12.7816 Y-38.8415
G01 X12.8166 Y-38.8299
G01 X12.8521 Y-38.8201
G01 X13.0900 Y-38.7605
G01 X13.1260 Y-38.7524
G01 X13.1622 Y-38.7462
G01 X13.4049 Y-38.7102
G01 X13.4414 Y-38.7056
G01 X13.4782 Y-38.7029
G01 X13.7232 Y-38.6909
G01 X13.7600 Y-38.6900
G01 X13.7968 Y-38.6909
G01 X14.0418 Y-38.7029
G01 X14.0786 Y-38.7056
G01 X14.1151 Y-38.7102
G01 X14.3578 Y-38.7462
G01 X14.3940 Y-38.7524
G01 X14.4300 Y-38.7605
G01 X14.6679 Y-38.8201
G01 X14.7034 Y-38.8299
G01 X14.7384 Y-38.8415
G01 X14.9694 Y-38.9241
G01 X15.0037 Y-38.9374
G01 X15.0374 Y-38.9523
G01 X15.2592 Y-39.0572
G01 X15.2920 Y-39.0738
G01 X15.3241 Y-39.0919
G01 X15.5345 Y-39.2180
G01 X15.5656 Y-39.2377
G01 X15.5957 Y-39.2589
G01 X15.7928 Y-39.4051
G01 X15.8218 Y-39.4277
G01 X15.8497 Y-39.4518
G01 X16.0314 Y-39.6165
G01 X16.0581 Y-39.6419
G01 X16.0835 Y-39.6686
G01 X16.2604 Y-39.8641
G01 X16.2723 Y-39.8782
G01 X16.2949 Y-39.9072
G01 X16.4411 Y-40.1043
G01 X16.4623 Y-40.1344
G01 X16.4723 Y-40.1498
G01 X16.4999 Y-40.1954
G01 X16.4999 Y-18.9143
G01 X10.4928 Y-12.9072
G01 X10.4799 Y-12.8940
G01 X10.4509 Y-12.8623
G01 X10.4269 Y-12.8345
G01 X10.4154 Y-12.8201
G01 X10.3788 Y-12.7708
G01 X10.3684 Y-12.7556
G01 X10.3487 Y-12.7245
G01 X10.3268 Y-12.6876
G01 X10.3180 Y-12.6715
G01 X10.3095 Y-12.6551
G01 X10.2909 Y-12.6164
G01 X10.2833 Y-12.5996
G01 X10.2692 Y-12.5656
G01 X10.2502 Y-12.5130
G01 X10.2502 Y-32.5854
G01 X10.2784 Y-32.6237
G01 X10.2988 Y-32.6543
G01 X10.3488 Y-32.7373
G01 X10.3670 Y-32.7693
G01 X10.3755 Y-32.7857
G01 X10.4171 Y-32.8732
G01 X10.4320 Y-32.9068
G01 X10.4453 Y-32.9412
G01 X10.4777 Y-33.0325
G01 X10.4884 Y-33.0677
G01 X10.5122 Y-33.1617
G01 X10.5202 Y-33.1976
G01 X10.5265 Y-33.2339
G01 X10.5380 Y-33.3115
G01 X10.5425 Y-33.3481
G01 X10.5452 Y-33.3848
G01 X10.5491 Y-33.4632
G01 X10.5500 Y-33.5000
G01 X10.5491 Y-33.5368
G01 X10.5441 Y-33.6336
G01 X10.5425 Y-33.6519
G01 X10.5380 Y-33.6885
G01 X10.5265 Y-33.7661
G01 X10.5202 Y-33.8024
G01 X10.5122 Y-33.8383
G01 X10.4884 Y-33.9323
G01 X10.4777 Y-33.9675
G01 X10.4717 Y-33.9849
G01 X10.4453 Y-34.0588
G01 X10.4320 Y-34.0932
G01 X10.4171 Y-34.1268
G01 X10.3755 Y-34.2143
G01 X10.3670 Y-34.2307
G01 X10.3488 Y-34.2627
G01 X10.3085 Y-34.3300
G01 X10.2888 Y-34.3611
G01 X10.2676 Y-34.3912
G01 X10.2208 Y-34.4543
G01 X10.2097 Y-34.4689
G01 X10.1863 Y-34.4974
G01 X10.1214 Y-34.5694
G01 X10.0960 Y-34.5960
G01 X10.0694 Y-34.6214
G01 X9.9974 Y-34.6863
G01 X9.9833 Y-34.6982
G01 X9.9543 Y-34.7208
G01 X9.8912 Y-34.7676
G01 X9.8611 Y-34.7888
G01 X9.8300 Y-34.8085
G01 X9.7503 Y-34.8561
G01 X9.7502 Y-90.9821
G01 X10.0379 Y-91.2697
G01 X10.5819 Y-91.2698
G01 X10.6082 Y-91.2500
G00 Z2.0000
G00 X7.8502 Y-92.6184
G01 F60.00
G01 Z-0.1000
G01 F120.00
G01 X7.8502 Y-93.0821
G01 X8.5779 Y-93.8097
G01 X10.5819 Y-93.8098
G01 X10.6082 Y-93.7900
G01 X10.5819 Y-93.7703
G01 X9.5200 Y-93.7702
G01 X9.4832 Y-93.7693
G01 X9.4158 Y-93.7658
G01 X9.3792 Y-93.7622
G01 X9.3124 Y-93.7525
G01 X9.2761 Y-93.7462
G01 X9.2402 Y-93.7382
G01 X9.1748 Y-93.7215
G01 X9.1395 Y-93.7109
G01 X9.0759 Y-93.6883
G01 X9.0416 Y-93.6751
G01 X9.0079 Y-93.6602
G01 X8.9635 Y-93.6392
G01 X8.9306 Y-93.6226
G01 X8.8986 Y-93.6045
G01 X8.8408 Y-93.5696
G01 X8.8102 Y-93.5491
G01 X8.7559 Y-93.5091
G01 X8.7268 Y-93.4865
G01 X8.6990 Y-93.4624
G01 X8.6626 Y-93.4294
G01 X8.6359 Y-93.4041
G01 X7.8502 Y-92.6184
G00 Z2.0000
G00 X12.8500 Y-94.0882
G01 F60.00
G01 Z-0.1000
G01 F120.00
G01 X12.8717 Y-94.0593
G01 X12.8950 Y-94.0309
G01 X12.9632 Y-93.9553
G01 X12.9886 Y-93.9286
G01 X13.0153 Y-93.9032
G01 X13.0909 Y-93.8350
G01 X13.1193 Y-93.8117
G01 X13.1482 Y-93.7900
G01 X13.1193 Y-93.7683
G01 X13.0909 Y-93.7450
G01 X13.0153 Y-93.6768
G01 X12.9886 Y-93.6514
G01 X12.9632 Y-93.6247
G01 X12.8950 Y-93.5491
G01 X12.8717 Y-93.5207
G01 X12.8500 Y-93.4918
G01 X12.8283 Y-93.5207
G01 X12.8050 Y-93.5491
G01 X12.7368 Y-93.6247
G01 X12.7114 Y-93.6514
G01 X12.6847 Y-93.6768
G01 X12.6091 Y-93.7450
G01 X12.5807 Y-93.7683
G01 X12.5518 Y-93.7900
G01 X12.5807 Y-93.8117
G01 X12.6091 Y-93.8350
G01 X12.6847 Y-93.9032
G01 X12.7114 Y-93.9286
G01 X12.7368 Y-93.9553
G01 X12.8050 Y-94.0309
G01 X12.8283 Y-94.0593
G01 X12.8500 Y-94.0882
G00 Z2.0000
G00 X12.5518 Y-96.3300
G01 F60.00
G01 Z-0.1000
G01 F120.00
G01 X12.5807 Y-96.3517
G01 X12.5950 Y-96.3632
G01 X12.6167 Y-96.3817
G01 X12.6267 Y-96.3644
G01 X12.6364 Y-96.3488
G01 X12.6464 Y-96.3333
G01 X12.6676 Y-96.3032
G01 X12.6902 Y-96.2742
G01 X12.7021 Y-96.2601
G01 X12.7143 Y-96.2463
G01 X12.7397 Y-96.2197
G01 X12.7528 Y-96.2068
G01 X12.7801 Y-96.1821
G01 X12.7942 Y-96.1702
G01 X12.8232 Y-96.1476
G01 X12.8381 Y-96.1368
G01 X12.8688 Y-96.1164
G01 X12.8844 Y-96.1067
G01 X12.9017 Y-96.0967
G01 X12.8832 Y-96.0750
G01 X12.8717 Y-96.0607
G01 X12.8500 Y-96.0318
G01 X12.8283 Y-96.0607
G01 X12.8050 Y-96.0891
G01 X12.7368 Y-96.1647
G01 X12.7114 Y-96.1914
G01 X12.6847 Y-96.2168
G01 X12.6091 Y-96.2850
G01 X12.5807 Y-96.3083
G01 X12.5518 Y-96.3300
G00 Z2.0000
G00 X11.6168 Y-99.1991
G01 F60.00
G01 Z-0.1000
G01 F120.00
G01 X11.7001 Y-99.1950
G01 X11.7368 Y-99.1923
G01 X11.7734 Y-99.1878
G01 X11.8559 Y-99.1755
G01 X11.8921 Y-99.1693
G01 X11.9281 Y-99.1612
G01 X12.0090 Y-99.1409
G01 X12.0445 Y-99.1311
G01 X12.0794 Y-99.1196
G01 X12.1752 Y-99.0850
G01 X12.1923 Y-99.0782
G01 X12.2259 Y-99.0633
G01 X12.3179 Y-99.0196
G01 X12.3504 Y-99.0022
G01 X12.4378 Y-98.9500
G01 X12.4689 Y-98.9304
G01 X12.4990 Y-98.9092
G01 X12.5807 Y-98.8483
G01 X12.5950 Y-98.8368
G01 X12.6167 Y-98.8183
G01 X12.6267 Y-98.8356
G01 X12.6364 Y-98.8512
G01 X12.6568 Y-98.8819
G01 X12.6676 Y-98.8968
G01 X12.6902 Y-98.9258
G01 X12.7143 Y-98.9537
G01 X12.7397 Y-98.9803
G01 X12.7663 Y-99.0057
G01 X12.7942 Y-99.0298
G01 X12.8232 Y-99.0524
G01 X12.8381 Y-99.0632
G01 X12.8688 Y-99.0836
G01 X12.9003 Y-99.1026
G01 X12.9165 Y-99.1114
G01 X12.9328 Y-99.1199
G01 X12.9661 Y-99.1357
G01 X13.0001 Y-99.1497
G01 X13.0347 Y-99.1621
G01 X13.0700 Y-99.1728
G01 X13.0878 Y-99.1775
G01 X13.1237 Y-99.1856
G01 X13.1600 Y-99.1919
G01 X13.1965 Y-99.1964
G01 X13.2148 Y-99.1980
G01 X13.2516 Y-99.1998
G01 X13.2700 Y-99.2000
G01 X14.9700 Y-99.2000
G01 X15.0068 Y-99.1991
G01 X15.0435 Y-99.1964
G01 X15.0800 Y-99.1919
G01 X15.0982 Y-99.1890
G01 X15.1343 Y-99.1818
G01 X15.1522 Y-99.1775
G01 X15.1877 Y-99.1677
G01 X15.2227 Y-99.1562
G01 X15.2570 Y-99.1429
G01 X15.2907 Y-99.1280
G01 X15.3072 Y-99.1199
G01 X15.3397 Y-99.1026
G01 X15.3556 Y-99.0933
G01 X15.3867 Y-99.0736
G01 X15.4168 Y-99.0524
G01 X15.4458 Y-99.0298
G01 X15.4599 Y-99.0179
G01 X15.4872 Y-98.9932
G01 X15.5003 Y-98.9803
G01 X15.5257 Y-98.9537
G01 X15.5498 Y-98.9258
G01 X15.5613 Y-98.9114
G01 X15.5832 Y-98.8819
G01 X15.6036 Y-98.8512
G01 X15.6133 Y-98.8356
G01 X15.6314 Y-98.8035
G01 X15.6480 Y-98.7707
G01 X15.6557 Y-98.7539
G01 X15.6697 Y-98.7199
G01 X15.6821 Y-98.6853
G01 X15.6928 Y-98.6500
G01 X15.6975 Y-98.6322
G01 X15.7018 Y-98.6143
G01 X15.7090 Y-98.5782
G01 X15.7119 Y-98.5600
G01 X15.7164 Y-98.5235
G01 X15.7191 Y-98.4868
G01 X15.7200 Y-98.4500
G01 X15.7200 Y-96.7500
G01 X15.7191 Y-96.7132
G01 X15.7180 Y-96.6948
G01 X15.7144 Y-96.6582
G01 X15.7119 Y-96.6400
G01 X15.7056 Y-96.6037
G01 X15.6975 Y-96.5678
G01 X15.6877 Y-96.5323
G01 X15.6821 Y-96.5147
G01 X15.6697 Y-96.4801
G01 X15.6557 Y-96.4461
G01 X15.6480 Y-96.4293
G01 X15.6314 Y-96.3965
G01 X15.6133 Y-96.3644
G01 X15.5936 Y-96.3333
G01 X15.5832 Y-96.3181
G01 X15.5613 Y-96.2886
G01 X15.5379 Y-96.2601
G01 X15.5132 Y-96.2328
G01 X15.4872 Y-96.2068
G01 X15.4737 Y-96.1943
G01 X15.4458 Y-96.1702
G01 X15.4314 Y-96.1587
G01 X15.4019 Y-96.1368
G01 X15.3712 Y-96.1164
G01 X15.3556 Y-96.1067
G01 X15.3383 Y-96.0967
G01 X15.3568 Y-96.0750
G01 X15.3795 Y-96.0460
G01 X15.4292 Y-95.9790
G01 X15.4504 Y-95.9489
G01 X15.4700 Y-95.9178
G01 X15.5129 Y-95.8463
G01 X15.5311 Y-95.8142
G01 X15.5476 Y-95.7814
G01 X15.5833 Y-95.7059
G01 X15.5982 Y-95.6723
G01 X15.6115 Y-95.6379
G01 X15.6396 Y-95.5594
G01 X15.6511 Y-95.5245
G01 X15.6609 Y-95.4890
G01 X15.6812 Y-95.4081
G01 X15.6893 Y-95.3721
G01 X15.6955 Y-95.3359
G01 X15.7078 Y-95.2534
G01 X15.7123 Y-95.2168
G01 X15.7150 Y-95.1801
G01 X15.7191 Y-95.0968
G01 X15.7200 Y-95.0600
G01 X15.7191 Y-95.0232
G01 X15.7150 Y-94.9399
G01 X15.7123 Y-94.9032
G01 X15.7103 Y-94.8849
G01 X15.6955 Y-94.7841
G01 X15.6893 Y-94.7479
G01 X15.6812 Y-94.7119
G01 X15.6609 Y-94.6310
G01 X15.6511 Y-94.5955
G01 X15.6396 Y-94.5606
G01 X15.6115 Y-94.4821
G01 X15.5982 Y-94.4477
G01 X15.5833 Y-94.4141
G01 X15.5476 Y-94.3386
G01 X15.5311 Y-94.3058
G01 X15.5222 Y-94.2896
G01 X15.4700 Y-94.2022
G01 X15.4504 Y-94.1711
G01 X15.4292 Y-94.1410
G01 X15.3795 Y-94.0740
G01 X15.3568 Y-94.0450
G01 X15.3450 Y-94.0309
G01 X15.2768 Y-93.9553
G01 X15.2642 Y-93.9418
G01 X15.2382 Y-93.9158
G01 X15.1491 Y-93.8350
G01 X15.1207 Y-93.8117
G01 X15.0918 Y-93.7900
G01 X15.1207 Y-93.7683
G01 X15.1491 Y-93.7450
G01 X15.2382 Y-93.6642
G01 X15.2514 Y-93.6514
G01 X15.2768 Y-93.6247
G01 X15.3450 Y-93.5491
G01 X15.3683 Y-93.5207
G01 X15.3795 Y-93.5060
G01 X15.4292 Y-93.4390
G01 X15.4504 Y-93.4089
G01 X15.4700 Y-93.3778
G01 X15.5222 Y-93.2904
G01 X15.5396 Y-93.2579
G01 X15.5476 Y-93.2414
G01 X15.5833 Y-93.1659
G01 X15.5982 Y-93.1323
G01 X15.6115 Y-93.0979
G01 X15.6396 Y-93.0194
G01 X15.6511 Y-92.9845
G01 X15.6609 Y-92.9490
G01 X15.6812 Y-92.8681
G01 X15.6893 Y-92.8321
G01 X15.6955 Y-92.7959
G01 X15.7078 Y-92.7134
G01 X15.7123 Y-92.6768
G01 X15.7150 Y-92.6401
G01 X15.7198 Y-92.5384
G01 X15.7198 Y-92.5016
G01 X15.7191 Y-92.4832
G01 X15.7150 Y-92.3999
G01 X15.7123 Y-92.3632
G01 X15.7078 Y-92.3266
G01 X15.6955 Y-92.2441
G01 X15.6893 Y-92.2079
G01 X15.6854 Y-92.1898
G01 X15.6609 Y-92.0910
G01 X15.6511 Y-92.0555
G01 X15.6396 Y-92.0206
G01 X15.6115 Y-91.9421
G01 X15.6050 Y-91.9248
G01 X15.5910 Y-91.8908
G01 X15.5396 Y-91.7821
G01 X15.5222 Y-91.7496
G01 X15.5129 Y-91.7337
G01 X15.4700 Y-91.6622
G01 X15.4504 Y-91.6311
G01 X15.4292 Y-91.6010
G01 X15.3683 Y-91.5193
G01 X15.3450 Y-91.4909
G01 X15.2768 Y-91.4153
G01 X15.2642 Y-91.4018
G01 X15.2382 Y-91.3758
G01 X15.1491 Y-91.2950
G01 X15.1207 Y-91.2717
G01 X15.0918 Y-91.2500
G01 X15.1207 Y-91.2283
G01 X15.1491 Y-91.2050
G01 X15.2247 Y-91.1368
G01 X15.2514 Y-91.1114
G01 X15.2768 Y-91.0847
G01 X15.3450 Y-91.0091
G01 X15.3683 Y-90.9807
G01 X15.3795 Y-90.9660
G01 X15.4292 Y-90.8990
G01 X15.4504 Y-90.8689
G01 X15.4700 Y-90.8378
G01 X15.5222 Y-90.7504
G01 X15.5396 Y-90.7179
G01 X15.5833 Y-90.6259
G01 X15.5982 Y-90.5923
G01 X15.6050 Y-90.5752
G01 X15.6396 Y-90.4794
G01 X15.6511 Y-90.4445
G01 X15.6609 Y-90.4090
G01 X15.6812 Y-90.3281
G01 X15.6854 Y-90.3102
G01 X15.6926 Y-90.2740
G01 X15.7078 Y-90.1734
G01 X15.7123 Y-90.1368
G01 X15.7150 Y-90.1001
G01 X15.7198 Y-89.9984
G01 X15.7198 Y-89.9616
G01 X15.7191 Y-89.9432
G01 X15.7150 Y-89.8599
G01 X15.7123 Y-89.8232
G01 X15.7078 Y-89.7866
G01 X15.6955 Y-89.7041
G01 X15.6893 Y-89.6679
G01 X15.6854 Y-89.6498
G01 X15.6562 Y-89.5332
G01 X15.6511 Y-89.5155
G01 X15.6396 Y-89.4806
G01 X15.6050 Y-89.3848
G01 X15.5910 Y-89.3508
G01 X15.5833 Y-89.3341
G01 X15.5396 Y-89.2421
G01 X15.5222 Y-89.2096
G01 X15.4700 Y-89.1222
G01 X15.4604 Y-89.1065
G01 X15.4399 Y-89.0759
G01 X15.3683 Y-88.9793
G01 X15.3450 Y-88.9509
G01 X15.2768 Y-88.8753
G01 X15.2642 Y-88.8618
G01 X15.2382 Y-88.8358
G01 X15.1629 Y-88.7672
G01 X15.1350 Y-88.7432
G01 X15.1207 Y-88.7317
G01 X15.0918 Y-88.7100
G01 X15.1207 Y-88.6883
G01 X15.1491 Y-88.6650
G01 X15.2382 Y-88.5842
G01 X15.2514 Y-88.5714
G01 X15.2768 Y-88.5447
G01 X15.3450 Y-88.4691
G01 X15.3683 Y-88.4407
G01 X15.4292 Y-88.3590
G01 X15.4504 Y-88.3289
G01 X15.4700 Y-88.2978
G01 X15.5129 Y-88.2263
G01 X15.5222 Y-88.2104
G01 X15.5396 Y-88.1779
G01 X15.5910 Y-88.0692
G01 X15.6050 Y-88.0352
G01 X15.6115 Y-88.0179
G01 X15.6396 Y-87.9394
G01 X15.6511 Y-87.9045
G01 X15.6609 Y-87.8690
G01 X15.6812 Y-87.7881
G01 X15.6854 Y-87.7702
G01 X15.6926 Y-87.7340
G01 X15.7103 Y-87.6151
G01 X15.7139 Y-87.5785
G01 X15.7150 Y-87.5601
G01 X15.7191 Y-87.4768
G01 X15.7200 Y-87.4400
G01 X15.7191 Y-87.4032
G01 X15.7150 Y-87.3199
G01 X15.7123 Y-87.2832
G01 X15.7103 Y-87.2649
G01 X15.6926 Y-87.1460
G01 X15.6893 Y-87.1279
G01 X15.6812 Y-87.0919
G01 X15.6609 Y-87.0110
G01 X15.6511 Y-86.9755
G01 X15.6396 Y-86.9406
G01 X15.6115 Y-86.8621
G01 X15.5982 Y-86.8277
G01 X15.5833 Y-86.7941
G01 X15.5476 Y-86.7186
G01 X15.5311 Y-86.6858
G01 X15.5129 Y-86.6537
G01 X15.4700 Y-86.5822
G01 X15.4504 Y-86.5511
G01 X15.4292 Y-86.5210
G01 X15.3795 Y-86.4540
G01 X15.3568 Y-86.4250
G01 X15.3450 Y-86.4109
G01 X15.2768 Y-86.3353
G01 X15.2642 Y-86.3218
G01 X15.2382 Y-86.2958
G01 X15.1491 Y-86.2150
G01 X15.1207 Y-86.1917
G01 X15.0918 Y-86.1700
G01 X15.1207 Y-86.1483
G01 X15.1491 Y-86.1250
G01 X15.2382 Y-86.0442
G01 X15.2514 Y-86.0314
G01 X15.2768 Y-86.0047
G01 X15.3328 Y-85.9429
G01 X15.3568 Y-85.9150
G01 X15.3795 Y-85.8860
G01 X15.4292 Y-85.8190
G01 X15.4399 Y-85.8041
G01 X15.4604 Y-85.7735
G01 X15.5222 Y-85.6704
G01 X15.5396 Y-85.6379
G01 X15.5476 Y-85.6214
G01 X15.5833 Y-85.5459
G01 X15.5982 Y-85.5123
G01 X15.6115 Y-85.4779
G01 X15.6396 Y-85.3994
G01 X15.6511 Y-85.3645
G01 X15.6562 Y-85.3468
G01 X15.6854 Y-85.2302
G01 X15.6926 Y-85.1940
G01 X15.6955 Y-85.1759
G01 X15.7078 Y-85.0934
G01 X15.7123 Y-85.0568
G01 X15.7150 Y-85.0201
G01 X15.7198 Y-84.9184
G01 X15.7198 Y-84.8816
G01 X15.7191 Y-84.8632
G01 X15.7139 Y-84.7615
G01 X15.7123 Y-84.7432
G01 X15.7078 Y-84.7066
G01 X15.6955 Y-84.6241
G01 X15.6893 Y-84.5879
G01 X15.6812 Y-84.5519
G01 X15.6609 Y-84.4710
G01 X15.6511 Y-84.4355
G01 X15.6455 Y-84.4180
G01 X15.6050 Y-84.3048
G01 X15.5910 Y-84.2708
G01 X15.5833 Y-84.2541
G01 X15.5396 Y-84.1621
G01 X15.5222 Y-84.1296
G01 X15.5129 Y-84.1137
G01 X15.4700 Y-84.0422
G01 X15.4504 Y-84.0111
G01 X15.4292 Y-83.9810
G01 X15.3795 Y-83.9140
G01 X15.3568 Y-83.8850
G01 X15.3450 Y-83.8709
G01 X15.2768 Y-83.7953
G01 X15.2642 Y-83.7818
G01 X15.2382 Y-83.7558
G01 X15.1491 Y-83.6750
G01 X15.1207 Y-83.6517
G01 X15.0918 Y-83.6300
G01 X15.1207 Y-83.6083
G01 X15.1491 Y-83.5850
G01 X15.2382 Y-83.5042
G01 X15.2514 Y-83.4914
G01 X15.2768 Y-83.4647
G01 X15.3328 Y-83.4029
G01 X15.3568 Y-83.3750
G01 X15.3795 Y-83.3460
G01 X15.4292 Y-83.2790
G01 X15.4399 Y-83.2641
G01 X15.4604 Y-83.2335
G01 X15.5222 Y-83.1304
G01 X15.5396 Y-83.0979
G01 X15.5476 Y-83.0814
G01 X15.5833 Y-83.0059
G01 X15.5982 Y-82.9723
G01 X15.6115 Y-82.9379
G01 X15.6396 Y-82.8594
G01 X15.6511 Y-82.8245
G01 X15.6562 Y-82.8068
G01 X15.6854 Y-82.6902
G01 X15.6926 Y-82.6540
G01 X15.6955 Y-82.6359
G01 X15.7078 Y-82.5534
G01 X15.7123 Y-82.5168
G01 X15.7150 Y-82.4801
G01 X15.7191 Y-82.3968
G01 X15.7200 Y-82.3600
G01 X15.7198 Y-82.3416
G01 X15.7150 Y-82.2399
G01 X15.7123 Y-82.2032
G01 X15.7103 Y-82.1849
G01 X15.6926 Y-82.0660
G01 X15.6893 Y-82.0479
G01 X15.6812 Y-82.0119
G01 X15.6609 Y-81.9310
G01 X15.6511 Y-81.8955
G01 X15.6396 Y-81.8606
G01 X15.6115 Y-81.7821
G01 X15.6050 Y-81.7648
G01 X15.5910 Y-81.7308
G01 X15.5396 Y-81.6221
G01 X15.5222 Y-81.5896
G01 X15.5129 Y-81.5737
G01 X15.4700 Y-81.5022
G01 X15.4504 Y-81.4711
G01 X15.4292 Y-81.4410
G01 X15.3795 Y-81.3740
G01 X15.3568 Y-81.3450
G01 X15.3450 Y-81.3309
G01 X15.2768 Y-81.2553
G01 X15.2642 Y-81.2418
G01 X15.2382 Y-81.2158
G01 X15.1491 Y-81.1350
G01 X15.1207 Y-81.1117
G01 X15.0918 Y-81.0900
G01 X15.1207 Y-81.0683
G01 X15.1491 Y-81.0450
G01 X15.2382 Y-80.9642
G01 X15.2514 Y-80.9514
G01 X15.2768 Y-80.9247
G01 X15.3328 Y-80.8629
G01 X15.3568 Y-80.8350
G01 X15.3795 Y-80.8060
G01 X15.4292 Y-80.7390
G01 X15.4399 Y-80.7241
G01 X15.4604 Y-80.6935
G01 X15.5222 Y-80.5904
G01 X15.5396 Y-80.5579
G01 X15.5476 Y-80.5414
G01 X15.5833 Y-80.4659
G01 X15.5982 Y-80.4323
G01 X15.6115 Y-80.3979
G01 X15.6396 Y-80.3194
G01 X15.6511 Y-80.2845
G01 X15.6562 Y-80.2668
G01 X15.6854 Y-80.1502
G01 X15.6926 Y-80.1140
G01 X15.6955 Y-80.0959
G01 X15.7078 Y-80.0134
G01 X15.7123 Y-79.9768
G01 X15.7150 Y-79.9401
G01 X15.7191 Y-79.8568
G01 X15.7200 Y-79.8200
G01 X15.7198 Y-79.8016
G01 X15.7150 Y-79.6999
G01 X15.7123 Y-79.6632
G01 X15.7103 Y-79.6449
G01 X15.6926 Y-79.5260
G01 X15.6893 Y-79.5079
G01 X15.6812 Y-79.4719
G01 X15.6609 Y-79.3910
G01 X15.6511 Y-79.3555
G01 X15.6396 Y-79.3206
G01 X15.6115 Y-79.2421
G01 X15.6050 Y-79.2248
G01 X15.5910 Y-79.1908
G01 X15.5396 Y-79.0821
G01 X15.5222 Y-79.0496
G01 X15.5129 Y-79.0337
G01 X15.4700 Y-78.9622
G01 X15.4504 Y-78.9311
G01 X15.4292 Y-78.9010
G01 X15.3795 Y-78.8340
G01 X15.3568 Y-78.8050
G01 X15.3450 Y-78.7909
G01 X15.2768 Y-78.7153
G01 X15.2642 Y-78.7018
G01 X15.2382 Y-78.6758
G01 X15.1491 Y-78.5950
G01 X15.1207 Y-78.5717
G01 X15.0918 Y-78.5500
G01 X15.1207 Y-78.5283
G01 X15.1491 Y-78.5050
G01 X15.2382 Y-78.4242
G01 X15.2514 Y-78.4114
G01 X15.2768 Y-78.3847
G01 X15.3328 Y-78.3229
G01 X15.3568 Y-78.2950
G01 X15.3795 Y-78.2660
G01 X15.4292 Y-78.1990
G01 X15.4399 Y-78.1841
G01 X15.4604 Y-78.1535
G01 X15.5222 Y-78.0504
G01 X15.5396 Y-78.0179
G01 X15.5476 Y-78.0014
G01 X15.5833 Y-77.9259
G01 X15.5982 Y-77.8923
G01 X15.6115 Y-77.8579
G01 X15.6396 Y-77.7794
G01 X15.6511 Y-77.7445
G01 X15.6562 Y-77.7268
G01 X15.6854 Y-77.6102
G01 X15.6926 Y-77.5740
G01 X15.6955 Y-77.5559
G01 X15.7078 Y-77.4734
G01 X15.7123 Y-77.4368
G01 X15.7150 Y-77.4001
G01 X15.7191 Y-77.3168
G01 X15.7200 Y-77.2800
G01 X15.7198 Y-77.2616
G01 X15.7150 Y-77.1599
G01 X15.7123 Y-77.1232
G01 X15.7103 Y-77.1049
G01 X15.6926 Y-76.9860
G01 X15.6893 Y-76.9679
G01 X15.6812 Y-76.9319
G01 X15.6609 Y-76.8510
G01 X15.6511 Y-76.8155
G01 X15.6396 Y-76.7806
G01 X15.6115 Y-76.7021
G01 X15.6050 Y-76.6848
G01 X15.5910 Y-76.6508
G01 X15.5396 Y-76.5421
G01 X15.5222 Y-76.5096
G01 X15.5129 Y-76.4937
G01 X15.4700 Y-76.4222
G01 X15.4504 Y-76.3911
G01 X15.4292 Y-76.3610
G01 X15.3795 Y-76.2940
G01 X15.3568 Y-76.2650
G01 X15.3450 Y-76.2509
G01 X15.2768 Y-76.1753
G01 X15.2642 Y-76.1618
G01 X15.2382 Y-76.1358
G01 X15.1491 Y-76.0550
G01 X15.1207 Y-76.0317
G01 X15.0918 Y-76.0100
G01 X15.1207 Y-75.9883
G01 X15.1491 Y-75.9650
G01 X15.2382 Y-75.8842
G01 X15.2514 Y-75.8714
G01 X15.2768 Y-75.8447
G01 X15.3328 Y-75.7829
G01 X15.3568 Y-75.7550
G01 X15.3795 Y-75.7260
G01 X15.4292 Y-75.6590
G01 X15.4399 Y-75.6441
G01 X15.4604 Y-75.6135
G01 X15.5222 Y-75.5104
G01 X15.5396 Y-75.4779
G01 X15.5476 Y-75.4614
G01 X15.5833 Y-75.3859
G01 X15.5982 Y-75.3523
G01 X15.6115 Y-75.3179
G01 X15.6396 Y-75.2394
G01 X15.6511 Y-75.2045
G01 X15.6562 Y-75.1868
G01 X15.6854 Y-75.0702
G01 X15.6926 Y-75.0340
G01 X15.6955 Y-75.0159
G01 X15.7078 Y-74.9334
G01 X15.7123 Y-74.8968
G01 X15.7150 Y-74.8601
G01 X15.7191 Y-74.7768
G01 X15.7200 Y-74.7400
G01 X15.7198 Y-74.7216
G01 X15.7150 Y-74.6199
G01 X15.7123 Y-74.5832
G01 X15.7103 Y-74.5649
G01 X15.6926 Y-74.4460
G01 X15.6893 Y-74.4279
G01 X15.6812 Y-74.3919
G01 X15.6609 Y-74.3110
G01 X15.6511 Y-74.2755
G01 X15.6396 Y-74.2406
G01 X15.6115 Y-74.1621
G01 X15.6050 Y-74.1448
G01 X15.5910 Y-74.1108
G01 X15.5396 Y-74.0021
G01 X15.5222 Y-73.9696
G01 X15.5129 Y-73.9537
G01 X15.4700 Y-73.8822
G01 X15.4504 Y-73.8511
G01 X15.4292 Y-73.8210
G01 X15.3795 Y-73.7540
G01 X15.3568 Y-73.7250
G01 X15.3450 Y-73.7109
G01 X15.2768 Y-73.6353
G01 X15.2642 Y-73.6218
G01 X15.2382 Y-73.5958
G01 X15.1491 Y-73.5150
G01 X15.1207 Y-73.4917
G01 X15.0918 Y-73.4700
G01 X15.1207 Y-73.4483
G01 X15.1491 Y-73.4250
G01 X15.2382 Y-73.3442
G01 X15.2514 Y-73.3314
G01 X15.2768 Y-73.3047
G01 X15.3328 Y-73.2429
G01 X15.3568 Y-73.2150
G01 X15.3795 Y-73.1860
G01 X15.4292 Y-73.1190
G01 X15.4399 Y-73.1041
G01 X15.4604 Y-73.0735
G01 X15.5222 Y-72.9704
G01 X15.5396 Y-72.9379
G01 X15.5476 Y-72.9214
G01 X15.5833 Y-72.8459
G01 X15.5982 Y-72.8123
G01 X15.6115 Y-72.7779
G01 X15.6396 Y-72.6994
G01 X15.6511 Y-72.6645
G01 X15.6562 Y-72.6468
G01 X15.6854 Y-72.5302
G01 X15.6926 Y-72.4940
G01 X15.6955 Y-72.4759
G01 X15.7078 Y-72.3934
G01 X15.7123 Y-72.3568
G01 X15.7150 Y-72.3201
G01 X15.7191 Y-72.2368
G01 X15.7200 Y-72.2000
G01 X15.7198 Y-72.1816
G01 X15.7150 Y-72.0799
G01 X15.7123 Y-72.0432
G01 X15.7103 Y-72.0249
G01 X15.6926 Y-71.9060
G01 X15.6893 Y-71.8879
G01 X15.6812 Y-71.8519
G01 X15.6609 Y-71.7710
G01 X15.6511 Y-71.7355
G01 X15.6396 Y-71.7006
G01 X15.6115 Y-71.6221
G01 X15.6050 Y-71.6048
G01 X15.5910 Y-71.5708
G01 X15.5396 Y-71.4621
G01 X15.5222 Y-71.4296
G01 X15.5129 Y-71.4137
G01 X15.4700 Y-71.3422
G01 X15.4504 Y-71.3111
G01 X15.4292 Y-71.2810
G01 X15.3795 Y-71.2140
G01 X15.3568 Y-71.1850
G01 X15.3450 Y-71.1709
G01 X15.2768 Y-71.0953
G01 X15.2642 Y-71.0818
G01 X15.2382 Y-71.0558
G01 X15.1491 Y-70.9750
G01 X15.1207 Y-70.9517
G01 X15.0918 Y-70.9300
G01 X15.1207 Y-70.9083
G01 X15.1491 Y-70.8850
G01 X15.2382 Y-70.8042
G01 X15.2514 Y-70.7914
G01 X15.2768 Y-70.7647
G01 X15.3328 Y-70.7029
G01 X15.3568 Y-70.6750
G01 X15.3795 Y-70.6460
G01 X15.4292 Y-70.5790
G01 X15.4399 Y-70.5641
G01 X15.4604 Y-70.5335
G01 X15.5222 Y-70.4304
G01 X15.5396 Y-70.3979
G01 X15.5476 Y-70.3814
G01 X15.5833 Y-70.3059
G01 X15.5982 Y-70.2723
G01 X15.6115 Y-70.2379
G01 X15.6396 Y-70.1594
G01 X15.6511 Y-70.1245
G01 X15.6562 Y-70.1068
G01 X15.6854 Y-69.9902
G01 X15.6926 Y-69.9540
G01 X15.6955 Y-69.9359
G01 X15.7078 Y-69.8534
G01 X15.7123 Y-69.8168
G01 X15.7150 Y-69.7801
G01 X15.7191 Y-69.6968
G01 X15.7200 Y-69.6600
G01 X15.7198 Y-69.6416
G01 X15.7150 Y-69.5399
G01 X15.7123 Y-69.5032
G01 X15.7103 Y-69.4849
G01 X15.6926 Y-69.3660
G01 X15.6893 Y-69.3479
G01 X15.6812 Y-69.3119
G01 X15.6609 Y-69.2310
G01 X15.6511 Y-69.1955
G01 X15.6396 Y-69.1606
G01 X15.6115 Y-69.0821
G01 X15.6050 Y-69.0648
G01 X15.5910 Y-69.0308
G01 X15.5396 Y-68.9221
G01 X15.5222 Y-68.8896
G01 X15.5129 Y-68.8737
G01 X15.4700 Y-68.8022
G01 X15.4504 Y-68.7711
G01 X15.4292 Y-68.7410
G01 X15.3795 Y-68.6740
G01 X15.3568 Y-68.6450
G01 X15.3450 Y-68.6309
G01 X15.2768 Y-68.5553
G01 X15.2642 Y-68.5418
G01 X15.2382 Y-68.5158
G01 X15.1491 Y-68.4350
G01 X15.1207 Y-68.4117
G01 X15.0918 Y-68.3900
G01 X15.1207 Y-68.3683
G01 X15.1491 Y-68.3450
G01 X15.2382 Y-68.2642
G01 X15.2514 Y-68.2514
G01 X15.2768 Y-68.2247
G01 X15.3328 Y-68.1629
G01 X15.3568 Y-68.1350
G01 X15.3795 Y-68.1060
G01 X15.4292 Y-68.0390
G01 X15.4399 Y-68.0241
G01 X15.4604 Y-67.9935
G01 X15.5222 Y-67.8904
G01 X15.5396 Y-67.8579
G01 X15.5476 Y-67.8414
G01 X15.5833 Y-67.7659
G01 X15.5982 Y-67.7323
G01 X15.6115 Y-67.6979
G01 X15.6396 Y-67.6194
G01 X15.6511 Y-67.5845
G01 X15.6562 Y-67.5668
G01 X15.6854 Y-67.4502
G01 X15.6926 Y-67.4140
G01 X15.6955 Y-67.3959
G01 X15.7078 Y-67.3134
G01 X15.7123 Y-67.2768
G01 X15.7150 Y-67.2401
G01 X15.7191 Y-67.1568
G01 X15.7200 Y-67.1200
G01 X15.7198 Y-67.1016
G01 X15.7150 Y-66.9999
G01 X15.7123 Y-66.9632
G01 X15.7103 Y-66.9449
G01 X15.6926 Y-66.8260
G01 X15.6893 Y-66.8079
G01 X15.6812 Y-66.7719
G01 X15.6609 Y-66.6910
G01 X15.6511 Y-66.6555
G01 X15.6396 Y-66.6206
G01 X15.6115 Y-66.5421
G01 X15.6050 Y-66.5248
G01 X15.5910 Y-66.4908
G01 X15.5396 Y-66.3821
G01 X15.5222 Y-66.3496
G01 X15.5129 Y-66.3337
G01 X15.4700 Y-66.2622
G01 X15.4504 Y-66.2311
G01 X15.4292 Y-66.2010
G01 X15.3795 Y-66.1340
G01 X15.3568 Y-66.1050
G01 X15.3450 Y-66.0909
G01 X15.2768 Y-66.0153
G01 X15.2642 Y-66.0018
G01 X15.2382 Y-65.9758
G01 X15.1491 Y-65.8950
G01 X15.1207 Y-65.8717
G01 X15.0918 Y-65.8500
G01 X15.1207 Y-65.8283
G01 X15.1491 Y-65.8050
G01 X15.2382 Y-65.7242
G01 X15.2514 Y-65.7114
G01 X15.2768 Y-65.6847
G01 X15.3328 Y-65.6229
G01 X15.3568 Y-65.5950
G01 X15.3795 Y-65.5660
G01 X15.4292 Y-65.4990
G01 X15.4399 Y-65.4841
G01 X15.4604 Y-65.4535
G01 X15.5222 Y-65.3504
G01 X15.5396 Y-65.3179
G01 X15.5476 Y-65.3014
G01 X15.5833 Y-65.2259
G01 X15.5982 Y-65.1923
G01 X15.6115 Y-65.1579
G01 X15.6396 Y-65.0794
G01 X15.6511 Y-65.0445
G01 X15.6562 Y-65.0268
G01 X15.6854 Y-64.9102
G01 X15.6926 Y-64.8740
G01 X15.6955 Y-64.8559
G01 X15.7078 Y-64.7734
G01 X15.7123 Y-64.7368
G01 X15.7150 Y-64.7001
G01 X15.7191 Y-64.6168
G01 X15.7200 Y-64.5800
G01 X15.7198 Y-64.5616
G01 X15.7150 Y-64.4599
G01 X15.7123 Y-64.4232
G01 X15.7103 Y-64.4049
G01 X15.6926 Y-64.2860
G01 X15.6893 Y-64.2679
G01 X15.6812 Y-64.2319
G01 X15.6609 Y-64.1510
G01 X15.6511 Y-64.1155
G01 X15.6396 Y-64.0806
G01 X15.6115 Y-64.0021
G01 X15.5982 Y-63.9677
G01 X15.5910 Y-63.9508
G01 X15.5396 Y-63.8421
G01 X15.5222 Y-63.8096
G01 X15.5129 Y-63.7937
G01 X15.4700 Y-63.7222
G01 X15.4504 Y-63.6911
G01 X15.4292 Y-63.6610
G01 X15.3795 Y-63.5940
G01 X15.3683 Y-63.5793
G01 X15.3450 Y-63.5509
G01 X15.2768 Y-63.4753
G01 X15.2642 Y-63.4618
G01 X15.2382 Y-63.4358
G01 X15.1491 Y-63.3550
G01 X15.1207 Y-63.3317
G01 X15.0918 Y-63.3100
G01 X15.1207 Y-63.2883
G01 X15.1491 Y-63.2650
G01 X15.2382 Y-63.1842
G01 X15.2642 Y-63.1582
G01 X15.2768 Y-63.1447
G01 X15.3450 Y-63.0691
G01 X15.3683 Y-63.0407
G01 X15.4292 Y-62.9590
G01 X15.4504 Y-62.9289
G01 X15.4700 Y-62.8978
G01 X15.5129 Y-62.8263
G01 X15.5222 Y-62.8104
G01 X15.5396 Y-62.7779
G01 X15.5833 Y-62.6859
G01 X15.5982 Y-62.6523
G01 X15.6115 Y-62.6179
G01 X15.6455 Y-62.5220
G01 X15.6511 Y-62.5045
G01 X15.6609 Y-62.4690
G01 X15.6812 Y-62.3881
G01 X15.6893 Y-62.3521
G01 X15.6955 Y-62.3159
G01 X15.7078 Y-62.2334
G01 X15.7123 Y-62.1968
G01 X15.7139 Y-62.1785
G01 X15.7191 Y-62.0768
G01 X15.7200 Y-62.0400
G01 X15.7191 Y-62.0032
G01 X15.7150 Y-61.9199
G01 X15.7123 Y-61.8832
G01 X15.7102 Y-61.8642
G01 X22.2201 Y-55.3540
G01 X22.2491 Y-55.3223
G01 X22.2731 Y-55.2945
G01 X22.2958 Y-55.2655
G01 X22.3212 Y-55.2308
G01 X22.3416 Y-55.2002
G01 X22.3513 Y-55.1845
G01 X22.3732 Y-55.1476
G01 X22.3905 Y-55.1151
G01 X22.4091 Y-55.0764
G01 X22.4240 Y-55.0427
G01 X22.4372 Y-55.0084
G01 X22.4515 Y-54.9679
G01 X22.4622 Y-54.9326
G01 X22.4728 Y-54.8910
G01 X22.4809 Y-54.8551
G01 X22.4872 Y-54.8188
G01 X22.4933 Y-54.7763
G01 X22.4969 Y-54.7397
G01 X22.4992 Y-54.6968
G01 X22.5001 Y-54.6600
G01 X22.5001 Y-26.9143
G01 X34.4143 Y-15.0001
G01 X54.0000 Y-15.0001
G01 X54.0368 Y-14.9992
G01 X54.0797 Y-14.9969
G01 X54.0980 Y-14.9953
G01 X54.1346 Y-14.9908
G01 X54.1770 Y-14.9843
G01 X54.2131 Y-14.9771
G01 X54.2548 Y-14.9669
G01 X54.2903 Y-14.9571
G01 X54.3253 Y-14.9455
G01 X54.3656 Y-14.9308
G01 X54.3996 Y-14.9167
G01 X54.4386 Y-14.8986
G01 X54.4715 Y-14.8820
G01 X54.5035 Y-14.8639
G01 X54.5402 Y-14.8416
G01 X54.5708 Y-14.8212
G01 X54.6055 Y-14.7958
G01 X54.6345 Y-14.7731
G01 X54.6623 Y-14.7491
G01 X54.6940 Y-14.7201
G01 X59.7072 Y-9.7072
G01 X59.7201 Y-9.6940
G01 X59.7491 Y-9.6623
G01 X59.7613 Y-9.6486
G01 X59.7846 Y-9.6201
G01 X59.8212 Y-9.5708
G01 X59.8316 Y-9.5556
G01 X59.8505 Y-9.5258
G01 X59.8552 Y-9.6250
G01 X59.8579 Y-9.6617
G01 X59.8625 Y-9.6983
G01 X59.8754 Y-9.7856
G01 X59.8817 Y-9.8219
G01 X59.8855 Y-9.8399
G01 X59.9112 Y-9.9435
G01 X59.9210 Y-9.9790
G01 X59.9326 Y-10.0139
G01 X59.9688 Y-10.1143
G01 X59.9829 Y-10.1483
G01 X59.9905 Y-10.1651
G01 X60.0283 Y-10.2449
G01 X60.0448 Y-10.2778
G01 X60.0630 Y-10.3098
G01 X60.1084 Y-10.3856
G01 X60.1180 Y-10.4013
G01 X60.1385 Y-10.4319
G01 X60.2019 Y-10.5177
G01 X60.2245 Y-10.5467
G01 X60.2486 Y-10.5746
G01 X60.3204 Y-10.6536
G01 X60.3333 Y-10.6667
G01 X60.3599 Y-10.6921
G01 X60.4254 Y-10.7514
G01 X60.4533 Y-10.7755
G01 X60.4823 Y-10.7981
G01 X60.5532 Y-10.8507
G01 X60.5681 Y-10.8615
G01 X60.5987 Y-10.8820
G01 X60.6902 Y-10.9370
G01 X60.7222 Y-10.9552
G01 X60.7551 Y-10.9717
G01 X60.8517 Y-11.0171
G01 X60.8857 Y-11.0312
G01 X60.9029 Y-11.0376
G01 X60.9861 Y-11.0674
G01 X61.0210 Y-11.0790
G01 X61.0565 Y-11.0888
G01 X61.1422 Y-11.1102
G01 X61.1601 Y-11.1145
G01 X61.1962 Y-11.1217
G01 X61.3017 Y-11.1375
G01 X61.3383 Y-11.1421
G01 X61.3750 Y-11.1448
G01 X61.4816 Y-11.1498
G01 X61.5184 Y-11.1498
G01 X61.5368 Y-11.1491
G01 X61.6250 Y-11.1448
G01 X61.6617 Y-11.1421
G01 X61.6983 Y-11.1375
G01 X61.7856 Y-11.1246
G01 X61.8038 Y-11.1217
G01 X61.8399 Y-11.1145
G01 X61.9435 Y-11.0888
G01 X61.9790 Y-11.0790
G01 X62.0139 Y-11.0674
G01 X62.1143 Y-11.0312
G01 X62.1314 Y-11.0244
G01 X62.1651 Y-11.0095
G01 X62.2449 Y-10.9717
G01 X62.2778 Y-10.9552
G01 X62.3098 Y-10.9370
G01 X62.3856 Y-10.8916
G01 X62.4013 Y-10.8820
G01 X62.4319 Y-10.8615
G01 X62.5177 Y-10.7981
G01 X62.5467 Y-10.7755
G01 X62.5746 Y-10.7514
G01 X62.6536 Y-10.6796
G01 X62.6796 Y-10.6536
G01 X62.6921 Y-10.6401
G01 X62.7514 Y-10.5746
G01 X62.7755 Y-10.5467
G01 X62.7981 Y-10.5177
G01 X62.8507 Y-10.4468
G01 X62.8719 Y-10.4167
G01 X62.8820 Y-10.4013
G01 X62.9370 Y-10.3098
G01 X62.9552 Y-10.2778
G01 X62.9717 Y-10.2449
G01 X63.0095 Y-10.1651
G01 X63.0244 Y-10.1314
G01 X63.0312 Y-10.1143
G01 X63.0734 Y-9.9965
G01 X63.0790 Y-9.9790
G01 X63.0888 Y-9.9435
G01 X63.1102 Y-9.8578
G01 X63.1183 Y-9.8219
G01 X63.1246 Y-9.7856
G01 X63.1375 Y-9.6983
G01 X63.1400 Y-9.6800
G01 X63.1436 Y-9.6434
G01 X63.1491 Y-9.5368
G01 X63.1500 Y-9.5000
G01 X63.1491 Y-9.4632
G01 X63.1448 Y-9.3750
G01 X63.1421 Y-9.3383
G01 X63.1375 Y-9.3017
G01 X63.1246 Y-9.2144
G01 X63.1183 Y-9.1781
G01 X63.1145 Y-9.1601
G01 X63.0888 Y-9.0565
G01 X63.0790 Y-9.0210
G01 X63.0674 Y-8.9861
G01 X63.0376 Y-8.9029
G01 X63.0244 Y-8.8686
G01 X63.0095 Y-8.8349
G01 X62.9717 Y-8.7551
G01 X62.9552 Y-8.7222
G01 X62.9370 Y-8.6902
G01 X62.8916 Y-8.6144
G01 X62.8719 Y-8.5833
G01 X62.8507 Y-8.5532
G01 X62.7902 Y-8.4719
G01 X62.7900 Y-3.4000
G01 X62.7891 Y-3.3632
G01 X62.7880 Y-3.3448
G01 X62.7844 Y-3.3082
G01 X62.7819 Y-3.2900
G01 X62.7756 Y-3.2537
G01 X62.7675 Y-3.2178
G01 X62.7577 Y-3.1823
G01 X62.7521 Y-3.1647
G01 X62.7397 Y-3.1301
G01 X62.7329 Y-3.1130
G01 X62.7180 Y-3.0793
G01 X62.7014 Y-3.0465
G01 X62.6833 Y-3.0144
G01 X62.6736 Y-2.9988
G01 X62.6532 Y-2.9681
G01 X62.6313 Y-2.9386
G01 X62.6079 Y-2.9101
G01 X62.5957 Y-2.8963
G01 X62.5832 Y-2.8828
G01 X62.5572 Y-2.8568
G01 X62.5299 Y-2.8321
G01 X62.5014 Y-2.8087
G01 X62.4719 Y-2.7868
G01 X62.4412 Y-2.7664
G01 X62.4097 Y-2.7474
G01 X62.3935 Y-2.7386
G01 X62.3607 Y-2.7220
G01 X62.3270 Y-2.7071
G01 X62.2927 Y-2.6938
G01 X62.2753 Y-2.6879
G01 X62.2400 Y-2.6772
G01 X62.2222 Y-2.6725
G01 X62.1863 Y-2.6644
G01 X62.1500 Y-2.6581
G01 X62.1135 Y-2.6536
G01 X62.0768 Y-2.6509
G01 X62.0400 Y-2.6500
G01 X61.0400 Y-2.6500
G01 X61.0032 Y-2.6509
G01 X60.9665 Y-2.6536
G01 X60.9300 Y-2.6581
G01 X60.8937 Y-2.6644
G01 X60.8578 Y-2.6725
G01 X60.8400 Y-2.6772
G01 X60.8048 Y-2.6878
G01 X60.7701 Y-2.7002
G01 X60.7530 Y-2.7071
G01 X60.7361 Y-2.7143
G01 X60.7028 Y-2.7301
G01 X60.6865 Y-2.7385
G01 X60.6545 Y-2.7567
G01 X60.6234 Y-2.7764
G01 X60.6082 Y-2.7868
G01 X60.5786 Y-2.8087
G01 X60.5502 Y-2.8320
G01 X60.5229 Y-2.8568
G01 X60.5097 Y-2.8696
G01 X60.4843 Y-2.8963
G01 X60.4603 Y-2.9241
G01 X60.4488 Y-2.9385
G01 X60.4269 Y-2.9681
G01 X60.4064 Y-2.9987
G01 X60.3875 Y-3.0302
G01 X60.3786 Y-3.0464
G01 X60.3701 Y-3.0627
G01 X60.3544 Y-3.0960
G01 X60.3403 Y-3.1300
G01 X60.3279 Y-3.1646
G01 X60.3172 Y-3.1998
G01 X60.3083 Y-3.2355
G01 X60.3011 Y-3.2716
G01 X60.2957 Y-3.3081
G01 X60.2920 Y-3.3447
G01 X60.2902 Y-3.3814
G01 X60.2900 Y-3.3999
G01 X60.2897 Y-8.3799
G01 X60.2364 Y-8.4392
G01 X60.2130 Y-8.4676
G01 X60.1493 Y-8.5532
G01 X60.1281 Y-8.5833
G01 X60.1084 Y-8.6144
G01 X60.0537 Y-8.7061
G01 X60.0364 Y-8.7385
G01 X60.0001 Y-8.8146
G01 X60.0001 Y-6.4688
G01 X60.0172 Y-6.4532
G01 X60.0303 Y-6.4403
G01 X60.0557 Y-6.4137
G01 X60.0798 Y-6.3858
G01 X60.1024 Y-6.3568
G01 X60.1236 Y-6.3267
G01 X60.1433 Y-6.2956
G01 X60.1614 Y-6.2635
G01 X60.1780 Y-6.2307
G01 X60.1929 Y-6.1970
G01 X60.2062 Y-6.1627
G01 X60.2177 Y-6.1277
G01 X60.2275 Y-6.0922
G01 X60.2356 Y-6.0563
G01 X60.2419 Y-6.0200
G01 X60.2444 Y-6.0018
G01 X60.2480 Y-5.9652
G01 X60.2498 Y-5.9284
G01 X60.2500 Y-3.4000
G01 X60.2491 Y-3.3632
G01 X60.2464 Y-3.3265
G01 X60.2444 Y-3.3082
G01 X60.2390 Y-3.2718
G01 X60.2356 Y-3.2537
G01 X60.2318 Y-3.2357
G01 X60.2228 Y-3.2000
G01 X60.2177 Y-3.1823
G01 X60.2062 Y-3.1473
G01 X60.1929 Y-3.1130
G01 X60.1857 Y-3.0961
G01 X60.1699 Y-3.0628
G01 X60.1526 Y-3.0303
G01 X60.1433 Y-3.0144
G01 X60.1236 Y-2.9833
G01 X60.1132 Y-2.9681
G01 X60.0913 Y-2.9386
G01 X60.0679 Y-2.9101
G01 X60.0432 Y-2.8828
G01 X60.0303 Y-2.8697
G01 X60.0037 Y-2.8443
G01 X59.9758 Y-2.8202
G01 X59.9468 Y-2.7976
G01 X59.9167 Y-2.7764
G01 X59.8856 Y-2.7567
G01 X59.8535 Y-2.7386
G01 X59.8207 Y-2.7220
G01 X59.7870 Y-2.7071
G01 X59.7699 Y-2.7003
G01 X59.7353 Y-2.6879
G01 X59.7000 Y-2.6772
G01 X59.6643 Y-2.6682
G01 X59.6282 Y-2.6610
G01 X59.5918 Y-2.6556
G01 X59.5552 Y-2.6520
G01 X59.5184 Y-2.6502
G01 X59.5000 Y-2.6500
G01 X58.5000 Y-2.6500
G01 X58.4632 Y-2.6509
G01 X58.4265 Y-2.6536
G01 X58.4082 Y-2.6556
G01 X58.3718 Y-2.6610
G01 X58.3357 Y-2.6682
G01 X58.3000 Y-2.6772
G01 X58.2823 Y-2.6823
G01 X58.2647 Y-2.6879
G01 X58.2301 Y-2.7003
G01 X58.1961 Y-2.7143
G01 X58.1628 Y-2.7301
G01 X58.1465 Y-2.7386
G01 X58.1144 Y-2.7567
G01 X58.0988 Y-2.7664
G01 X58.0833 Y-2.7764
G01 X58.0532 Y-2.7976
G01 X58.0242 Y-2.8202
G01 X57.9963 Y-2.8443
G01 X57.9828 Y-2.8568
G01 X57.9568 Y-2.8828
G01 X57.9321 Y-2.9101
G01 X57.9087 Y-2.9386
G01 X57.8868 Y-2.9681
G01 X57.8664 Y-2.9988
G01 X57.8474 Y-3.0303
G01 X57.8301 Y-3.0628
G01 X57.8143 Y-3.0961
G01 X57.8003 Y-3.1301
G01 X57.7879 Y-3.1647
G01 X57.7772 Y-3.2000
G01 X57.7682 Y-3.2357
G01 X57.7610 Y-3.2718
G01 X57.7581 Y-3.2900
G01 X57.7536 Y-3.3265
G01 X57.7509 Y-3.3632
G01 X57.7500 Y-3.4000
G01 X57.7500 Y-4.6759
G01 X57.7458 Y-4.5908
G01 X57.7442 Y-4.5725
G01 X57.7397 Y-4.5359
G01 X57.7325 Y-4.4874
G01 X57.7262 Y-4.4511
G01 X57.7224 Y-4.4331
G01 X57.7100 Y-4.3826
G01 X57.7100 Y-3.4000
G01 X57.7098 Y-3.3816
G01 X57.7080 Y-3.3448
G01 X57.7044 Y-3.3082
G01 X57.6990 Y-3.2718
G01 X57.6918 Y-3.2357
G01 X57.6875 Y-3.2178
G01 X57.6777 Y-3.1823
G01 X57.6662 Y-3.1473
G01 X57.6529 Y-3.1130
G01 X57.6380 Y-3.0793
G01 X57.6214 Y-3.0465
G01 X57.6033 Y-3.0144
G01 X57.5836 Y-2.9833
G01 X57.5624 Y-2.9532
G01 X57.5398 Y-2.9242
G01 X57.5157 Y-2.8963
G01 X57.4903 Y-2.8697
G01 X57.4637 Y-2.8443
G01 X57.4358 Y-2.8202
G01 X57.4068 Y-2.7976
G01 X57.3767 Y-2.7764
G01 X57.3612 Y-2.7664
G01 X57.3456 Y-2.7567
G01 X57.3135 Y-2.7386
G01 X57.2807 Y-2.7220
G01 X57.2639 Y-2.7143
G01 X57.2299 Y-2.7003
G01 X57.1953 Y-2.6879
G01 X57.1777 Y-2.6823
G01 X57.1422 Y-2.6725
G01 X57.1063 Y-2.6644
G01 X57.0882 Y-2.6610
G01 X57.0518 Y-2.6556
G01 X57.0335 Y-2.6536
G01 X56.9968 Y-2.6509
G01 X56.9600 Y-2.6500
G01 X55.9600 Y-2.6500
G01 X55.9232 Y-2.6509
G01 X55.8865 Y-2.6536
G01 X55.8500 Y-2.6581
G01 X55.8137 Y-2.6644
G01 X55.7778 Y-2.6725
G01 X55.7423 Y-2.6823
G01 X55.7248 Y-2.6878
G01 X55.6901 Y-2.7002
G01 X55.6561 Y-2.7143
G01 X55.6228 Y-2.7301
G01 X55.5904 Y-2.7474
G01 X55.5588 Y-2.7663
G01 X55.5282 Y-2.7868
G01 X55.4986 Y-2.8087
