(G-CODE GENERATED BY FLATCAM v8.994 - www.flatcam.org - Version Date: 2020/11/7)

(Name: pb_orangepi-F_Cu.gbr_1.5000_iso_cnc)
(Type: G-code from Geometry)
(Units: MM)

(Created on Friday, 19 May 2023 at 04:35)

(This preprocessor is the default preprocessor used by FlatCAM.)
(It is made to work with MACH3 compatible motion controllers.)

(TOOL DIAMETER: 0.1353 mm)
(Feedrate_XY: 160.0 mm/min)
(Feedrate_Z: 60.0 mm/min)
(Feedrate rapids 1500.0 mm/min)

(Z_Cut: -0.1001 mm)
(Z_Move: 2.0 mm)
(Z Start: None mm)
(Z End: 15.0 mm)
(X,Y End: None mm)
(Steps per circle: 64)
(Preprocessor Geometry: default)

(X range:    4.8500 ...   63.1500  mm)
(Y range: -108.3060 ...   -2.6500  mm)

(Spindle Speed: 8000.0 RPM)
G21
G90
G94

G01 F160.00

M5
G00 Z15.0000
G00 X0.0000 Y0.0000
T2
M6    
(MSG, Change to Tool Dia = 0.1353)
M0
G00 Z15.0000

M03 S8000.0
G01 F160.00
G00 X7.6886 Y-6.6023
G01 F60.00
G01 Z-0.1001
G01 F160.00
G01 X7.6490 Y-6.6382
G01 X7.6382 Y-6.6490
G01 X7.5687 Y-6.7258
G01 X7.5543 Y-6.7437
G01 X7.5017 Y-6.8146
G01 X7.4888 Y-6.8335
G01 X7.4394 Y-6.9158
G01 X7.4318 Y-6.9290
G01 X7.4250 Y-6.9427
G01 X7.3872 Y-7.0225
G01 X7.3810 Y-7.0365
G01 X7.3755 Y-7.0507
G01 X7.3433 Y-7.1411
G01 X7.3369 Y-7.1631
G01 X7.3154 Y-7.2488
G01 X7.3121 Y-7.2637
G01 X7.3095 Y-7.2788
G01 X7.2965 Y-7.3661
G01 X7.2946 Y-7.3813
G01 X7.2935 Y-7.3965
G01 X7.2892 Y-7.4847
G01 X7.2888 Y-7.5000
G01 X7.2892 Y-7.5153
G01 X7.2935 Y-7.6035
G01 X7.2946 Y-7.6187
G01 X7.2965 Y-7.6339
G01 X7.3095 Y-7.7212
G01 X7.3121 Y-7.7363
G01 X7.3154 Y-7.7512
G01 X7.3369 Y-7.8369
G01 X7.3410 Y-7.8516
G01 X7.3458 Y-7.8661
G01 X7.3755 Y-7.9493
G01 X7.3810 Y-7.9635
G01 X7.3872 Y-7.9775
G01 X7.4250 Y-8.0573
G01 X7.4318 Y-8.0710
G01 X7.4394 Y-8.0842
G01 X7.4848 Y-8.1600
G01 X7.4929 Y-8.1729
G01 X7.5017 Y-8.1854
G01 X7.5543 Y-8.2563
G01 X7.5637 Y-8.2684
G01 X7.5737 Y-8.2799
G01 X7.6382 Y-8.3510
G01 X7.6546 Y-8.3670
G01 X7.7201 Y-8.4263
G01 X7.7316 Y-8.4363
G01 X7.7437 Y-8.4457
G01 X7.8146 Y-8.4983
G01 X7.8271 Y-8.5071
G01 X7.8400 Y-8.5152
G01 X7.9224 Y-8.5645
G01 X7.9427 Y-8.5750
G01 X8.0225 Y-8.6128
G01 X8.0436 Y-8.6218
G01 X8.1411 Y-8.6567
G01 X8.1557 Y-8.6612
G01 X8.1886 Y-8.6695
G01 X8.1886 Y-32.7421
G01 X8.1510 Y-32.7835
G01 X8.1363 Y-32.8010
G01 X8.0849 Y-32.8702
G01 X8.0719 Y-32.8891
G01 X8.0275 Y-32.9629
G01 X8.0200 Y-32.9762
G01 X8.0132 Y-32.9898
G01 X7.9796 Y-33.0608
G01 X7.9706 Y-33.0819
G01 X7.9414 Y-33.1629
G01 X7.9367 Y-33.1774
G01 X7.9326 Y-33.1922
G01 X7.9135 Y-33.2683
G01 X7.9102 Y-33.2832
G01 X7.9076 Y-33.2983
G01 X7.8960 Y-33.3759
G01 X7.8942 Y-33.3911
G01 X7.8930 Y-33.4063
G01 X7.8901 Y-33.4655
G01 X7.8777 Y-33.4794
G01 X7.8680 Y-33.4912
G01 X7.8296 Y-33.5429
G01 X7.8171 Y-33.5621
G01 X7.7881 Y-33.6108
G01 X7.7775 Y-33.6311
G01 X7.7565 Y-33.6755
G01 X7.7503 Y-33.6895
G01 X7.7448 Y-33.7037
G01 X7.7283 Y-33.7499
G01 X7.7235 Y-33.7645
G01 X7.7194 Y-33.7792
G01 X7.7075 Y-33.8268
G01 X7.7042 Y-33.8417
G01 X7.7015 Y-33.8567
G01 X7.6943 Y-33.9053
G01 X7.6925 Y-33.9205
G01 X7.6913 Y-33.9357
G01 X7.6889 Y-33.9847
G01 X7.6886 Y-34.0000
G01 X7.6886 Y-91.5000
G01 X7.6889 Y-91.5153
G01 X7.6913 Y-91.5643
G01 X7.6925 Y-91.5795
G01 X7.6943 Y-91.5947
G01 X7.7015 Y-91.6433
G01 X7.7042 Y-91.6583
G01 X7.7075 Y-91.6732
G01 X7.7194 Y-91.7208
G01 X7.7235 Y-91.7355
G01 X7.7283 Y-91.7501
G01 X7.7448 Y-91.7963
G01 X7.7533 Y-91.8175
G01 X7.7775 Y-91.8689
G01 X7.7844 Y-91.8825
G01 X7.7919 Y-91.8958
G01 X7.8171 Y-91.9379
G01 X7.8253 Y-91.9508
G01 X7.8341 Y-91.9633
G01 X7.8634 Y-92.0027
G01 X7.8727 Y-92.0148
G01 X7.8827 Y-92.0263
G01 X7.9157 Y-92.0627
G01 X7.9262 Y-92.0738
G01 X8.9517 Y-93.0991
G01 X8.9994 Y-93.1423
G01 X9.0173 Y-93.1566
G01 X9.0567 Y-93.1859
G01 X9.0692 Y-93.1947
G01 X9.0821 Y-93.2029
G01 X9.1308 Y-93.2319
G01 X9.1511 Y-93.2425
G01 X9.1955 Y-93.2635
G01 X9.2095 Y-93.2697
G01 X9.2237 Y-93.2752
G01 X9.2699 Y-93.2917
G01 X9.2845 Y-93.2965
G01 X9.2992 Y-93.3006
G01 X9.3468 Y-93.3125
G01 X9.3617 Y-93.3158
G01 X9.3767 Y-93.3185
G01 X9.4253 Y-93.3257
G01 X9.4481 Y-93.3282
G01 X9.5047 Y-93.3311
G01 X9.5200 Y-93.3314
G01 X10.7497 Y-93.3314
G01 X10.7589 Y-93.3411
G01 X10.7700 Y-93.3516
G01 X10.8318 Y-93.4076
G01 X10.8433 Y-93.4176
G01 X10.8554 Y-93.4270
G01 X10.9224 Y-93.4767
G01 X10.9349 Y-93.4855
G01 X10.9478 Y-93.4937
G01 X11.0193 Y-93.5365
G01 X11.0326 Y-93.5441
G01 X11.0463 Y-93.5509
G01 X11.1217 Y-93.5866
G01 X11.1356 Y-93.5928
G01 X11.1499 Y-93.5983
G01 X11.2284 Y-93.6264
G01 X11.2429 Y-93.6312
G01 X11.2576 Y-93.6353
G01 X11.3386 Y-93.6555
G01 X11.3535 Y-93.6589
G01 X11.3685 Y-93.6615
G01 X11.4510 Y-93.6737
G01 X11.4662 Y-93.6756
G01 X11.4814 Y-93.6767
G01 X11.5647 Y-93.6808
G01 X11.5800 Y-93.6812
G01 X11.5953 Y-93.6808
G01 X11.6786 Y-93.6767
G01 X11.6938 Y-93.6756
G01 X11.7090 Y-93.6737
G01 X11.7915 Y-93.6615
G01 X11.8065 Y-93.6589
G01 X11.8214 Y-93.6555
G01 X11.9024 Y-93.6353
G01 X11.9171 Y-93.6312
G01 X11.9316 Y-93.6264
G01 X12.0101 Y-93.5983
G01 X12.0244 Y-93.5928
G01 X12.0383 Y-93.5866
G01 X12.1137 Y-93.5509
G01 X12.1274 Y-93.5441
G01 X12.1407 Y-93.5365
G01 X12.2122 Y-93.4937
G01 X12.2251 Y-93.4855
G01 X12.2376 Y-93.4767
G01 X12.3046 Y-93.4270
G01 X12.3167 Y-93.4176
G01 X12.3282 Y-93.4076
G01 X12.3900 Y-93.3516
G01 X12.4011 Y-93.3411
G01 X12.4116 Y-93.3300
G01 X12.4676 Y-93.2682
G01 X12.4776 Y-93.2567
G01 X12.4870 Y-93.2446
G01 X12.5367 Y-93.1776
G01 X12.5455 Y-93.1651
G01 X12.5537 Y-93.1522
G01 X12.5965 Y-93.0807
G01 X12.6041 Y-93.0674
G01 X12.6109 Y-93.0537
G01 X12.6466 Y-92.9783
G01 X12.6528 Y-92.9644
G01 X12.6583 Y-92.9501
G01 X12.6864 Y-92.8716
G01 X12.6912 Y-92.8571
G01 X12.6953 Y-92.8424
G01 X12.7155 Y-92.7614
G01 X12.7189 Y-92.7465
G01 X12.7215 Y-92.7315
G01 X12.7337 Y-92.6490
G01 X12.7356 Y-92.6338
G01 X12.7367 Y-92.6186
G01 X12.7408 Y-92.5353
G01 X12.7412 Y-92.5200
G01 X12.7408 Y-92.5047
G01 X12.7367 Y-92.4214
G01 X12.7356 Y-92.4062
G01 X12.7337 Y-92.3910
G01 X12.7215 Y-92.3085
G01 X12.7189 Y-92.2935
G01 X12.7155 Y-92.2786
G01 X12.6953 Y-92.1976
G01 X12.6912 Y-92.1829
G01 X12.6864 Y-92.1684
G01 X12.6583 Y-92.0899
G01 X12.6528 Y-92.0756
G01 X12.6466 Y-92.0617
G01 X12.6109 Y-91.9863
G01 X12.6041 Y-91.9726
G01 X12.5965 Y-91.9593
G01 X12.5537 Y-91.8878
G01 X12.5455 Y-91.8749
G01 X12.5367 Y-91.8624
G01 X12.4870 Y-91.7954
G01 X12.4776 Y-91.7833
G01 X12.4676 Y-91.7718
G01 X12.4116 Y-91.7100
G01 X12.4011 Y-91.6989
G01 X12.3900 Y-91.6884
G01 X12.3282 Y-91.6324
G01 X12.3167 Y-91.6224
G01 X12.3046 Y-91.6130
G01 X12.2376 Y-91.5633
G01 X12.2251 Y-91.5545
G01 X12.2122 Y-91.5463
G01 X12.1407 Y-91.5035
G01 X12.1274 Y-91.4959
G01 X12.1137 Y-91.4891
G01 X12.0383 Y-91.4534
G01 X12.0244 Y-91.4472
G01 X12.0101 Y-91.4417
G01 X11.9316 Y-91.4136
G01 X11.9171 Y-91.4088
G01 X11.9024 Y-91.4047
G01 X11.8214 Y-91.3845
G01 X11.8065 Y-91.3811
G01 X11.7915 Y-91.3785
G01 X11.7090 Y-91.3663
G01 X11.6938 Y-91.3644
G01 X11.6786 Y-91.3633
G01 X11.5953 Y-91.3592
G01 X11.5800 Y-91.3588
G01 X11.5647 Y-91.3592
G01 X11.4814 Y-91.3633
G01 X11.4662 Y-91.3644
G01 X11.4510 Y-91.3663
G01 X11.3685 Y-91.3785
G01 X11.3535 Y-91.3811
G01 X11.3386 Y-91.3845
G01 X11.2576 Y-91.4047
G01 X11.2429 Y-91.4088
G01 X11.2284 Y-91.4136
G01 X11.1499 Y-91.4417
G01 X11.1356 Y-91.4472
G01 X11.1217 Y-91.4534
G01 X11.0463 Y-91.4891
G01 X11.0326 Y-91.4959
G01 X11.0193 Y-91.5035
G01 X10.9478 Y-91.5463
G01 X10.9349 Y-91.5545
G01 X10.9224 Y-91.5633
G01 X10.8554 Y-91.6130
G01 X10.8433 Y-91.6224
G01 X10.8318 Y-91.6324
G01 X10.7700 Y-91.6884
G01 X10.7589 Y-91.6989
G01 X10.7497 Y-91.7086
G01 X9.8561 Y-91.7086
G01 X9.3114 Y-91.1639
G01 X9.3114 Y-34.5665
G01 X9.3226 Y-34.5633
G01 X9.3371 Y-34.5586
G01 X9.4110 Y-34.5321
G01 X9.4252 Y-34.5266
G01 X9.4392 Y-34.5204
G01 X9.5102 Y-34.4868
G01 X9.5238 Y-34.4800
G01 X9.5371 Y-34.4725
G01 X9.6044 Y-34.4321
G01 X9.6173 Y-34.4239
G01 X9.6298 Y-34.4151
G01 X9.6929 Y-34.3684
G01 X9.7049 Y-34.3590
G01 X9.7165 Y-34.3490
G01 X9.7747 Y-34.2963
G01 X9.7857 Y-34.2857
G01 X9.7963 Y-34.2747
G01 X9.8540 Y-34.2108
G01 X9.8684 Y-34.1929
G01 X9.9151 Y-34.1298
G01 X9.9239 Y-34.1173
G01 X9.9321 Y-34.1044
G01 X9.9725 Y-34.0371
G01 X9.9800 Y-34.0238
G01 X9.9868 Y-34.0102
G01 X10.0204 Y-33.9392
G01 X10.0266 Y-33.9252
G01 X10.0321 Y-33.9110
G01 X10.0586 Y-33.8371
G01 X10.0633 Y-33.8226
G01 X10.0674 Y-33.8078
G01 X10.0883 Y-33.7243
G01 X10.0924 Y-33.7017
G01 X10.1040 Y-33.6241
G01 X10.1058 Y-33.6089
G01 X10.1070 Y-33.5937
G01 X10.1108 Y-33.5153
G01 X10.1112 Y-33.5000
G01 X10.1108 Y-33.4847
G01 X10.1070 Y-33.4063
G01 X10.1058 Y-33.3911
G01 X10.1040 Y-33.3759
G01 X10.0924 Y-33.2983
G01 X10.0898 Y-33.2832
G01 X10.0865 Y-33.2683
G01 X10.0674 Y-33.1922
G01 X10.0633 Y-33.1774
G01 X10.0586 Y-33.1629
G01 X10.0294 Y-33.0819
G01 X10.0204 Y-33.0608
G01 X9.9868 Y-32.9898
G01 X9.9800 Y-32.9762
G01 X9.9725 Y-32.9629
G01 X9.9281 Y-32.8891
G01 X9.9151 Y-32.8702
G01 X9.8637 Y-32.8010
G01 X9.8490 Y-32.7835
G01 X9.8114 Y-32.7421
G01 X9.8113 Y-7.9924
G01 X9.8082 Y-7.9281
G01 X9.8057 Y-7.9053
G01 X9.7985 Y-7.8567
G01 X9.7958 Y-7.8417
G01 X9.7925 Y-7.8268
G01 X9.7786 Y-7.7718
G01 X9.7717 Y-7.7499
G01 X9.7552 Y-7.7037
G01 X9.7497 Y-7.6895
G01 X9.7435 Y-7.6755
G01 X9.7191 Y-7.6243
G01 X9.7119 Y-7.6108
G01 X9.7066 Y-7.6017
G01 X9.7108 Y-7.5153
G01 X9.7112 Y-7.5000
G01 X9.7108 Y-7.4847
G01 X9.7065 Y-7.3965
G01 X9.7045 Y-7.3737
G01 X9.6905 Y-7.2788
G01 X9.6879 Y-7.2637
G01 X9.6846 Y-7.2488
G01 X9.6612 Y-7.1557
G01 X9.6542 Y-7.1339
G01 X9.6245 Y-7.0507
G01 X9.6190 Y-7.0365
G01 X9.6128 Y-7.0225
G01 X9.5750 Y-6.9427
G01 X9.5682 Y-6.9290
G01 X9.5606 Y-6.9158
G01 X9.5152 Y-6.8400
G01 X9.5027 Y-6.8208
G01 X9.4457 Y-6.7437
G01 X9.4313 Y-6.7258
G01 X9.3618 Y-6.6490
G01 X9.3510 Y-6.6382
G01 X9.3114 Y-6.6023
G01 X9.3114 Y-6.1818
G01 X9.3265 Y-6.1729
G01 X9.3454 Y-6.1600
G01 X9.3574 Y-6.1506
G01 X9.3746 Y-6.1354
G01 X9.3854 Y-6.1246
G01 X9.4006 Y-6.1074
G01 X9.4100 Y-6.0954
G01 X9.4229 Y-6.0765
G01 X9.4308 Y-6.0634
G01 X9.4413 Y-6.0431
G01 X9.4503 Y-6.0220
G01 X9.4555 Y-6.0076
G01 X9.4619 Y-5.9856
G01 X9.4666 Y-5.9632
G01 X9.4697 Y-5.9405
G01 X9.4708 Y-5.9253
G01 X9.4712 Y-5.9100
G01 X9.4714 Y-4.6550
G01 X9.4712 Y-3.4000
G01 X9.4703 Y-3.3771
G01 X9.4678 Y-3.3543
G01 X9.4636 Y-3.3318
G01 X9.4578 Y-3.3097
G01 X9.4503 Y-3.2880
G01 X9.4413 Y-3.2669
G01 X9.4308 Y-3.2466
G01 X9.4229 Y-3.2335
G01 X9.4100 Y-3.2146
G01 X9.4006 Y-3.2026
G01 X9.3854 Y-3.1854
G01 X9.3690 Y-3.1694
G01 X9.3515 Y-3.1547
G01 X9.3329 Y-3.1413
G01 X9.3134 Y-3.1292
G01 X9.2931 Y-3.1187
G01 X9.2791 Y-3.1125
G01 X9.2576 Y-3.1045
G01 X9.2430 Y-3.1001
G01 X9.2282 Y-3.0964
G01 X9.2132 Y-3.0934
G01 X9.1981 Y-3.0912
G01 X9.1829 Y-3.0897
G01 X9.1676 Y-3.0889
G01 X8.1600 Y-3.0888
G01 X8.1447 Y-3.0892
G01 X8.1295 Y-3.0903
G01 X8.1068 Y-3.0934
G01 X8.0844 Y-3.0981
G01 X8.0697 Y-3.1022
G01 X8.0480 Y-3.1097
G01 X8.0269 Y-3.1187
G01 X8.0133 Y-3.1256
G01 X7.9935 Y-3.1371
G01 X7.9808 Y-3.1456
G01 X7.9685 Y-3.1547
G01 X7.9510 Y-3.1694
G01 X7.9346 Y-3.1854
G01 X7.9194 Y-3.2026
G01 X7.9056 Y-3.2208
G01 X7.8971 Y-3.2335
G01 X7.8892 Y-3.2466
G01 X7.8787 Y-3.2669
G01 X7.8725 Y-3.2809
G01 X7.8670 Y-3.2952
G01 X7.8622 Y-3.3097
G01 X7.8581 Y-3.3244
G01 X7.8548 Y-3.3393
G01 X7.8522 Y-3.3543
G01 X7.8503 Y-3.3695
G01 X7.8489 Y-3.3924
G01 X7.8488 Y-4.3319
G01 X7.8296 Y-4.3579
G01 X7.8211 Y-4.3706
G01 X7.7881 Y-4.4258
G01 X7.7775 Y-4.4461
G01 X7.7565 Y-4.4905
G01 X7.7475 Y-4.5116
G01 X7.7283 Y-4.5649
G01 X7.7235 Y-4.5795
G01 X7.7194 Y-4.5942
G01 X7.7057 Y-4.6492
G01 X7.7015 Y-4.6717
G01 X7.6943 Y-4.7203
G01 X7.6925 Y-4.7355
G01 X7.6913 Y-4.7507
G01 X7.6889 Y-4.7997
G01 X7.6886 Y-4.8150
G01 X7.6886 Y-6.6023
G00 Z2.0000
G00 X7.8103 Y-6.6567
G01 F60.00
G01 Z-0.1001
G01 F160.00
G01 X7.8018 Y-6.6639
G01 X7.7364 Y-6.7233
G01 X7.7233 Y-6.7364
G01 X7.6579 Y-6.8089
G01 X7.5942 Y-6.8948
G01 X7.5392 Y-6.9865
G01 X7.4973 Y-7.0746
G01 X7.4902 Y-7.0918
G01 X7.4575 Y-7.1838
G01 X7.4336 Y-7.2784
G01 X7.4299 Y-7.2966
G01 X7.4158 Y-7.3932
G01 X7.4106 Y-7.5000
G01 X7.4151 Y-7.5975
G01 X7.4170 Y-7.6160
G01 X7.4315 Y-7.7125
G01 X7.4550 Y-7.8073
G01 X7.4604 Y-7.8251
G01 X7.4902 Y-7.9082
G01 X7.4973 Y-7.9254
G01 X7.5392 Y-8.0135
G01 X7.5942 Y-8.1052
G01 X7.6521 Y-8.1838
G01 X7.6639 Y-8.1982
G01 X7.7297 Y-8.2703
G01 X7.8018 Y-8.3361
G01 X7.8162 Y-8.3479
G01 X7.8871 Y-8.4005
G01 X7.9026 Y-8.4108
G01 X7.9865 Y-8.4608
G01 X8.0746 Y-8.5027
G01 X8.0918 Y-8.5098
G01 X8.1838 Y-8.5425
G01 X8.2829 Y-8.5675
G01 X8.2920 Y-8.5693
G01 X8.3103 Y-8.5721
G01 X8.3103 Y-32.7910
G01 X8.3004 Y-32.8004
G01 X8.2940 Y-32.8071
G01 X8.2352 Y-32.8723
G01 X8.1773 Y-32.9503
G01 X8.1274 Y-33.0336
G01 X8.0859 Y-33.1214
G01 X8.0532 Y-33.2128
G01 X8.0296 Y-33.3070
G01 X8.0153 Y-33.4030
G01 X8.0108 Y-33.4907
G01 X8.0106 Y-33.5000
G01 X8.0110 Y-33.5137
G01 X7.9669 Y-33.5625
G01 X7.9266 Y-33.6168
G01 X7.8918 Y-33.6749
G01 X7.8628 Y-33.7361
G01 X7.8400 Y-33.7998
G01 X7.8236 Y-33.8655
G01 X7.8137 Y-33.9324
G01 X7.8103 Y-34.0000
G01 X7.8106 Y-91.5093
G01 X7.8137 Y-91.5676
G01 X7.8236 Y-91.6345
G01 X7.8400 Y-91.7002
G01 X7.8595 Y-91.7553
G01 X7.8647 Y-91.7682
G01 X7.8876 Y-91.8168
G01 X7.8963 Y-91.8332
G01 X7.9266 Y-91.8832
G01 X7.9612 Y-91.9302
G01 X7.9699 Y-91.9411
G01 X8.0123 Y-91.9877
G01 X9.0357 Y-93.0109
G01 X9.0825 Y-93.0531
G01 X9.1292 Y-93.0881
G01 X9.1447 Y-93.0984
G01 X9.1949 Y-93.1282
G01 X9.2561 Y-93.1572
G01 X9.3198 Y-93.1800
G01 X9.3855 Y-93.1964
G01 X9.4432 Y-93.2052
G01 X9.4617 Y-93.2070
G01 X9.5200 Y-93.2097
G01 X10.8036 Y-93.2097
G01 X10.8450 Y-93.2550
G01 X10.9170 Y-93.3205
G01 X10.9279 Y-93.3292
G01 X10.9987 Y-93.3816
G01 X11.0104 Y-93.3892
G01 X11.0900 Y-93.4367
G01 X11.1780 Y-93.4785
G01 X11.1909 Y-93.4836
G01 X11.2783 Y-93.5147
G01 X11.3772 Y-93.5394
G01 X11.4781 Y-93.5544
G01 X11.5707 Y-93.5592
G01 X11.5893 Y-93.5592
G01 X11.6819 Y-93.5544
G01 X11.7736 Y-93.5410
G01 X11.7919 Y-93.5374
G01 X11.8817 Y-93.5147
G01 X11.9778 Y-93.4803
G01 X12.0617 Y-93.4409
G01 X12.0781 Y-93.4321
G01 X12.1575 Y-93.3842
G01 X12.2394 Y-93.3235
G01 X12.3082 Y-93.2614
G01 X12.3214 Y-93.2482
G01 X12.3835 Y-93.1794
G01 X12.4442 Y-93.0975
G01 X12.4921 Y-93.0181
G01 X12.5009 Y-93.0017
G01 X12.5403 Y-92.9178
G01 X12.5717 Y-92.8306
G01 X12.5771 Y-92.8128
G01 X12.5994 Y-92.7228
G01 X12.6144 Y-92.6219
G01 X12.6192 Y-92.5293
G01 X12.6192 Y-92.5107
G01 X12.6144 Y-92.4181
G01 X12.5994 Y-92.3172
G01 X12.5747 Y-92.2183
G01 X12.5436 Y-92.1309
G01 X12.5365 Y-92.1137
G01 X12.4967 Y-92.0300
G01 X12.4442 Y-91.9425
G01 X12.3892 Y-91.8679
G01 X12.3774 Y-91.8536
G01 X12.3150 Y-91.7850
G01 X12.2394 Y-91.7165
G01 X12.1575 Y-91.6558
G01 X12.0700 Y-91.6033
G01 X11.9778 Y-91.5597
G01 X11.8817 Y-91.5253
G01 X11.7828 Y-91.5006
G01 X11.6819 Y-91.4856
G01 X11.5893 Y-91.4808
G01 X11.5754 Y-91.4806
G01 X11.4781 Y-91.4856
G01 X11.3772 Y-91.5006
G01 X11.2783 Y-91.5253
G01 X11.1909 Y-91.5564
G01 X11.1780 Y-91.5615
G01 X11.0900 Y-91.6033
G01 X11.0104 Y-91.6508
G01 X10.9987 Y-91.6584
G01 X10.9279 Y-91.7108
G01 X10.9170 Y-91.7195
G01 X10.8450 Y-91.7850
G01 X10.8036 Y-91.8303
G01 X9.8057 Y-91.8303
G01 X9.1897 Y-91.2143
G01 X9.1897 Y-34.4710
G01 X9.2021 Y-34.4684
G01 X9.2872 Y-34.4468
G01 X9.3700 Y-34.4175
G01 X9.3871 Y-34.4103
G01 X9.4581 Y-34.3768
G01 X9.4745 Y-34.3680
G01 X9.5497 Y-34.3227
G01 X9.6277 Y-34.2648
G01 X9.6996 Y-34.1996
G01 X9.7648 Y-34.1277
G01 X9.8227 Y-34.0497
G01 X9.8680 Y-33.9745
G01 X9.8768 Y-33.9581
G01 X9.9103 Y-33.8871
G01 X9.9175 Y-33.8700
G01 X9.9468 Y-33.7872
G01 X9.9704 Y-33.6930
G01 X9.9847 Y-33.5970
G01 X9.9894 Y-33.5000
G01 X9.9847 Y-33.4030
G01 X9.9704 Y-33.3070
G01 X9.9468 Y-33.2128
G01 X9.9141 Y-33.1214
G01 X9.8726 Y-33.0336
G01 X9.8227 Y-32.9503
G01 X9.7648 Y-32.8723
G01 X9.7060 Y-32.8071
G01 X9.6996 Y-32.8004
G01 X9.6897 Y-32.7910
G01 X9.6896 Y-7.9954
G01 X9.6863 Y-7.9324
G01 X9.6780 Y-7.8746
G01 X9.6744 Y-7.8564
G01 X9.6600 Y-7.7998
G01 X9.6405 Y-7.7447
G01 X9.6334 Y-7.7276
G01 X9.6082 Y-7.6749
G01 X9.5811 Y-7.6292
G01 X9.5837 Y-7.6114
G01 X9.5846 Y-7.6022
G01 X9.5894 Y-7.5000
G01 X9.5849 Y-7.4025
G01 X9.5837 Y-7.3886
G01 X9.5701 Y-7.2966
G01 X9.5664 Y-7.2784
G01 X9.5425 Y-7.1838
G01 X9.5082 Y-7.0874
G01 X9.5027 Y-7.0746
G01 X9.4608 Y-6.9865
G01 X9.4108 Y-6.9026
G01 X9.4005 Y-6.8871
G01 X9.3421 Y-6.8089
G01 X9.2767 Y-6.7364
G01 X9.2636 Y-6.7233
G01 X9.1982 Y-6.6639
G01 X9.1897 Y-6.6567
G01 X9.1897 Y-6.0971
G01 X9.2060 Y-6.0937
G01 X9.2238 Y-6.0883
G01 X9.2368 Y-6.0832
G01 X9.2534 Y-6.0748
G01 X9.2691 Y-6.0649
G01 X9.2802 Y-6.0564
G01 X9.2906 Y-6.0472
G01 X9.3034 Y-6.0337
G01 X9.3149 Y-6.0191
G01 X9.3225 Y-6.0074
G01 X9.3312 Y-5.9910
G01 X9.3367 Y-5.9782
G01 X9.3426 Y-5.9605
G01 X9.3458 Y-5.9470
G01 X9.3485 Y-5.9286
G01 X9.3494 Y-5.9146
G01 X9.3497 Y-4.6550
G01 X9.3492 Y-3.3907
G01 X9.3480 Y-3.3768
G01 X9.3458 Y-3.3630
G01 X9.3426 Y-3.3495
G01 X9.3383 Y-3.3362
G01 X9.3332 Y-3.3232
G01 X9.3271 Y-3.3107
G01 X9.3200 Y-3.2987
G01 X9.3149 Y-3.2909
G01 X9.3064 Y-3.2798
G01 X9.2972 Y-3.2694
G01 X9.2872 Y-3.2596
G01 X9.2765 Y-3.2507
G01 X9.2652 Y-3.2425
G01 X9.2534 Y-3.2352
G01 X9.2452 Y-3.2308
G01 X9.2325 Y-3.2250
G01 X9.2150 Y-3.2187
G01 X9.1970 Y-3.2142
G01 X9.1832 Y-3.2120
G01 X9.1646 Y-3.2106
G01 X8.1600 Y-3.2106
G01 X8.1461 Y-3.2111
G01 X8.1322 Y-3.2126
G01 X8.1230 Y-3.2142
G01 X8.1095 Y-3.2174
G01 X8.0962 Y-3.2217
G01 X8.0832 Y-3.2268
G01 X8.0748 Y-3.2308
G01 X8.0626 Y-3.2375
G01 X8.0509 Y-3.2451
G01 X8.0398 Y-3.2536
G01 X8.0328 Y-3.2596
G01 X8.0228 Y-3.2694
G01 X8.0136 Y-3.2798
G01 X8.0051 Y-3.2909
G01 X7.9975 Y-3.3026
G01 X7.9908 Y-3.3148
G01 X7.9850 Y-3.3275
G01 X7.9801 Y-3.3406
G01 X7.9752 Y-3.3585
G01 X7.9720 Y-3.3768
G01 X7.9706 Y-3.3954
G01 X7.9706 Y-4.3731
G01 X7.9612 Y-4.3848
G01 X7.9319 Y-4.4242
G01 X7.9216 Y-4.4397
G01 X7.8918 Y-4.4899
G01 X7.8628 Y-4.5511
G01 X7.8400 Y-4.6148
G01 X7.8256 Y-4.6714
G01 X7.8220 Y-4.6896
G01 X7.8142 Y-4.7428
G01 X7.8130 Y-4.7567
G01 X7.8103 Y-4.8150
G01 X7.8103 Y-6.6567
G00 Z2.0000
G00 X10.7000 Y-6.0994
G01 F60.00
G01 Z-0.1001
G01 F160.00
G01 X10.7605 Y-6.0994
G01 X10.7605 Y-12.2000
G01 X10.7626 Y-12.2431
G01 X10.7680 Y-12.2812
G01 X10.7709 Y-12.2948
G01 X10.7794 Y-12.3276
G01 X10.7906 Y-12.3595
G01 X10.7957 Y-12.3725
G01 X10.8102 Y-12.4031
G01 X10.8146 Y-12.4113
G01 X10.8296 Y-12.4363
G01 X10.8399 Y-12.4518
G01 X10.8602 Y-12.4788
G01 X10.8892 Y-12.5108
G01 X17.0605 Y-18.6821
G01 X17.0605 Y-48.3179
G01 X14.4744 Y-50.9040
G01 X14.4306 Y-50.8883
G01 X14.4173 Y-50.8840
G01 X14.3319 Y-50.8626
G01 X14.3182 Y-50.8597
G01 X14.2219 Y-50.8456
G01 X14.1246 Y-50.8406
G01 X14.1107 Y-50.8408
G01 X14.0181 Y-50.8456
G01 X13.9264 Y-50.8590
G01 X13.9081 Y-50.8626
G01 X13.8272 Y-50.8829
G01 X13.8138 Y-50.8867
G01 X13.7222 Y-50.9197
G01 X13.6300 Y-50.9633
G01 X13.5425 Y-51.0158
G01 X13.4679 Y-51.0708
G01 X13.4536 Y-51.0826
G01 X13.3918 Y-51.1386
G01 X13.3786 Y-51.1518
G01 X13.3165 Y-51.2206
G01 X13.2611 Y-51.2949
G01 X13.2532 Y-51.3064
G01 X13.2033 Y-51.3900
G01 X13.1635 Y-51.4737
G01 X13.1564 Y-51.4909
G01 X13.1253 Y-51.5783
G01 X13.1006 Y-51.6772
G01 X13.0867 Y-51.7689
G01 X13.0849 Y-51.7874
G01 X13.0806 Y-51.8800
G01 X13.0856 Y-51.9819
G01 X13.0990 Y-52.0736
G01 X13.1026 Y-52.0919
G01 X13.1253 Y-52.1817
G01 X13.1564 Y-52.2691
G01 X13.1635 Y-52.2863
G01 X13.2033 Y-52.3700
G01 X13.2508 Y-52.4496
G01 X13.2611 Y-52.4651
G01 X13.3165 Y-52.5394
G01 X13.3786 Y-52.6082
G01 X13.3918 Y-52.6214
G01 X13.4606 Y-52.6835
G01 X13.5349 Y-52.7389
G01 X13.5504 Y-52.7492
G01 X13.6219 Y-52.7921
G01 X13.6383 Y-52.8009
G01 X13.7222 Y-52.8403
G01 X13.8094 Y-52.8717
G01 X13.8272 Y-52.8771
G01 X13.9172 Y-52.8994
G01 X14.0089 Y-52.9133
G01 X14.0274 Y-52.9151
G01 X14.1200 Y-52.9194
G01 X14.2172 Y-52.9148
G01 X14.2311 Y-52.9133
G01 X14.3228 Y-52.8994
G01 X14.4217 Y-52.8747
G01 X14.5178 Y-52.8403
G01 X14.6100 Y-52.7967
G01 X14.6975 Y-52.7442
G01 X14.7794 Y-52.6835
G01 X14.8550 Y-52.6150
G01 X14.9205 Y-52.5430
G01 X14.9292 Y-52.5321
G01 X14.9842 Y-52.4575
G01 X15.0321 Y-52.3781
G01 X15.0409 Y-52.3617
G01 X15.0803 Y-52.2778
G01 X15.1117 Y-52.1906
G01 X15.1171 Y-52.1728
G01 X15.1374 Y-52.0919
G01 X15.1403 Y-52.0782
G01 X15.1544 Y-51.9819
G01 X15.1592 Y-51.8893
G01 X15.1592 Y-51.8707
G01 X15.1548 Y-51.7828
G01 X15.1533 Y-51.7689
G01 X15.1410 Y-51.6864
G01 X15.1385 Y-51.6727
G01 X15.1160 Y-51.5827
G01 X15.1117 Y-51.5694
G01 X15.0960 Y-51.5256
G01 X17.8141 Y-48.8075
G01 X17.8398 Y-48.7788
G01 X17.8655 Y-48.7442
G01 X17.8876 Y-48.7072
G01 X17.9023 Y-48.6767
G01 X17.9078 Y-48.6639
G01 X17.9177 Y-48.6364
G01 X17.9231 Y-48.6186
G01 X17.9311 Y-48.5858
G01 X17.9374 Y-48.5431
G01 X17.9395 Y-48.5000
G01 X17.9395 Y-18.5000
G01 X17.9378 Y-18.4615
G01 X17.9363 Y-18.4477
G01 X17.9320 Y-18.4188
G01 X17.9301 Y-18.4097
G01 X17.9231 Y-18.3814
G01 X17.9192 Y-18.3680
G01 X17.9094 Y-18.3405
G01 X17.9023 Y-18.3233
G01 X17.8876 Y-18.2928
G01 X17.8655 Y-18.2558
G01 X17.8398 Y-18.2212
G01 X17.8108 Y-18.1892
G01 X11.6395 Y-12.0179
G01 X11.6395 Y-6.0994
G01 X11.7093 Y-6.0992
G01 X11.7278 Y-6.0974
G01 X11.7415 Y-6.0948
G01 X11.7594 Y-6.0899
G01 X11.7768 Y-6.0832
G01 X11.7852 Y-6.0792
G01 X11.7974 Y-6.0725
G01 X11.8128 Y-6.0621
G01 X11.8237 Y-6.0534
G01 X11.8306 Y-6.0472
G01 X11.8372 Y-6.0406
G01 X11.8464 Y-6.0302
G01 X11.8575 Y-6.0152
G01 X11.8625 Y-6.0074
G01 X11.8692 Y-5.9952
G01 X11.8767 Y-5.9782
G01 X11.8813 Y-5.9650
G01 X11.8837 Y-5.9560
G01 X11.8874 Y-5.9378
G01 X11.8885 Y-5.9286
G01 X11.8894 Y-5.9146
G01 X11.8892 Y-3.3907
G01 X11.8880 Y-3.3768
G01 X11.8858 Y-3.3630
G01 X11.8826 Y-3.3495
G01 X11.8783 Y-3.3362
G01 X11.8732 Y-3.3232
G01 X11.8671 Y-3.3107
G01 X11.8600 Y-3.2987
G01 X11.8521 Y-3.2872
G01 X11.8434 Y-3.2763
G01 X11.8339 Y-3.2661
G01 X11.8237 Y-3.2566
G01 X11.8128 Y-3.2479
G01 X11.8013 Y-3.2400
G01 X11.7893 Y-3.2329
G01 X11.7768 Y-3.2268
G01 X11.7638 Y-3.2217
G01 X11.7460 Y-3.2163
G01 X11.7324 Y-3.2134
G01 X11.7186 Y-3.2115
G01 X11.7000 Y-3.2106
G01 X10.7000 Y-3.2106
G01 X10.6814 Y-3.2115
G01 X10.6676 Y-3.2134
G01 X10.6540 Y-3.2163
G01 X10.6406 Y-3.2201
G01 X10.6275 Y-3.2250
G01 X10.6190 Y-3.2288
G01 X10.6066 Y-3.2352
G01 X10.5948 Y-3.2425
G01 X10.5835 Y-3.2507
G01 X10.5728 Y-3.2596
G01 X10.5661 Y-3.2661
G01 X10.5566 Y-3.2763
G01 X10.5479 Y-3.2872
G01 X10.5400 Y-3.2987
G01 X10.5329 Y-3.3107
G01 X10.5268 Y-3.3232
G01 X10.5217 Y-3.3362
G01 X10.5174 Y-3.3495
G01 X10.5134 Y-3.3676
G01 X10.5111 Y-3.3861
G01 X10.5106 Y-3.4000
G01 X10.5106 Y-5.9100
G01 X10.5111 Y-5.9239
G01 X10.5134 Y-5.9424
G01 X10.5163 Y-5.9560
G01 X10.5217 Y-5.9738
G01 X10.5288 Y-5.9910
G01 X10.5375 Y-6.0074
G01 X10.5479 Y-6.0228
G01 X10.5596 Y-6.0372
G01 X10.5728 Y-6.0504
G01 X10.5872 Y-6.0621
G01 X10.6026 Y-6.0725
G01 X10.6190 Y-6.0812
G01 X10.6318 Y-6.0867
G01 X10.6495 Y-6.0926
G01 X10.6676 Y-6.0966
G01 X10.6861 Y-6.0989
G01 X10.7000 Y-6.0994
G00 Z2.0000
G00 X10.7000 Y-5.9776
G01 F60.00
G01 Z-0.1001
G01 F160.00
G01 X10.8822 Y-5.9776
G01 X10.8822 Y-12.2000
G01 X10.8838 Y-12.2311
G01 X10.8878 Y-12.2587
G01 X10.8891 Y-12.2652
G01 X10.8959 Y-12.2922
G01 X10.9052 Y-12.3185
G01 X10.9078 Y-12.3246
G01 X10.9190 Y-12.3483
G01 X10.9340 Y-12.3737
G01 X10.9377 Y-12.3793
G01 X10.9544 Y-12.4016
G01 X10.9753 Y-12.4247
G01 X17.1822 Y-18.6316
G01 X17.1822 Y-48.3684
G01 X14.5033 Y-51.0473
G01 X14.4696 Y-51.0316
G01 X14.3848 Y-51.0014
G01 X14.2990 Y-50.9800
G01 X14.2083 Y-50.9666
G01 X14.1200 Y-50.9624
G01 X14.0301 Y-50.9668
G01 X13.9410 Y-50.9800
G01 X13.8552 Y-51.0014
G01 X13.7688 Y-51.0322
G01 X13.6904 Y-51.0692
G01 X13.6845 Y-51.0723
G01 X13.6130 Y-51.1152
G01 X13.6075 Y-51.1189
G01 X13.5378 Y-51.1706
G01 X13.4711 Y-51.2311
G01 X13.4106 Y-51.2978
G01 X13.3570 Y-51.3702
G01 X13.3123 Y-51.4445
G01 X13.3092 Y-51.4504
G01 X13.2722 Y-51.5288
G01 X13.2419 Y-51.6136
G01 X13.2207 Y-51.6977
G01 X13.2194 Y-51.7042
G01 X13.2068 Y-51.7901
G01 X13.2024 Y-51.8767
G01 X13.2024 Y-51.8833
G01 X13.2065 Y-51.9666
G01 X13.2072 Y-51.9732
G01 X13.2200 Y-52.0590
G01 X13.2410 Y-52.1432
G01 X13.2429 Y-52.1495
G01 X13.2722 Y-52.2312
G01 X13.3092 Y-52.3096
G01 X13.3123 Y-52.3155
G01 X13.3570 Y-52.3898
G01 X13.4086 Y-52.4595
G01 X13.4128 Y-52.4647
G01 X13.4711 Y-52.5289
G01 X13.5353 Y-52.5872
G01 X13.5405 Y-52.5914
G01 X13.6102 Y-52.6430
G01 X13.6874 Y-52.6893
G01 X13.7688 Y-52.7278
G01 X13.8505 Y-52.7571
G01 X13.8568 Y-52.7590
G01 X13.9410 Y-52.7800
G01 X14.0268 Y-52.7928
G01 X14.0334 Y-52.7935
G01 X14.1200 Y-52.7976
G01 X14.2083 Y-52.7934
G01 X14.2990 Y-52.7800
G01 X14.3832 Y-52.7590
G01 X14.3895 Y-52.7571
G01 X14.4712 Y-52.7278
G01 X14.5496 Y-52.6908
G01 X14.5555 Y-52.6877
G01 X14.6298 Y-52.6430
G01 X14.7022 Y-52.5894
G01 X14.7665 Y-52.5312
G01 X14.7712 Y-52.5265
G01 X14.8294 Y-52.4622
G01 X14.8811 Y-52.3925
G01 X14.8848 Y-52.3870
G01 X14.9285 Y-52.3140
G01 X14.9678 Y-52.2312
G01 X14.9971 Y-52.1495
G01 X14.9990 Y-52.1432
G01 X15.0200 Y-52.0590
G01 X15.0328 Y-51.9732
G01 X15.0335 Y-51.9666
G01 X15.0376 Y-51.8817
G01 X15.0332 Y-51.7901
G01 X15.0197 Y-51.6994
G01 X14.9976 Y-51.6120
G01 X14.9684 Y-51.5304
G01 X14.9527 Y-51.4967
G01 X17.7259 Y-48.7235
G01 X17.7456 Y-48.7016
G01 X17.7642 Y-48.6765
G01 X17.7803 Y-48.6498
G01 X17.7922 Y-48.6246
G01 X17.7948 Y-48.6185
G01 X17.8031 Y-48.5954
G01 X17.8050 Y-48.5890
G01 X17.8117 Y-48.5620
G01 X17.8162 Y-48.5311
G01 X17.8178 Y-48.5000
G01 X17.8178 Y-18.5000
G01 X17.8164 Y-18.4705
G01 X17.8117 Y-18.4380
G01 X17.8050 Y-18.4110
G01 X17.8031 Y-18.4046
G01 X17.7948 Y-18.3815
G01 X17.7922 Y-18.3754
G01 X17.7803 Y-18.3502
G01 X17.7642 Y-18.3235
G01 X17.7456 Y-18.2984
G01 X17.7247 Y-18.2753
G01 X11.5178 Y-12.0684
G01 X11.5178 Y-5.9776
G01 X11.7000 Y-5.9776
G01 X11.7083 Y-5.9771
G01 X11.7164 Y-5.9756
G01 X11.7259 Y-5.9725
G01 X11.7348 Y-5.9680
G01 X11.7429 Y-5.9623
G01 X11.7512 Y-5.9542
G01 X11.7572 Y-5.9462
G01 X11.7625 Y-5.9359
G01 X11.7660 Y-5.9248
G01 X11.7675 Y-5.9150
G01 X11.7676 Y-3.3983
G01 X11.7667 Y-3.3884
G01 X11.7642 Y-3.3788
G01 X11.7604 Y-3.3696
G01 X11.7553 Y-3.3610
G01 X11.7490 Y-3.3534
G01 X11.7416 Y-3.3467
G01 X11.7333 Y-3.3411
G01 X11.7243 Y-3.3369
G01 X11.7180 Y-3.3348
G01 X11.7116 Y-3.3333
G01 X11.7000 Y-3.3324
G01 X10.6983 Y-3.3324
G01 X10.6884 Y-3.3333
G01 X10.6788 Y-3.3358
G01 X10.6696 Y-3.3396
G01 X10.6610 Y-3.3447
G01 X10.6534 Y-3.3510
G01 X10.6467 Y-3.3584
G01 X10.6411 Y-3.3667
G01 X10.6369 Y-3.3757
G01 X10.6336 Y-3.3868
G01 X10.6327 Y-3.3934
G01 X10.6324 Y-3.4000
G01 X10.6324 Y-5.9117
G01 X10.6329 Y-5.9183
G01 X10.6340 Y-5.9248
G01 X10.6358 Y-5.9312
G01 X10.6382 Y-5.9374
G01 X10.6411 Y-5.9433
G01 X10.6447 Y-5.9490
G01 X10.6488 Y-5.9542
G01 X10.6534 Y-5.9590
G01 X10.6584 Y-5.9633
G01 X10.6638 Y-5.9672
G01 X10.6741 Y-5.9725
G01 X10.6804 Y-5.9747
G01 X10.6868 Y-5.9764
G01 X10.6934 Y-5.9773
G01 X10.7000 Y-5.9776
G00 Z2.0000
G00 X13.0506 Y-3.4000
G01 F60.00
G01 Z-0.1001
G01 F160.00
G01 X13.0503 Y-8.9666
G01 X13.0411 Y-8.9822
G01 X13.0367 Y-8.9904
G01 X12.9931 Y-9.0829
G01 X12.9600 Y-9.1748
G01 X12.9546 Y-9.1926
G01 X12.9311 Y-9.2874
G01 X12.9165 Y-9.3839
G01 X12.9147 Y-9.4024
G01 X12.9101 Y-9.5000
G01 X12.9154 Y-9.6068
G01 X12.9311 Y-9.7126
G01 X12.9571 Y-9.8164
G01 X12.9931 Y-9.9171
G01 X13.0388 Y-10.0138
G01 X13.0888 Y-10.0976
G01 X13.0992 Y-10.1131
G01 X13.1575 Y-10.1914
G01 X13.2229 Y-10.2639
G01 X13.2361 Y-10.2771
G01 X13.3086 Y-10.3425
G01 X13.3869 Y-10.4008
G01 X13.4024 Y-10.4112
G01 X13.4862 Y-10.4612
G01 X13.5744 Y-10.5031
G01 X13.5916 Y-10.5103
G01 X13.6836 Y-10.5429
G01 X13.7874 Y-10.5689
G01 X13.8932 Y-10.5846
G01 X14.0000 Y-10.5899
G01 X15.5046 Y-10.5898
G01 X15.6068 Y-10.5846
G01 X15.7126 Y-10.5689
G01 X15.8164 Y-10.5429
G01 X15.9171 Y-10.5069
G01 X16.0138 Y-10.4612
G01 X16.0976 Y-10.4112
G01 X16.1131 Y-10.4008
G01 X16.1914 Y-10.3425
G01 X16.2639 Y-10.2771
G01 X16.2771 Y-10.2639
G01 X16.3364 Y-10.1984
G01 X16.3482 Y-10.1841
G01 X16.4062 Y-10.1055
G01 X16.4612 Y-10.0138
G01 X16.5069 Y-9.9171
G01 X16.5429 Y-9.8164
G01 X16.5689 Y-9.7126
G01 X16.5835 Y-9.6161
G01 X16.5853 Y-9.5976
G01 X16.5896 Y-9.5093
G01 X16.5896 Y-9.4907
G01 X16.5846 Y-9.3932
G01 X16.5705 Y-9.2965
G01 X16.5669 Y-9.2783
G01 X16.5429 Y-9.1836
G01 X16.5069 Y-9.0829
G01 X16.4612 Y-8.9862
G01 X16.4112 Y-8.9024
G01 X16.4036 Y-8.8907
G01 X16.3425 Y-8.8086
G01 X16.2707 Y-8.7293
G01 X16.1914 Y-8.6575
G01 X16.1055 Y-8.5938
G01 X16.0138 Y-8.5388
G01 X15.9171 Y-8.4931
G01 X15.8164 Y-8.4571
G01 X15.7217 Y-8.4331
G01 X15.7035 Y-8.4295
G01 X15.6068 Y-8.4154
G01 X15.5046 Y-8.4102
G01 X14.4297 Y-8.4101
G01 X14.4294 Y-3.4000
G01 X14.4285 Y-3.3814
G01 X14.4258 Y-3.3630
G01 X14.4213 Y-3.3450
G01 X14.4150 Y-3.3275
G01 X14.4092 Y-3.3148
G01 X14.4025 Y-3.3026
G01 X14.3975 Y-3.2948
G01 X14.3893 Y-3.2835
G01 X14.3804 Y-3.2728
G01 X14.3706 Y-3.2628
G01 X14.3602 Y-3.2536
G01 X14.3528 Y-3.2479
G01 X14.3413 Y-3.2400
G01 X14.3293 Y-3.2329
G01 X14.3210 Y-3.2288
G01 X14.3082 Y-3.2233
G01 X14.2994 Y-3.2201
G01 X14.2860 Y-3.2163
G01 X14.2724 Y-3.2134
G01 X14.2586 Y-3.2115
G01 X14.2400 Y-3.2106
G01 X13.2307 Y-3.2108
G01 X13.2122 Y-3.2126
G01 X13.1940 Y-3.2163
G01 X13.1762 Y-3.2217
G01 X13.1590 Y-3.2288
G01 X13.1466 Y-3.2352
G01 X13.1309 Y-3.2451
G01 X13.1163 Y-3.2566
G01 X13.1028 Y-3.2694
G01 X13.0907 Y-3.2835
G01 X13.0800 Y-3.2987
G01 X13.0729 Y-3.3107
G01 X13.0650 Y-3.3275
G01 X13.0587 Y-3.3450
G01 X13.0542 Y-3.3630
G01 X13.0515 Y-3.3814
G01 X13.0506 Y-3.4000
G00 Z2.0000
G00 X13.1724 Y-3.4000
G01 F60.00
G01 Z-0.1001
G01 F160.00
G01 X13.1721 Y-9.0003
G01 X13.1454 Y-9.0451
G01 X13.1062 Y-9.1280
G01 X13.0731 Y-9.2206
G01 X13.0505 Y-9.3111
G01 X13.0370 Y-9.4018
G01 X13.0363 Y-9.4084
G01 X13.0319 Y-9.5000
G01 X13.0366 Y-9.5949
G01 X13.0505 Y-9.6889
G01 X13.0736 Y-9.7810
G01 X13.1050 Y-9.8689
G01 X13.1462 Y-9.9564
G01 X13.1933 Y-10.0350
G01 X13.1970 Y-10.0406
G01 X13.2516 Y-10.1142
G01 X13.3132 Y-10.1821
G01 X13.3179 Y-10.1868
G01 X13.3858 Y-10.2484
G01 X13.4594 Y-10.3030
G01 X13.4650 Y-10.3067
G01 X13.5436 Y-10.3538
G01 X13.6265 Y-10.3931
G01 X13.6326 Y-10.3956
G01 X13.7190 Y-10.4264
G01 X13.8111 Y-10.4495
G01 X13.9051 Y-10.4634
G01 X14.0000 Y-10.4681
G01 X15.5017 Y-10.4681
G01 X15.5949 Y-10.4634
G01 X15.6889 Y-10.4495
G01 X15.7810 Y-10.4264
G01 X15.8689 Y-10.3950
G01 X15.9564 Y-10.3538
G01 X16.0350 Y-10.3067
G01 X16.0406 Y-10.3030
G01 X16.1115 Y-10.2504
G01 X16.1167 Y-10.2462
G01 X16.1846 Y-10.1846
G01 X16.2462 Y-10.1167
G01 X16.2504 Y-10.1115
G01 X16.3049 Y-10.0378
G01 X16.3538 Y-9.9564
G01 X16.3944 Y-9.8705
G01 X16.4254 Y-9.7842
G01 X16.4273 Y-9.7778
G01 X16.4488 Y-9.6921
G01 X16.4501 Y-9.6856
G01 X16.4634 Y-9.5949
G01 X16.4680 Y-9.5033
G01 X16.4680 Y-9.4967
G01 X16.4634 Y-9.4051
G01 X16.4495 Y-9.3111
G01 X16.4264 Y-9.2190
G01 X16.3956 Y-9.1326
G01 X16.3931 Y-9.1265
G01 X16.3538 Y-9.0436
G01 X16.3067 Y-8.9650
G01 X16.3030 Y-8.9594
G01 X16.2484 Y-8.8858
G01 X16.1846 Y-8.8154
G01 X16.1142 Y-8.7516
G01 X16.0378 Y-8.6951
G01 X15.9592 Y-8.6478
G01 X15.9534 Y-8.6447
G01 X15.8735 Y-8.6069
G01 X15.8674 Y-8.6044
G01 X15.7810 Y-8.5736
G01 X15.6872 Y-8.5502
G01 X15.5949 Y-8.5366
G01 X15.5017 Y-8.5319
G01 X14.3079 Y-8.5319
G01 X14.3076 Y-3.4000
G01 X14.3067 Y-3.3884
G01 X14.3052 Y-3.3820
G01 X14.3031 Y-3.3757
G01 X14.2989 Y-3.3667
G01 X14.2933 Y-3.3584
G01 X14.2866 Y-3.3510
G01 X14.2790 Y-3.3447
G01 X14.2719 Y-3.3403
G01 X14.2628 Y-3.3363
G01 X14.2532 Y-3.3336
G01 X14.2433 Y-3.3324
G01 X13.2383 Y-3.3324
G01 X13.2317 Y-3.3329
G01 X13.2252 Y-3.3340
G01 X13.2188 Y-3.3358
G01 X13.2126 Y-3.3382
G01 X13.2067 Y-3.3411
G01 X13.2010 Y-3.3447
G01 X13.1958 Y-3.3488
G01 X13.1910 Y-3.3534
G01 X13.1867 Y-3.3584
G01 X13.1828 Y-3.3638
G01 X13.1796 Y-3.3696
G01 X13.1769 Y-3.3757
G01 X13.1748 Y-3.3820
G01 X13.1733 Y-3.3884
G01 X13.1724 Y-3.4000
G00 Z2.0000
G00 X12.8068 Y-8.9067
G01 F60.00
G01 Z-0.1001
G01 F160.00
G01 X12.7767 Y-8.9703
G01 X12.7681 Y-8.9897
G01 X12.7604 Y-9.0096
G01 X12.7307 Y-9.0928
G01 X12.7272 Y-9.1028
G01 X12.7210 Y-9.1231
G01 X12.6944 Y-9.2295
G01 X12.6922 Y-9.2399
G01 X12.6886 Y-9.2608
G01 X12.6756 Y-9.3482
G01 X12.6730 Y-9.3693
G01 X12.6714 Y-9.3905
G01 X12.6671 Y-9.4788
G01 X12.6666 Y-9.5000
G01 X12.6671 Y-9.5212
G01 X12.6714 Y-9.6095
G01 X12.6730 Y-9.6307
G01 X12.6756 Y-9.6518
G01 X12.6886 Y-9.7392
G01 X12.6922 Y-9.7601
G01 X12.6969 Y-9.7809
G01 X12.7183 Y-9.8666
G01 X12.7240 Y-9.8871
G01 X12.7307 Y-9.9072
G01 X12.7604 Y-9.9904
G01 X12.7641 Y-10.0004
G01 X12.7723 Y-10.0200
G01 X12.8145 Y-10.1096
G01 X12.8240 Y-10.1286
G01 X12.8345 Y-10.1471
G01 X12.8799 Y-10.2228
G01 X12.8913 Y-10.2408
G01 X12.9035 Y-10.2582
G01 X12.9562 Y-10.3292
G01 X12.9693 Y-10.3459
G01 X12.9831 Y-10.3620
G01 X13.0425 Y-10.4275
G01 X13.0571 Y-10.4429
G01 X13.0725 Y-10.4575
G01 X13.1380 Y-10.5169
G01 X13.1460 Y-10.5239
G01 X13.1624 Y-10.5374
G01 X13.2418 Y-10.5965
G01 X13.2592 Y-10.6087
G01 X13.2681 Y-10.6145
G01 X13.3621 Y-10.6708
G01 X13.3714 Y-10.6760
G01 X13.3904 Y-10.6855
G01 X13.4800 Y-10.7277
G01 X13.4996 Y-10.7359
G01 X13.5096 Y-10.7396
G01 X13.5928 Y-10.7693
G01 X13.6129 Y-10.7760
G01 X13.6334 Y-10.7817
G01 X13.7191 Y-10.8031
G01 X13.7399 Y-10.8078
G01 X13.7503 Y-10.8097
G01 X13.8587 Y-10.8258
G01 X13.8693 Y-10.8270
G01 X13.8905 Y-10.8286
G01 X13.9894 Y-10.8333
G01 X15.5106 Y-10.8333
G01 X15.6095 Y-10.8286
G01 X15.6307 Y-10.8270
G01 X15.6518 Y-10.8244
G01 X15.7392 Y-10.8114
G01 X15.7601 Y-10.8078
G01 X15.7809 Y-10.8031
G01 X15.8666 Y-10.7817
G01 X15.8871 Y-10.7760
G01 X15.9072 Y-10.7693
G01 X15.9904 Y-10.7396
G01 X16.0103 Y-10.7319
G01 X16.0297 Y-10.7233
G01 X16.1096 Y-10.6855
G01 X16.1286 Y-10.6760
G01 X16.1471 Y-10.6655
G01 X16.2228 Y-10.6201
G01 X16.2408 Y-10.6087
G01 X16.2582 Y-10.5965
G01 X16.3292 Y-10.5438
G01 X16.3459 Y-10.5307
G01 X16.3620 Y-10.5169
G01 X16.4275 Y-10.4575
G01 X16.4429 Y-10.4429
G01 X16.4575 Y-10.4275
G01 X16.5169 Y-10.3620
G01 X16.5307 Y-10.3459
G01 X16.5438 Y-10.3292
G01 X16.5965 Y-10.2582
G01 X16.6087 Y-10.2408
G01 X16.6201 Y-10.2228
G01 X16.6655 Y-10.1471
G01 X16.6760 Y-10.1286
G01 X16.6855 Y-10.1096
G01 X16.7233 Y-10.0297
G01 X16.7319 Y-10.0103
G01 X16.7396 Y-9.9904
G01 X16.7693 Y-9.9072
G01 X16.7760 Y-9.8871
G01 X16.7817 Y-9.8666
G01 X16.8031 Y-9.7809
G01 X16.8078 Y-9.7601
G01 X16.8114 Y-9.7392
G01 X16.8244 Y-9.6518
G01 X16.8270 Y-9.6307
G01 X16.8286 Y-9.6095
G01 X16.8329 Y-9.5212
G01 X16.8334 Y-9.5000
G01 X16.8329 Y-9.4788
G01 X16.8286 Y-9.3905
G01 X16.8270 Y-9.3693
G01 X16.8244 Y-9.3482
G01 X16.8114 Y-9.2608
G01 X16.8078 Y-9.2399
G01 X16.8031 Y-9.2191
G01 X16.7817 Y-9.1334
G01 X16.7760 Y-9.1129
G01 X16.7693 Y-9.0928
G01 X16.7396 Y-9.0096
G01 X16.7319 Y-8.9897
G01 X16.7233 Y-8.9703
G01 X16.6855 Y-8.8904
G01 X16.6760 Y-8.8714
G01 X16.6655 Y-8.8529
G01 X16.6201 Y-8.7772
G01 X16.6087 Y-8.7592
G01 X16.5965 Y-8.7418
G01 X16.5438 Y-8.6708
G01 X16.5307 Y-8.6541
G01 X16.5169 Y-8.6380
G01 X16.4575 Y-8.5725
G01 X16.4429 Y-8.5571
G01 X16.4275 Y-8.5425
G01 X16.3620 Y-8.4831
G01 X16.3459 Y-8.4693
G01 X16.3292 Y-8.4562
G01 X16.2582 Y-8.4035
G01 X16.2408 Y-8.3913
G01 X16.2228 Y-8.3799
G01 X16.1471 Y-8.3345
G01 X16.1286 Y-8.3240
G01 X16.1096 Y-8.3145
G01 X16.0297 Y-8.2767
G01 X16.0103 Y-8.2681
G01 X15.9904 Y-8.2604
G01 X15.9072 Y-8.2307
G01 X15.8871 Y-8.2240
G01 X15.8666 Y-8.2183
G01 X15.7809 Y-8.1969
G01 X15.7601 Y-8.1922
G01 X15.7497 Y-8.1903
G01 X15.6518 Y-8.1756
G01 X15.6307 Y-8.1730
G01 X15.6095 Y-8.1714
G01 X15.5106 Y-8.1667
G01 X14.6732 Y-8.1666
G01 X14.6730 Y-3.4000
G01 X14.6728 Y-3.3894
G01 X14.6718 Y-3.3681
G01 X14.6697 Y-3.3470
G01 X14.6666 Y-3.3260
G01 X14.6646 Y-3.3155
G01 X14.6600 Y-3.2948
G01 X14.6543 Y-3.2743
G01 X14.6511 Y-3.2642
G01 X14.6439 Y-3.2442
G01 X14.6400 Y-3.2343
G01 X14.6358 Y-3.2245
G01 X14.6267 Y-3.2053
G01 X14.6218 Y-3.1959
G01 X14.6114 Y-3.1774
G01 X14.6000 Y-3.1595
G01 X14.5940 Y-3.1507
G01 X14.5878 Y-3.1421
G01 X14.5747 Y-3.1253
G01 X14.5608 Y-3.1092
G01 X14.5536 Y-3.1015
G01 X14.5385 Y-3.0864
G01 X14.5308 Y-3.0792
G01 X14.5147 Y-3.0653
G01 X14.4979 Y-3.0522
G01 X14.4893 Y-3.0460
G01 X14.4716 Y-3.0342
G01 X14.4626 Y-3.0286
G01 X14.4441 Y-3.0182
G01 X14.4251 Y-3.0086
G01 X14.4057 Y-3.0000
G01 X14.3859 Y-2.9923
G01 X14.3758 Y-2.9889
G01 X14.3657 Y-2.9857
G01 X14.3452 Y-2.9800
G01 X14.3245 Y-2.9754
G01 X14.3140 Y-2.9734
G01 X14.2930 Y-2.9703
G01 X14.2824 Y-2.9691
G01 X14.2612 Y-2.9676
G01 X14.2400 Y-2.9670
G01 X13.2400 Y-2.9670
G01 X13.2188 Y-2.9676
G01 X13.1976 Y-2.9691
G01 X13.1765 Y-2.9717
G01 X13.1555 Y-2.9754
G01 X13.1451 Y-2.9776
G01 X13.1245 Y-2.9827
G01 X13.1042 Y-2.9889
G01 X13.0941 Y-2.9923
G01 X13.0842 Y-2.9961
G01 X13.0645 Y-3.0042
G01 X13.0453 Y-3.0133
G01 X13.0359 Y-3.0182
G01 X13.0266 Y-3.0233
G01 X13.0084 Y-3.0342
G01 X12.9907 Y-3.0460
G01 X12.9821 Y-3.0522
G01 X12.9736 Y-3.0587
G01 X12.9572 Y-3.0722
G01 X12.9415 Y-3.0864
G01 X12.9339 Y-3.0939
G01 X12.9192 Y-3.1092
G01 X12.9053 Y-3.1253
G01 X12.8987 Y-3.1336
G01 X12.8860 Y-3.1507
G01 X12.8800 Y-3.1595
G01 X12.8742 Y-3.1684
G01 X12.8633 Y-3.1866
G01 X12.8533 Y-3.2053
G01 X12.8486 Y-3.2149
G01 X12.8400 Y-3.2343
G01 X12.8323 Y-3.2541
G01 X12.8289 Y-3.2642
G01 X12.8257 Y-3.2743
G01 X12.8200 Y-3.2948
G01 X12.8154 Y-3.3155
G01 X12.8117 Y-3.3365
G01 X12.8103 Y-3.3470
G01 X12.8091 Y-3.3576
G01 X12.8076 Y-3.3788
G01 X12.8070 Y-3.4000
G01 X12.8068 Y-8.9067
G00 Z2.0000
G00 X12.9286 Y-8.9344
G01 F60.00
G01 Z-0.1001
G01 F160.00
G01 X12.8868 Y-9.0224
G01 X12.8806 Y-9.0363
G01 X12.8751 Y-9.0506
G01 X12.8453 Y-9.1338
G01 X12.8405 Y-9.1483
G01 X12.8365 Y-9.1630
G01 X12.8150 Y-9.2487
G01 X12.8116 Y-9.2636
G01 X12.8090 Y-9.2787
G01 X12.7961 Y-9.3661
G01 X12.7935 Y-9.3888
G01 X12.7887 Y-9.4847
G01 X12.7884 Y-9.5000
G01 X12.7887 Y-9.5153
G01 X12.7931 Y-9.6035
G01 X12.7942 Y-9.6188
G01 X12.7961 Y-9.6339
G01 X12.8090 Y-9.7213
G01 X12.8116 Y-9.7364
G01 X12.8150 Y-9.7513
G01 X12.8365 Y-9.8370
G01 X12.8405 Y-9.8517
G01 X12.8453 Y-9.8662
G01 X12.8751 Y-9.9494
G01 X12.8806 Y-9.9637
G01 X12.8868 Y-9.9776
G01 X12.9246 Y-10.0575
G01 X12.9314 Y-10.0712
G01 X12.9390 Y-10.0845
G01 X12.9844 Y-10.1602
G01 X12.9969 Y-10.1794
G01 X13.0540 Y-10.2566
G01 X13.0634 Y-10.2687
G01 X13.0734 Y-10.2802
G01 X13.1327 Y-10.3457
G01 X13.1432 Y-10.3568
G01 X13.1543 Y-10.3673
G01 X13.2198 Y-10.4266
G01 X13.2313 Y-10.4366
G01 X13.2434 Y-10.4460
G01 X13.3144 Y-10.4986
G01 X13.3268 Y-10.5074
G01 X13.3398 Y-10.5156
G01 X13.4155 Y-10.5610
G01 X13.4288 Y-10.5686
G01 X13.4425 Y-10.5754
G01 X13.5224 Y-10.6132
G01 X13.5363 Y-10.6194
G01 X13.5506 Y-10.6249
G01 X13.6338 Y-10.6547
G01 X13.6483 Y-10.6595
G01 X13.6630 Y-10.6635
G01 X13.7561 Y-10.6868
G01 X13.7787 Y-10.6910
G01 X13.8661 Y-10.7039
G01 X13.8812 Y-10.7058
G01 X13.8965 Y-10.7069
G01 X13.9924 Y-10.7115
G01 X15.5076 Y-10.7115
G01 X15.6035 Y-10.7069
G01 X15.6188 Y-10.7058
G01 X15.6339 Y-10.7039
G01 X15.7213 Y-10.6910
G01 X15.7364 Y-10.6884
G01 X15.7513 Y-10.6850
G01 X15.8370 Y-10.6635
G01 X15.8590 Y-10.6572
G01 X15.9494 Y-10.6249
G01 X15.9637 Y-10.6194
G01 X15.9776 Y-10.6132
G01 X16.0575 Y-10.5754
G01 X16.0712 Y-10.5686
G01 X16.0845 Y-10.5610
G01 X16.1602 Y-10.5156
G01 X16.1732 Y-10.5074
G01 X16.1856 Y-10.4986
G01 X16.2566 Y-10.4460
G01 X16.2687 Y-10.4366
G01 X16.2802 Y-10.4266
G01 X16.3457 Y-10.3673
G01 X16.3568 Y-10.3568
G01 X16.3673 Y-10.3457
G01 X16.4266 Y-10.2802
G01 X16.4366 Y-10.2687
G01 X16.4460 Y-10.2566
G01 X16.4986 Y-10.1856
G01 X16.5074 Y-10.1732
G01 X16.5156 Y-10.1602
G01 X16.5610 Y-10.0845
G01 X16.5686 Y-10.0712
G01 X16.5754 Y-10.0575
G01 X16.6132 Y-9.9776
G01 X16.6194 Y-9.9637
G01 X16.6249 Y-9.9494
G01 X16.6547 Y-9.8662
G01 X16.6595 Y-9.8517
G01 X16.6635 Y-9.8370
G01 X16.6868 Y-9.7439
G01 X16.6910 Y-9.7213
G01 X16.7039 Y-9.6339
G01 X16.7058 Y-9.6188
G01 X16.7069 Y-9.6035
G01 X16.7113 Y-9.5153
G01 X16.7116 Y-9.5000
G01 X16.7113 Y-9.4847
G01 X16.7069 Y-9.3965
G01 X16.7058 Y-9.3812
G01 X16.7039 Y-9.3661
G01 X16.6910 Y-9.2787
G01 X16.6884 Y-9.2636
G01 X16.6850 Y-9.2487
G01 X16.6635 Y-9.1630
G01 X16.6595 Y-9.1483
G01 X16.6547 Y-9.1338
G01 X16.6249 Y-9.0506
G01 X16.6194 Y-9.0363
G01 X16.6132 Y-9.0224
G01 X16.5754 Y-8.9425
G01 X16.5686 Y-8.9288
G01 X16.5610 Y-8.9155
G01 X16.5156 Y-8.8398
G01 X16.5074 Y-8.8268
G01 X16.4986 Y-8.8144
G01 X16.4460 Y-8.7434
G01 X16.4366 Y-8.7313
G01 X16.4266 Y-8.7198
G01 X16.3673 Y-8.6543
G01 X16.3568 Y-8.6432
G01 X16.3457 Y-8.6327
G01 X16.2802 Y-8.5734
G01 X16.2687 Y-8.5634
G01 X16.2566 Y-8.5540
G01 X16.1856 Y-8.5014
G01 X16.1732 Y-8.4926
G01 X16.1602 Y-8.4844
G01 X16.0845 Y-8.4390
G01 X16.0712 Y-8.4314
G01 X16.0575 Y-8.4246
G01 X15.9776 Y-8.3868
G01 X15.9637 Y-8.3806
G01 X15.9494 Y-8.3751
G01 X15.8662 Y-8.3453
G01 X15.8517 Y-8.3405
G01 X15.8370 Y-8.3365
G01 X15.7513 Y-8.3150
G01 X15.7364 Y-8.3116
G01 X15.7213 Y-8.3090
G01 X15.6264 Y-8.2950
G01 X15.6035 Y-8.2931
G01 X15.5153 Y-8.2887
G01 X15.5000 Y-8.2884
G01 X14.5514 Y-8.2884
G01 X14.5514 Y-4.6550
G01 X14.5512 Y-3.4000
G01 X14.5508 Y-3.3847
G01 X14.5488 Y-3.3619
G01 X14.5452 Y-3.3393
G01 X14.5399 Y-3.3170
G01 X14.5355 Y-3.3024
G01 X14.5303 Y-3.2880
G01 X14.5213 Y-3.2669
G01 X14.5108 Y-3.2466
G01 X14.4987 Y-3.2271
G01 X14.4900 Y-3.2146
G01 X14.4806 Y-3.2026
G01 X14.4654 Y-3.1854
G01 X14.4546 Y-3.1746
G01 X14.4433 Y-3.1644
G01 X14.4254 Y-3.1500
G01 X14.4129 Y-3.1413
G01 X14.4000 Y-3.1331
G01 X14.3799 Y-3.1220
G01 X14.3591 Y-3.1125
G01 X14.3376 Y-3.1045
G01 X14.3230 Y-3.1001
G01 X14.3082 Y-3.0964
G01 X14.2932 Y-3.0934
G01 X14.2705 Y-3.0903
G01 X14.2553 Y-3.0892
G01 X14.2400 Y-3.0888
G01 X13.2400 Y-3.0888
G01 X13.2247 Y-3.0892
G01 X13.2095 Y-3.0903
G01 X13.1868 Y-3.0934
G01 X13.1644 Y-3.0981
G01 X13.1424 Y-3.1045
G01 X13.1209 Y-3.1125
G01 X13.1001 Y-3.1220
G01 X13.0800 Y-3.1331
G01 X13.0608 Y-3.1456
G01 X13.0426 Y-3.1594
G01 X13.0254 Y-3.1746
G01 X13.0094 Y-3.1910
G01 X12.9947 Y-3.2085
G01 X12.9813 Y-3.2271
G01 X12.9692 Y-3.2466
G01 X12.9587 Y-3.2669
G01 X12.9497 Y-3.2880
G01 X12.9422 Y-3.3097
G01 X12.9364 Y-3.3318
G01 X12.9334 Y-3.3468
G01 X12.9312 Y-3.3619
G01 X12.9297 Y-3.3771
G01 X12.9288 Y-3.4000
G01 X12.9286 Y-8.9344
G00 Z2.0000
G00 X19.5668 Y-6.1666
G01 F60.00
G01 Z-0.1001
G01 F160.00
G01 X19.0000 Y-6.1666
G01 X18.9788 Y-6.1671
G01 X18.8905 Y-6.1714
G01 X18.8693 Y-6.1730
G01 X18.8482 Y-6.1756
G01 X18.7608 Y-6.1886
G01 X18.7399 Y-6.1922
G01 X18.7191 Y-6.1969
G01 X18.6334 Y-6.2183
G01 X18.6129 Y-6.2240
G01 X18.5928 Y-6.2307
G01 X18.5096 Y-6.2604
G01 X18.4897 Y-6.2681
G01 X18.4703 Y-6.2767
G01 X18.3904 Y-6.3145
G01 X18.3714 Y-6.3240
G01 X18.3529 Y-6.3345
G01 X18.2772 Y-6.3799
G01 X18.2592 Y-6.3913
G01 X18.2418 Y-6.4035
G01 X18.1708 Y-6.4562
G01 X18.1541 Y-6.4693
G01 X18.1380 Y-6.4831
G01 X18.0725 Y-6.5425
G01 X18.0571 Y-6.5571
G01 X18.0425 Y-6.5725
G01 X17.9831 Y-6.6380
G01 X17.9693 Y-6.6541
G01 X17.9562 Y-6.6708
G01 X17.9035 Y-6.7418
G01 X17.8913 Y-6.7592
G01 X17.8799 Y-6.7772
G01 X17.8345 Y-6.8529
G01 X17.8292 Y-6.8621
G01 X17.8191 Y-6.8809
G01 X17.7767 Y-6.9703
G01 X17.7681 Y-6.9897
G01 X17.7604 Y-7.0096
G01 X17.7307 Y-7.0928
G01 X17.7240 Y-7.1129
G01 X17.7183 Y-7.1334
G01 X17.6969 Y-7.2191
G01 X17.6922 Y-7.2399
G01 X17.6886 Y-7.2608
G01 X17.6756 Y-7.3482
G01 X17.6730 Y-7.3693
G01 X17.6714 Y-7.3905
G01 X17.6671 Y-7.4788
G01 X17.6666 Y-7.5000
G01 X17.6671 Y-7.5212
G01 X17.6721 Y-7.6201
G01 X17.6742 Y-7.6413
G01 X17.6756 Y-7.6518
G01 X17.6886 Y-7.7392
G01 X17.6922 Y-7.7601
G01 X17.6969 Y-7.7809
G01 X17.7183 Y-7.8666
G01 X17.7240 Y-7.8871
G01 X17.7307 Y-7.9072
G01 X17.7604 Y-7.9904
G01 X17.7681 Y-8.0103
G01 X17.7767 Y-8.0297
G01 X17.8145 Y-8.1096
G01 X17.8240 Y-8.1286
G01 X17.8345 Y-8.1471
G01 X17.8799 Y-8.2228
G01 X17.8855 Y-8.2319
G01 X17.8973 Y-8.2496
G01 X17.9562 Y-8.3292
G01 X17.9693 Y-8.3459
G01 X17.9761 Y-8.3540
G01 X18.0497 Y-8.4353
G01 X18.0571 Y-8.4429
G01 X18.0725 Y-8.4575
G01 X18.1460 Y-8.5239
G01 X18.1624 Y-8.5374
G01 X18.1708 Y-8.5438
G01 X18.2418 Y-8.5965
G01 X18.2592 Y-8.6087
G01 X18.2772 Y-8.6201
G01 X18.3529 Y-8.6655
G01 X18.3714 Y-8.6760
G01 X18.3904 Y-8.6855
G01 X18.4703 Y-8.7233
G01 X18.4897 Y-8.7319
G01 X18.5096 Y-8.7396
G01 X18.5928 Y-8.7693
G01 X18.6129 Y-8.7760
G01 X18.6334 Y-8.7817
G01 X18.7191 Y-8.8031
G01 X18.7399 Y-8.8078
G01 X18.7608 Y-8.8114
G01 X18.8482 Y-8.8244
G01 X18.8693 Y-8.8270
G01 X18.8905 Y-8.8286
G01 X18.9788 Y-8.8329
G01 X19.0000 Y-8.8334
G01 X20.5000 Y-8.8334
G01 X20.5212 Y-8.8329
G01 X20.6095 Y-8.8286
G01 X20.6307 Y-8.8270
G01 X20.6518 Y-8.8244
G01 X20.7392 Y-8.8114
G01 X20.7601 Y-8.8078
G01 X20.7809 Y-8.8031
G01 X20.8666 Y-8.7817
G01 X20.8871 Y-8.7760
G01 X20.9072 Y-8.7693
G01 X20.9904 Y-8.7396
G01 X21.0103 Y-8.7319
G01 X21.0297 Y-8.7233
G01 X21.1096 Y-8.6855
G01 X21.1286 Y-8.6760
G01 X21.1471 Y-8.6655
G01 X21.2228 Y-8.6201
G01 X21.2319 Y-8.6145
G01 X21.2496 Y-8.6027
G01 X21.3376 Y-8.5374
G01 X21.3459 Y-8.5307
G01 X21.3620 Y-8.5169
G01 X21.4275 Y-8.4575
G01 X21.4429 Y-8.4429
G01 X21.4575 Y-8.4275
G01 X21.5169 Y-8.3620
G01 X21.5307 Y-8.3459
G01 X21.5438 Y-8.3292
G01 X21.5965 Y-8.2582
G01 X21.6087 Y-8.2408
G01 X21.6201 Y-8.2228
G01 X21.6655 Y-8.1471
G01 X21.6760 Y-8.1286
G01 X21.6855 Y-8.1096
G01 X21.7233 Y-8.0297
G01 X21.7319 Y-8.0103
G01 X21.7396 Y-7.9904
G01 X21.7693 Y-7.9072
G01 X21.7760 Y-7.8871
G01 X21.7817 Y-7.8666
G01 X21.8031 Y-7.7809
G01 X21.8078 Y-7.7601
G01 X21.8114 Y-7.7392
G01 X21.8244 Y-7.6518
G01 X21.8258 Y-7.6413
G01 X21.8279 Y-7.6201
G01 X21.8333 Y-7.5106
G01 X21.8333 Y-7.4894
G01 X21.8329 Y-7.4788
G01 X21.8286 Y-7.3905
G01 X21.8270 Y-7.3693
G01 X21.8244 Y-7.3482
G01 X21.8114 Y-7.2608
G01 X21.8078 Y-7.2399
G01 X21.8031 Y-7.2191
G01 X21.7817 Y-7.1334
G01 X21.7760 Y-7.1129
G01 X21.7693 Y-7.0928
G01 X21.7396 Y-7.0096
G01 X21.7319 Y-6.9897
G01 X21.7233 Y-6.9703
G01 X21.6855 Y-6.8904
G01 X21.6760 Y-6.8714
G01 X21.6655 Y-6.8529
G01 X21.6201 Y-6.7772
G01 X21.6087 Y-6.7592
G01 X21.5965 Y-6.7418
G01 X21.5438 Y-6.6708
G01 X21.5307 Y-6.6541
G01 X21.5169 Y-6.6380
G01 X21.4575 Y-6.5725
G01 X21.4429 Y-6.5571
G01 X21.4332 Y-6.5478
G01 X21.4332 Y-6.2089
G01 X21.4408 Y-6.2008
G01 X21.4547 Y-6.1847
G01 X21.4678 Y-6.1679
G01 X21.4800 Y-6.1505
G01 X21.4858 Y-6.1416
G01 X21.4967 Y-6.1234
G01 X21.5067 Y-6.1047
G01 X21.5158 Y-6.0855
G01 X21.5239 Y-6.0658
G01 X21.5311 Y-6.0458
G01 X21.5373 Y-6.0255
G01 X21.5424 Y-6.0049
G01 X21.5466 Y-5.9840
G01 X21.5497 Y-5.9630
G01 X21.5518 Y-5.9419
G01 X21.5524 Y-5.9312
G01 X21.5530 Y-5.9100
G01 X21.5532 Y-4.6550
G01 X21.5528 Y-3.3894
G01 X21.5524 Y-3.3788
G01 X21.5509 Y-3.3576
G01 X21.5483 Y-3.3365
G01 X21.5446 Y-3.3155
G01 X21.5424 Y-3.3051
G01 X21.5400 Y-3.2948
G01 X21.5343 Y-3.2743
G01 X21.5277 Y-3.2541
G01 X21.5200 Y-3.2343
G01 X21.5158 Y-3.2245
G01 X21.5067 Y-3.2053
G01 X21.4967 Y-3.1866
G01 X21.4914 Y-3.1774
G01 X21.4800 Y-3.1595
G01 X21.4678 Y-3.1421
G01 X21.4613 Y-3.1336
G01 X21.4478 Y-3.1172
G01 X21.4336 Y-3.1015
G01 X21.4261 Y-3.0939
G01 X21.4108 Y-3.0792
G01 X21.4028 Y-3.0722
G01 X21.3864 Y-3.0587
G01 X21.3693 Y-3.0460
G01 X21.3605 Y-3.0400
G01 X21.3516 Y-3.0342
G01 X21.3334 Y-3.0233
G01 X21.3147 Y-3.0133
G01 X21.3051 Y-3.0086
G01 X21.2857 Y-3.0000
G01 X21.2659 Y-2.9923
G01 X21.2457 Y-2.9857
G01 X21.2252 Y-2.9800
G01 X21.2149 Y-2.9776
G01 X21.1940 Y-2.9734
G01 X21.1730 Y-2.9703
G01 X21.1624 Y-2.9691
G01 X21.1412 Y-2.9676
G01 X21.1200 Y-2.9670
G01 X20.1200 Y-2.9670
G01 X20.0988 Y-2.9676
G01 X20.0776 Y-2.9691
G01 X20.0565 Y-2.9717
G01 X20.0355 Y-2.9754
G01 X20.0251 Y-2.9776
G01 X20.0148 Y-2.9800
G01 X19.9943 Y-2.9857
G01 X19.9741 Y-2.9923
G01 X19.9543 Y-3.0000
G01 X19.9349 Y-3.0086
G01 X19.9159 Y-3.0182
G01 X19.9066 Y-3.0233
G01 X19.8884 Y-3.0342
G01 X19.8795 Y-3.0400
G01 X19.8621 Y-3.0522
G01 X19.8453 Y-3.0653
G01 X19.8292 Y-3.0792
G01 X19.8139 Y-3.0939
G01 X19.8064 Y-3.1015
G01 X19.7922 Y-3.1172
G01 X19.7853 Y-3.1253
G01 X19.7722 Y-3.1421
G01 X19.7660 Y-3.1507
G01 X19.7542 Y-3.1684
G01 X19.7433 Y-3.1866
G01 X19.7333 Y-3.2053
G01 X19.7242 Y-3.2245
G01 X19.7200 Y-3.2343
G01 X19.7123 Y-3.2541
G01 X19.7057 Y-3.2743
G01 X19.7000 Y-3.2948
G01 X19.6954 Y-3.3155
G01 X19.6934 Y-3.3260
G01 X19.6917 Y-3.3365
G01 X19.6891 Y-3.3576
G01 X19.6876 Y-3.3788
G01 X19.6870 Y-3.4000
G01 X19.6870 Y-4.3173
G01 X19.6770 Y-4.3351
G01 X19.6721 Y-4.3445
G01 X19.6464 Y-4.3984
G01 X19.6378 Y-4.4179
G01 X19.6302 Y-4.4377
G01 X19.6136 Y-4.4839
G01 X19.6070 Y-4.5041
G01 X19.6013 Y-4.5246
G01 X19.5894 Y-4.5722
G01 X19.5869 Y-4.5825
G01 X19.5828 Y-4.6034
G01 X19.5725 Y-4.6730
G01 X19.5713 Y-4.6835
G01 X19.5697 Y-4.7047
G01 X19.5673 Y-4.7538
G01 X19.5668 Y-4.7750
G01 X19.5668 Y-6.1666
G00 Z2.0000
G00 X19.6886 Y-6.2884
G01 F60.00
G01 Z-0.1001
G01 F160.00
G01 X19.0000 Y-6.2884
G01 X18.9847 Y-6.2887
G01 X18.8965 Y-6.2931
G01 X18.8812 Y-6.2942
G01 X18.8661 Y-6.2961
G01 X18.7787 Y-6.3090
G01 X18.7636 Y-6.3116
G01 X18.7487 Y-6.3150
G01 X18.6556 Y-6.3384
G01 X18.6338 Y-6.3453
G01 X18.5506 Y-6.3751
G01 X18.5363 Y-6.3806
G01 X18.5224 Y-6.3868
G01 X18.4425 Y-6.4246
G01 X18.4288 Y-6.4314
G01 X18.4155 Y-6.4390
G01 X18.3398 Y-6.4844
G01 X18.3268 Y-6.4926
G01 X18.3144 Y-6.5014
G01 X18.2434 Y-6.5540
G01 X18.2313 Y-6.5634
G01 X18.2198 Y-6.5734
G01 X18.1543 Y-6.6327
G01 X18.1432 Y-6.6432
G01 X18.1327 Y-6.6543
G01 X18.0734 Y-6.7198
G01 X18.0634 Y-6.7313
G01 X18.0540 Y-6.7434
G01 X17.9969 Y-6.8206
G01 X17.9844 Y-6.8398
G01 X17.9390 Y-6.9155
G01 X17.9314 Y-6.9288
G01 X17.9246 Y-6.9425
G01 X17.8868 Y-7.0224
G01 X17.8806 Y-7.0363
G01 X17.8751 Y-7.0506
G01 X17.8453 Y-7.1338
G01 X17.8405 Y-7.1483
G01 X17.8365 Y-7.1630
G01 X17.8150 Y-7.2487
G01 X17.8116 Y-7.2636
G01 X17.8090 Y-7.2787
G01 X17.7950 Y-7.3736
G01 X17.7931 Y-7.3965
G01 X17.7887 Y-7.4847
G01 X17.7884 Y-7.5000
G01 X17.7887 Y-7.5153
G01 X17.7931 Y-7.6035
G01 X17.7942 Y-7.6188
G01 X17.7961 Y-7.6339
G01 X17.8090 Y-7.7213
G01 X17.8116 Y-7.7364
G01 X17.8150 Y-7.7513
G01 X17.8365 Y-7.8370
G01 X17.8428 Y-7.8590
G01 X17.8751 Y-7.9494
G01 X17.8806 Y-7.9637
G01 X17.8868 Y-7.9776
G01 X17.9246 Y-8.0575
G01 X17.9314 Y-8.0712
G01 X17.9390 Y-8.0845
G01 X17.9844 Y-8.1602
G01 X17.9926 Y-8.1732
G01 X18.0014 Y-8.1856
G01 X18.0540 Y-8.2566
G01 X18.0634 Y-8.2687
G01 X18.0734 Y-8.2802
G01 X18.1327 Y-8.3457
G01 X18.1432 Y-8.3568
G01 X18.1543 Y-8.3673
G01 X18.2198 Y-8.4266
G01 X18.2313 Y-8.4366
G01 X18.2434 Y-8.4460
G01 X18.3144 Y-8.4986
G01 X18.3268 Y-8.5074
G01 X18.3398 Y-8.5156
G01 X18.4221 Y-8.5649
G01 X18.4425 Y-8.5754
G01 X18.5224 Y-8.6132
G01 X18.5363 Y-8.6194
G01 X18.5506 Y-8.6249
G01 X18.6338 Y-8.6547
G01 X18.6483 Y-8.6595
G01 X18.6630 Y-8.6635
G01 X18.7487 Y-8.6850
G01 X18.7636 Y-8.6884
G01 X18.7787 Y-8.6910
G01 X18.8661 Y-8.7039
G01 X18.8812 Y-8.7058
G01 X18.8965 Y-8.7069
G01 X18.9847 Y-8.7113
G01 X19.0000 Y-8.7116
G01 X20.5000 Y-8.7116
G01 X20.5153 Y-8.7113
G01 X20.6035 Y-8.7069
G01 X20.6188 Y-8.7058
G01 X20.6339 Y-8.7039
G01 X20.7213 Y-8.6910
G01 X20.7364 Y-8.6884
G01 X20.7513 Y-8.6850
G01 X20.8370 Y-8.6635
G01 X20.8517 Y-8.6595
G01 X20.8662 Y-8.6547
G01 X20.9494 Y-8.6249
G01 X20.9637 Y-8.6194
G01 X20.9776 Y-8.6132
G01 X21.0575 Y-8.5754
G01 X21.0712 Y-8.5686
G01 X21.0845 Y-8.5610
G01 X21.1602 Y-8.5156
G01 X21.1732 Y-8.5074
G01 X21.1856 Y-8.4986
G01 X21.2566 Y-8.4460
G01 X21.2687 Y-8.4366
G01 X21.2802 Y-8.4266
G01 X21.3457 Y-8.3673
G01 X21.3568 Y-8.3568
G01 X21.3673 Y-8.3457
G01 X21.4266 Y-8.2802
G01 X21.4366 Y-8.2687
G01 X21.4460 Y-8.2566
G01 X21.4986 Y-8.1856
G01 X21.5074 Y-8.1732
G01 X21.5156 Y-8.1602
G01 X21.5610 Y-8.0845
G01 X21.5686 Y-8.0712
G01 X21.5754 Y-8.0575
G01 X21.6132 Y-7.9776
G01 X21.6194 Y-7.9637
G01 X21.6249 Y-7.9494
G01 X21.6547 Y-7.8662
G01 X21.6595 Y-7.8517
G01 X21.6635 Y-7.8370
G01 X21.6850 Y-7.7513
G01 X21.6884 Y-7.7364
G01 X21.6910 Y-7.7213
G01 X21.7039 Y-7.6339
G01 X21.7058 Y-7.6188
G01 X21.7069 Y-7.6035
G01 X21.7115 Y-7.5076
G01 X21.7113 Y-7.4847
G01 X21.7069 Y-7.3965
G01 X21.7058 Y-7.3812
G01 X21.7039 Y-7.3661
G01 X21.6910 Y-7.2787
G01 X21.6884 Y-7.2636
G01 X21.6850 Y-7.2487
G01 X21.6635 Y-7.1630
G01 X21.6595 Y-7.1483
G01 X21.6547 Y-7.1338
G01 X21.6249 Y-7.0506
G01 X21.6164 Y-7.0293
G01 X21.5754 Y-6.9425
G01 X21.5686 Y-6.9288
G01 X21.5610 Y-6.9155
G01 X21.5156 Y-6.8398
G01 X21.5031 Y-6.8206
G01 X21.4460 Y-6.7434
G01 X21.4317 Y-6.7255
G01 X21.3621 Y-6.6487
G01 X21.3457 Y-6.6327
G01 X21.3114 Y-6.6017
G01 X21.3114 Y-6.1553
G01 X21.3233 Y-6.1456
G01 X21.3346 Y-6.1354
G01 X21.3454 Y-6.1246
G01 X21.3556 Y-6.1133
G01 X21.3653 Y-6.1015
G01 X21.3744 Y-6.0892
G01 X21.3869 Y-6.0700
G01 X21.3944 Y-6.0567
G01 X21.4045 Y-6.0361
G01 X21.4103 Y-6.0220
G01 X21.4155 Y-6.0076
G01 X21.4199 Y-5.9930
G01 X21.4236 Y-5.9782
G01 X21.4278 Y-5.9557
G01 X21.4297 Y-5.9405
G01 X21.4308 Y-5.9253
G01 X21.4312 Y-5.9100
G01 X21.4314 Y-4.6550
G01 X21.4311 Y-3.3924
G01 X21.4297 Y-3.3695
G01 X21.4278 Y-3.3543
G01 X21.4236 Y-3.3318
G01 X21.4178 Y-3.3097
G01 X21.4103 Y-3.2880
G01 X21.4013 Y-3.2669
G01 X21.3908 Y-3.2466
G01 X21.3829 Y-3.2335
G01 X21.3700 Y-3.2146
G01 X21.3606 Y-3.2026
G01 X21.3454 Y-3.1854
G01 X21.3290 Y-3.1694
G01 X21.3115 Y-3.1547
G01 X21.2929 Y-3.1413
G01 X21.2800 Y-3.1331
G01 X21.2599 Y-3.1220
G01 X21.2391 Y-3.1125
G01 X21.2248 Y-3.1070
G01 X21.2103 Y-3.1022
G01 X21.1956 Y-3.0981
G01 X21.1807 Y-3.0948
G01 X21.1581 Y-3.0912
G01 X21.1429 Y-3.0897
G01 X21.1276 Y-3.0889
G01 X20.1200 Y-3.0888
G01 X20.1047 Y-3.0892
G01 X20.0895 Y-3.0903
G01 X20.0743 Y-3.0922
G01 X20.0518 Y-3.0964
G01 X20.0297 Y-3.1022
G01 X20.0152 Y-3.1070
G01 X19.9939 Y-3.1155
G01 X19.9733 Y-3.1256
G01 X19.9535 Y-3.1371
G01 X19.9408 Y-3.1456
G01 X19.9285 Y-3.1547
G01 X19.9110 Y-3.1694
G01 X19.8946 Y-3.1854
G01 X19.8844 Y-3.1967
G01 X19.8747 Y-3.2085
G01 X19.8613 Y-3.2271
G01 X19.8492 Y-3.2466
G01 X19.8420 Y-3.2601
G01 X19.8325 Y-3.2809
G01 X19.8270 Y-3.2952
G01 X19.8222 Y-3.3097
G01 X19.8181 Y-3.3244
G01 X19.8148 Y-3.3393
G01 X19.8122 Y-3.3543
G01 X19.8097 Y-3.3771
G01 X19.8089 Y-3.3924
G01 X19.8088 Y-4.3510
G01 X19.7919 Y-4.3792
G01 X19.7844 Y-4.3925
G01 X19.7775 Y-4.4061
G01 X19.7565 Y-4.4505
G01 X19.7475 Y-4.4716
G01 X19.7258 Y-4.5322
G01 X19.7194 Y-4.5542
G01 X19.7075 Y-4.6018
G01 X19.7042 Y-4.6167
G01 X19.7015 Y-4.6317
G01 X19.6943 Y-4.6803
G01 X19.6925 Y-4.6955
G01 X19.6913 Y-4.7107
G01 X19.6889 Y-4.7597
G01 X19.6886 Y-4.7750
G01 X19.6886 Y-6.2884
G00 Z2.0000
G00 X19.8103 Y-6.4101
G01 F60.00
G01 Z-0.1001
G01 F160.00
G01 X18.9954 Y-6.4102
G01 X18.8932 Y-6.4154
G01 X18.7965 Y-6.4295
G01 X18.7783 Y-6.4331
G01 X18.6836 Y-6.4571
G01 X18.5829 Y-6.4931
G01 X18.4862 Y-6.5388
G01 X18.4024 Y-6.5888
G01 X18.3869 Y-6.5992
G01 X18.3159 Y-6.6518
G01 X18.3016 Y-6.6636
G01 X18.2293 Y-6.7293
G01 X18.1636 Y-6.8016
G01 X18.1546 Y-6.8122
G01 X18.0938 Y-6.8945
G01 X18.0388 Y-6.9862
G01 X17.9931 Y-7.0829
G01 X17.9571 Y-7.1836
G01 X17.9311 Y-7.2874
G01 X17.9154 Y-7.3932
G01 X17.9101 Y-7.5000
G01 X17.9154 Y-7.6068
G01 X17.9311 Y-7.7126
G01 X17.9571 Y-7.8164
G01 X17.9931 Y-7.9171
G01 X18.0388 Y-8.0138
G01 X18.0938 Y-8.1055
G01 X18.1575 Y-8.1914
G01 X18.2293 Y-8.2707
G01 X18.3016 Y-8.3364
G01 X18.3122 Y-8.3454
G01 X18.3945 Y-8.4062
G01 X18.4781 Y-8.4566
G01 X18.4945 Y-8.4654
G01 X18.5829 Y-8.5069
G01 X18.6748 Y-8.5400
G01 X18.6926 Y-8.5454
G01 X18.7874 Y-8.5689
G01 X18.8932 Y-8.5846
G01 X19.0000 Y-8.5899
G01 X20.5000 Y-8.5899
G01 X20.6068 Y-8.5846
G01 X20.7035 Y-8.5705
G01 X20.7217 Y-8.5669
G01 X20.8164 Y-8.5429
G01 X20.9084 Y-8.5103
G01 X20.9256 Y-8.5031
G01 X21.0138 Y-8.4612
G01 X21.1055 Y-8.4062
G01 X21.1914 Y-8.3425
G01 X21.2639 Y-8.2771
G01 X21.2771 Y-8.2639
G01 X21.3425 Y-8.1914
G01 X21.4008 Y-8.1131
G01 X21.4112 Y-8.0976
G01 X21.4589 Y-8.0178
G01 X21.4654 Y-8.0055
G01 X21.5069 Y-7.9171
G01 X21.5400 Y-7.8252
G01 X21.5454 Y-7.8074
G01 X21.5669 Y-7.7217
G01 X21.5705 Y-7.7035
G01 X21.5846 Y-7.6068
G01 X21.5899 Y-7.5000
G01 X21.5846 Y-7.3932
G01 X21.5689 Y-7.2874
G01 X21.5429 Y-7.1836
G01 X21.5069 Y-7.0829
G01 X21.4612 Y-6.9862
G01 X21.4112 Y-6.9024
G01 X21.4008 Y-6.8869
G01 X21.3482 Y-6.8159
G01 X21.3364 Y-6.8016
G01 X21.2707 Y-6.7293
G01 X21.1984 Y-6.6636
G01 X21.1897 Y-6.6561
G01 X21.1897 Y-6.0861
G01 X21.2052 Y-6.0792
G01 X21.2174 Y-6.0725
G01 X21.2291 Y-6.0649
G01 X21.2402 Y-6.0564
G01 X21.2506 Y-6.0472
G01 X21.2604 Y-6.0372
G01 X21.2693 Y-6.0265
G01 X21.2775 Y-6.0152
G01 X21.2848 Y-6.0034
G01 X21.2912 Y-5.9910
G01 X21.2967 Y-5.9782
G01 X21.3013 Y-5.9650
G01 X21.3048 Y-5.9515
G01 X21.3074 Y-5.9378
G01 X21.3089 Y-5.9239
G01 X21.3094 Y-5.9100
G01 X21.3097 Y-4.6550
G01 X21.3092 Y-3.3907
G01 X21.3080 Y-3.3768
G01 X21.3058 Y-3.3630
G01 X21.3026 Y-3.3495
G01 X21.2999 Y-3.3406
G01 X21.2950 Y-3.3275
G01 X21.2892 Y-3.3148
G01 X21.2848 Y-3.3066
G01 X21.2775 Y-3.2948
G01 X21.2721 Y-3.2872
G01 X21.2634 Y-3.2763
G01 X21.2539 Y-3.2661
G01 X21.2437 Y-3.2566
G01 X21.2328 Y-3.2479
G01 X21.2213 Y-3.2400
G01 X21.2093 Y-3.2329
G01 X21.1968 Y-3.2268
G01 X21.1794 Y-3.2201
G01 X21.1615 Y-3.2152
G01 X21.1432 Y-3.2120
G01 X21.1246 Y-3.2106
G01 X20.1200 Y-3.2106
G01 X20.1061 Y-3.2111
G01 X20.0922 Y-3.2126
G01 X20.0785 Y-3.2152
G01 X20.0695 Y-3.2174
G01 X20.0562 Y-3.2217
G01 X20.0475 Y-3.2250
G01 X20.0348 Y-3.2308
G01 X20.0226 Y-3.2375
G01 X20.0109 Y-3.2451
G01 X19.9998 Y-3.2536
G01 X19.9894 Y-3.2628
G01 X19.9796 Y-3.2728
G01 X19.9736 Y-3.2798
G01 X19.9651 Y-3.2909
G01 X19.9575 Y-3.3026
G01 X19.9529 Y-3.3107
G01 X19.9468 Y-3.3232
G01 X19.9401 Y-3.3406
G01 X19.9352 Y-3.3585
G01 X19.9320 Y-3.3768
G01 X19.9306 Y-3.3954
G01 X19.9306 Y-4.3861
G01 X19.9216 Y-4.3997
G01 X19.8963 Y-4.4418
G01 X19.8876 Y-4.4582
G01 X19.8628 Y-4.5111
G01 X19.8400 Y-4.5748
G01 X19.8256 Y-4.6314
G01 X19.8220 Y-4.6496
G01 X19.8137 Y-4.7074
G01 X19.8106 Y-4.7657
G01 X19.8103 Y-6.4101
G00 Z2.0000
G00 X19.9321 Y-6.5319
G01 F60.00
G01 Z-0.1001
G01 F160.00
G01 X18.9983 Y-6.5319
G01 X18.9051 Y-6.5366
G01 X18.8128 Y-6.5502
G01 X18.7222 Y-6.5727
G01 X18.7158 Y-6.5746
G01 X18.6295 Y-6.6056
G01 X18.5436 Y-6.6462
G01 X18.4650 Y-6.6933
G01 X18.4594 Y-6.6970
G01 X18.3858 Y-6.7516
G01 X18.3154 Y-6.8154
G01 X18.2516 Y-6.8858
G01 X18.1951 Y-6.9622
G01 X18.1462 Y-7.0436
G01 X18.1056 Y-7.1295
G01 X18.0736 Y-7.2190
G01 X18.0505 Y-7.3111
G01 X18.0366 Y-7.4051
G01 X18.0319 Y-7.5000
G01 X18.0366 Y-7.5949
G01 X18.0505 Y-7.6889
G01 X18.0736 Y-7.7810
G01 X18.1056 Y-7.8705
G01 X18.1462 Y-7.9564
G01 X18.1951 Y-8.0378
G01 X18.2516 Y-8.1142
G01 X18.3154 Y-8.1846
G01 X18.3858 Y-8.2484
G01 X18.4594 Y-8.3030
G01 X18.4650 Y-8.3067
G01 X18.5408 Y-8.3522
G01 X18.5466 Y-8.3553
G01 X18.6295 Y-8.3944
G01 X18.7190 Y-8.4264
G01 X18.8111 Y-8.4495
G01 X18.9035 Y-8.4633
G01 X19.0000 Y-8.4681
G01 X20.5000 Y-8.4681
G01 X20.5932 Y-8.4636
G01 X20.6889 Y-8.4495
G01 X20.7778 Y-8.4273
G01 X20.7842 Y-8.4254
G01 X20.8705 Y-8.3944
G01 X20.9534 Y-8.3553
G01 X20.9592 Y-8.3522
G01 X21.0378 Y-8.3049
G01 X21.1142 Y-8.2484
G01 X21.1821 Y-8.1868
G01 X21.1868 Y-8.1821
G01 X21.2462 Y-8.1167
G01 X21.2504 Y-8.1115
G01 X21.3049 Y-8.0378
G01 X21.3522 Y-7.9592
G01 X21.3553 Y-7.9534
G01 X21.3944 Y-7.8705
G01 X21.4254 Y-7.7842
G01 X21.4273 Y-7.7778
G01 X21.4488 Y-7.6921
G01 X21.4501 Y-7.6856
G01 X21.4634 Y-7.5949
G01 X21.4681 Y-7.5000
G01 X21.4634 Y-7.4051
G01 X21.4492 Y-7.3095
G01 X21.4264 Y-7.2190
G01 X21.3944 Y-7.1295
G01 X21.3538 Y-7.0436
G01 X21.3059 Y-6.9635
G01 X21.2484 Y-6.8858
G01 X21.1857 Y-6.8166
G01 X21.1154 Y-6.7527
G01 X21.0679 Y-6.7172
G01 X21.0679 Y-5.9776
G01 X21.1200 Y-5.9776
G01 X21.1266 Y-5.9773
G01 X21.1332 Y-5.9764
G01 X21.1396 Y-5.9747
G01 X21.1459 Y-5.9725
G01 X21.1533 Y-5.9689
G01 X21.1616 Y-5.9633
G01 X21.1678 Y-5.9578
G01 X21.1733 Y-5.9516
G01 X21.1780 Y-5.9448
G01 X21.1825 Y-5.9359
G01 X21.1852 Y-5.9280
G01 X21.1869 Y-5.9199
G01 X21.1876 Y-5.9117
G01 X21.1879 Y-4.6550
G01 X21.1876 Y-3.3983
G01 X21.1867 Y-3.3884
G01 X21.1842 Y-3.3788
G01 X21.1804 Y-3.3696
G01 X21.1753 Y-3.3610
G01 X21.1690 Y-3.3534
G01 X21.1616 Y-3.3467
G01 X21.1533 Y-3.3411
G01 X21.1443 Y-3.3369
G01 X21.1332 Y-3.3336
G01 X21.1266 Y-3.3327
G01 X21.1200 Y-3.3324
G01 X20.1183 Y-3.3324
G01 X20.1084 Y-3.3333
G01 X20.0988 Y-3.3358
G01 X20.0896 Y-3.3396
G01 X20.0810 Y-3.3447
G01 X20.0734 Y-3.3510
G01 X20.0667 Y-3.3584
G01 X20.0611 Y-3.3667
G01 X20.0569 Y-3.3757
G01 X20.0548 Y-3.3820
G01 X20.0533 Y-3.3884
G01 X20.0524 Y-3.4000
G01 X20.0524 Y-4.4263
G01 X20.0278 Y-4.4595
G01 X19.9992 Y-4.5073
G01 X19.9753 Y-4.5577
G01 X19.9576 Y-4.6070
G01 X19.9557 Y-4.6133
G01 X19.9437 Y-4.6610
G01 X19.9424 Y-4.6675
G01 X19.9348 Y-4.7193
G01 X19.9322 Y-4.7717
G01 X19.9321 Y-6.5319
G00 Z2.0000
G00 X24.7668 Y-8.3864
G01 F60.00
G01 Z-0.1001
G01 F160.00
G01 X24.7418 Y-8.4035
G01 X24.6708 Y-8.4562
G01 X24.6541 Y-8.4693
G01 X24.6380 Y-8.4831
G01 X24.5725 Y-8.5425
G01 X24.5571 Y-8.5571
G01 X24.5425 Y-8.5725
G01 X24.4831 Y-8.6380
G01 X24.4693 Y-8.6541
G01 X24.4562 Y-8.6708
G01 X24.4035 Y-8.7418
G01 X24.3913 Y-8.7592
G01 X24.3799 Y-8.7772
G01 X24.3345 Y-8.8529
G01 X24.3240 Y-8.8714
G01 X24.3145 Y-8.8904
G01 X24.2767 Y-8.9703
G01 X24.2681 Y-8.9897
G01 X24.2604 Y-9.0096
G01 X24.2307 Y-9.0928
G01 X24.2240 Y-9.1129
G01 X24.2183 Y-9.1334
G01 X24.1969 Y-9.2191
G01 X24.1922 Y-9.2399
G01 X24.1886 Y-9.2608
G01 X24.1756 Y-9.3482
G01 X24.1730 Y-9.3693
G01 X24.1714 Y-9.3905
G01 X24.1671 Y-9.4788
G01 X24.1666 Y-9.5000
G01 X24.1671 Y-9.5212
G01 X24.1714 Y-9.6095
G01 X24.1730 Y-9.6307
G01 X24.1756 Y-9.6518
G01 X24.1886 Y-9.7392
G01 X24.1922 Y-9.7601
G01 X24.1969 Y-9.7809
G01 X24.2183 Y-9.8666
G01 X24.2240 Y-9.8871
G01 X24.2307 Y-9.9072
G01 X24.2604 Y-9.9904
G01 X24.2681 Y-10.0103
G01 X24.2767 Y-10.0297
G01 X24.3145 Y-10.1096
G01 X24.3240 Y-10.1286
G01 X24.3345 Y-10.1471
G01 X24.3799 Y-10.2228
G01 X24.3913 Y-10.2408
G01 X24.4035 Y-10.2582
G01 X24.4562 Y-10.3292
G01 X24.4693 Y-10.3459
G01 X24.4831 Y-10.3620
G01 X24.5425 Y-10.4275
G01 X24.5571 Y-10.4429
G01 X24.5725 Y-10.4575
G01 X24.6380 Y-10.5169
G01 X24.6541 Y-10.5307
G01 X24.6708 Y-10.5438
G01 X24.7418 Y-10.5965
G01 X24.7592 Y-10.6087
G01 X24.7772 Y-10.6201
G01 X24.8529 Y-10.6655
G01 X24.8621 Y-10.6708
G01 X24.8809 Y-10.6809
G01 X24.9703 Y-10.7233
G01 X24.9897 Y-10.7319
G01 X25.0096 Y-10.7396
G01 X25.0928 Y-10.7693
G01 X25.1028 Y-10.7728
G01 X25.1231 Y-10.7790
G01 X25.2191 Y-10.8031
G01 X25.2295 Y-10.8056
G01 X25.2503 Y-10.8097
G01 X25.3587 Y-10.8258
G01 X25.3693 Y-10.8270
G01 X25.3905 Y-10.8286
G01 X25.4788 Y-10.8329
G01 X25.5000 Y-10.8334
G01 X27.0000 Y-10.8334
G01 X27.0212 Y-10.8329
G01 X27.1095 Y-10.8286
G01 X27.1307 Y-10.8270
G01 X27.1518 Y-10.8244
G01 X27.2497 Y-10.8097
G01 X27.2705 Y-10.8056
G01 X27.2809 Y-10.8031
G01 X27.3666 Y-10.7817
G01 X27.3871 Y-10.7760
G01 X27.4072 Y-10.7693
G01 X27.4904 Y-10.7396
G01 X27.5103 Y-10.7319
G01 X27.5297 Y-10.7233
G01 X27.6096 Y-10.6855
G01 X27.6286 Y-10.6760
G01 X27.6471 Y-10.6655
G01 X27.7228 Y-10.6201
G01 X27.7408 Y-10.6087
G01 X27.7582 Y-10.5965
G01 X27.8292 Y-10.5438
G01 X27.8459 Y-10.5307
G01 X27.8620 Y-10.5169
G01 X27.9275 Y-10.4575
G01 X27.9429 Y-10.4429
G01 X27.9503 Y-10.4353
G01 X28.0169 Y-10.3620
G01 X28.0307 Y-10.3459
G01 X28.0438 Y-10.3292
G01 X28.0965 Y-10.2582
G01 X28.1087 Y-10.2408
G01 X28.1201 Y-10.2228
G01 X28.1655 Y-10.1471
G01 X28.1708 Y-10.1379
G01 X28.1809 Y-10.1191
G01 X28.2233 Y-10.0297
G01 X28.2319 Y-10.0103
G01 X28.2396 Y-9.9904
G01 X28.2693 Y-9.9072
G01 X28.2760 Y-9.8871
G01 X28.2817 Y-9.8666
G01 X28.3031 Y-9.7809
G01 X28.3078 Y-9.7601
G01 X28.3114 Y-9.7392
G01 X28.3244 Y-9.6518
G01 X28.3270 Y-9.6307
G01 X28.3286 Y-9.6095
G01 X28.3329 Y-9.5212
G01 X28.3334 Y-9.5000
G01 X28.3329 Y-9.4788
G01 X28.3286 Y-9.3905
G01 X28.3270 Y-9.3693
G01 X28.3244 Y-9.3482
G01 X28.3114 Y-9.2608
G01 X28.3078 Y-9.2399
G01 X28.3031 Y-9.2191
G01 X28.2817 Y-9.1334
G01 X28.2760 Y-9.1129
G01 X28.2693 Y-9.0928
G01 X28.2396 Y-9.0096
G01 X28.2319 Y-8.9897
G01 X28.2233 Y-8.9703
G01 X28.1855 Y-8.8904
G01 X28.1760 Y-8.8714
G01 X28.1655 Y-8.8529
G01 X28.1201 Y-8.7772
G01 X28.1087 Y-8.7592
G01 X28.0965 Y-8.7418
G01 X28.0374 Y-8.6624
G01 X28.0239 Y-8.6460
G01 X28.0169 Y-8.6380
G01 X27.9575 Y-8.5725
G01 X27.9429 Y-8.5571
G01 X27.9275 Y-8.5425
G01 X27.8620 Y-8.4831
G01 X27.8459 Y-8.4693
G01 X27.8292 Y-8.4562
G01 X27.7582 Y-8.4035
G01 X27.7408 Y-8.3913
G01 X27.7228 Y-8.3799
G01 X27.6471 Y-8.3345
G01 X27.6286 Y-8.3240
G01 X27.6096 Y-8.3145
G01 X27.5297 Y-8.2767
G01 X27.5103 Y-8.2681
G01 X27.4904 Y-8.2604
G01 X27.4072 Y-8.2307
G01 X27.3871 Y-8.2240
G01 X27.3666 Y-8.2183
G01 X27.2809 Y-8.1969
G01 X27.2601 Y-8.1922
G01 X27.2392 Y-8.1886
G01 X27.1518 Y-8.1756
G01 X27.1307 Y-8.1730
G01 X27.1201 Y-8.1721
G01 X27.0212 Y-8.1671
G01 X27.0000 Y-8.1666
G01 X26.6332 Y-8.1666
G01 X26.6332 Y-4.6550
G01 X26.6330 Y-3.4000
G01 X26.6324 Y-3.3788
G01 X26.6309 Y-3.3576
G01 X26.6297 Y-3.3470
G01 X26.6283 Y-3.3365
G01 X26.6246 Y-3.3155
G01 X26.6200 Y-3.2948
G01 X26.6173 Y-3.2845
G01 X26.6143 Y-3.2743
G01 X26.6077 Y-3.2541
G01 X26.6000 Y-3.2343
G01 X26.5958 Y-3.2245
G01 X26.5867 Y-3.2053
G01 X26.5767 Y-3.1866
G01 X26.5658 Y-3.1684
G01 X26.5600 Y-3.1595
G01 X26.5478 Y-3.1421
G01 X26.5413 Y-3.1336
G01 X26.5278 Y-3.1172
G01 X26.5136 Y-3.1015
G01 X26.5061 Y-3.0939
G01 X26.4908 Y-3.0792
G01 X26.4828 Y-3.0722
G01 X26.4664 Y-3.0587
G01 X26.4493 Y-3.0460
G01 X26.4405 Y-3.0400
G01 X26.4316 Y-3.0342
G01 X26.4134 Y-3.0233
G01 X26.3947 Y-3.0133
G01 X26.3851 Y-3.0086
G01 X26.3657 Y-3.0000
G01 X26.3459 Y-2.9923
G01 X26.3358 Y-2.9889
G01 X26.3155 Y-2.9827
G01 X26.2949 Y-2.9776
G01 X26.2845 Y-2.9754
G01 X26.2740 Y-2.9734
G01 X26.2530 Y-2.9703
G01 X26.2319 Y-2.9682
G01 X26.2106 Y-2.9672
G01 X26.2000 Y-2.9670
G01 X25.2000 Y-2.9670
G01 X25.1788 Y-2.9676
G01 X25.1576 Y-2.9691
G01 X25.1365 Y-2.9717
G01 X25.1155 Y-2.9754
G01 X25.0948 Y-2.9800
G01 X25.0845 Y-2.9827
G01 X25.0642 Y-2.9889
G01 X25.0442 Y-2.9961
G01 X25.0343 Y-3.0000
G01 X25.0149 Y-3.0086
G01 X25.0053 Y-3.0133
G01 X24.9959 Y-3.0182
G01 X24.9774 Y-3.0286
G01 X24.9684 Y-3.0342
G01 X24.9507 Y-3.0460
G01 X24.9421 Y-3.0522
G01 X24.9253 Y-3.0653
G01 X24.9172 Y-3.0722
G01 X24.9015 Y-3.0864
G01 X24.8864 Y-3.1015
G01 X24.8792 Y-3.1092
G01 X24.8653 Y-3.1253
G01 X24.8522 Y-3.1421
G01 X24.8460 Y-3.1507
G01 X24.8400 Y-3.1595
G01 X24.8286 Y-3.1774
G01 X24.8233 Y-3.1866
G01 X24.8133 Y-3.2053
G01 X24.8086 Y-3.2149
G01 X24.8000 Y-3.2343
G01 X24.7961 Y-3.2442
G01 X24.7889 Y-3.2642
G01 X24.7827 Y-3.2845
G01 X24.7776 Y-3.3051
G01 X24.7754 Y-3.3155
G01 X24.7734 Y-3.3260
G01 X24.7703 Y-3.3470
G01 X24.7682 Y-3.3681
G01 X24.7672 Y-3.3894
G01 X24.7670 Y-3.4000
G01 X24.7668 Y-8.3864
G00 Z2.0000
G00 X24.8886 Y-8.4551
G01 F60.00
G01 Z-0.1001
G01 F160.00
G01 X24.8398 Y-8.4844
G01 X24.8268 Y-8.4926
G01 X24.8144 Y-8.5014
G01 X24.7373 Y-8.5586
G01 X24.7198 Y-8.5734
G01 X24.6543 Y-8.6327
G01 X24.6379 Y-8.6487
G01 X24.5734 Y-8.7198
G01 X24.5634 Y-8.7313
G01 X24.5540 Y-8.7434
G01 X24.5014 Y-8.8144
G01 X24.4926 Y-8.8268
G01 X24.4844 Y-8.8398
G01 X24.4351 Y-8.9221
G01 X24.4246 Y-8.9425
G01 X24.3868 Y-9.0224
G01 X24.3806 Y-9.0363
G01 X24.3751 Y-9.0506
G01 X24.3453 Y-9.1338
G01 X24.3405 Y-9.1483
G01 X24.3365 Y-9.1630
G01 X24.3150 Y-9.2487
G01 X24.3116 Y-9.2636
G01 X24.3090 Y-9.2787
G01 X24.2961 Y-9.3661
G01 X24.2942 Y-9.3812
G01 X24.2931 Y-9.3965
G01 X24.2887 Y-9.4847
G01 X24.2885 Y-9.5076
G01 X24.2931 Y-9.6035
G01 X24.2942 Y-9.6188
G01 X24.2961 Y-9.6339
G01 X24.3090 Y-9.7213
G01 X24.3116 Y-9.7364
G01 X24.3150 Y-9.7513
G01 X24.3365 Y-9.8370
G01 X24.3405 Y-9.8517
G01 X24.3453 Y-9.8662
G01 X24.3751 Y-9.9494
G01 X24.3806 Y-9.9637
G01 X24.3868 Y-9.9776
G01 X24.4246 Y-10.0575
G01 X24.4314 Y-10.0712
G01 X24.4390 Y-10.0845
G01 X24.4844 Y-10.1602
G01 X24.4926 Y-10.1732
G01 X24.5014 Y-10.1856
G01 X24.5540 Y-10.2566
G01 X24.5634 Y-10.2687
G01 X24.5734 Y-10.2802
G01 X24.6327 Y-10.3457
G01 X24.6432 Y-10.3568
G01 X24.6543 Y-10.3673
G01 X24.7198 Y-10.4266
G01 X24.7313 Y-10.4366
G01 X24.7434 Y-10.4460
G01 X24.8144 Y-10.4986
G01 X24.8268 Y-10.5074
G01 X24.8398 Y-10.5156
G01 X24.9155 Y-10.5610
G01 X24.9356 Y-10.5721
G01 X25.0224 Y-10.6132
G01 X25.0363 Y-10.6194
G01 X25.0506 Y-10.6249
G01 X25.1338 Y-10.6547
G01 X25.1483 Y-10.6595
G01 X25.1630 Y-10.6635
G01 X25.2487 Y-10.6850
G01 X25.2636 Y-10.6884
G01 X25.2787 Y-10.6910
G01 X25.3661 Y-10.7039
G01 X25.3812 Y-10.7058
G01 X25.3965 Y-10.7069
G01 X25.4847 Y-10.7113
G01 X25.5000 Y-10.7116
G01 X27.0000 Y-10.7116
G01 X27.0153 Y-10.7113
G01 X27.1035 Y-10.7069
G01 X27.1188 Y-10.7058
G01 X27.1339 Y-10.7039
G01 X27.2289 Y-10.6898
G01 X27.2513 Y-10.6850
G01 X27.3370 Y-10.6635
G01 X27.3517 Y-10.6595
G01 X27.3662 Y-10.6547
G01 X27.4494 Y-10.6249
G01 X27.4637 Y-10.6194
G01 X27.4776 Y-10.6132
G01 X27.5575 Y-10.5754
G01 X27.5712 Y-10.5686
G01 X27.5845 Y-10.5610
G01 X27.6602 Y-10.5156
G01 X27.6732 Y-10.5074
G01 X27.6856 Y-10.4986
G01 X27.7627 Y-10.4414
G01 X27.7802 Y-10.4266
G01 X27.8457 Y-10.3673
G01 X27.8568 Y-10.3568
G01 X27.8673 Y-10.3457
G01 X27.9266 Y-10.2802
G01 X27.9366 Y-10.2687
G01 X27.9460 Y-10.2566
G01 X27.9986 Y-10.1856
G01 X28.0074 Y-10.1732
G01 X28.0156 Y-10.1602
G01 X28.0610 Y-10.0845
G01 X28.0721 Y-10.0644
G01 X28.1132 Y-9.9776
G01 X28.1194 Y-9.9637
G01 X28.1249 Y-9.9494
G01 X28.1547 Y-9.8662
G01 X28.1595 Y-9.8517
G01 X28.1635 Y-9.8370
G01 X28.1850 Y-9.7513
G01 X28.1884 Y-9.7364
G01 X28.1910 Y-9.7213
G01 X28.2039 Y-9.6339
G01 X28.2058 Y-9.6188
G01 X28.2069 Y-9.6035
G01 X28.2113 Y-9.5153
G01 X28.2116 Y-9.5000
G01 X28.2113 Y-9.4847
G01 X28.2069 Y-9.3965
G01 X28.2058 Y-9.3812
G01 X28.2039 Y-9.3661
G01 X28.1910 Y-9.2787
G01 X28.1884 Y-9.2636
G01 X28.1850 Y-9.2487
G01 X28.1635 Y-9.1630
G01 X28.1595 Y-9.1483
G01 X28.1547 Y-9.1338
G01 X28.1249 Y-9.0506
G01 X28.1194 Y-9.0363
G01 X28.1132 Y-9.0224
G01 X28.0754 Y-8.9425
G01 X28.0686 Y-8.9288
G01 X28.0610 Y-8.9155
G01 X28.0156 Y-8.8398
G01 X28.0074 Y-8.8268
G01 X27.9986 Y-8.8144
G01 X27.9460 Y-8.7434
G01 X27.9317 Y-8.7255
G01 X27.8673 Y-8.6543
G01 X27.8568 Y-8.6432
G01 X27.8457 Y-8.6327
G01 X27.7802 Y-8.5734
G01 X27.7687 Y-8.5634
G01 X27.7566 Y-8.5540
G01 X27.6856 Y-8.5014
G01 X27.6732 Y-8.4926
G01 X27.6602 Y-8.4844
G01 X27.5845 Y-8.4390
G01 X27.5712 Y-8.4314
G01 X27.5575 Y-8.4246
G01 X27.4776 Y-8.3868
G01 X27.4637 Y-8.3806
G01 X27.4494 Y-8.3751
G01 X27.3662 Y-8.3453
G01 X27.3517 Y-8.3405
G01 X27.3370 Y-8.3365
G01 X27.2513 Y-8.3150
G01 X27.2364 Y-8.3116
G01 X27.2213 Y-8.3090
G01 X27.1339 Y-8.2961
G01 X27.1112 Y-8.2935
G01 X27.0153 Y-8.2887
G01 X27.0000 Y-8.2884
G01 X26.5114 Y-8.2884
G01 X26.5114 Y-4.6550
G01 X26.5112 Y-3.4000
G01 X26.5108 Y-3.3847
G01 X26.5088 Y-3.3619
G01 X26.5052 Y-3.3393
G01 X26.5019 Y-3.3244
G01 X26.4978 Y-3.3097
G01 X26.4903 Y-3.2880
G01 X26.4845 Y-3.2739
G01 X26.4780 Y-3.2601
G01 X26.4669 Y-3.2400
G01 X26.4544 Y-3.2208
G01 X26.4406 Y-3.2026
G01 X26.4306 Y-3.1910
G01 X26.4200 Y-3.1800
G01 X26.4033 Y-3.1644
G01 X26.3854 Y-3.1500
G01 X26.3665 Y-3.1371
G01 X26.3534 Y-3.1292
G01 X26.3399 Y-3.1220
G01 X26.3191 Y-3.1125
G01 X26.2976 Y-3.1045
G01 X26.2756 Y-3.0981
G01 X26.2607 Y-3.0948
G01 X26.2381 Y-3.0912
G01 X26.2153 Y-3.0892
G01 X26.2000 Y-3.0888
G01 X25.2000 Y-3.0888
G01 X25.1771 Y-3.0897
G01 X25.1619 Y-3.0912
G01 X25.1468 Y-3.0934
G01 X25.1244 Y-3.0981
G01 X25.1024 Y-3.1045
G01 X25.0809 Y-3.1125
G01 X25.0601 Y-3.1220
G01 X25.0400 Y-3.1331
G01 X25.0208 Y-3.1456
G01 X25.0026 Y-3.1594
G01 X24.9854 Y-3.1746
G01 X24.9694 Y-3.1910
G01 X24.9547 Y-3.2085
G01 X24.9413 Y-3.2271
G01 X24.9292 Y-3.2466
G01 X24.9187 Y-3.2669
G01 X24.9097 Y-3.2880
G01 X24.9022 Y-3.3097
G01 X24.8981 Y-3.3244
G01 X24.8948 Y-3.3393
G01 X24.8912 Y-3.3619
G01 X24.8897 Y-3.3771
G01 X24.8888 Y-3.4000
G01 X24.8886 Y-8.4551
G00 Z2.0000
G00 X25.0103 Y-8.5272
G01 F60.00
G01 Z-0.1001
G01 F160.00
G01 X24.9904 Y-8.5367
G01 X24.9822 Y-8.5411
G01 X24.8945 Y-8.5938
G01 X24.8159 Y-8.6518
G01 X24.8016 Y-8.6636
G01 X24.7293 Y-8.7293
G01 X24.6636 Y-8.8016
G01 X24.6518 Y-8.8159
G01 X24.5992 Y-8.8869
G01 X24.5913 Y-8.8984
G01 X24.5388 Y-8.9862
G01 X24.4969 Y-9.0744
G01 X24.4897 Y-9.0916
G01 X24.4571 Y-9.1836
G01 X24.4331 Y-9.2783
G01 X24.4295 Y-9.2965
G01 X24.4154 Y-9.3932
G01 X24.4101 Y-9.5000
G01 X24.4147 Y-9.5976
G01 X24.4165 Y-9.6161
G01 X24.4311 Y-9.7126
G01 X24.4571 Y-9.8164
G01 X24.4897 Y-9.9084
G01 X24.4969 Y-9.9256
G01 X24.5388 Y-10.0138
G01 X24.5888 Y-10.0976
G01 X24.5992 Y-10.1131
G01 X24.6575 Y-10.1914
G01 X24.7229 Y-10.2639
G01 X24.7361 Y-10.2771
G01 X24.8086 Y-10.3425
G01 X24.8869 Y-10.4008
G01 X24.9024 Y-10.4112
G01 X24.9781 Y-10.4566
G01 X24.9904 Y-10.4633
G01 X25.0829 Y-10.5069
G01 X25.1748 Y-10.5400
G01 X25.1926 Y-10.5454
G01 X25.2874 Y-10.5689
G01 X25.3839 Y-10.5835
G01 X25.4024 Y-10.5853
G01 X25.4907 Y-10.5896
G01 X27.0000 Y-10.5899
G01 X27.1068 Y-10.5846
G01 X27.2035 Y-10.5705
G01 X27.2217 Y-10.5669
G01 X27.3164 Y-10.5429
G01 X27.4171 Y-10.5069
G01 X27.5138 Y-10.4612
G01 X27.5976 Y-10.4112
G01 X27.6131 Y-10.4008
G01 X27.6914 Y-10.3425
G01 X27.7639 Y-10.2771
G01 X27.7771 Y-10.2639
G01 X27.8364 Y-10.1984
G01 X27.8482 Y-10.1841
G01 X27.9062 Y-10.1055
G01 X27.9566 Y-10.0219
G01 X27.9633 Y-10.0096
G01 X28.0069 Y-9.9171
G01 X28.0400 Y-9.8252
G01 X28.0454 Y-9.8074
G01 X28.0669 Y-9.7217
G01 X28.0705 Y-9.7035
G01 X28.0846 Y-9.6068
G01 X28.0899 Y-9.5000
G01 X28.0846 Y-9.3932
G01 X28.0705 Y-9.2965
G01 X28.0669 Y-9.2783
G01 X28.0454 Y-9.1926
G01 X28.0400 Y-9.1748
G01 X28.0069 Y-9.0829
G01 X27.9612 Y-8.9862
G01 X27.9062 Y-8.8945
G01 X27.8482 Y-8.8159
G01 X27.8364 Y-8.8016
G01 X27.7707 Y-8.7293
G01 X27.6984 Y-8.6636
G01 X27.6841 Y-8.6518
G01 X27.6055 Y-8.5938
G01 X27.5138 Y-8.5388
G01 X27.4256 Y-8.4969
G01 X27.4084 Y-8.4897
G01 X27.3164 Y-8.4571
G01 X27.2172 Y-8.4320
G01 X27.2035 Y-8.4295
G01 X27.1068 Y-8.4154
G01 X27.0046 Y-8.4102
G01 X26.3897 Y-8.4101
G01 X26.3894 Y-3.3954
G01 X26.3885 Y-3.3814
G01 X26.3858 Y-3.3630
G01 X26.3826 Y-3.3495
G01 X26.3783 Y-3.3362
G01 X26.3712 Y-3.3190
G01 X26.3648 Y-3.3066
G01 X26.3575 Y-3.2948
G01 X26.3464 Y-3.2798
G01 X26.3372 Y-3.2694
G01 X26.3237 Y-3.2566
G01 X26.3091 Y-3.2451
G01 X26.2974 Y-3.2375
G01 X26.2852 Y-3.2308
G01 X26.2725 Y-3.2250
G01 X26.2550 Y-3.2187
G01 X26.2415 Y-3.2152
G01 X26.2232 Y-3.2120
G01 X26.2139 Y-3.2111
G01 X26.2000 Y-3.2106
G01 X25.2000 Y-3.2106
G01 X25.1907 Y-3.2108
G01 X25.1768 Y-3.2120
G01 X25.1630 Y-3.2142
G01 X25.1450 Y-3.2187
G01 X25.1318 Y-3.2233
G01 X25.1190 Y-3.2288
G01 X25.1066 Y-3.2352
G01 X25.0948 Y-3.2425
G01 X25.0835 Y-3.2507
G01 X25.0728 Y-3.2596
G01 X25.0628 Y-3.2694
G01 X25.0536 Y-3.2798
G01 X25.0451 Y-3.2909
G01 X25.0375 Y-3.3026
G01 X25.0288 Y-3.3190
G01 X25.0233 Y-3.3318
G01 X25.0187 Y-3.3450
G01 X25.0152 Y-3.3585
G01 X25.0134 Y-3.3676
G01 X25.0115 Y-3.3814
G01 X25.0106 Y-3.4000
G01 X25.0103 Y-8.5272
G00 Z2.0000
G00 X25.1321 Y-8.6046
G01 F60.00
G01 Z-0.1001
G01 F160.00
G01 X25.1265 Y-8.6069
G01 X25.0466 Y-8.6447
G01 X25.0408 Y-8.6478
G01 X24.9622 Y-8.6951
G01 X24.8858 Y-8.7516
G01 X24.8179 Y-8.8132
G01 X24.8132 Y-8.8179
G01 X24.7516 Y-8.8858
G01 X24.6970 Y-8.9594
G01 X24.6933 Y-8.9650
G01 X24.6478 Y-9.0408
G01 X24.6447 Y-9.0466
G01 X24.6056 Y-9.1295
G01 X24.5746 Y-9.2158
G01 X24.5727 Y-9.2222
G01 X24.5505 Y-9.3111
G01 X24.5370 Y-9.4018
G01 X24.5363 Y-9.4084
G01 X24.5319 Y-9.5000
G01 X24.5363 Y-9.5916
G01 X24.5370 Y-9.5982
G01 X24.5505 Y-9.6889
G01 X24.5736 Y-9.7810
G01 X24.6044 Y-9.8674
G01 X24.6069 Y-9.8735
G01 X24.6462 Y-9.9564
G01 X24.6951 Y-10.0378
G01 X24.7496 Y-10.1115
G01 X24.7538 Y-10.1167
G01 X24.8154 Y-10.1846
G01 X24.8858 Y-10.2484
G01 X24.9594 Y-10.3030
G01 X24.9650 Y-10.3067
G01 X25.0451 Y-10.3546
G01 X25.1295 Y-10.3944
G01 X25.2190 Y-10.4264
G01 X25.3111 Y-10.4495
G01 X25.4018 Y-10.4630
G01 X25.4084 Y-10.4637
G01 X25.5000 Y-10.4681
G01 X27.0000 Y-10.4681
G01 X27.0916 Y-10.4637
G01 X27.0982 Y-10.4630
G01 X27.1856 Y-10.4501
G01 X27.1921 Y-10.4488
G01 X27.2810 Y-10.4264
G01 X27.3674 Y-10.3956
G01 X27.3735 Y-10.3931
G01 X27.4564 Y-10.3538
G01 X27.5378 Y-10.3049
G01 X27.6115 Y-10.2504
G01 X27.6167 Y-10.2462
G01 X27.6846 Y-10.1846
G01 X27.7462 Y-10.1167
G01 X27.7504 Y-10.1115
G01 X27.8049 Y-10.0378
G01 X27.8546 Y-9.9549
G01 X27.8944 Y-9.8705
G01 X27.9264 Y-9.7810
G01 X27.9495 Y-9.6889
G01 X27.9630 Y-9.5982
G01 X27.9637 Y-9.5916
G01 X27.9680 Y-9.5033
G01 X27.9680 Y-9.4967
G01 X27.9634 Y-9.4051
G01 X27.9495 Y-9.3111
G01 X27.9264 Y-9.2190
G01 X27.8956 Y-9.1326
G01 X27.8931 Y-9.1265
G01 X27.8553 Y-9.0466
G01 X27.8522 Y-9.0408
G01 X27.8049 Y-8.9622
G01 X27.7484 Y-8.8858
G01 X27.6846 Y-8.8154
G01 X27.6167 Y-8.7538
G01 X27.6115 Y-8.7496
G01 X27.5378 Y-8.6951
G01 X27.4592 Y-8.6478
G01 X27.4534 Y-8.6447
G01 X27.3705 Y-8.6056
G01 X27.2842 Y-8.5746
G01 X27.2778 Y-8.5727
G01 X27.1872 Y-8.5502
G01 X27.0949 Y-8.5366
G01 X27.0017 Y-8.5319
G01 X26.2679 Y-8.5319
G01 X26.2676 Y-3.4000
G01 X26.2667 Y-3.3884
G01 X26.2637 Y-3.3772
G01 X26.2589 Y-3.3667
G01 X26.2523 Y-3.3571
G01 X26.2442 Y-3.3488
G01 X26.2348 Y-3.3420
G01 X26.2243 Y-3.3369
G01 X26.2132 Y-3.3336
G01 X26.2066 Y-3.3327
G01 X26.2000 Y-3.3324
G01 X25.1967 Y-3.3324
G01 X25.1852 Y-3.3340
G01 X25.1741 Y-3.3375
G01 X25.1638 Y-3.3428
G01 X25.1558 Y-3.3488
G01 X25.1488 Y-3.3558
G01 X25.1420 Y-3.3652
G01 X25.1369 Y-3.3757
G01 X25.1336 Y-3.3868
G01 X25.1327 Y-3.3934
G01 X25.1324 Y-3.4000
G01 X25.1321 Y-8.6046
G00 Z2.0000
G00 X30.6519 Y-6.5449
G01 F60.00
G01 Z-0.1001
G01 F160.00
G01 X30.5932 Y-6.5364
G01 X30.5000 Y-6.5319
G01 X28.9967 Y-6.5320
G01 X28.9084 Y-6.5363
G01 X28.9018 Y-6.5370
G01 X28.8111 Y-6.5505
G01 X28.7222 Y-6.5727
G01 X28.7158 Y-6.5746
G01 X28.6295 Y-6.6056
G01 X28.5422 Y-6.6470
G01 X28.4622 Y-6.6951
G01 X28.3858 Y-6.7516
G01 X28.3154 Y-6.8154
G01 X28.2516 Y-6.8858
G01 X28.1951 Y-6.9622
G01 X28.1462 Y-7.0436
G01 X28.1056 Y-7.1295
G01 X28.0736 Y-7.2190
G01 X28.0505 Y-7.3111
G01 X28.0366 Y-7.4051
G01 X28.0319 Y-7.5000
G01 X28.0366 Y-7.5949
G01 X28.0505 Y-7.6889
G01 X28.0736 Y-7.7810
G01 X28.1056 Y-7.8705
G01 X28.1470 Y-7.9578
G01 X28.1933 Y-8.0350
G01 X28.1970 Y-8.0406
G01 X28.2516 Y-8.1142
G01 X28.3132 Y-8.1821
G01 X28.3179 Y-8.1868
G01 X28.3858 Y-8.2484
G01 X28.4622 Y-8.3049
G01 X28.5408 Y-8.3522
G01 X28.5466 Y-8.3553
G01 X28.6295 Y-8.3944
G01 X28.7158 Y-8.4254
G01 X28.7222 Y-8.4273
G01 X28.8111 Y-8.4495
G01 X28.9068 Y-8.4636
G01 X29.0000 Y-8.4681
G01 X30.5000 Y-8.4681
G01 X30.5965 Y-8.4633
G01 X30.6889 Y-8.4495
G01 X30.7778 Y-8.4273
G01 X30.7842 Y-8.4254
G01 X30.8674 Y-8.3956
G01 X30.8735 Y-8.3931
G01 X30.9564 Y-8.3538
G01 X31.0378 Y-8.3049
G01 X31.1142 Y-8.2484
G01 X31.1821 Y-8.1868
G01 X31.1868 Y-8.1821
G01 X31.2484 Y-8.1142
G01 X31.3030 Y-8.0406
G01 X31.3067 Y-8.0350
G01 X31.3538 Y-7.9564
G01 X31.3931 Y-7.8735
G01 X31.3956 Y-7.8674
G01 X31.4259 Y-7.7826
G01 X31.4495 Y-7.6889
G01 X31.4636 Y-7.5932
G01 X31.4681 Y-7.4983
G01 X31.4634 Y-7.4051
G01 X31.4551 Y-7.3481
G01 X32.8255 Y-5.9776
G01 X33.1200 Y-5.9776
G01 X33.1283 Y-5.9771
G01 X33.1380 Y-5.9752
G01 X33.1459 Y-5.9725
G01 X33.1533 Y-5.9689
G01 X33.1616 Y-5.9633
G01 X33.1678 Y-5.9578
G01 X33.1743 Y-5.9503
G01 X33.1789 Y-5.9433
G01 X33.1825 Y-5.9359
G01 X33.1847 Y-5.9296
G01 X33.1864 Y-5.9232
G01 X33.1873 Y-5.9166
G01 X33.1876 Y-5.9100
G01 X33.1879 Y-4.6550
G01 X33.1876 Y-3.4000
G01 X33.1871 Y-3.3917
G01 X33.1860 Y-3.3852
G01 X33.1842 Y-3.3788
G01 X33.1812 Y-3.3711
G01 X33.1780 Y-3.3652
G01 X33.1733 Y-3.3584
G01 X33.1678 Y-3.3522
G01 X33.1616 Y-3.3467
G01 X33.1519 Y-3.3403
G01 X33.1428 Y-3.3363
G01 X33.1316 Y-3.3333
G01 X33.1217 Y-3.3324
G01 X32.1200 Y-3.3324
G01 X32.1117 Y-3.3329
G01 X32.1052 Y-3.3340
G01 X32.0988 Y-3.3358
G01 X32.0911 Y-3.3388
G01 X32.0838 Y-3.3428
G01 X32.0784 Y-3.3467
G01 X32.0722 Y-3.3522
G01 X32.0667 Y-3.3584
G01 X32.0611 Y-3.3667
G01 X32.0563 Y-3.3772
G01 X32.0533 Y-3.3884
G01 X32.0524 Y-3.4000
G01 X32.0521 Y-5.1448
G01 X30.6519 Y-6.5449
G00 Z2.0000
G00 X30.6090 Y-6.4156
G01 F60.00
G01 Z-0.1001
G01 F160.00
G01 X30.5976 Y-6.4147
G01 X30.5000 Y-6.4101
G01 X29.0000 Y-6.4101
G01 X28.8978 Y-6.4150
G01 X28.8839 Y-6.4165
G01 X28.7874 Y-6.4311
G01 X28.6926 Y-6.4546
G01 X28.6748 Y-6.4600
G01 X28.5829 Y-6.4931
G01 X28.4945 Y-6.5346
G01 X28.4781 Y-6.5434
G01 X28.3945 Y-6.5938
G01 X28.3086 Y-6.6575
G01 X28.2293 Y-6.7293
G01 X28.1575 Y-6.8086
G01 X28.0938 Y-6.8945
G01 X28.0388 Y-6.9862
G01 X27.9931 Y-7.0829
G01 X27.9571 Y-7.1836
G01 X27.9311 Y-7.2874
G01 X27.9154 Y-7.3932
G01 X27.9101 Y-7.5000
G01 X27.9154 Y-7.6068
G01 X27.9311 Y-7.7126
G01 X27.9571 Y-7.8164
G01 X27.9931 Y-7.9171
G01 X28.0388 Y-8.0138
G01 X28.0938 Y-8.1055
G01 X28.1575 Y-8.1914
G01 X28.2229 Y-8.2639
G01 X28.2361 Y-8.2771
G01 X28.3016 Y-8.3364
G01 X28.3159 Y-8.3482
G01 X28.3945 Y-8.4062
G01 X28.4781 Y-8.4566
G01 X28.4945 Y-8.4654
G01 X28.5829 Y-8.5069
G01 X28.6836 Y-8.5429
G01 X28.7874 Y-8.5689
G01 X28.8839 Y-8.5835
G01 X28.9024 Y-8.5853
G01 X29.0000 Y-8.5899
G01 X30.5000 Y-8.5899
G01 X30.5976 Y-8.5853
G01 X30.6114 Y-8.5841
G01 X30.7126 Y-8.5689
G01 X30.8074 Y-8.5454
G01 X30.8252 Y-8.5400
G01 X30.9084 Y-8.5103
G01 X30.9256 Y-8.5031
G01 X31.0138 Y-8.4612
G01 X31.1055 Y-8.4062
G01 X31.1914 Y-8.3425
G01 X31.2673 Y-8.2739
G01 X31.2771 Y-8.2639
G01 X31.3425 Y-8.1914
G01 X31.4062 Y-8.1055
G01 X31.4612 Y-8.0138
G01 X31.5031 Y-7.9256
G01 X31.5103 Y-7.9084
G01 X31.5429 Y-7.8164
G01 X31.5669 Y-7.7217
G01 X31.5705 Y-7.7035
G01 X31.5835 Y-7.6161
G01 X31.5853 Y-7.5976
G01 X31.5899 Y-7.5000
G01 X31.5853 Y-7.4024
G01 X31.5844 Y-7.3910
G01 X32.8759 Y-6.0994
G01 X33.1246 Y-6.0994
G01 X33.1386 Y-6.0985
G01 X33.1478 Y-6.0974
G01 X33.1615 Y-6.0948
G01 X33.1705 Y-6.0926
G01 X33.1882 Y-6.0867
G01 X33.1968 Y-6.0832
G01 X33.2093 Y-6.0771
G01 X33.2213 Y-6.0700
G01 X33.2291 Y-6.0649
G01 X33.2365 Y-6.0593
G01 X33.2472 Y-6.0504
G01 X33.2572 Y-6.0406
G01 X33.2634 Y-6.0337
G01 X33.2749 Y-6.0191
G01 X33.2825 Y-6.0074
G01 X33.2871 Y-5.9993
G01 X33.2932 Y-5.9868
G01 X33.2967 Y-5.9782
G01 X33.3026 Y-5.9605
G01 X33.3058 Y-5.9470
G01 X33.3085 Y-5.9286
G01 X33.3094 Y-5.9100
G01 X33.3097 Y-4.6550
G01 X33.3094 Y-3.3954
G01 X33.3080 Y-3.3768
G01 X33.3058 Y-3.3630
G01 X33.3037 Y-3.3540
G01 X33.2983 Y-3.3362
G01 X33.2950 Y-3.3275
G01 X33.2892 Y-3.3148
G01 X33.2800 Y-3.2987
G01 X33.2693 Y-3.2835
G01 X33.2572 Y-3.2694
G01 X33.2472 Y-3.2596
G01 X33.2402 Y-3.2536
G01 X33.2291 Y-3.2451
G01 X33.2134 Y-3.2352
G01 X33.2010 Y-3.2288
G01 X33.1882 Y-3.2233
G01 X33.1750 Y-3.2187
G01 X33.1615 Y-3.2152
G01 X33.1432 Y-3.2120
G01 X33.1293 Y-3.2108
G01 X32.1154 Y-3.2106
G01 X32.0968 Y-3.2120
G01 X32.0785 Y-3.2152
G01 X32.0606 Y-3.2201
G01 X32.0475 Y-3.2250
G01 X32.0390 Y-3.2288
G01 X32.0226 Y-3.2375
G01 X32.0148 Y-3.2425
G01 X32.0035 Y-3.2507
G01 X31.9894 Y-3.2628
G01 X31.9796 Y-3.2728
G01 X31.9736 Y-3.2798
G01 X31.9651 Y-3.2909
G01 X31.9575 Y-3.3026
G01 X31.9488 Y-3.3190
G01 X31.9433 Y-3.3318
G01 X31.9374 Y-3.3495
G01 X31.9342 Y-3.3630
G01 X31.9315 Y-3.3814
G01 X31.9306 Y-3.3954
G01 X31.9303 Y-5.0943
G01 X30.6090 Y-6.4156
G00 Z2.0000
G00 X31.8283 Y-7.6131
G01 F60.00
G01 Z-0.1001
G01 F160.00
G01 X33.0985 Y-6.3430
G01 X32.9768 Y-6.3430
G01 X31.8332 Y-7.4866
G01 X31.8334 Y-7.5000
G01 X31.8329 Y-7.5212
G01 X31.8283 Y-7.6131
G00 Z2.0000
G00 X36.8886 Y-8.2936
G01 F60.00
G01 Z-0.1001
G01 F160.00
G01 X36.8661 Y-8.2961
G01 X36.7787 Y-8.3090
G01 X36.7636 Y-8.3116
G01 X36.7487 Y-8.3150
G01 X36.6630 Y-8.3365
G01 X36.6483 Y-8.3405
G01 X36.6338 Y-8.3453
G01 X36.5506 Y-8.3751
G01 X36.5363 Y-8.3806
G01 X36.5224 Y-8.3868
G01 X36.4425 Y-8.4246
G01 X36.4288 Y-8.4314
G01 X36.4155 Y-8.4390
G01 X36.3398 Y-8.4844
G01 X36.3268 Y-8.4926
G01 X36.3144 Y-8.5014
G01 X36.2434 Y-8.5540
G01 X36.2313 Y-8.5634
G01 X36.2198 Y-8.5734
G01 X36.1543 Y-8.6327
G01 X36.1432 Y-8.6432
G01 X36.1327 Y-8.6543
G01 X36.0734 Y-8.7198
G01 X36.0634 Y-8.7313
G01 X36.0540 Y-8.7434
G01 X36.0014 Y-8.8144
G01 X35.9926 Y-8.8268
G01 X35.9844 Y-8.8398
G01 X35.9390 Y-8.9155
G01 X35.9314 Y-8.9288
G01 X35.9246 Y-8.9425
G01 X35.8868 Y-9.0224
G01 X35.8806 Y-9.0363
G01 X35.8751 Y-9.0506
G01 X35.8453 Y-9.1338
G01 X35.8405 Y-9.1483
G01 X35.8365 Y-9.1630
G01 X35.8150 Y-9.2487
G01 X35.8116 Y-9.2636
G01 X35.8090 Y-9.2787
G01 X35.7961 Y-9.3661
G01 X35.7942 Y-9.3812
G01 X35.7931 Y-9.3965
G01 X35.7887 Y-9.4847
G01 X35.7884 Y-9.5000
G01 X35.7887 Y-9.5153
G01 X35.7931 Y-9.6035
G01 X35.7942 Y-9.6188
G01 X35.7961 Y-9.6339
G01 X35.8090 Y-9.7213
G01 X35.8116 Y-9.7364
G01 X35.8150 Y-9.7513
G01 X35.8365 Y-9.8370
G01 X35.8405 Y-9.8517
G01 X35.8453 Y-9.8662
G01 X35.8751 Y-9.9494
G01 X35.8806 Y-9.9637
G01 X35.8868 Y-9.9776
G01 X35.9246 Y-10.0575
G01 X35.9314 Y-10.0712
G01 X35.9390 Y-10.0845
G01 X35.9844 Y-10.1602
G01 X35.9926 Y-10.1732
G01 X36.0014 Y-10.1856
G01 X36.0540 Y-10.2566
G01 X36.0634 Y-10.2687
G01 X36.0734 Y-10.2802
G01 X36.1327 Y-10.3457
G01 X36.1432 Y-10.3568
G01 X36.1543 Y-10.3673
G01 X36.2198 Y-10.4266
G01 X36.2373 Y-10.4414
G01 X36.3144 Y-10.4986
G01 X36.3268 Y-10.5074
G01 X36.3398 Y-10.5156
G01 X36.4155 Y-10.5610
G01 X36.4288 Y-10.5686
G01 X36.4425 Y-10.5754
G01 X36.5224 Y-10.6132
G01 X36.5363 Y-10.6194
G01 X36.5506 Y-10.6249
G01 X36.6338 Y-10.6547
G01 X36.6483 Y-10.6595
G01 X36.6630 Y-10.6635
G01 X36.7487 Y-10.6850
G01 X36.7636 Y-10.6884
G01 X36.7787 Y-10.6910
G01 X36.8736 Y-10.7050
G01 X36.8965 Y-10.7069
G01 X36.9847 Y-10.7113
G01 X37.0000 Y-10.7116
G01 X38.5000 Y-10.7116
G01 X38.5153 Y-10.7113
G01 X38.6035 Y-10.7069
G01 X38.6188 Y-10.7058
G01 X38.6339 Y-10.7039
G01 X38.7213 Y-10.6910
G01 X38.7364 Y-10.6884
G01 X38.7513 Y-10.6850
G01 X38.8370 Y-10.6635
G01 X38.8517 Y-10.6595
G01 X38.8662 Y-10.6547
G01 X38.9494 Y-10.6249
G01 X38.9637 Y-10.6194
G01 X38.9776 Y-10.6132
G01 X39.0575 Y-10.5754
G01 X39.0712 Y-10.5686
G01 X39.0845 Y-10.5610
G01 X39.1602 Y-10.5156
G01 X39.1732 Y-10.5074
G01 X39.1856 Y-10.4986
G01 X39.2566 Y-10.4460
G01 X39.2687 Y-10.4366
G01 X39.2802 Y-10.4266
G01 X39.3457 Y-10.3673
G01 X39.3568 Y-10.3568
G01 X39.3673 Y-10.3457
G01 X39.4266 Y-10.2802
G01 X39.4414 Y-10.2627
G01 X39.4986 Y-10.1856
G01 X39.5074 Y-10.1732
G01 X39.5156 Y-10.1602
G01 X39.5610 Y-10.0845
G01 X39.5686 Y-10.0712
G01 X39.5754 Y-10.0575
G01 X39.6132 Y-9.9776
G01 X39.6194 Y-9.9637
G01 X39.6249 Y-9.9494
G01 X39.6547 Y-9.8662
G01 X39.6595 Y-9.8517
G01 X39.6635 Y-9.8370
G01 X39.6850 Y-9.7513
G01 X39.6884 Y-9.7364
G01 X39.6910 Y-9.7213
G01 X39.7039 Y-9.6339
G01 X39.7058 Y-9.6188
G01 X39.7069 Y-9.6035
G01 X39.7113 Y-9.5153
G01 X39.7116 Y-9.5000
G01 X39.7113 Y-9.4847
G01 X39.7069 Y-9.3965
G01 X39.7058 Y-9.3812
G01 X39.7039 Y-9.3661
G01 X39.6910 Y-9.2787
G01 X39.6884 Y-9.2636
G01 X39.6850 Y-9.2487
G01 X39.6616 Y-9.1556
G01 X39.6547 Y-9.1338
G01 X39.6249 Y-9.0506
G01 X39.6194 Y-9.0363
G01 X39.6132 Y-9.0224
G01 X39.5754 Y-8.9425
G01 X39.5686 Y-8.9288
G01 X39.5610 Y-8.9155
G01 X39.5156 Y-8.8398
G01 X39.5074 Y-8.8268
G01 X39.4986 Y-8.8144
G01 X39.4460 Y-8.7434
G01 X39.4366 Y-8.7313
G01 X39.4266 Y-8.7198
G01 X39.3673 Y-8.6543
G01 X39.3568 Y-8.6432
G01 X39.3457 Y-8.6327
G01 X39.2802 Y-8.5734
G01 X39.2687 Y-8.5634
G01 X39.2566 Y-8.5540
G01 X39.1856 Y-8.5014
G01 X39.1732 Y-8.4926
G01 X39.1602 Y-8.4844
G01 X39.0845 Y-8.4390
G01 X39.0712 Y-8.4314
G01 X39.0575 Y-8.4246
G01 X38.9776 Y-8.3868
G01 X38.9637 Y-8.3806
G01 X38.9494 Y-8.3751
G01 X38.8662 Y-8.3453
G01 X38.8517 Y-8.3405
G01 X38.8370 Y-8.3365
G01 X38.7513 Y-8.3150
G01 X38.7364 Y-8.3116
G01 X38.7213 Y-8.3090
G01 X38.6339 Y-8.2961
G01 X38.6188 Y-8.2942
G01 X38.6035 Y-8.2931
G01 X38.5114 Y-8.2886
G01 X38.5114 Y-4.6550
G01 X38.5112 Y-3.4000
G01 X38.5108 Y-3.3847
G01 X38.5097 Y-3.3695
G01 X38.5078 Y-3.3543
G01 X38.5036 Y-3.3318
G01 X38.4978 Y-3.3097
G01 X38.4903 Y-3.2880
G01 X38.4813 Y-3.2669
G01 X38.4708 Y-3.2466
G01 X38.4587 Y-3.2271
G01 X38.4500 Y-3.2146
G01 X38.4406 Y-3.2026
G01 X38.4254 Y-3.1854
G01 X38.4090 Y-3.1694
G01 X38.3915 Y-3.1547
G01 X38.3729 Y-3.1413
G01 X38.3534 Y-3.1292
G01 X38.3399 Y-3.1220
G01 X38.3261 Y-3.1155
G01 X38.3048 Y-3.1070
G01 X38.2830 Y-3.1001
G01 X38.2607 Y-3.0948
G01 X38.2457 Y-3.0922
G01 X38.2229 Y-3.0897
G01 X38.2000 Y-3.0888
G01 X37.2000 Y-3.0888
G01 X37.1771 Y-3.0897
G01 X37.1543 Y-3.0922
G01 X37.1318 Y-3.0964
G01 X37.1097 Y-3.1022
G01 X37.0880 Y-3.1097
G01 X37.0669 Y-3.1187
G01 X37.0533 Y-3.1256
G01 X37.0335 Y-3.1371
G01 X37.0146 Y-3.1500
G01 X36.9967 Y-3.1644
G01 X36.9800 Y-3.1800
G01 X36.9644 Y-3.1967
G01 X36.9500 Y-3.2146
G01 X36.9371 Y-3.2335
G01 X36.9256 Y-3.2533
G01 X36.9155 Y-3.2739
G01 X36.9070 Y-3.2952
G01 X36.9001 Y-3.3170
G01 X36.8948 Y-3.3393
G01 X36.8922 Y-3.3543
G01 X36.8897 Y-3.3771
G01 X36.8888 Y-3.4000
G01 X36.8886 Y-8.2936
G00 Z2.0000
G00 X37.0103 Y-8.4101
G01 F60.00
G01 Z-0.1001
G01 F160.00
G01 X36.9907 Y-8.4104
G01 X36.9024 Y-8.4147
G01 X36.8839 Y-8.4165
G01 X36.7874 Y-8.4311
G01 X36.6836 Y-8.4571
G01 X36.5829 Y-8.4931
G01 X36.4945 Y-8.5346
G01 X36.4781 Y-8.5434
G01 X36.4024 Y-8.5888
G01 X36.3869 Y-8.5992
G01 X36.3086 Y-8.6575
G01 X36.2293 Y-8.7293
G01 X36.1575 Y-8.8086
G01 X36.0992 Y-8.8869
G01 X36.0888 Y-8.9024
G01 X36.0434 Y-8.9781
G01 X36.0346 Y-8.9945
G01 X35.9931 Y-9.0829
G01 X35.9571 Y-9.1836
G01 X35.9311 Y-9.2874
G01 X35.9165 Y-9.3839
G01 X35.9147 Y-9.4024
G01 X35.9101 Y-9.5000
G01 X35.9154 Y-9.6068
G01 X35.9295 Y-9.7035
G01 X35.9331 Y-9.7217
G01 X35.9546 Y-9.8074
G01 X35.9600 Y-9.8252
G01 X35.9931 Y-9.9171
G01 X36.0388 Y-10.0138
G01 X36.0938 Y-10.1055
G01 X36.1518 Y-10.1841
G01 X36.1636 Y-10.1984
G01 X36.2229 Y-10.2639
G01 X36.2361 Y-10.2771
G01 X36.3086 Y-10.3425
G01 X36.3907 Y-10.4036
G01 X36.4024 Y-10.4112
G01 X36.4862 Y-10.4612
G01 X36.5744 Y-10.5031
G01 X36.5916 Y-10.5103
G01 X36.6836 Y-10.5429
G01 X36.7783 Y-10.5669
G01 X36.7965 Y-10.5705
G01 X36.8839 Y-10.5835
G01 X36.8978 Y-10.5850
G01 X37.0000 Y-10.5899
G01 X38.5000 Y-10.5899
G01 X38.6068 Y-10.5846
G01 X38.7126 Y-10.5689
G01 X38.8164 Y-10.5429
G01 X38.9171 Y-10.5069
G01 X39.0055 Y-10.4654
G01 X39.0219 Y-10.4566
G01 X39.0976 Y-10.4112
G01 X39.1131 Y-10.4008
G01 X39.1914 Y-10.3425
G01 X39.2639 Y-10.2771
G01 X39.2771 Y-10.2639
G01 X39.3425 Y-10.1914
G01 X39.4036 Y-10.1093
G01 X39.4112 Y-10.0976
G01 X39.4566 Y-10.0219
G01 X39.4654 Y-10.0055
G01 X39.5069 Y-9.9171
G01 X39.5429 Y-9.8164
G01 X39.5669 Y-9.7217
G01 X39.5705 Y-9.7035
G01 X39.5846 Y-9.6068
G01 X39.5896 Y-9.5093
G01 X39.5896 Y-9.4907
G01 X39.5853 Y-9.4024
G01 X39.5835 Y-9.3839
G01 X39.5689 Y-9.2874
G01 X39.5454 Y-9.1926
G01 X39.5400 Y-9.1748
G01 X39.5069 Y-9.0829
G01 X39.4654 Y-8.9945
G01 X39.4566 Y-8.9781
G01 X39.4062 Y-8.8945
G01 X39.3482 Y-8.8159
G01 X39.3364 Y-8.8016
G01 X39.2707 Y-8.7293
G01 X39.1914 Y-8.6575
G01 X39.1131 Y-8.5992
G01 X39.0976 Y-8.5888
G01 X39.0138 Y-8.5388
G01 X38.9171 Y-8.4931
G01 X38.8252 Y-8.4600
G01 X38.8074 Y-8.4546
G01 X38.7126 Y-8.4311
G01 X38.6161 Y-8.4165
G01 X38.6022 Y-8.4150
G01 X38.5046 Y-8.4102
G01 X38.3897 Y-8.4101
G01 X38.3894 Y-3.3954
G01 X38.3880 Y-3.3768
G01 X38.3858 Y-3.3630
G01 X38.3826 Y-3.3495
G01 X38.3783 Y-3.3362
G01 X38.3732 Y-3.3232
G01 X38.3648 Y-3.3066
G01 X38.3575 Y-3.2948
G01 X38.3464 Y-3.2798
G01 X38.3372 Y-3.2694
G01 X38.3272 Y-3.2596
G01 X38.3128 Y-3.2479
G01 X38.3013 Y-3.2400
G01 X38.2852 Y-3.2308
G01 X38.2725 Y-3.2250
G01 X38.2550 Y-3.2187
G01 X38.2415 Y-3.2152
G01 X38.2232 Y-3.2120
G01 X38.2093 Y-3.2108
G01 X38.2000 Y-3.2106
G01 X37.2000 Y-3.2106
G01 X37.1907 Y-3.2108
G01 X37.1768 Y-3.2120
G01 X37.1630 Y-3.2142
G01 X37.1495 Y-3.2174
G01 X37.1362 Y-3.2217
G01 X37.1232 Y-3.2268
G01 X37.1107 Y-3.2329
G01 X37.0948 Y-3.2425
G01 X37.0835 Y-3.2507
G01 X37.0728 Y-3.2596
G01 X37.0628 Y-3.2694
G01 X37.0536 Y-3.2798
G01 X37.0451 Y-3.2909
G01 X37.0375 Y-3.3026
G01 X37.0308 Y-3.3148
G01 X37.0250 Y-3.3275
G01 X37.0187 Y-3.3450
G01 X37.0152 Y-3.3585
G01 X37.0120 Y-3.3768
G01 X37.0108 Y-3.3907
G01 X37.0106 Y-3.4000
G01 X37.0103 Y-8.4101
G00 Z2.0000
G00 X37.1321 Y-8.5319
G01 F60.00
G01 Z-0.1001
G01 F160.00
G01 X36.9983 Y-8.5319
G01 X36.9084 Y-8.5363
G01 X36.9018 Y-8.5370
G01 X36.8111 Y-8.5505
G01 X36.7190 Y-8.5736
G01 X36.6326 Y-8.6044
G01 X36.6265 Y-8.6069
G01 X36.5466 Y-8.6447
G01 X36.5408 Y-8.6478
G01 X36.4622 Y-8.6951
G01 X36.3858 Y-8.7516
G01 X36.3154 Y-8.8154
G01 X36.2538 Y-8.8833
G01 X36.2496 Y-8.8885
G01 X36.1970 Y-8.9594
G01 X36.1933 Y-8.9650
G01 X36.1462 Y-9.0436
G01 X36.1050 Y-9.1311
G01 X36.0736 Y-9.2190
G01 X36.0505 Y-9.3111
G01 X36.0366 Y-9.4051
G01 X36.0320 Y-9.4967
G01 X36.0320 Y-9.5033
G01 X36.0363 Y-9.5916
G01 X36.0370 Y-9.5982
G01 X36.0505 Y-9.6889
G01 X36.0736 Y-9.7810
G01 X36.1056 Y-9.8705
G01 X36.1447 Y-9.9534
G01 X36.1478 Y-9.9592
G01 X36.1933 Y-10.0350
G01 X36.1970 Y-10.0406
G01 X36.2516 Y-10.1142
G01 X36.3154 Y-10.1846
G01 X36.3858 Y-10.2484
G01 X36.4608 Y-10.3040
G01 X36.5436 Y-10.3538
G01 X36.6265 Y-10.3931
G01 X36.6326 Y-10.3956
G01 X36.7190 Y-10.4264
G01 X36.8079 Y-10.4488
G01 X36.8144 Y-10.4501
G01 X36.9068 Y-10.4636
G01 X37.0000 Y-10.4681
G01 X38.5000 Y-10.4681
G01 X38.5949 Y-10.4634
G01 X38.6889 Y-10.4495
G01 X38.7810 Y-10.4264
G01 X38.8705 Y-10.3944
G01 X38.9534 Y-10.3553
G01 X38.9592 Y-10.3522
G01 X39.0350 Y-10.3067
G01 X39.0406 Y-10.3030
G01 X39.1142 Y-10.2484
G01 X39.1821 Y-10.1868
G01 X39.1868 Y-10.1821
G01 X39.2484 Y-10.1142
G01 X39.3040 Y-10.0392
G01 X39.3522 Y-9.9592
G01 X39.3553 Y-9.9534
G01 X39.3944 Y-9.8705
G01 X39.4264 Y-9.7810
G01 X39.4495 Y-9.6889
G01 X39.4630 Y-9.5982
G01 X39.4637 Y-9.5916
G01 X39.4681 Y-9.5000
G01 X39.4637 Y-9.4084
G01 X39.4630 Y-9.4018
G01 X39.4495 Y-9.3111
G01 X39.4264 Y-9.2190
G01 X39.3944 Y-9.1295
G01 X39.3553 Y-9.0466
G01 X39.3522 Y-9.0408
G01 X39.3040 Y-8.9608
G01 X39.2484 Y-8.8858
G01 X39.1868 Y-8.8179
G01 X39.1821 Y-8.8132
G01 X39.1142 Y-8.7516
G01 X39.0406 Y-8.6970
G01 X39.0350 Y-8.6933
G01 X38.9564 Y-8.6462
G01 X38.8705 Y-8.6056
G01 X38.7842 Y-8.5746
G01 X38.7778 Y-8.5727
G01 X38.6889 Y-8.5505
G01 X38.5965 Y-8.5367
G01 X38.5017 Y-8.5319
G01 X38.2679 Y-8.5319
G01 X38.2676 Y-3.4000
G01 X38.2667 Y-3.3884
G01 X38.2637 Y-3.3772
G01 X38.2589 Y-3.3667
G01 X38.2523 Y-3.3571
G01 X38.2442 Y-3.3488
G01 X38.2348 Y-3.3420
G01 X38.2243 Y-3.3369
G01 X38.2132 Y-3.3336
G01 X38.2066 Y-3.3327
G01 X38.2000 Y-3.3324
G01 X37.1967 Y-3.3324
G01 X37.1852 Y-3.3340
G01 X37.1741 Y-3.3375
G01 X37.1638 Y-3.3428
G01 X37.1558 Y-3.3488
G01 X37.1488 Y-3.3558
G01 X37.1420 Y-3.3652
G01 X37.1369 Y-3.3757
G01 X37.1336 Y-3.3868
G01 X37.1327 Y-3.3934
G01 X37.1324 Y-3.4000
G01 X37.1321 Y-8.5319
G00 Z2.0000
G00 X43.8503 Y-6.4101
G01 F60.00
G01 Z-0.1001
G01 F160.00
G01 X42.5000 Y-6.4101
G01 X42.4024 Y-6.4147
G01 X42.3886 Y-6.4159
G01 X42.2874 Y-6.4311
G01 X42.1926 Y-6.4546
G01 X42.1748 Y-6.4600
G01 X42.0829 Y-6.4931
G01 X41.9945 Y-6.5346
G01 X41.9781 Y-6.5434
G01 X41.8945 Y-6.5938
G01 X41.8086 Y-6.6575
G01 X41.7293 Y-6.7293
G01 X41.6575 Y-6.8086
G01 X41.5938 Y-6.8945
G01 X41.5388 Y-6.9862
G01 X41.4931 Y-7.0829
G01 X41.4571 Y-7.1836
G01 X41.4311 Y-7.2874
G01 X41.4154 Y-7.3932
G01 X41.4101 Y-7.5000
G01 X41.4154 Y-7.6068
G01 X41.4311 Y-7.7126
G01 X41.4571 Y-7.8164
G01 X41.4931 Y-7.9171
G01 X41.5388 Y-8.0138
G01 X41.5938 Y-8.1055
G01 X41.6575 Y-8.1914
G01 X41.7293 Y-8.2707
G01 X41.8086 Y-8.3425
G01 X41.8945 Y-8.4062
G01 X41.9781 Y-8.4566
G01 X41.9945 Y-8.4654
G01 X42.0744 Y-8.5031
G01 X42.0916 Y-8.5103
G01 X42.1836 Y-8.5429
G01 X42.2783 Y-8.5669
G01 X42.2919 Y-8.5698
G01 X42.3932 Y-8.5846
G01 X42.5000 Y-8.5899
G01 X44.0046 Y-8.5898
G01 X44.0976 Y-8.5853
G01 X44.1161 Y-8.5835
G01 X44.2126 Y-8.5689
G01 X44.3074 Y-8.5454
G01 X44.3252 Y-8.5400
G01 X44.4171 Y-8.5069
G01 X44.5138 Y-8.4612
G01 X44.6055 Y-8.4062
G01 X44.6841 Y-8.3482
G01 X44.6984 Y-8.3364
G01 X44.7707 Y-8.2707
G01 X44.8364 Y-8.1984
G01 X44.8482 Y-8.1841
G01 X44.9036 Y-8.1093
G01 X44.9112 Y-8.0976
G01 X44.9566 Y-8.0219
G01 X44.9654 Y-8.0055
G01 X45.0069 Y-7.9171
G01 X45.0400 Y-7.8252
G01 X45.0442 Y-7.8119
G01 X45.0689 Y-7.7126
G01 X45.0846 Y-7.6068
G01 X45.0899 Y-7.5000
G01 X45.0853 Y-7.4024
G01 X45.0835 Y-7.3839
G01 X45.1134 Y-7.3432
G01 X45.1482 Y-7.2851
G01 X45.1772 Y-7.2239
G01 X45.1971 Y-7.1690
G01 X45.2025 Y-7.1512
G01 X45.2144 Y-7.1036
G01 X45.2173 Y-7.0900
G01 X45.2263 Y-7.0276
G01 X45.2294 Y-6.9693
G01 X45.2297 Y-4.6550
G01 X45.2294 Y-3.3954
G01 X45.2285 Y-3.3814
G01 X45.2266 Y-3.3676
G01 X45.2237 Y-3.3540
G01 X45.2199 Y-3.3406
G01 X45.2150 Y-3.3275
G01 X45.2092 Y-3.3148
G01 X45.2025 Y-3.3026
G01 X45.1949 Y-3.2909
G01 X45.1864 Y-3.2798
G01 X45.1772 Y-3.2694
G01 X45.1672 Y-3.2596
G01 X45.1565 Y-3.2507
G01 X45.1452 Y-3.2425
G01 X45.1334 Y-3.2352
G01 X45.1210 Y-3.2288
G01 X45.1082 Y-3.2233
G01 X45.0905 Y-3.2174
G01 X45.0770 Y-3.2142
G01 X45.0586 Y-3.2115
G01 X45.0400 Y-3.2106
G01 X44.0400 Y-3.2106
G01 X44.0214 Y-3.2115
G01 X44.0122 Y-3.2126
G01 X43.9985 Y-3.2152
G01 X43.9850 Y-3.2187
G01 X43.9718 Y-3.2233
G01 X43.9632 Y-3.2268
G01 X43.9507 Y-3.2329
G01 X43.9387 Y-3.2400
G01 X43.9272 Y-3.2479
G01 X43.9198 Y-3.2536
G01 X43.9094 Y-3.2628
G01 X43.8996 Y-3.2728
G01 X43.8907 Y-3.2835
G01 X43.8825 Y-3.2948
G01 X43.8752 Y-3.3066
G01 X43.8688 Y-3.3190
G01 X43.8633 Y-3.3318
G01 X43.8587 Y-3.3450
G01 X43.8542 Y-3.3630
G01 X43.8515 Y-3.3814
G01 X43.8506 Y-3.4000
G01 X43.8503 Y-6.4101
G00 Z2.0000
G00 X43.9721 Y-6.5319
G01 F60.00
G01 Z-0.1001
G01 F160.00
G01 X42.5000 Y-6.5319
G01 X42.4068 Y-6.5364
G01 X42.3111 Y-6.5505
G01 X42.2222 Y-6.5727
G01 X42.2158 Y-6.5746
G01 X42.1295 Y-6.6056
G01 X42.0466 Y-6.6447
G01 X42.0408 Y-6.6478
G01 X41.9622 Y-6.6951
G01 X41.8858 Y-6.7516
G01 X41.8154 Y-6.8154
G01 X41.7516 Y-6.8858
G01 X41.6951 Y-6.9622
G01 X41.6462 Y-7.0436
G01 X41.6056 Y-7.1295
G01 X41.5736 Y-7.2190
G01 X41.5505 Y-7.3111
G01 X41.5366 Y-7.4051
G01 X41.5319 Y-7.5000
G01 X41.5366 Y-7.5949
G01 X41.5505 Y-7.6889
G01 X41.5736 Y-7.7810
G01 X41.6056 Y-7.8705
G01 X41.6462 Y-7.9564
G01 X41.6951 Y-8.0378
G01 X41.7496 Y-8.1115
G01 X41.7538 Y-8.1167
G01 X41.8154 Y-8.1846
G01 X41.8833 Y-8.2462
G01 X41.8885 Y-8.2504
G01 X41.9622 Y-8.3049
G01 X42.0436 Y-8.3538
G01 X42.1265 Y-8.3931
