(G-CODE GENERATED BY FLATCAM v8.994 - www.flatcam.org - Version Date: 2020/11/7)

(Name: pb_orangepi-PTH.drl_cnc)
(Type: G-code from Geometry)
(Units: MM)

(Created on Friday, 19 May 2023 at 04:45)

(This preprocessor is the default preprocessor used by FlatCAM.)
(It is made to work with MACH3 compatible motion controllers.)


(TOOLS DIAMETER: )
(Tool: 1 -> Dia: 0.8000999999999999)
(Tool: 2 -> Dia: 1.0007599999999999)
(Tool: 3 -> Dia: 1.0007599999999999)
(Tool: 4 -> Dia: 1.0007599999999999)
(Tool: 5 -> Dia: 1.0007599999999999)
(Tool: 6 -> Dia: 2.9997399999999996)

(FEEDRATE Z: )
(Tool: 1 -> Feedrate: 300)
(Tool: 2 -> Feedrate: 300)
(Tool: 3 -> Feedrate: 300)
(Tool: 4 -> Feedrate: 300)
(Tool: 5 -> Feedrate: 300)
(Tool: 6 -> Feedrate: 300)

(FEEDRATE RAPIDS: )
(Tool: 1 -> Feedrate Rapids: 1500)
(Tool: 2 -> Feedrate Rapids: 1500)
(Tool: 3 -> Feedrate Rapids: 1500)
(Tool: 4 -> Feedrate Rapids: 1500)
(Tool: 5 -> Feedrate Rapids: 1500)
(Tool: 6 -> Feedrate Rapids: 1500)

(Z_CUT: )
(Tool: 1 -> Z_Cut: -1.7)
(Tool: 2 -> Z_Cut: -1.8)
(Tool: 3 -> Z_Cut: -1.8)
(Tool: 4 -> Z_Cut: -1.7)
(Tool: 5 -> Z_Cut: -1.7)
(Tool: 6 -> Z_Cut: -1.7)

(Tools Offset: )
(Tool: 3 -> Offset Z: 0.0)

(Z_MOVE: )
(Tool: 1 -> Z_Move: 2)
(Tool: 2 -> Z_Move: 2)
(Tool: 3 -> Z_Move: 2)
(Tool: 4 -> Z_Move: 2)
(Tool: 5 -> Z_Move: 2)
(Tool: 6 -> Z_Move: 2)

(Z Toolchange: 15 mm)
(X,Y Toolchange: 0.0000, 0.0000 mm)
(Z Start: None mm)
(Z End: 0.5 mm)
(X,Y End: None mm)
(Steps per circle: 64)
(Preprocessor Excellon: default)

(X range:    5.9995 ...   62.0014  mm)
(Y range: -106.5568 ...   -7.0002  mm)

(Spindle Speed: 0 RPM)
G21
G90
G94

G01 F300.00

M5
G00 Z15.0000
T2
G00 X0.0000 Y0.0000                
M6
(MSG, Change to Tool Dia = 1.0008 ||| Total drills for tool T2 = 40)
M0
G00 Z15.0000

G01 F300.00
M03
G00 X6.4999 Y-9.4996
G01 Z-1.8000
G01 Z0
G00 Z2.0000
G00 X8.4988 Y-7.5006
G01 Z-1.8000
G01 Z0
G00 Z2.0000
G00 X14.0005 Y-9.4996
G01 Z-1.8000
G01 Z0
G00 Z2.0000
G00 X15.4991 Y-9.4996
G01 Z-1.8000
G01 Z0
G00 Z2.0000
G00 X18.9992 Y-7.5006
G01 Z-1.8000
G01 Z0
G00 Z2.0000
G00 X20.5003 Y-7.5006
G01 Z-1.8000
G01 Z0
G00 Z2.0000
G00 X20.5003 Y-7.5006
G01 Z-1.8000
G01 Z0
G00 Z2.0000
G00 X25.4991 Y-9.4996
G01 Z-1.8000
G01 Z0
G00 Z2.0000
G00 X27.0002 Y-9.4996
G01 Z-1.8000
G01 Z0
G00 Z2.0000
G00 X28.9992 Y-7.5006
G01 Z-1.8000
G01 Z0
G00 Z2.0000
G00 X30.5003 Y-7.5006
G01 Z-1.8000
G01 Z0
G00 Z2.0000
G00 X37.0002 Y-9.4996
G01 Z-1.8000
G01 Z0
G00 Z2.0000
G00 X38.4988 Y-9.4996
G01 Z-1.8000
G01 Z0
G00 Z2.0000
G00 X42.4993 Y-7.5006
G01 Z-1.8000
G01 Z0
G00 Z2.0000
G00 X44.0004 Y-7.5006
G01 Z-1.8000
G01 Z0
G00 Z2.0000
G00 X48.4988 Y-9.4996
G01 Z-1.8000
G01 Z0
G00 Z2.0000
G00 X49.9999 Y-9.4996
G01 Z-1.8000
G01 Z0
G00 Z2.0000
G00 X56.4998 Y-7.5006
G01 Z-1.8000
G01 Z0
G00 Z2.0000
G00 X61.5010 Y-9.4996
G01 Z-1.8000
G01 Z0
G00 Z2.0000
G00 X14.1199 Y-49.3395
G01 Z-1.8000
G01 Z0
G00 Z2.0000
G00 X14.1199 Y-51.8795
G01 Z-1.8000
G01 Z0
G00 Z2.0000
G00 X14.1199 Y-54.4195
G01 Z-1.8000
G01 Z0
G00 Z2.0000
G00 X14.1199 Y-56.9595
G01 Z-1.8000
G01 Z0
G00 Z2.0000
G00 X14.1199 Y-59.4995
G01 Z-1.8000
G01 Z0
G00 Z2.0000
G00 X14.1199 Y-62.0395
G01 Z-1.8000
G01 Z0
G00 Z2.0000
G00 X14.1199 Y-64.5795
G01 Z-1.8000
G01 Z0
G00 Z2.0000
G00 X14.1199 Y-67.1195
G01 Z-1.8000
G01 Z0
G00 Z2.0000
G00 X14.1199 Y-69.6595
G01 Z-1.8000
G01 Z0
G00 Z2.0000
G00 X14.1199 Y-72.1995
G01 Z-1.8000
G01 Z0
G00 Z2.0000
G00 X14.1199 Y-74.7395
G01 Z-1.8000
G01 Z0
G00 Z2.0000
G00 X14.1199 Y-77.2795
G01 Z-1.8000
G01 Z0
G00 Z2.0000
G00 X14.1199 Y-79.8195
G01 Z-1.8000
G01 Z0
G00 Z2.0000
G00 X14.1199 Y-82.3595
G01 Z-1.8000
G01 Z0
G00 Z2.0000
G00 X14.1199 Y-84.8995
G01 Z-1.8000
G01 Z0
G00 Z2.0000
G00 X14.1199 Y-87.4395
G01 Z-1.8000
G01 Z0
G00 Z2.0000
G00 X14.1199 Y-89.9795
G01 Z-1.8000
G01 Z0
G00 Z2.0000
G00 X14.1199 Y-92.5195
G01 Z-1.8000
G01 Z0
G00 Z2.0000
G00 X14.1199 Y-95.0595
G01 Z-1.8000
G01 Z0
G00 Z2.0000
G00 X14.1199 Y-97.5995
G01 Z-1.8000
G01 Z0
G00 Z2.0000
G00 X11.5799 Y-97.5995
G01 Z-1.8000
G01 Z0
G00 Z2.0000
G00 X11.5799 Y-95.0595
G01 Z-1.8000
G01 Z0
G00 Z2.0000
G00 X11.5799 Y-92.5195
G01 Z-1.8000
G01 Z0
G00 Z2.0000
G00 X11.5799 Y-89.9795
G01 Z-1.8000
G01 Z0
G00 Z2.0000
G00 X11.5799 Y-87.4395
G01 Z-1.8000
G01 Z0
G00 Z2.0000
G00 X11.5799 Y-84.8995
G01 Z-1.8000
G01 Z0
G00 Z2.0000
G00 X11.5799 Y-82.3595
G01 Z-1.8000
G01 Z0
G00 Z2.0000
G00 X11.5799 Y-79.8195
G01 Z-1.8000
G01 Z0
G00 Z2.0000
G00 X11.5799 Y-77.2795
G01 Z-1.8000
G01 Z0
G00 Z2.0000
G00 X11.5799 Y-74.7395
G01 Z-1.8000
G01 Z0
G00 Z2.0000
G00 X11.5799 Y-72.1995
G01 Z-1.8000
G01 Z0
G00 Z2.0000
G00 X11.5799 Y-69.6595
G01 Z-1.8000
G01 Z0
G00 Z2.0000
G00 X11.5799 Y-67.1195
G01 Z-1.8000
G01 Z0
G00 Z2.0000
G00 X11.5799 Y-64.5795
G01 Z-1.8000
G01 Z0
G00 Z2.0000
G00 X11.5799 Y-62.0395
G01 Z-1.8000
G01 Z0
G00 Z2.0000
G00 X11.5799 Y-59.4995
G01 Z-1.8000
G01 Z0
G00 Z2.0000
G00 X11.5799 Y-56.9595
G01 Z-1.8000
G01 Z0
G00 Z2.0000
G00 X11.5799 Y-54.4195
G01 Z-1.8000
G01 Z0
G00 Z2.0000
G00 X11.5799 Y-51.8795
G01 Z-1.8000
G01 Z0
G00 Z2.0000
G00 X11.5799 Y-49.3395
G01 Z-1.8000
G01 Z0
G00 Z2.0000
M05
G00 Z0.50


M30
