(G-CODE GENERATED BY FLATCAM v8.994 - www.flatcam.org - Version Date: 2020/11/7)

(Name: pb_orangepi-Edge_Cuts.gbr_cutout_cnc)
(Type: G-code from Geometry)
(Units: MM)

(Created on Friday, 19 May 2023 at 04:48)

(This preprocessor is the default preprocessor used by FlatCAM.)
(It is made to work with MACH3 compatible motion controllers.)

(TOOL DIAMETER: 1.5 mm)
(Feedrate_XY: 120.0 mm/min)
(Feedrate_Z: 60.0 mm/min)
(Feedrate rapids 1500.0 mm/min)

(Z_Cut: -1.7000000000000004 mm)
(Z_Move: 2.0 mm)
(Z Start: None mm)
(Z End: 15.0 mm)
(X,Y End: None mm)
(Steps per circle: 64)
(Preprocessor Geometry: default)

(X range:    2.1000 ...   68.9000  mm)
(Y range: -108.9000 ...   -2.1000  mm)

(Spindle Speed: 8000.0 RPM)
G21
G90
G94

G01 F120.00

M5
G00 Z15.0000
G00 X0.0000 Y0.0000
T1
M6    
(MSG, Change to Tool Dia = 1.5000)
M0
G00 Z15.0000

M03 S8000.0
G01 F120.00
G00 X2.1010 Y-108.0417
G01 F60.00
G01 Z-1.7000
G01 F120.00
G01 X2.1000 Y-108.0000
G01 X2.1000 Y-3.0000
G01 X2.1012 Y-2.9534
G01 X2.1094 Y-2.8704
G01 X2.1276 Y-2.7789
G01 X2.1535 Y-2.6945
G01 X2.1854 Y-2.6174
G01 X2.2293 Y-2.5352
G01 X2.2786 Y-2.4619
G01 X2.3315 Y-2.3974
G01 X2.3938 Y-2.3348
G01 X2.4619 Y-2.2786
G01 X2.5394 Y-2.2268
G01 X2.6174 Y-2.1854
G01 X2.6945 Y-2.1535
G01 X2.7789 Y-2.1276
G01 X2.8704 Y-2.1094
G01 X2.9534 Y-2.1012
G01 X3.0000 Y-2.1000
G01 X68.0000 Y-2.1000
G01 X68.0466 Y-2.1012
G01 X68.1296 Y-2.1094
G01 X68.2211 Y-2.1276
G01 X68.3055 Y-2.1535
G01 X68.3826 Y-2.1854
G01 X68.4648 Y-2.2293
G01 X68.5381 Y-2.2786
G01 X68.6026 Y-2.3315
G01 X68.6652 Y-2.3938
G01 X68.7243 Y-2.4659
G01 X68.7732 Y-2.5394
G01 X68.8125 Y-2.6130
G01 X68.8465 Y-2.6945
G01 X68.8724 Y-2.7789
G01 X68.8906 Y-2.8704
G01 X68.8990 Y-2.9583
G01 X68.9000 Y-3.0000
G01 X68.9000 Y-19.0000
G01 X68.8988 Y-19.0466
G01 X68.8906 Y-19.1296
G01 X68.8724 Y-19.2211
G01 X68.8465 Y-19.3055
G01 X68.8125 Y-19.3870
G01 X68.7732 Y-19.4606
G01 X68.7214 Y-19.5381
G01 X68.6652 Y-19.6062
G01 X68.6062 Y-19.6652
G01 X68.5381 Y-19.7214
G01 X68.4606 Y-19.7732
G01 X68.3826 Y-19.8146
G01 X68.3055 Y-19.8465
G01 X68.2211 Y-19.8724
G01 X68.1296 Y-19.8906
G01 X68.0466 Y-19.8988
G01 X68.0000 Y-19.9000
G01 X31.8728 Y-19.9000
G01 X23.9000 Y-27.8728
G01 X23.9000 Y-108.0000
G01 X23.8988 Y-108.0466
G01 X23.8906 Y-108.1296
G01 X23.8724 Y-108.2211
G01 X23.8465 Y-108.3055
G01 X23.8146 Y-108.3826
G01 X23.7707 Y-108.4648
G01 X23.7214 Y-108.5381
G01 X23.6685 Y-108.6026
G01 X23.6062 Y-108.6652
G01 X23.5381 Y-108.7214
G01 X23.4606 Y-108.7732
G01 X23.3826 Y-108.8146
G01 X23.3009 Y-108.8482
G01 X23.2211 Y-108.8724
G01 X23.1345 Y-108.8899
G01 X23.0417 Y-108.8990
G01 X23.0000 Y-108.9000
G01 X3.0000 Y-108.9000
G01 X2.9534 Y-108.8988
G01 X2.8655 Y-108.8899
G01 X2.7789 Y-108.8724
G01 X2.6945 Y-108.8465
G01 X2.6130 Y-108.8125
G01 X2.5352 Y-108.7707
G01 X2.4619 Y-108.7214
G01 X2.3938 Y-108.6652
G01 X2.3315 Y-108.6026
G01 X2.2757 Y-108.5341
G01 X2.2268 Y-108.4606
G01 X2.1854 Y-108.3826
G01 X2.1518 Y-108.3009
G01 X2.1264 Y-108.2163
G01 X2.1094 Y-108.1296
G01 X2.1010 Y-108.0417
G00 Z2.0000
M05
G00 Z2.0000
G00 Z15.00


M30
