(G-CODE GENERATED BY FLATCAM v8.994 - www.flatcam.org - Version Date: 2020/11/7)

(Name: led_bar-B_Cu.gbr_iso_combined_cnc)
(Type: G-code from Geometry)
(Units: MM)

(Created on Monday, 18 April 2022 at 04:23)

(This preprocessor is the default preprocessor used by FlatCAM.)
(It is made to work with MACH3 compatible motion controllers.)

(TOOL DIAMETER: 0.1353 mm)
(Feedrate_XY: 160.0 mm/min)
(Feedrate_Z: 60.0 mm/min)
(Feedrate rapids 1500.0 mm/min)

(Z_Cut: -0.1001 mm)
(Z_Move: 2.0 mm)
(Z Start: None mm)
(Z End: 15.0 mm)
(X,Y End: None mm)
(Steps per circle: 64)
(Preprocessor Geometry: default)

(X range:   -0.2415 ...   45.2415  mm)
(Y range:  -34.2415 ...    0.2415  mm)

(Spindle Speed: 8000.0 RPM)
G21
G90
G94

G01 F160.00

M5
G00 Z15.0000
G00 X0.0000 Y0.0000
T2
M6    
(MSG, Change to Tool Dia = 0.1353)
M0
G00 Z15.0000

M03 S8000.0
G01 F160.00
G00 X3.7412 Y-5.1702
G01 F60.00
G01 Z-0.1001
G01 F160.00
G01 X4.0220 Y-5.4511
G01 X4.0352 Y-5.4452
G01 X4.1122 Y-5.4177
G01 X4.1948 Y-5.3970
G01 X4.2791 Y-5.3845
G01 X4.3641 Y-5.3804
G01 X4.4491 Y-5.3845
G01 X4.5334 Y-5.3970
G01 X4.6160 Y-5.4177
G01 X4.6930 Y-5.4452
G01 X4.7062 Y-5.4511
G01 X4.9870 Y-5.1702
G01 X4.9843 Y-5.1686
G01 X4.7922 Y-5.0791
G01 X4.7875 Y-5.0773
G01 X4.5828 Y-5.0225
G01 X4.5778 Y-5.0216
G01 X4.3666 Y-5.0031
G01 X4.3616 Y-5.0031
G01 X4.1504 Y-5.0216
G01 X4.1454 Y-5.0225
G01 X3.9407 Y-5.0773
G01 X3.9360 Y-5.0791
G01 X3.7439 Y-5.1686
G01 X3.7412 Y-5.1702
G00 Z2.0000
G00 X3.9384 Y-5.2048
G01 F60.00
G01 Z-0.1001
G01 F160.00
G01 X4.0510 Y-5.3174
G01 X4.0746 Y-5.3090
G01 X4.0832 Y-5.3064
G01 X4.1636 Y-5.2862
G01 X4.1768 Y-5.2834
G01 X4.2678 Y-5.2701
G01 X4.3641 Y-5.2653
G01 X4.4604 Y-5.2701
G01 X4.5514 Y-5.2834
G01 X4.5646 Y-5.2862
G01 X4.6450 Y-5.3064
G01 X4.6536 Y-5.3090
G01 X4.6772 Y-5.3174
G01 X4.7898 Y-5.2048
G01 X4.7505 Y-5.1865
G01 X4.5603 Y-5.1355
G01 X4.3641 Y-5.1184
G01 X4.1679 Y-5.1355
G01 X3.9777 Y-5.1865
G01 X3.9384 Y-5.2048
G00 Z2.0000
G00 X3.3209 Y-6.6737
G01 F60.00
G01 Z-0.1001
G01 F160.00
G01 X3.4335 Y-6.5611
G01 X3.4251 Y-6.5375
G01 X3.4225 Y-6.5289
G01 X3.4023 Y-6.4485
G01 X3.3995 Y-6.4353
G01 X3.3862 Y-6.3443
G01 X3.3814 Y-6.2480
G01 X3.3862 Y-6.1517
G01 X3.3995 Y-6.0607
G01 X3.4023 Y-6.0475
G01 X3.4225 Y-5.9671
G01 X3.4251 Y-5.9585
G01 X3.4335 Y-5.9349
G01 X3.3209 Y-5.8223
G01 X3.3026 Y-5.8616
G01 X3.2516 Y-6.0518
G01 X3.2345 Y-6.2480
G01 X3.2516 Y-6.4442
G01 X3.3026 Y-6.6344
G01 X3.3209 Y-6.6737
G00 Z2.0000
G00 X3.2863 Y-6.8709
G01 F60.00
G01 Z-0.1001
G01 F160.00
G01 X3.5672 Y-6.5901
G01 X3.5613 Y-6.5769
G01 X3.5338 Y-6.4999
G01 X3.5131 Y-6.4173
G01 X3.5006 Y-6.3330
G01 X3.4965 Y-6.2480
G01 X3.5006 Y-6.1630
G01 X3.5131 Y-6.0787
G01 X3.5338 Y-5.9961
G01 X3.5613 Y-5.9191
G01 X3.5672 Y-5.9059
G01 X3.2863 Y-5.6251
G01 X3.2848 Y-5.6278
G01 X3.1952 Y-5.8199
G01 X3.1934 Y-5.8246
G01 X3.1386 Y-6.0293
G01 X3.1377 Y-6.0343
G01 X3.1192 Y-6.2455
G01 X3.1192 Y-6.2505
G01 X3.1377 Y-6.4617
G01 X3.1386 Y-6.4667
G01 X3.1934 Y-6.6714
G01 X3.1952 Y-6.6761
G01 X3.2848 Y-6.8682
G01 X3.2863 Y-6.8709
G00 Z2.0000
G00 X3.7412 Y-7.3258
G01 F60.00
G01 Z-0.1001
G01 F160.00
G01 X3.7439 Y-7.3274
G01 X3.9360 Y-7.4169
G01 X3.9407 Y-7.4187
G01 X4.0463 Y-7.4470
G01 X4.0463 Y-7.0548
G01 X4.0321 Y-7.0496
G01 X4.0220 Y-7.0449
G01 X3.7412 Y-7.3258
G00 Z2.0000
G00 X4.7062 Y-7.0449
G01 F60.00
G01 Z-0.1001
G01 F160.00
G01 X4.6961 Y-7.0496
G01 X4.6819 Y-7.0548
G01 X4.6819 Y-7.4470
G01 X4.7875 Y-7.4187
G01 X4.7922 Y-7.4169
G01 X4.9843 Y-7.3274
G01 X4.9870 Y-7.3258
G01 X4.7062 Y-7.0449
G00 Z2.0000
G00 X5.2947 Y-6.5611
G01 F60.00
G01 Z-0.1001
G01 F160.00
G01 X5.3031 Y-6.5375
G01 X5.3057 Y-6.5289
G01 X5.3259 Y-6.4485
G01 X5.3287 Y-6.4353
G01 X5.3420 Y-6.3443
G01 X5.3468 Y-6.2480
G01 X5.3420 Y-6.1517
G01 X5.3287 Y-6.0607
G01 X5.3259 Y-6.0475
G01 X5.3057 Y-5.9671
G01 X5.3031 Y-5.9585
G01 X5.2947 Y-5.9349
G01 X5.5804 Y-5.6493
G01 X5.6171 Y-5.6106
G01 X5.6287 Y-5.5972
G01 X5.6389 Y-5.5827
G01 X5.6456 Y-5.5712
G01 X5.6532 Y-5.5552
G01 X5.6578 Y-5.5428
G01 X5.6616 Y-5.5301
G01 X5.6781 Y-5.4653
G01 X5.6812 Y-5.4473
G01 X5.6824 Y-5.4336
G01 X5.6827 Y-0.6345
G01 X5.6822 Y-0.6215
G01 X5.6814 Y-0.6128
G01 X5.6801 Y-0.6042
G01 X5.6775 Y-0.5914
G01 X5.6539 Y-0.5106
G01 X5.6493 Y-0.4978
G01 X5.6416 Y-0.4813
G01 X5.6349 Y-0.4695
G01 X5.6245 Y-0.4547
G01 X5.6127 Y-0.4409
G01 X5.6030 Y-0.4314
G01 X5.5460 Y-0.3818
G01 X5.5316 Y-0.3706
G01 X5.5201 Y-0.3631
G01 X5.5122 Y-0.3586
G01 X5.4998 Y-0.3527
G01 X5.4914 Y-0.3492
G01 X5.4828 Y-0.3462
G01 X5.4696 Y-0.3424
G01 X5.4086 Y-0.3291
G01 X5.3957 Y-0.3271
G01 X5.3783 Y-0.3259
G01 X0.6345 Y-0.3258
G01 X0.6258 Y-0.3261
G01 X0.6128 Y-0.3271
G01 X0.6042 Y-0.3284
G01 X0.5914 Y-0.3310
G01 X0.5106 Y-0.3546
G01 X0.4978 Y-0.3592
G01 X0.4813 Y-0.3669
G01 X0.4657 Y-0.3761
G01 X0.4547 Y-0.3840
G01 X0.4442 Y-0.3927
G01 X0.4314 Y-0.4055
G01 X0.3789 Y-0.4660
G01 X0.3706 Y-0.4769
G01 X0.3655 Y-0.4845
G01 X0.3566 Y-0.5004
G01 X0.3527 Y-0.5087
G01 X0.3476 Y-0.5214
G01 X0.3448 Y-0.5301
G01 X0.3414 Y-0.5433
G01 X0.3284 Y-0.6042
G01 X0.3267 Y-0.6171
G01 X0.3258 Y-0.6345
G01 X0.3258 Y-33.3655
G01 X0.3261 Y-33.3742
G01 X0.3271 Y-33.3872
G01 X0.3284 Y-33.3958
G01 X0.3310 Y-33.4086
G01 X0.3532 Y-33.4851
G01 X0.3592 Y-33.5022
G01 X0.3628 Y-33.5105
G01 X0.3690 Y-33.5226
G01 X0.3786 Y-33.5380
G01 X0.3840 Y-33.5453
G01 X0.3927 Y-33.5558
G01 X0.4055 Y-33.5686
G01 X0.4696 Y-33.6240
G01 X0.4845 Y-33.6345
G01 X0.4923 Y-33.6392
G01 X0.5045 Y-33.6454
G01 X0.5214 Y-33.6524
G01 X0.5301 Y-33.6552
G01 X0.5433 Y-33.6586
G01 X0.6042 Y-33.6716
G01 X0.6171 Y-33.6733
G01 X0.6345 Y-33.6742
G01 X35.3740 Y-33.6742
G01 X35.3827 Y-33.6739
G01 X35.3957 Y-33.6729
G01 X35.4086 Y-33.6709
G01 X35.4171 Y-33.6690
G01 X35.4936 Y-33.6468
G01 X35.5107 Y-33.6408
G01 X35.5231 Y-33.6352
G01 X35.5311 Y-33.6310
G01 X35.5465 Y-33.6214
G01 X35.5574 Y-33.6132
G01 X35.5643 Y-33.6073
G01 X35.5771 Y-33.5945
G01 X35.6325 Y-33.5304
G01 X35.6430 Y-33.5155
G01 X35.6477 Y-33.5077
G01 X35.6539 Y-33.4955
G01 X35.6576 Y-33.4871
G01 X35.6623 Y-33.4743
G01 X35.6671 Y-33.4567
G01 X35.6801 Y-33.3958
G01 X35.6818 Y-33.3829
G01 X35.6827 Y-33.3655
G01 X35.6827 Y-5.6260
G01 X35.6822 Y-5.6130
G01 X35.6814 Y-5.6043
G01 X35.6801 Y-5.5957
G01 X35.6775 Y-5.5829
G01 X35.6553 Y-5.5064
G01 X35.6493 Y-5.4893
G01 X35.6457 Y-5.4810
G01 X35.6395 Y-5.4689
G01 X35.6299 Y-5.4535
G01 X35.6188 Y-5.4391
G01 X35.6096 Y-5.4291
G01 X35.6030 Y-5.4229
G01 X35.5389 Y-5.3675
G01 X35.5240 Y-5.3570
G01 X35.5122 Y-5.3501
G01 X35.5040 Y-5.3461
G01 X35.4871 Y-5.3391
G01 X35.4784 Y-5.3363
G01 X35.4652 Y-5.3329
G01 X35.4043 Y-5.3199
G01 X35.3914 Y-5.3182
G01 X35.3783 Y-5.3174
G01 X34.8768 Y-5.3173
G01 X34.8681 Y-5.3176
G01 X34.8551 Y-5.3186
G01 X34.8379 Y-5.3215
G01 X34.8253 Y-5.3247
G01 X34.7528 Y-5.3461
G01 X34.7359 Y-5.3525
G01 X34.7196 Y-5.3605
G01 X34.7042 Y-5.3701
G01 X34.6899 Y-5.3812
G01 X34.6767 Y-5.3937
G01 X34.6183 Y-5.4610
G01 X34.6079 Y-5.4759
G01 X34.6032 Y-5.4836
G01 X34.5969 Y-5.4957
G01 X34.5916 Y-5.5082
G01 X34.5886 Y-5.5168
G01 X34.5848 Y-5.5299
G01 X34.5829 Y-5.5387
G01 X34.5707 Y-5.6224
G01 X34.5696 Y-5.6359
G01 X34.5695 Y-5.6494
G01 X34.5704 Y-5.6628
G01 X34.5723 Y-5.6762
G01 X34.5786 Y-5.7059
G01 X34.6032 Y-5.7976
G01 X34.6203 Y-5.9938
G01 X34.6032 Y-6.1900
G01 X34.5522 Y-6.3803
G01 X34.4689 Y-6.5589
G01 X34.3559 Y-6.7202
G01 X34.2166 Y-6.8595
G01 X34.0553 Y-6.9725
G01 X34.0228 Y-6.9879
G01 X34.0114 Y-6.9944
G01 X34.0006 Y-7.0017
G01 X33.9870 Y-7.0125
G01 X33.9304 Y-7.0625
G01 X33.9208 Y-7.0721
G01 X33.9119 Y-7.0824
G01 X33.9038 Y-7.0933
G01 X33.8943 Y-7.1088
G01 X33.8882 Y-7.1209
G01 X33.8815 Y-7.1378
G01 X33.8581 Y-7.2191
G01 X33.8545 Y-7.2369
G01 X33.8526 Y-7.2549
G01 X33.8524 Y-7.2685
G01 X33.8532 Y-7.2821
G01 X33.8542 Y-7.2911
G01 X33.8567 Y-7.3045
G01 X33.8602 Y-7.3176
G01 X33.8820 Y-7.3899
G01 X33.8885 Y-7.4066
G01 X33.8965 Y-7.4226
G01 X33.9060 Y-7.4377
G01 X33.9170 Y-7.4518
G01 X33.9261 Y-7.4616
G01 X33.9359 Y-7.4708
G01 X33.9881 Y-7.5160
G01 X34.0027 Y-7.5274
G01 X34.0143 Y-7.5349
G01 X34.0223 Y-7.5394
G01 X34.0553 Y-7.5551
G01 X34.2166 Y-7.6681
G01 X34.3559 Y-7.8074
G01 X34.4689 Y-7.9687
G01 X34.5522 Y-8.1473
G01 X34.6032 Y-8.3376
G01 X34.6203 Y-8.5338
G01 X34.6032 Y-8.7300
G01 X34.5522 Y-8.9203
G01 X34.4689 Y-9.0989
G01 X34.3559 Y-9.2602
G01 X34.2166 Y-9.3995
G01 X34.0553 Y-9.5125
G01 X34.0228 Y-9.5279
G01 X34.0114 Y-9.5344
G01 X34.0006 Y-9.5417
G01 X33.9870 Y-9.5525
G01 X33.9338 Y-9.5994
G01 X33.9239 Y-9.6088
G01 X33.9177 Y-9.6154
G01 X33.9064 Y-9.6296
G01 X33.8965 Y-9.6448
G01 X33.8882 Y-9.6609
G01 X33.8815 Y-9.6778
G01 X33.8571 Y-9.7635
G01 X33.8539 Y-9.7814
G01 X33.8529 Y-9.7904
G01 X33.8523 Y-9.8040
G01 X33.8528 Y-9.8176
G01 X33.8536 Y-9.8266
G01 X33.8558 Y-9.8400
G01 X33.8577 Y-9.8489
G01 X33.8835 Y-9.9341
G01 X33.8903 Y-9.9506
G01 X33.8965 Y-9.9626
G01 X33.9060 Y-9.9777
G01 X33.9170 Y-9.9918
G01 X33.9261 Y-10.0016
G01 X33.9359 Y-10.0108
G01 X33.9881 Y-10.0560
G01 X34.0027 Y-10.0674
G01 X34.0103 Y-10.0725
G01 X34.0223 Y-10.0794
G01 X34.0553 Y-10.0951
G01 X34.2166 Y-10.2081
G01 X34.3559 Y-10.3474
G01 X34.4689 Y-10.5087
G01 X34.5522 Y-10.6873
G01 X34.6032 Y-10.8776
G01 X34.6203 Y-11.0738
G01 X34.6032 Y-11.2700
G01 X34.5522 Y-11.4603
G01 X34.4689 Y-11.6389
G01 X34.3559 Y-11.8002
G01 X34.2166 Y-11.9395
G01 X34.0553 Y-12.0525
G01 X34.0228 Y-12.0679
G01 X34.0114 Y-12.0744
G01 X34.0006 Y-12.0817
G01 X33.9870 Y-12.0925
G01 X33.9338 Y-12.1394
G01 X33.9271 Y-12.1456
G01 X33.9177 Y-12.1554
G01 X33.9064 Y-12.1696
G01 X33.8965 Y-12.1848
G01 X33.8882 Y-12.2009
G01 X33.8815 Y-12.2178
G01 X33.8571 Y-12.3035
G01 X33.8539 Y-12.3214
G01 X33.8529 Y-12.3304
G01 X33.8523 Y-12.3440
G01 X33.8528 Y-12.3576
G01 X33.8536 Y-12.3666
G01 X33.8558 Y-12.3800
G01 X33.8577 Y-12.3889
G01 X33.8835 Y-12.4741
G01 X33.8903 Y-12.4906
G01 X33.8965 Y-12.5026
G01 X33.9060 Y-12.5177
G01 X33.9170 Y-12.5318
G01 X33.9261 Y-12.5416
G01 X33.9359 Y-12.5508
G01 X33.9881 Y-12.5960
G01 X34.0027 Y-12.6074
G01 X34.0143 Y-12.6149
G01 X34.0223 Y-12.6194
G01 X34.0553 Y-12.6351
G01 X34.2166 Y-12.7481
G01 X34.3559 Y-12.8874
G01 X34.4689 Y-13.0487
G01 X34.5522 Y-13.2273
G01 X34.6032 Y-13.4176
G01 X34.6203 Y-13.6138
G01 X34.6032 Y-13.8100
G01 X34.5522 Y-14.0003
G01 X34.4689 Y-14.1789
G01 X34.3559 Y-14.3402
G01 X34.2166 Y-14.4795
G01 X34.0553 Y-14.5925
G01 X34.0228 Y-14.6079
G01 X34.0114 Y-14.6144
G01 X34.0006 Y-14.6217
G01 X33.9870 Y-14.6325
G01 X33.9338 Y-14.6794
G01 X33.9239 Y-14.6888
G01 X33.9177 Y-14.6954
G01 X33.9064 Y-14.7096
G01 X33.8965 Y-14.7248
G01 X33.8882 Y-14.7409
G01 X33.8815 Y-14.7578
G01 X33.8571 Y-14.8435
G01 X33.8539 Y-14.8614
G01 X33.8529 Y-14.8704
G01 X33.8523 Y-14.8840
G01 X33.8528 Y-14.8976
G01 X33.8536 Y-14.9066
G01 X33.8558 Y-14.9200
G01 X33.8577 Y-14.9289
G01 X33.8835 Y-15.0141
G01 X33.8903 Y-15.0306
G01 X33.8965 Y-15.0426
G01 X33.9060 Y-15.0577
G01 X33.9170 Y-15.0718
G01 X33.9261 Y-15.0816
G01 X33.9359 Y-15.0908
G01 X33.9881 Y-15.1360
G01 X34.0027 Y-15.1474
G01 X34.0103 Y-15.1525
G01 X34.0223 Y-15.1594
G01 X34.0553 Y-15.1751
G01 X34.2166 Y-15.2881
G01 X34.3559 Y-15.4274
G01 X34.4689 Y-15.5887
G01 X34.5522 Y-15.7673
G01 X34.6032 Y-15.9576
G01 X34.6203 Y-16.1538
G01 X34.6032 Y-16.3500
G01 X34.5522 Y-16.5403
G01 X34.4689 Y-16.7189
G01 X34.3559 Y-16.8802
G01 X34.2166 Y-17.0195
G01 X34.0553 Y-17.1325
G01 X34.0228 Y-17.1479
G01 X34.0114 Y-17.1544
G01 X34.0006 Y-17.1617
G01 X33.9870 Y-17.1725
G01 X33.9338 Y-17.2194
G01 X33.9271 Y-17.2256
G01 X33.9177 Y-17.2354
G01 X33.9064 Y-17.2496
G01 X33.8965 Y-17.2648
G01 X33.8882 Y-17.2809
G01 X33.8815 Y-17.2978
G01 X33.8571 Y-17.3835
G01 X33.8539 Y-17.4014
G01 X33.8529 Y-17.4104
G01 X33.8523 Y-17.4240
G01 X33.8525 Y-17.4330
G01 X33.8536 Y-17.4466
G01 X33.8558 Y-17.4600
G01 X33.8577 Y-17.4689
G01 X33.8835 Y-17.5541
G01 X33.8885 Y-17.5666
G01 X33.8965 Y-17.5826
G01 X33.9060 Y-17.5977
G01 X33.9170 Y-17.6118
G01 X33.9261 Y-17.6216
G01 X33.9359 Y-17.6308
G01 X33.9881 Y-17.6760
G01 X34.0027 Y-17.6874
G01 X34.0103 Y-17.6925
G01 X34.0223 Y-17.6994
G01 X34.0553 Y-17.7151
G01 X34.2166 Y-17.8281
G01 X34.3559 Y-17.9674
G01 X34.4689 Y-18.1287
G01 X34.5522 Y-18.3073
G01 X34.6032 Y-18.4976
G01 X34.6203 Y-18.6938
G01 X34.6032 Y-18.8900
G01 X34.5522 Y-19.0803
G01 X34.4689 Y-19.2589
G01 X34.3559 Y-19.4202
G01 X34.2166 Y-19.5595
G01 X34.0553 Y-19.6725
G01 X34.0228 Y-19.6879
G01 X34.0114 Y-19.6944
G01 X34.0006 Y-19.7017
G01 X33.9870 Y-19.7125
G01 X33.9338 Y-19.7594
G01 X33.9271 Y-19.7656
G01 X33.9177 Y-19.7754
G01 X33.9064 Y-19.7896
G01 X33.8965 Y-19.8048
G01 X33.8882 Y-19.8209
G01 X33.8815 Y-19.8378
G01 X33.8571 Y-19.9235
G01 X33.8539 Y-19.9414
G01 X33.8529 Y-19.9504
G01 X33.8523 Y-19.9640
G01 X33.8528 Y-19.9776
G01 X33.8536 Y-19.9866
G01 X33.8550 Y-19.9956
G01 X33.8577 Y-20.0089
G01 X33.8835 Y-20.0941
G01 X33.8903 Y-20.1106
G01 X33.8987 Y-20.1264
G01 X33.9086 Y-20.1413
G01 X33.9170 Y-20.1518
G01 X33.9261 Y-20.1616
G01 X33.9359 Y-20.1708
G01 X33.9881 Y-20.2160
G01 X34.0027 Y-20.2274
G01 X34.0103 Y-20.2325
G01 X34.0223 Y-20.2394
G01 X34.0553 Y-20.2551
G01 X34.2166 Y-20.3681
G01 X34.3559 Y-20.5074
G01 X34.4689 Y-20.6687
G01 X34.5522 Y-20.8473
G01 X34.6032 Y-21.0376
G01 X34.6203 Y-21.2338
G01 X34.6032 Y-21.4300
G01 X34.5522 Y-21.6203
G01 X34.4689 Y-21.7989
G01 X34.3559 Y-21.9602
G01 X34.2166 Y-22.0995
G01 X34.0553 Y-22.2125
G01 X34.0228 Y-22.2279
G01 X34.0114 Y-22.2344
G01 X34.0006 Y-22.2417
G01 X33.9870 Y-22.2525
G01 X33.9338 Y-22.2994
G01 X33.9271 Y-22.3056
G01 X33.9177 Y-22.3154
G01 X33.9064 Y-22.3296
G01 X33.8965 Y-22.3448
G01 X33.8882 Y-22.3609
G01 X33.8815 Y-22.3778
G01 X33.8571 Y-22.4635
G01 X33.8552 Y-22.4724
G01 X33.8533 Y-22.4859
G01 X33.8523 Y-22.5040
G01 X33.8528 Y-22.5176
G01 X33.8536 Y-22.5266
G01 X33.8558 Y-22.5400
G01 X33.8577 Y-22.5489
G01 X33.8835 Y-22.6341
G01 X33.8903 Y-22.6506
G01 X33.8987 Y-22.6664
G01 X33.9086 Y-22.6813
G01 X33.9170 Y-22.6918
G01 X33.9261 Y-22.7016
G01 X33.9359 Y-22.7108
G01 X33.9881 Y-22.7560
G01 X34.0027 Y-22.7674
G01 X34.0103 Y-22.7725
G01 X34.0223 Y-22.7794
G01 X34.0553 Y-22.7951
G01 X34.2166 Y-22.9081
G01 X34.3559 Y-23.0474
G01 X34.4689 Y-23.2087
G01 X34.5522 Y-23.3873
G01 X34.6032 Y-23.5776
G01 X34.6203 Y-23.7738
G01 X34.6032 Y-23.9700
G01 X34.5522 Y-24.1603
G01 X34.4689 Y-24.3389
G01 X34.3559 Y-24.5002
G01 X34.2166 Y-24.6395
G01 X34.0553 Y-24.7525
G01 X33.8767 Y-24.8358
G01 X33.6864 Y-24.8868
G01 X33.4902 Y-24.9039
G01 X33.2939 Y-24.8868
G01 X33.2388 Y-24.8720
G01 X33.2212 Y-24.8682
G01 X33.2078 Y-24.8665
G01 X33.1603 Y-24.8623
G01 X33.1468 Y-24.8619
G01 X33.1378 Y-24.8622
G01 X31.2330 Y-25.0210
G01 X31.2158 Y-25.0236
G01 X31.2031 Y-25.0267
G01 X31.1948 Y-25.0293
G01 X31.1204 Y-25.0578
G01 X31.1038 Y-25.0652
G01 X31.0881 Y-25.0741
G01 X31.0805 Y-25.0792
G01 X31.0697 Y-25.0875
G01 X31.0596 Y-25.0965
G01 X31.0532 Y-25.1030
G01 X31.0443 Y-25.1132
G01 X31.0387 Y-25.1204
G01 X30.9969 Y-25.1778
G01 X30.9892 Y-25.1890
G01 X30.9825 Y-25.2009
G01 X30.9766 Y-25.2131
G01 X30.9733 Y-25.2215
G01 X30.9690 Y-25.2345
G01 X30.9648 Y-25.2521
G01 X30.9628 Y-25.2656
G01 X30.9578 Y-25.3455
G01 X30.9576 Y-25.3638
G01 X30.9587 Y-25.3775
G01 X30.9600 Y-25.3865
G01 X30.9639 Y-25.4044
G01 X30.9680 Y-25.4175
G01 X30.9713 Y-25.4260
G01 X30.9770 Y-25.4385
G01 X31.0054 Y-25.4956
G01 X31.0124 Y-25.5072
G01 X31.0223 Y-25.5213
G01 X31.1335 Y-25.7027
G01 X31.2143 Y-25.8979
G01 X31.2636 Y-26.1032
G01 X31.2802 Y-26.3138
G01 X31.2636 Y-26.5244
G01 X31.2143 Y-26.7297
G01 X31.1335 Y-26.9249
G01 X31.0231 Y-27.1050
G01 X30.8860 Y-27.2656
G01 X30.7849 Y-27.3520
G01 X30.7785 Y-27.3579
G01 X30.7696 Y-27.3674
G01 X30.7613 Y-27.3775
G01 X30.7562 Y-27.3845
G01 X30.7150 Y-27.4476
G01 X30.7103 Y-27.4553
G01 X30.7038 Y-27.4673
G01 X30.6967 Y-27.4840
G01 X30.6912 Y-27.5013
G01 X30.6875 Y-27.5190
G01 X30.6863 Y-27.5280
G01 X30.6854 Y-27.5416
G01 X30.6848 Y-27.6171
G01 X30.6852 Y-27.6303
G01 X30.6872 Y-27.6478
G01 X30.6908 Y-27.6650
G01 X30.6962 Y-27.6818
G01 X30.7030 Y-27.6980
G01 X30.7092 Y-27.7097
G01 X30.7138 Y-27.7172
G01 X30.7531 Y-27.7784
G01 X30.7635 Y-27.7929
G01 X30.7721 Y-27.8030
G01 X30.7848 Y-27.8156
G01 X30.8860 Y-27.9020
G01 X31.0231 Y-28.0626
G01 X31.1335 Y-28.2427
G01 X31.2143 Y-28.4379
G01 X31.2636 Y-28.6432
G01 X31.2802 Y-28.8538
G01 X31.2636 Y-29.0644
G01 X31.2143 Y-29.2697
G01 X31.1335 Y-29.4649
G01 X31.0231 Y-29.6450
G01 X30.8860 Y-29.8056
G01 X30.7254 Y-29.9427
G01 X30.5453 Y-30.0531
G01 X30.3501 Y-30.1339
G01 X30.1448 Y-30.1832
G01 X29.9342 Y-30.1998
G01 X29.7236 Y-30.1832
G01 X29.5183 Y-30.1339
G01 X29.3231 Y-30.0531
G01 X29.1430 Y-29.9427
G01 X28.9824 Y-29.8056
G01 X28.8453 Y-29.6450
G01 X28.7349 Y-29.4649
G01 X28.6541 Y-29.2697
G01 X28.6048 Y-29.0644
G01 X28.5882 Y-28.8538
G01 X28.6048 Y-28.6432
G01 X28.6541 Y-28.4379
G01 X28.7349 Y-28.2427
G01 X28.8453 Y-28.0626
G01 X28.9824 Y-27.9020
G01 X29.0835 Y-27.8156
G01 X29.0959 Y-27.8034
G01 X29.1044 Y-27.7935
G01 X29.1096 Y-27.7866
G01 X29.1558 Y-27.7162
G01 X29.1625 Y-27.7043
G01 X29.1665 Y-27.6962
G01 X29.1732 Y-27.6793
G01 X29.1782 Y-27.6619
G01 X29.1815 Y-27.6441
G01 X29.1830 Y-27.6260
G01 X29.1836 Y-27.5461
G01 X29.1829 Y-27.5329
G01 X29.1812 Y-27.5198
G01 X29.1796 Y-27.5111
G01 X29.1764 Y-27.4983
G01 X29.1707 Y-27.4817
G01 X29.1634 Y-27.4657
G01 X29.1546 Y-27.4504
G01 X29.1128 Y-27.3855
G01 X29.1049 Y-27.3747
G01 X29.0963 Y-27.3646
G01 X29.0869 Y-27.3550
G01 X29.0802 Y-27.3491
G01 X28.9824 Y-27.2656
G01 X28.8453 Y-27.1050
G01 X28.7349 Y-26.9249
G01 X28.6541 Y-26.7297
G01 X28.6048 Y-26.5244
G01 X28.5882 Y-26.3138
G01 X28.6048 Y-26.1032
G01 X28.6541 Y-25.8979
G01 X28.7349 Y-25.7027
G01 X28.8453 Y-25.5226
G01 X28.9824 Y-25.3620
G01 X29.0835 Y-25.2756
G01 X29.0899 Y-25.2697
G01 X29.0988 Y-25.2602
G01 X29.1044 Y-25.2535
G01 X29.1122 Y-25.2431
G01 X29.1534 Y-25.1800
G01 X29.1625 Y-25.1643
G01 X29.1701 Y-25.1479
G01 X29.1760 Y-25.1307
G01 X29.1801 Y-25.1130
G01 X29.1821 Y-25.0996
G01 X29.1830 Y-25.0860
G01 X29.1836 Y-25.0105
G01 X29.1829 Y-24.9929
G01 X29.1819 Y-24.9841
G01 X29.1796 Y-24.9711
G01 X29.1751 Y-24.9541
G01 X29.1707 Y-24.9417
G01 X29.1672 Y-24.9336
G01 X29.1613 Y-24.9218
G01 X29.1569 Y-24.9141
G01 X29.1153 Y-24.8492
G01 X29.1076 Y-24.8383
G01 X29.0963 Y-24.8246
G01 X29.0836 Y-24.8120
G01 X28.9824 Y-24.7256
G01 X28.8453 Y-24.5650
G01 X28.7349 Y-24.3849
G01 X28.6541 Y-24.1897
G01 X28.6048 Y-23.9844
G01 X28.5882 Y-23.7738
G01 X28.6048 Y-23.5632
G01 X28.6541 Y-23.3579
G01 X28.7349 Y-23.1627
G01 X28.8453 Y-22.9826
G01 X28.9824 Y-22.8220
G01 X29.0835 Y-22.7356
G01 X29.0899 Y-22.7297
G01 X29.0988 Y-22.7202
G01 X29.1044 Y-22.7135
G01 X29.1122 Y-22.7031
G01 X29.1558 Y-22.6362
G01 X29.1646 Y-22.6203
G01 X29.1717 Y-22.6036
G01 X29.1772 Y-22.5863
G01 X29.1809 Y-22.5686
G01 X29.1825 Y-22.5551
G01 X29.1831 Y-22.5415
G01 X29.1836 Y-22.4705
G01 X29.1829 Y-22.4529
G01 X29.1805 Y-22.4355
G01 X29.1764 Y-22.4183
G01 X29.1722 Y-22.4058
G01 X29.1654 Y-22.3896
G01 X29.1592 Y-22.3779
G01 X29.1546 Y-22.3704
G01 X29.1153 Y-22.3092
G01 X29.1076 Y-22.2983
G01 X29.0963 Y-22.2846
G01 X29.0836 Y-22.2720
G01 X28.9824 Y-22.1856
G01 X28.8453 Y-22.0250
G01 X28.7349 Y-21.8449
G01 X28.6541 Y-21.6497
G01 X28.6048 Y-21.4444
G01 X28.5882 Y-21.2338
G01 X28.6048 Y-21.0232
G01 X28.6541 Y-20.8179
G01 X28.7349 Y-20.6227
G01 X28.8453 Y-20.4426
G01 X28.9824 Y-20.2820
G01 X29.0835 Y-20.1956
G01 X29.0899 Y-20.1897
G01 X29.0988 Y-20.1802
G01 X29.1044 Y-20.1735
G01 X29.1122 Y-20.1631
G01 X29.1534 Y-20.1000
G01 X29.1625 Y-20.0843
G01 X29.1683 Y-20.0720
G01 X29.1717 Y-20.0636
G01 X29.1772 Y-20.0463
G01 X29.1809 Y-20.0286
G01 X29.1821 Y-20.0196
G01 X29.1830 Y-20.0060
G01 X29.1836 Y-19.9305
G01 X29.1832 Y-19.9173
G01 X29.1812 Y-19.8998
G01 X29.1776 Y-19.8826
G01 X29.1722 Y-19.8658
G01 X29.1654 Y-19.8496
G01 X29.1613 Y-19.8418
G01 X29.1546 Y-19.8304
G01 X29.1103 Y-19.7619
G01 X29.0992 Y-19.7479
G01 X29.0932 Y-19.7413
G01 X29.0836 Y-19.7320
G01 X28.9824 Y-19.6456
G01 X28.8453 Y-19.4850
G01 X28.7349 Y-19.3049
G01 X28.6541 Y-19.1097
G01 X28.6048 Y-18.9044
G01 X28.5882 Y-18.6938
G01 X28.6048 Y-18.4832
G01 X28.6541 Y-18.2779
G01 X28.7349 Y-18.0827
G01 X28.8453 Y-17.9026
G01 X28.9824 Y-17.7420
G01 X29.0835 Y-17.6556
G01 X29.0899 Y-17.6497
G01 X29.0988 Y-17.6402
G01 X29.1044 Y-17.6335
G01 X29.1122 Y-17.6231
G01 X29.1534 Y-17.5600
G01 X29.1625 Y-17.5443
G01 X29.1683 Y-17.5320
G01 X29.1717 Y-17.5236
G01 X29.1772 Y-17.5063
G01 X29.1809 Y-17.4886
G01 X29.1821 Y-17.4796
G01 X29.1830 Y-17.4660
G01 X29.1834 Y-17.3817
G01 X29.1819 Y-17.3641
G01 X29.1786 Y-17.3468
G01 X29.1737 Y-17.3299
G01 X29.1672 Y-17.3136
G01 X29.1613 Y-17.3018
G01 X29.1569 Y-17.2941
G01 X29.1103 Y-17.2219
G01 X29.0992 Y-17.2079
G01 X29.0932 Y-17.2013
G01 X29.0836 Y-17.1920
G01 X28.9824 Y-17.1056
G01 X28.8453 Y-16.9450
G01 X28.7349 Y-16.7649
G01 X28.6541 Y-16.5697
G01 X28.6048 Y-16.3644
G01 X28.5882 Y-16.1538
G01 X28.6048 Y-15.9432
G01 X28.6541 Y-15.7379
G01 X28.7349 Y-15.5427
G01 X28.8453 Y-15.3626
G01 X28.9824 Y-15.2020
G01 X29.0835 Y-15.1156
G01 X29.0929 Y-15.1066
G01 X29.0988 Y-15.1002
G01 X29.1071 Y-15.0901
G01 X29.1122 Y-15.0831
G01 X29.1534 Y-15.0200
G01 X29.1625 Y-15.0043
G01 X29.1701 Y-14.9879
G01 X29.1760 Y-14.9707
G01 X29.1782 Y-14.9619
G01 X29.1809 Y-14.9486
G01 X29.1821 Y-14.9396
G01 X29.1830 Y-14.9260
G01 X29.1834 Y-14.8417
G01 X29.1819 Y-14.8241
G01 X29.1786 Y-14.8068
G01 X29.1737 Y-14.7899
G01 X29.1672 Y-14.7736
G01 X29.1634 Y-14.7657
G01 X29.1569 Y-14.7541
G01 X29.1103 Y-14.6819
G01 X29.0992 Y-14.6679
G01 X29.0932 Y-14.6613
G01 X29.0836 Y-14.6520
G01 X28.9824 Y-14.5656
G01 X28.8453 Y-14.4050
G01 X28.7349 Y-14.2249
G01 X28.6541 Y-14.0297
G01 X28.6048 Y-13.8244
G01 X28.5882 Y-13.6138
G01 X28.6048 Y-13.4032
G01 X28.6541 Y-13.1979
G01 X28.7349 Y-13.0027
G01 X28.8453 Y-12.8226
G01 X28.9824 Y-12.6620
G01 X29.0835 Y-12.5756
G01 X29.0899 Y-12.5697
G01 X29.0988 Y-12.5602
G01 X29.1071 Y-12.5501
G01 X29.1122 Y-12.5431
G01 X29.1534 Y-12.4800
G01 X29.1625 Y-12.4643
G01 X29.1701 Y-12.4479
G01 X29.1760 Y-12.4307
G01 X29.1782 Y-12.4219
G01 X29.1809 Y-12.4086
G01 X29.1821 Y-12.3996
G01 X29.1830 Y-12.3860
G01 X29.1834 Y-12.3017
G01 X29.1819 Y-12.2841
G01 X29.1786 Y-12.2668
G01 X29.1737 Y-12.2499
G01 X29.1672 Y-12.2336
G01 X29.1634 Y-12.2257
G01 X29.1569 Y-12.2141
G01 X29.1103 Y-12.1419
G01 X29.0992 Y-12.1279
G01 X29.0901 Y-12.1181
G01 X29.0836 Y-12.1120
G01 X28.9824 Y-12.0256
G01 X28.8453 Y-11.8650
G01 X28.7349 Y-11.6849
G01 X28.6541 Y-11.4897
G01 X28.6048 Y-11.2844
G01 X28.5882 Y-11.0738
G01 X28.6048 Y-10.8632
G01 X28.6541 Y-10.6579
G01 X28.7349 Y-10.4627
G01 X28.8453 Y-10.2826
G01 X28.9824 Y-10.1220
G01 X29.0835 Y-10.0356
G01 X29.0929 Y-10.0266
G01 X29.0988 Y-10.0202
G01 X29.1071 Y-10.0101
G01 X29.1122 Y-10.0031
G01 X29.1534 Y-9.9400
G01 X29.1625 Y-9.9243
G01 X29.1701 Y-9.9079
G01 X29.1760 Y-9.8907
G01 X29.1801 Y-9.8730
G01 X29.1821 Y-9.8596
G01 X29.1830 Y-9.8460
G01 X29.1836 Y-9.7705
G01 X29.1829 Y-9.7529
G01 X29.1819 Y-9.7441
G01 X29.1796 Y-9.7311
G01 X29.1751 Y-9.7141
G01 X29.1690 Y-9.6976
G01 X29.1634 Y-9.6857
G01 X29.1569 Y-9.6741
G01 X29.1103 Y-9.6019
G01 X29.0992 Y-9.5879
G01 X29.0932 Y-9.5813
G01 X29.0836 Y-9.5720
G01 X28.9824 Y-9.4856
G01 X28.8453 Y-9.3250
G01 X28.7349 Y-9.1449
G01 X28.6541 Y-8.9497
G01 X28.6048 Y-8.7444
G01 X28.5882 Y-8.5338
G01 X28.6048 Y-8.3232
G01 X28.6541 Y-8.1179
G01 X28.7349 Y-7.9227
G01 X28.8548 Y-7.7274
G01 X28.8612 Y-7.7158
G01 X28.8649 Y-7.7078
G01 X28.8699 Y-7.6954
G01 X28.8934 Y-7.6295
G01 X28.8975 Y-7.6165
G01 X28.9006 Y-7.6033
G01 X28.9027 Y-7.5898
G01 X28.9038 Y-7.5763
G01 X28.9039 Y-7.5627
G01 X28.9030 Y-7.5491
G01 X28.9002 Y-7.5312
G01 X28.8809 Y-7.4489
G01 X28.8767 Y-7.4361
G01 X28.8716 Y-7.4236
G01 X28.8656 Y-7.4115
G01 X28.8587 Y-7.3999
G01 X28.8510 Y-7.3889
G01 X28.8425 Y-7.3784
G01 X28.8052 Y-7.3361
G01 X28.7951 Y-7.3260
G01 X28.7806 Y-7.3140
G01 X28.6854 Y-7.2426
G01 X28.6294 Y-7.1679
G01 X28.5956 Y-7.0775
G01 X28.5924 Y-7.0480
G01 X28.5921 Y-5.6173
G01 X28.5915 Y-5.6086
G01 X28.5898 Y-5.5957
G01 X28.5861 Y-5.5787
G01 X28.5650 Y-5.5064
G01 X28.5590 Y-5.4893
G01 X28.5513 Y-5.4728
G01 X28.5446 Y-5.4610
G01 X28.5396 Y-5.4535
G01 X28.5285 Y-5.4391
G01 X28.5160 Y-5.4259
G01 X28.4486 Y-5.3675
G01 X28.4413 Y-5.3621
G01 X28.4298 Y-5.3546
G01 X28.4137 Y-5.3461
G01 X28.3968 Y-5.3391
G01 X28.3837 Y-5.3351
G01 X28.3749 Y-5.3329
G01 X28.3140 Y-5.3199
G01 X28.3011 Y-5.3182
G01 X28.2880 Y-5.3174
G01 X23.9233 Y-5.3173
G01 X23.9146 Y-5.3176
G01 X23.9016 Y-5.3186
G01 X23.8930 Y-5.3199
G01 X23.8802 Y-5.3225
G01 X23.7994 Y-5.3461
G01 X23.7908 Y-5.3491
G01 X23.7783 Y-5.3543
G01 X23.7662 Y-5.3605
G01 X23.7545 Y-5.3676
G01 X23.7435 Y-5.3755
G01 X23.7330 Y-5.3842
G01 X23.7232 Y-5.3937
G01 X23.7171 Y-5.4004
G01 X23.6677 Y-5.4575
G01 X23.6621 Y-5.4647
G01 X23.6544 Y-5.4759
G01 X23.6455 Y-5.4916
G01 X23.6381 Y-5.5082
G01 X23.6325 Y-5.5255
G01 X23.6294 Y-5.5387
G01 X23.6172 Y-5.6222
G01 X23.6160 Y-5.6395
G01 X23.6164 Y-5.6568
G01 X23.6184 Y-5.6740
G01 X23.6222 Y-5.6939
G01 X23.6436 Y-5.7832
G01 X23.6602 Y-5.9938
G01 X23.6436 Y-6.2044
G01 X23.5943 Y-6.4097
G01 X23.5135 Y-6.6049
G01 X23.4031 Y-6.7850
G01 X23.2660 Y-6.9456
G01 X23.1649 Y-7.0320
G01 X23.1555 Y-7.0410
G01 X23.1468 Y-7.0507
G01 X23.1388 Y-7.0610
G01 X23.1338 Y-7.0681
G01 X23.0903 Y-7.1353
G01 X23.0838 Y-7.1473
G01 X23.0783 Y-7.1597
G01 X23.0738 Y-7.1726
G01 X23.0712 Y-7.1813
G01 X23.0692 Y-7.1901
G01 X23.0669 Y-7.2035
G01 X23.0654 Y-7.2216
G01 X23.0648 Y-7.2971
G01 X23.0655 Y-7.3147
G01 X23.0672 Y-7.3278
G01 X23.0688 Y-7.3365
G01 X23.0708 Y-7.3450
G01 X23.0747 Y-7.3577
G01 X23.0777 Y-7.3659
G01 X23.0830 Y-7.3780
G01 X23.0915 Y-7.3935
G01 X23.1356 Y-7.4621
G01 X23.1408 Y-7.4693
G01 X23.1492 Y-7.4797
G01 X23.1552 Y-7.4863
G01 X23.1648 Y-7.4956
G01 X23.2660 Y-7.5820
G01 X23.4031 Y-7.7426
G01 X23.5135 Y-7.9227
G01 X23.5943 Y-8.1179
G01 X23.6436 Y-8.3232
G01 X23.6602 Y-8.5338
G01 X23.6436 Y-8.7444
G01 X23.5943 Y-8.9497
G01 X23.5135 Y-9.1449
G01 X23.4031 Y-9.3250
G01 X23.2660 Y-9.4856
G01 X23.1649 Y-9.5720
G01 X23.1585 Y-9.5779
G01 X23.1496 Y-9.5874
G01 X23.1440 Y-9.5941
G01 X23.1362 Y-9.6045
G01 X23.0926 Y-9.6714
G01 X23.0838 Y-9.6873
G01 X23.0783 Y-9.6997
G01 X23.0752 Y-9.7083
G01 X23.0702 Y-9.7257
G01 X23.0669 Y-9.7435
G01 X23.0654 Y-9.7616
G01 X23.0648 Y-9.8371
G01 X23.0655 Y-9.8547
G01 X23.0672 Y-9.8678
G01 X23.0708 Y-9.8850
G01 X23.0747 Y-9.8977
G01 X23.0794 Y-9.9100
G01 X23.0850 Y-9.9219
G01 X23.0938 Y-9.9372
G01 X23.1331 Y-9.9984
G01 X23.1408 Y-10.0093
G01 X23.1521 Y-10.0230
G01 X23.1648 Y-10.0356
G01 X23.2660 Y-10.1220
G01 X23.4031 Y-10.2826
G01 X23.5135 Y-10.4627
G01 X23.5943 Y-10.6579
G01 X23.6436 Y-10.8632
G01 X23.6602 Y-11.0738
G01 X23.6436 Y-11.2844
G01 X23.5943 Y-11.4897
G01 X23.5135 Y-11.6849
G01 X23.4031 Y-11.8650
G01 X23.2660 Y-12.0256
G01 X23.1649 Y-12.1120
G01 X23.1555 Y-12.1210
G01 X23.1496 Y-12.1274
G01 X23.1440 Y-12.1341
G01 X23.1362 Y-12.1445
G01 X23.0926 Y-12.2114
G01 X23.0838 Y-12.2273
G01 X23.0767 Y-12.2440
G01 X23.0712 Y-12.2613
G01 X23.0675 Y-12.2790
G01 X23.0659 Y-12.2925
G01 X23.0653 Y-12.3061
G01 X23.0648 Y-12.3771
G01 X23.0655 Y-12.3947
G01 X23.0672 Y-12.4078
G01 X23.0708 Y-12.4250
G01 X23.0762 Y-12.4418
G01 X23.0830 Y-12.4580
G01 X23.0892 Y-12.4697
G01 X23.0938 Y-12.4772
G01 X23.1331 Y-12.5384
G01 X23.1408 Y-12.5493
G01 X23.1521 Y-12.5630
G01 X23.1648 Y-12.5756
G01 X23.2660 Y-12.6620
G01 X23.4031 Y-12.8226
G01 X23.5135 Y-13.0027
G01 X23.5943 Y-13.1979
G01 X23.6436 Y-13.4032
G01 X23.6602 Y-13.6138
G01 X23.6436 Y-13.8244
G01 X23.5943 Y-14.0297
G01 X23.5135 Y-14.2249
G01 X23.4031 Y-14.4050
G01 X23.2660 Y-14.5656
G01 X23.1649 Y-14.6520
G01 X23.1585 Y-14.6579
G01 X23.1496 Y-14.6674
G01 X23.1440 Y-14.6741
G01 X23.1362 Y-14.6845
G01 X23.0950 Y-14.7476
G01 X23.0859 Y-14.7633
G01 X23.0783 Y-14.7797
G01 X23.0724 Y-14.7969
G01 X23.0692 Y-14.8101
G01 X23.0675 Y-14.8190
G01 X23.0663 Y-14.8280
G01 X23.0654 Y-14.8416
G01 X23.0648 Y-14.9171
G01 X23.0652 Y-14.9303
G01 X23.0672 Y-14.9478
G01 X23.0708 Y-14.9650
G01 X23.0762 Y-14.9818
G01 X23.0830 Y-14.9980
G01 X23.0871 Y-15.0058
G01 X23.0938 Y-15.0172
G01 X23.1381 Y-15.0857
G01 X23.1435 Y-15.0929
G01 X23.1521 Y-15.1030
G01 X23.1648 Y-15.1156
G01 X23.2660 Y-15.2020
G01 X23.4031 Y-15.3626
G01 X23.5135 Y-15.5427
G01 X23.5943 Y-15.7379
G01 X23.6436 Y-15.9432
G01 X23.6602 Y-16.1538
G01 X23.6436 Y-16.3644
G01 X23.5943 Y-16.5697
G01 X23.5135 Y-16.7649
G01 X23.4031 Y-16.9450
G01 X23.2660 Y-17.1056
G01 X23.1649 Y-17.1920
G01 X23.1555 Y-17.2010
G01 X23.1496 Y-17.2074
G01 X23.1440 Y-17.2141
G01 X23.1362 Y-17.2245
G01 X23.0950 Y-17.2876
G01 X23.0880 Y-17.2993
G01 X23.0838 Y-17.3073
G01 X23.0767 Y-17.3240
G01 X23.0712 Y-17.3413
G01 X23.0675 Y-17.3590
G01 X23.0663 Y-17.3680
G01 X23.0654 Y-17.3816
G01 X23.0650 Y-17.4659
G01 X23.0665 Y-17.4835
G01 X23.0698 Y-17.5008
G01 X23.0747 Y-17.5177
G01 X23.0812 Y-17.5340
G01 X23.0871 Y-17.5458
G01 X23.0915 Y-17.5535
G01 X23.1381 Y-17.6257
G01 X23.1492 Y-17.6397
G01 X23.1583 Y-17.6495
G01 X23.1648 Y-17.6556
G01 X23.2660 Y-17.7420
G01 X23.4031 Y-17.9026
G01 X23.5135 Y-18.0827
G01 X23.5943 Y-18.2779
G01 X23.6436 Y-18.4832
G01 X23.6602 Y-18.6938
G01 X23.6436 Y-18.9044
G01 X23.6352 Y-18.9394
G01 X23.5943 Y-19.1097
G01 X23.5135 Y-19.3049
G01 X23.4031 Y-19.4850
G01 X23.2660 Y-19.6456
G01 X23.1649 Y-19.7320
G01 X23.1555 Y-19.7410
G01 X23.1496 Y-19.7474
G01 X23.1440 Y-19.7541
G01 X23.1362 Y-19.7645
G01 X23.0950 Y-19.8276
G01 X23.0880 Y-19.8393
G01 X23.0838 Y-19.8473
G01 X23.0767 Y-19.8640
G01 X23.0712 Y-19.8813
G01 X23.0675 Y-19.8990
G01 X23.0663 Y-19.9080
G01 X23.0654 Y-19.9216
G01 X23.0650 Y-20.0059
G01 X23.0665 Y-20.0235
G01 X23.0698 Y-20.0408
G01 X23.0747 Y-20.0577
G01 X23.0812 Y-20.0740
G01 X23.0850 Y-20.0819
G01 X23.0915 Y-20.0935
G01 X23.1381 Y-20.1657
G01 X23.1492 Y-20.1797
G01 X23.1552 Y-20.1863
G01 X23.1648 Y-20.1956
G01 X23.2660 Y-20.2820
G01 X23.4031 Y-20.4426
G01 X23.5135 Y-20.6227
G01 X23.5943 Y-20.8179
G01 X23.6436 Y-21.0232
G01 X23.6602 Y-21.2338
G01 X23.6436 Y-21.4444
G01 X23.6352 Y-21.4794
G01 X23.5943 Y-21.6497
G01 X23.5135 Y-21.8449
G01 X23.4031 Y-22.0250
G01 X23.2660 Y-22.1856
G01 X23.1649 Y-22.2720
G01 X23.1555 Y-22.2810
G01 X23.1496 Y-22.2874
G01 X23.1440 Y-22.2941
G01 X23.1362 Y-22.3045
G01 X23.0950 Y-22.3676
G01 X23.0880 Y-22.3793
G01 X23.0838 Y-22.3873
G01 X23.0767 Y-22.4040
G01 X23.0712 Y-22.4213
G01 X23.0675 Y-22.4390
G01 X23.0663 Y-22.4480
G01 X23.0654 Y-22.4616
G01 X23.0650 Y-22.5459
G01 X23.0665 Y-22.5635
G01 X23.0698 Y-22.5808
G01 X23.0747 Y-22.5977
G01 X23.0812 Y-22.6140
G01 X23.0871 Y-22.6258
G01 X23.0915 Y-22.6335
G01 X23.1381 Y-22.7057
G01 X23.1492 Y-22.7197
G01 X23.1583 Y-22.7295
G01 X23.1648 Y-22.7356
G01 X23.2660 Y-22.8220
G01 X23.4031 Y-22.9826
G01 X23.5135 Y-23.1627
G01 X23.5943 Y-23.3579
G01 X23.6436 Y-23.5632
G01 X23.6602 Y-23.7738
G01 X23.6436 Y-23.9844
G01 X23.6352 Y-24.0194
G01 X23.5943 Y-24.1897
G01 X23.5135 Y-24.3849
G01 X23.4031 Y-24.5650
G01 X23.2660 Y-24.7256
G01 X23.1649 Y-24.8120
G01 X23.1585 Y-24.8179
G01 X23.1496 Y-24.8274
G01 X23.1440 Y-24.8341
G01 X23.1362 Y-24.8445
G01 X23.0950 Y-24.9076
G01 X23.0880 Y-24.9193
G01 X23.0838 Y-24.9273
G01 X23.0767 Y-24.9440
G01 X23.0712 Y-24.9613
G01 X23.0675 Y-24.9790
G01 X23.0663 Y-24.9880
G01 X23.0654 Y-25.0016
G01 X23.0650 Y-25.0859
G01 X23.0665 Y-25.1035
G01 X23.0698 Y-25.1208
G01 X23.0747 Y-25.1377
G01 X23.0812 Y-25.1540
G01 X23.0871 Y-25.1658
G01 X23.0915 Y-25.1735
G01 X23.1381 Y-25.2457
G01 X23.1492 Y-25.2597
G01 X23.1583 Y-25.2695
G01 X23.1648 Y-25.2756
G01 X23.2660 Y-25.3620
G01 X23.4031 Y-25.5226
G01 X23.5135 Y-25.7027
G01 X23.5943 Y-25.8979
G01 X23.6436 Y-26.1032
G01 X23.6602 Y-26.3138
G01 X23.6436 Y-26.5244
G01 X23.6391 Y-26.5433
G01 X23.5943 Y-26.7297
G01 X23.5135 Y-26.9249
G01 X23.4031 Y-27.1050
G01 X23.2660 Y-27.2656
G01 X23.1649 Y-27.3520
G01 X23.1555 Y-27.3610
G01 X23.1496 Y-27.3674
G01 X23.1440 Y-27.3741
G01 X23.1362 Y-27.3845
G01 X23.0950 Y-27.4476
G01 X23.0859 Y-27.4633
G01 X23.0783 Y-27.4797
G01 X23.0724 Y-27.4969
G01 X23.0683 Y-27.5146
G01 X23.0663 Y-27.5280
G01 X23.0654 Y-27.5416
G01 X23.0648 Y-27.6215
G01 X23.0660 Y-27.6391
G01 X23.0688 Y-27.6565
G01 X23.0733 Y-27.6735
G01 X23.0777 Y-27.6859
G01 X23.0812 Y-27.6940
G01 X23.0871 Y-27.7058
G01 X23.0915 Y-27.7135
G01 X23.1381 Y-27.7857
G01 X23.1492 Y-27.7997
G01 X23.1583 Y-27.8095
G01 X23.1648 Y-27.8156
G01 X23.2660 Y-27.9020
G01 X23.4031 Y-28.0626
G01 X23.5135 Y-28.2427
G01 X23.5943 Y-28.4379
G01 X23.6436 Y-28.6432
G01 X23.6602 Y-28.8538
G01 X23.6436 Y-29.0644
G01 X23.5943 Y-29.2697
G01 X23.5135 Y-29.4649
G01 X23.4031 Y-29.6450
G01 X23.2660 Y-29.8056
G01 X23.1054 Y-29.9427
G01 X22.9253 Y-30.0531
G01 X22.7301 Y-30.1339
G01 X22.5248 Y-30.1832
G01 X22.3142 Y-30.1998
G01 X22.1036 Y-30.1832
G01 X21.8983 Y-30.1339
G01 X21.7031 Y-30.0531
G01 X21.5230 Y-29.9427
G01 X21.3624 Y-29.8056
G01 X21.2253 Y-29.6450
G01 X21.1149 Y-29.4649
G01 X21.0341 Y-29.2697
G01 X20.9848 Y-29.0644
G01 X20.9682 Y-28.8538
G01 X20.9848 Y-28.6432
G01 X21.0341 Y-28.4379
G01 X21.1149 Y-28.2427
G01 X21.2253 Y-28.0626
G01 X21.3624 Y-27.9020
G01 X21.4635 Y-27.8156
G01 X21.4699 Y-27.8097
G01 X21.4788 Y-27.8002
G01 X21.4844 Y-27.7935
G01 X21.4922 Y-27.7831
G01 X21.5381 Y-27.7123
G01 X21.5465 Y-27.6962
G01 X21.5532 Y-27.6793
G01 X21.5582 Y-27.6619
G01 X21.5615 Y-27.6441
G01 X21.5625 Y-27.6351
G01 X21.5631 Y-27.6215
G01 X21.5636 Y-27.5505
G01 X21.5632 Y-27.5373
G01 X21.5612 Y-27.5198
G01 X21.5576 Y-27.5026
G01 X21.5522 Y-27.4858
G01 X21.5454 Y-27.4696
G01 X21.5392 Y-27.4579
G01 X21.5346 Y-27.4504
G01 X21.4903 Y-27.3819
G01 X21.4792 Y-27.3679
G01 X21.4732 Y-27.3613
G01 X21.4636 Y-27.3520
G01 X21.3624 Y-27.2656
G01 X21.2253 Y-27.1050
G01 X21.1149 Y-26.9249
G01 X21.0341 Y-26.7297
G01 X20.9848 Y-26.5244
G01 X20.9682 Y-26.3138
G01 X20.9792 Y-26.1735
G01 X20.9798 Y-26.1605
G01 X20.9794 Y-26.1474
G01 X20.9781 Y-26.1344
G01 X20.9768 Y-26.1259
G01 X20.9592 Y-26.0433
G01 X20.9538 Y-26.0260
G01 X20.9466 Y-26.0093
G01 X20.9378 Y-25.9935
G01 X20.9275 Y-25.9785
G01 X20.9158 Y-25.9647
G01 X20.8628 Y-25.9109
G01 X20.8529 Y-25.9016
G01 X20.8423 Y-25.8930
G01 X20.8311 Y-25.8852
G01 X20.8154 Y-25.8762
G01 X20.8030 Y-25.8705
G01 X20.7860 Y-25.8644
G01 X20.7728 Y-25.8609
G01 X20.6992 Y-25.8444
G01 X20.6861 Y-25.8423
G01 X20.6728 Y-25.8411
G01 X20.6595 Y-25.8409
G01 X20.6462 Y-25.8417
G01 X20.6330 Y-25.8434
G01 X20.6200 Y-25.8461
G01 X20.6072 Y-25.8498
G01 X20.5481 Y-25.8689
G01 X20.5395 Y-25.8719
G01 X20.5270 Y-25.8772
G01 X20.5149 Y-25.8835
G01 X20.5070 Y-25.8881
G01 X19.4570 Y-26.5498
G01 X19.4500 Y-26.5549
G01 X19.4399 Y-26.5632
G01 X19.4275 Y-26.5754
G01 X19.3746 Y-26.6354
G01 X19.3661 Y-26.6464
G01 X19.3609 Y-26.6541
G01 X19.3561 Y-26.6620
G01 X19.3496 Y-26.6743
G01 X19.3419 Y-26.6923
G01 X19.3383 Y-26.7017
G01 X19.2537 Y-26.8831
G01 X19.1407 Y-27.0444
G01 X19.0014 Y-27.1837
G01 X18.8401 Y-27.2967
G01 X18.8148 Y-27.3085
G01 X18.8031 Y-27.3145
G01 X18.7920 Y-27.3212
G01 X18.7813 Y-27.3287
G01 X18.7712 Y-27.3370
G01 X18.7113 Y-27.3901
G01 X18.7019 Y-27.3999
G01 X18.6961 Y-27.4069
G01 X18.6880 Y-27.4178
G01 X18.6830 Y-27.4254
G01 X18.6743 Y-27.4413
G01 X18.6706 Y-27.4496
G01 X18.6657 Y-27.4623
G01 X18.6435 Y-27.5392
G01 X18.6403 Y-27.5524
G01 X18.6387 Y-27.5613
G01 X18.6371 Y-27.5749
G01 X18.6366 Y-27.5885
G01 X18.6370 Y-27.6021
G01 X18.6385 Y-27.6156
G01 X18.6409 Y-27.6290
G01 X18.6444 Y-27.6421
G01 X18.6677 Y-27.7186
G01 X18.6727 Y-27.7310
G01 X18.6765 Y-27.7391
G01 X18.6853 Y-27.7547
G01 X18.6902 Y-27.7622
G01 X18.6983 Y-27.7728
G01 X18.7042 Y-27.7796
G01 X18.7135 Y-27.7893
G01 X18.7723 Y-27.8405
G01 X18.7831 Y-27.8492
G01 X18.7945 Y-27.8570
G01 X18.8065 Y-27.8639
G01 X18.8398 Y-27.8797
G01 X19.0011 Y-27.9926
G01 X19.1404 Y-28.1319
G01 X19.2533 Y-28.2932
G01 X19.3131 Y-28.4213
G01 X19.1544 Y-28.4213
G01 X19.1437 Y-28.3988
G01 X19.1395 Y-28.3909
G01 X19.0968 Y-28.3196
G01 X19.0895 Y-28.3084
G01 X19.0346 Y-28.2346
G01 X18.9730 Y-28.1664
G01 X18.9633 Y-28.1570
G01 X18.9052 Y-28.1043
G01 X18.8913 Y-28.0929
G01 X18.8209 Y-28.0410
G01 X18.7382 Y-27.9914
G01 X18.6510 Y-27.9501
G01 X18.5688 Y-27.9205
G01 X18.5516 Y-27.9153
G01 X18.4667 Y-27.8942
G01 X18.3802 Y-27.8812
G01 X18.3624 Y-27.8794
G01 X18.2750 Y-27.8753
G01 X18.1876 Y-27.8794
G01 X18.1698 Y-27.8812
G01 X18.0833 Y-27.8942
G01 X17.9984 Y-27.9153
G01 X17.9812 Y-27.9205
G01 X17.8990 Y-27.9501
G01 X17.8118 Y-27.9914
G01 X17.7291 Y-28.0410
G01 X17.6587 Y-28.0929
G01 X17.6448 Y-28.1043
G01 X17.5867 Y-28.1570
G01 X17.5770 Y-28.1664
G01 X17.5154 Y-28.2346
G01 X17.4605 Y-28.3084
G01 X17.4532 Y-28.3196
G01 X17.4105 Y-28.3909
G01 X17.4063 Y-28.3988
G01 X17.3956 Y-28.4213
G01 X17.2369 Y-28.4213
G01 X17.2967 Y-28.2932
G01 X17.4096 Y-28.1319
G01 X17.5489 Y-27.9926
G01 X17.7102 Y-27.8797
G01 X17.7430 Y-27.8642
G01 X17.7543 Y-27.8577
G01 X17.7652 Y-27.8504
G01 X17.7788 Y-27.8396
G01 X17.8354 Y-27.7896
G01 X17.8450 Y-27.7800
G01 X17.8539 Y-27.7697
G01 X17.8645 Y-27.7550
G01 X17.8737 Y-27.7393
G01 X17.8794 Y-27.7270
G01 X17.8857 Y-27.7100
G01 X17.9065 Y-27.6373
G01 X17.9097 Y-27.6241
G01 X17.9113 Y-27.6152
G01 X17.9129 Y-27.6017
G01 X17.9134 Y-27.5881
G01 X17.9133 Y-27.5790
G01 X17.9115 Y-27.5610
G01 X17.9080 Y-27.5432
G01 X17.8823 Y-27.4580
G01 X17.8755 Y-27.4414
G01 X17.8671 Y-27.4257
G01 X17.8572 Y-27.4108
G01 X17.8458 Y-27.3969
G01 X17.8397 Y-27.3904
G01 X17.8299 Y-27.3813
G01 X17.7777 Y-27.3360
G01 X17.7631 Y-27.3247
G01 X17.7515 Y-27.3172
G01 X17.7435 Y-27.3126
G01 X17.7099 Y-27.2967
G01 X17.5486 Y-27.1837
G01 X17.4093 Y-27.0444
G01 X17.2963 Y-26.8831
G01 X17.2130 Y-26.7045
G01 X17.2062 Y-26.6790
G01 X17.1620 Y-26.5142
G01 X17.1449 Y-26.3180
G01 X17.1620 Y-26.1218
G01 X17.2130 Y-25.9315
G01 X17.2963 Y-25.7529
G01 X17.4093 Y-25.5916
G01 X17.5486 Y-25.4523
G01 X17.7099 Y-25.3393
G01 X17.7424 Y-25.3239
G01 X17.7538 Y-25.3174
G01 X17.7646 Y-25.3101
G01 X17.7782 Y-25.2993
G01 X17.8314 Y-25.2524
G01 X17.8381 Y-25.2462
G01 X17.8475 Y-25.2364
G01 X17.8588 Y-25.2222
G01 X17.8687 Y-25.2070
G01 X17.8770 Y-25.1909
G01 X17.8837 Y-25.1740
G01 X17.9081 Y-25.0883
G01 X17.9100 Y-25.0794
G01 X17.9119 Y-25.0659
G01 X17.9129 Y-25.0478
G01 X17.9124 Y-25.0342
G01 X17.9116 Y-25.0252
G01 X17.9102 Y-25.0162
G01 X17.9075 Y-25.0029
G01 X17.8817 Y-24.9177
G01 X17.8749 Y-24.9012
G01 X17.8665 Y-24.8854
G01 X17.8566 Y-24.8705
G01 X17.8482 Y-24.8600
G01 X17.8391 Y-24.8502
G01 X17.8293 Y-24.8410
G01 X17.7771 Y-24.7958
G01 X17.7625 Y-24.7844
G01 X17.7549 Y-24.7793
G01 X17.7429 Y-24.7724
G01 X17.7099 Y-24.7567
G01 X17.5486 Y-24.6437
G01 X17.4093 Y-24.5044
G01 X17.2963 Y-24.3431
G01 X17.2130 Y-24.1645
G01 X17.1620 Y-23.9742
G01 X17.1449 Y-23.7780
G01 X17.1620 Y-23.5818
G01 X17.2130 Y-23.3915
G01 X17.2963 Y-23.2129
G01 X17.4093 Y-23.0516
G01 X17.5486 Y-22.9123
G01 X17.7099 Y-22.7993
G01 X17.7424 Y-22.7839
G01 X17.7538 Y-22.7774
G01 X17.7646 Y-22.7701
G01 X17.7782 Y-22.7593
G01 X17.8314 Y-22.7124
G01 X17.8381 Y-22.7062
G01 X17.8475 Y-22.6964
G01 X17.8588 Y-22.6822
G01 X17.8687 Y-22.6670
G01 X17.8770 Y-22.6509
G01 X17.8837 Y-22.6340
G01 X17.9081 Y-22.5483
G01 X17.9113 Y-22.5304
G01 X17.9126 Y-22.5169
G01 X17.9129 Y-22.5078
G01 X17.9124 Y-22.4942
G01 X17.9116 Y-22.4852
G01 X17.9102 Y-22.4762
G01 X17.9075 Y-22.4629
G01 X17.8817 Y-22.3777
G01 X17.8749 Y-22.3612
G01 X17.8665 Y-22.3454
G01 X17.8566 Y-22.3305
G01 X17.8482 Y-22.3200
G01 X17.8391 Y-22.3102
G01 X17.8293 Y-22.3010
G01 X17.7771 Y-22.2558
G01 X17.7625 Y-22.2444
G01 X17.7509 Y-22.2369
G01 X17.7429 Y-22.2324
G01 X17.7099 Y-22.2167
G01 X17.5486 Y-22.1037
G01 X17.4093 Y-21.9644
G01 X17.2963 Y-21.8031
G01 X17.2130 Y-21.6245
G01 X17.1620 Y-21.4342
G01 X17.1449 Y-21.2380
G01 X17.1620 Y-21.0418
G01 X17.2130 Y-20.8515
G01 X17.2963 Y-20.6729
G01 X17.4093 Y-20.5116
G01 X17.5486 Y-20.3723
G01 X17.7099 Y-20.2593
G01 X17.7424 Y-20.2439
G01 X17.7538 Y-20.2374
G01 X17.7646 Y-20.2301
G01 X17.7782 Y-20.2193
G01 X17.8314 Y-20.1724
G01 X17.8413 Y-20.1630
G01 X17.8475 Y-20.1564
G01 X17.8588 Y-20.1422
G01 X17.8687 Y-20.1270
G01 X17.8770 Y-20.1109
G01 X17.8837 Y-20.0940
G01 X17.9081 Y-20.0083
G01 X17.9113 Y-19.9904
G01 X17.9126 Y-19.9769
G01 X17.9129 Y-19.9678
G01 X17.9124 Y-19.9542
G01 X17.9116 Y-19.9452
G01 X17.9102 Y-19.9362
G01 X17.9075 Y-19.9229
G01 X17.8817 Y-19.8377
G01 X17.8749 Y-19.8212
G01 X17.8665 Y-19.8054
G01 X17.8592 Y-19.7941
G01 X17.8482 Y-19.7800
G01 X17.8391 Y-19.7702
G01 X17.8293 Y-19.7610
G01 X17.7771 Y-19.7158
G01 X17.7625 Y-19.7044
G01 X17.7549 Y-19.6993
G01 X17.7429 Y-19.6924
G01 X17.7099 Y-19.6767
G01 X17.5486 Y-19.5637
G01 X17.4093 Y-19.4244
G01 X17.2963 Y-19.2631
G01 X17.2130 Y-19.0845
G01 X17.1620 Y-18.8943
G01 X17.1449 Y-18.6980
G01 X17.1620 Y-18.5018
G01 X17.2130 Y-18.3115
G01 X17.2963 Y-18.1329
G01 X17.4093 Y-17.9716
G01 X17.5486 Y-17.8323
G01 X17.7099 Y-17.7193
G01 X17.7424 Y-17.7039
G01 X17.7538 Y-17.6974
G01 X17.7646 Y-17.6901
G01 X17.7782 Y-17.6793
G01 X17.8314 Y-17.6324
G01 X17.8381 Y-17.6262
G01 X17.8475 Y-17.6164
G01 X17.8588 Y-17.6022
G01 X17.8687 Y-17.5870
G01 X17.8770 Y-17.5709
G01 X17.8837 Y-17.5540
G01 X17.9081 Y-17.4683
G01 X17.9113 Y-17.4504
G01 X17.9126 Y-17.4369
G01 X17.9129 Y-17.4278
G01 X17.9124 Y-17.4142
G01 X17.9116 Y-17.4052
G01 X17.9102 Y-17.3962
G01 X17.9075 Y-17.3829
G01 X17.8817 Y-17.2977
G01 X17.8749 Y-17.2812
G01 X17.8665 Y-17.2654
G01 X17.8592 Y-17.2541
G01 X17.8482 Y-17.2400
G01 X17.8391 Y-17.2302
G01 X17.8293 Y-17.2210
G01 X17.7771 Y-17.1758
G01 X17.7625 Y-17.1644
G01 X17.7549 Y-17.1593
G01 X17.7429 Y-17.1524
G01 X17.7099 Y-17.1367
G01 X17.5486 Y-17.0237
G01 X17.4093 Y-16.8844
G01 X17.2963 Y-16.7231
G01 X17.2130 Y-16.5445
G01 X17.1620 Y-16.3542
G01 X17.1449 Y-16.1580
G01 X17.1620 Y-15.9618
G01 X17.2130 Y-15.7715
G01 X17.2963 Y-15.5929
G01 X17.4093 Y-15.4316
G01 X17.5486 Y-15.2923
G01 X17.7099 Y-15.1793
G01 X17.7424 Y-15.1639
G01 X17.7538 Y-15.1574
G01 X17.7646 Y-15.1501
G01 X17.7782 Y-15.1393
G01 X17.8314 Y-15.0924
G01 X17.8413 Y-15.0830
G01 X17.8475 Y-15.0764
G01 X17.8588 Y-15.0622
G01 X17.8687 Y-15.0470
G01 X17.8770 Y-15.0309
G01 X17.8837 Y-15.0140
G01 X17.9081 Y-14.9283
G01 X17.9107 Y-14.9149
G01 X17.9119 Y-14.9059
G01 X17.9129 Y-14.8878
G01 X17.9127 Y-14.8788
G01 X17.9116 Y-14.8652
G01 X17.9102 Y-14.8562
G01 X17.9075 Y-14.8429
G01 X17.8817 Y-14.7577
G01 X17.8767 Y-14.7452
G01 X17.8687 Y-14.7292
G01 X17.8592 Y-14.7141
G01 X17.8482 Y-14.7000
G01 X17.8391 Y-14.6902
G01 X17.8293 Y-14.6810
G01 X17.7771 Y-14.6358
G01 X17.7625 Y-14.6244
G01 X17.7509 Y-14.6169
G01 X17.7429 Y-14.6124
G01 X17.7099 Y-14.5967
G01 X17.5486 Y-14.4837
G01 X17.4093 Y-14.3444
G01 X17.2963 Y-14.1831
G01 X17.2130 Y-14.0045
G01 X17.1620 Y-13.8142
G01 X17.1449 Y-13.6180
G01 X17.1620 Y-13.4218
G01 X17.2130 Y-13.2315
G01 X17.2963 Y-13.0529
G01 X17.4093 Y-12.8916
G01 X17.5506 Y-12.7503
G01 X17.5636 Y-12.7391
G01 X17.5731 Y-12.7296
G01 X17.5846 Y-12.7159
G01 X17.6237 Y-12.6647
G01 X17.6340 Y-12.6497
G01 X17.6407 Y-12.6378
G01 X17.6483 Y-12.6212
G01 X17.6528 Y-12.6084
G01 X17.6574 Y-12.5907
G01 X17.6602 Y-12.5727
G01 X17.6675 Y-12.5021
G01 X17.6684 Y-12.4840
G01 X17.6680 Y-12.4704
G01 X17.6671 Y-12.4614
G01 X17.6640 Y-12.4435
G01 X17.6592 Y-12.4260
G01 X17.6527 Y-12.4091
G01 X17.6125 Y-12.3295
G01 X17.6078 Y-12.3218
G01 X17.6000 Y-12.3106
G01 X17.5915 Y-12.3000
G01 X17.5854 Y-12.2933
G01 X17.5722 Y-12.2809
G01 X17.5651 Y-12.2752
G01 X17.5540 Y-12.2673
G01 X17.4851 Y-12.2265
G01 X17.4687 Y-12.2180
G01 X17.4559 Y-12.2127
G01 X17.4427 Y-12.2083
G01 X17.4293 Y-12.2050
G01 X17.4094 Y-12.2014
G01 X17.3169 Y-12.1668
G01 X17.2422 Y-12.1108
G01 X17.1862 Y-12.0361
G01 X17.1524 Y-11.9457
G01 X17.1492 Y-11.9162
G01 X17.1492 Y-10.2398
G01 X17.1524 Y-10.2103
G01 X17.1862 Y-10.1199
G01 X17.2422 Y-10.0452
G01 X17.3169 Y-9.9892
G01 X17.4073 Y-9.9554
G01 X17.4368 Y-9.9522
G01 X18.4284 Y-9.9521
G01 X18.4470 Y-9.9507
G01 X18.4563 Y-9.9492
G01 X18.4699 Y-9.9462
G01 X18.5460 Y-9.9242
G01 X18.5592 Y-9.9195
G01 X18.5678 Y-9.9158
G01 X18.5802 Y-9.9094
G01 X18.5883 Y-9.9047
G01 X20.8581 Y-8.4749
G01 X20.8689 Y-8.4676
G01 X20.8824 Y-8.4566
G01 X20.8918 Y-8.4476
G01 X20.9476 Y-8.3847
G01 X20.9531 Y-8.3778
G01 X20.9607 Y-8.3670
G01 X20.9676 Y-8.3556
G01 X20.9717 Y-8.3478
G01 X20.9787 Y-8.3316
G01 X20.9886 Y-8.3035
G01 X20.9926 Y-8.2903
G01 X21.0341 Y-8.1179
G01 X21.1149 Y-7.9227
G01 X21.2253 Y-7.7426
G01 X21.3624 Y-7.5820
G01 X21.4635 Y-7.4956
G01 X21.4729 Y-7.4866
G01 X21.4788 Y-7.4802
G01 X21.4844 Y-7.4735
G01 X21.4922 Y-7.4631
G01 X21.5334 Y-7.4000
G01 X21.5404 Y-7.3883
G01 X21.5483 Y-7.3720
G01 X21.5546 Y-7.3550
G01 X21.5582 Y-7.3419
G01 X21.5609 Y-7.3286
G01 X21.5628 Y-7.3105
G01 X21.5636 Y-7.2261
G01 X21.5629 Y-7.2129
G01 X21.5605 Y-7.1955
G01 X21.5576 Y-7.1826
G01 X21.5537 Y-7.1699
G01 X21.5490 Y-7.1576
G01 X21.5434 Y-7.1457
G01 X21.5346 Y-7.1304
G01 X21.4903 Y-7.0619
G01 X21.4792 Y-7.0479
G01 X21.4701 Y-7.0381
G01 X21.4636 Y-7.0320
G01 X21.3624 Y-6.9456
G01 X21.2253 Y-6.7850
G01 X21.1789 Y-6.7097
G01 X21.1739 Y-6.7027
G01 X21.1657 Y-6.6925
G01 X21.1598 Y-6.6861
G01 X21.1504 Y-6.6770
G01 X21.0911 Y-6.6236
G01 X21.0768 Y-6.6130
G01 X21.0616 Y-6.6039
G01 X21.0456 Y-6.5962
G01 X21.0289 Y-6.5902
G01 X21.0160 Y-6.5868
G01 X20.9612 Y-6.5742
G01 X20.9523 Y-6.5724
G01 X20.9387 Y-6.5706
G01 X20.9205 Y-6.5696
G01 X19.8866 Y-6.5696
G01 X19.8735 Y-6.5701
G01 X19.8563 Y-6.5722
G01 X19.8393 Y-6.5759
G01 X19.7627 Y-6.5984
G01 X19.7459 Y-6.6047
G01 X19.7298 Y-6.6126
G01 X19.7146 Y-6.6220
G01 X19.7038 Y-6.6301
G01 X19.6829 Y-6.6470
G01 X19.6718 Y-6.6566
G01 X12.3506 Y-13.9778
G01 X12.3443 Y-13.9844
G01 X12.3289 Y-14.0023
G01 X12.3200 Y-14.0134
G01 X12.2932 Y-14.0363
G01 X12.2796 Y-14.0488
G01 X12.2595 Y-14.0648
G01 X12.2148 Y-14.1028
G01 X12.2040 Y-14.1097
G01 X12.1470 Y-14.1365
G01 X12.0967 Y-14.1624
G01 X12.0807 Y-14.1728
G01 X12.0414 Y-14.2017
G01 X12.0272 Y-14.2145
G01 X11.9077 Y-14.3339
G01 X11.8961 Y-14.3468
G01 X11.8856 Y-14.3607
G01 X11.8766 Y-14.3756
G01 X11.8426 Y-14.4379
G01 X11.8366 Y-14.4499
G01 X11.8315 Y-14.4623
G01 X11.8261 Y-14.4794
G01 X11.8224 Y-14.4970
G01 X11.8184 Y-14.5327
G01 X11.8174 Y-14.5473
G01 X11.8173 Y-17.8584
G01 X11.8056 Y-17.8651
G01 X11.7943 Y-17.8728
G01 X11.7836 Y-17.8812
G01 X11.7769 Y-17.8873
G01 X11.7644 Y-17.9004
G01 X11.7149 Y-17.9575
G01 X11.7041 Y-17.9721
G01 X11.6948 Y-17.9876
G01 X11.6870 Y-18.0040
G01 X11.6810 Y-18.0211
G01 X11.6775 Y-18.0343
G01 X11.6758 Y-18.0432
G01 X11.6650 Y-18.1179
G01 X11.6633 Y-18.1354
G01 X11.6634 Y-18.1529
G01 X11.6645 Y-18.1661
G01 X11.6658 Y-18.1747
G01 X11.6695 Y-18.1919
G01 X11.6840 Y-18.2399
G01 X11.6872 Y-18.2483
G01 X11.6931 Y-18.2613
G01 X11.5344 Y-18.2613
G01 X11.5237 Y-18.2388
G01 X11.5195 Y-18.2309
G01 X11.4768 Y-18.1596
G01 X11.4695 Y-18.1484
G01 X11.4146 Y-18.0746
G01 X11.3530 Y-18.0064
G01 X11.3433 Y-17.9970
G01 X11.2852 Y-17.9443
G01 X11.2713 Y-17.9329
G01 X11.2009 Y-17.8810
G01 X11.1182 Y-17.8314
G01 X11.0310 Y-17.7901
G01 X10.9488 Y-17.7605
G01 X10.9316 Y-17.7553
G01 X10.8467 Y-17.7342
G01 X10.7602 Y-17.7212
G01 X10.7424 Y-17.7194
G01 X10.6595 Y-17.7154
G01 X10.6460 Y-17.7156
G01 X10.5676 Y-17.7194
G01 X10.5498 Y-17.7212
G01 X10.4633 Y-17.7342
G01 X10.3784 Y-17.7553
G01 X10.3612 Y-17.7605
G01 X10.2790 Y-17.7901
G01 X10.1998 Y-17.8273
G01 X10.1840 Y-17.8358
G01 X10.1091 Y-17.8810
G01 X10.0387 Y-17.9329
G01 X10.0248 Y-17.9443
G01 X9.9602 Y-18.0032
G01 X9.9013 Y-18.0678
G01 X9.8899 Y-18.0817
G01 X9.8380 Y-18.1521
G01 X9.7884 Y-18.2348
G01 X9.7471 Y-18.3220
G01 X9.7147 Y-18.4128
G01 X9.6912 Y-18.5063
G01 X9.6771 Y-18.6017
G01 X9.6723 Y-18.6980
G01 X9.6771 Y-18.7943
G01 X9.6912 Y-18.8897
G01 X9.7123 Y-18.9746
G01 X9.7175 Y-18.9918
G01 X9.7471 Y-19.0740
G01 X9.7884 Y-19.1612
G01 X9.8380 Y-19.2439
G01 X9.8899 Y-19.3143
G01 X9.9013 Y-19.3282
G01 X9.9602 Y-19.3928
G01 X10.0248 Y-19.4517
G01 X10.0387 Y-19.4631
G01 X10.1091 Y-19.5150
G01 X10.1840 Y-19.5602
G01 X10.1998 Y-19.5687
G01 X10.2708 Y-19.6022
G01 X10.2873 Y-19.6091
G01 X10.3612 Y-19.6355
G01 X10.3784 Y-19.6407
G01 X10.4633 Y-19.6618
G01 X10.5498 Y-19.6748
G01 X10.5676 Y-19.6766
G01 X10.6550 Y-19.6807
G01 X10.7513 Y-19.6759
G01 X10.8467 Y-19.6618
G01 X10.9316 Y-19.6407
G01 X10.9445 Y-19.6370
G01 X11.0310 Y-19.6059
G01 X11.1182 Y-19.5646
G01 X11.2009 Y-19.5150
G01 X11.2713 Y-19.4631
G01 X11.2818 Y-19.4547
G01 X11.3498 Y-19.3928
G01 X11.4087 Y-19.3282
G01 X11.4174 Y-19.3179
G01 X11.4669 Y-19.2513
G01 X11.4745 Y-19.2402
G01 X11.5195 Y-19.1651
G01 X11.5237 Y-19.1572
G01 X11.5344 Y-19.1347
G01 X11.6931 Y-19.1347
G01 X11.6405 Y-19.2475
G01 X11.6343 Y-19.2638
G01 X11.6307 Y-19.2763
G01 X11.6272 Y-19.2933
G01 X11.6166 Y-19.3635
G01 X11.6150 Y-19.3770
G01 X11.6145 Y-19.3906
G01 X11.6150 Y-19.4042
G01 X11.6165 Y-19.4177
G01 X11.6190 Y-19.4311
G01 X11.6238 Y-19.4486
G01 X11.6286 Y-19.4613
G01 X11.6613 Y-19.5344
G01 X11.6676 Y-19.5465
G01 X11.6723 Y-19.5542
G01 X11.6801 Y-19.5654
G01 X11.6857 Y-19.5725
G01 X11.6948 Y-19.5827
G01 X11.7046 Y-19.5921
G01 X11.7115 Y-19.5980
G01 X11.7224 Y-19.6061
G01 X11.7893 Y-19.6498
G01 X11.8046 Y-19.6584
G01 X11.8173 Y-19.6640
G01 X11.8173 Y-25.3382
G01 X11.7863 Y-25.3475
G01 X11.7737 Y-25.3525
G01 X11.7654 Y-25.3563
G01 X11.7535 Y-25.3628
G01 X11.7458 Y-25.3676
G01 X11.7347 Y-25.3755
G01 X11.7277 Y-25.3812
G01 X11.7209 Y-25.3873
G01 X11.7114 Y-25.3970
G01 X11.6590 Y-25.4575
G01 X11.6482 Y-25.4721
G01 X11.6433 Y-25.4797
G01 X11.6367 Y-25.4916
G01 X11.6311 Y-25.5040
G01 X11.6278 Y-25.5125
G01 X11.6238 Y-25.5255
G01 X11.6207 Y-25.5387
G01 X11.6090 Y-25.6179
G01 X11.6074 Y-25.6354
G01 X11.6074 Y-25.6529
G01 X11.6085 Y-25.6661
G01 X11.6098 Y-25.6747
G01 X11.6136 Y-25.6919
G01 X11.6233 Y-25.7247
G01 X11.5111 Y-25.8368
G01 X11.4720 Y-25.7721
G01 X11.4201 Y-25.7017
G01 X11.4087 Y-25.6878
G01 X11.3498 Y-25.6232
G01 X11.2852 Y-25.5643
G01 X11.2713 Y-25.5529
G01 X11.2009 Y-25.5010
G01 X11.1182 Y-25.4514
G01 X11.0310 Y-25.4101
G01 X10.9488 Y-25.3805
G01 X10.9316 Y-25.3753
G01 X10.8467 Y-25.3542
G01 X10.7602 Y-25.3412
G01 X10.7424 Y-25.3394
G01 X10.6550 Y-25.3353
G01 X10.5631 Y-25.3397
G01 X10.5498 Y-25.3412
G01 X10.4633 Y-25.3542
G01 X10.3698 Y-25.3777
G01 X10.2790 Y-25.4101
G01 X10.1998 Y-25.4473
G01 X10.1879 Y-25.4535
G01 X10.1091 Y-25.5010
G01 X10.0387 Y-25.5529
G01 X10.0248 Y-25.5643
G01 X9.9667 Y-25.6170
G01 X9.9570 Y-25.6264
G01 X9.8954 Y-25.6946
G01 X9.8405 Y-25.7684
G01 X9.8332 Y-25.7796
G01 X9.7905 Y-25.8509
G01 X9.7863 Y-25.8588
G01 X9.7756 Y-25.8812
G01 X9.6170 Y-25.8812
G01 X9.6770 Y-25.7525
G01 X9.6818 Y-25.7404
G01 X9.6868 Y-25.7237
G01 X9.6902 Y-25.7067
G01 X9.7009 Y-25.6365
G01 X9.7024 Y-25.6230
G01 X9.7030 Y-25.6094
G01 X9.7025 Y-25.5958
G01 X9.7010 Y-25.5823
G01 X9.6985 Y-25.5689
G01 X9.6950 Y-25.5557
G01 X9.6888 Y-25.5387
G01 X9.6562 Y-25.4656
G01 X9.6498 Y-25.4535
G01 X9.6451 Y-25.4458
G01 X9.6374 Y-25.4346
G01 X9.6288 Y-25.4240
G01 X9.6227 Y-25.4173
G01 X9.6129 Y-25.4079
G01 X9.6060 Y-25.4020
G01 X9.5950 Y-25.3939
G01 X9.5244 Y-25.3479
G01 X9.5089 Y-25.3397
G01 X9.4967 Y-25.3346
G01 X9.4801 Y-25.3292
G01 X9.4629 Y-25.3254
G01 X9.4177 Y-25.3187
G01 X9.3999 Y-25.3174
G01 X8.1281 Y-25.3176
G01 X8.1108 Y-25.3192
G01 X8.0937 Y-25.3225
G01 X8.0129 Y-25.3461
G01 X8.0001 Y-25.3507
G01 X7.9877 Y-25.3563
G01 X7.9757 Y-25.3628
G01 X7.9643 Y-25.3701
G01 X7.9499 Y-25.3812
G01 X7.9368 Y-25.3937
G01 X7.8812 Y-25.4575
G01 X7.8730 Y-25.4683
G01 X7.8655 Y-25.4797
G01 X7.8590 Y-25.4916
G01 X7.8517 Y-25.5082
G01 X7.8460 Y-25.5255
G01 X7.8429 Y-25.5387
G01 X7.8307 Y-25.6223
G01 X7.8296 Y-25.6354
G01 X7.8295 Y-25.6485
G01 X7.8303 Y-25.6616
G01 X7.8320 Y-25.6746
G01 X7.8337 Y-25.6832
G01 X7.8370 Y-25.6959
G01 X7.8487 Y-25.7353
G01 X7.8533 Y-25.7478
G01 X7.9132 Y-25.8773
G01 X7.7547 Y-25.8773
G01 X7.7348 Y-25.8352
G01 X7.7286 Y-25.8233
G01 X7.6811 Y-25.7440
G01 X7.6735 Y-25.7330
G01 X7.6238 Y-25.6660
G01 X7.6154 Y-25.6555
G01 X7.5502 Y-25.5838
G01 X7.4819 Y-25.5216
G01 X7.4680 Y-25.5102
G01 X7.4010 Y-25.4605
G01 X7.3900 Y-25.4529
G01 X7.3068 Y-25.4033
G01 X7.2234 Y-25.3636
G01 X7.2068 Y-25.3567
G01 X7.1198 Y-25.3258
G01 X7.0215 Y-25.3012
G01 X6.9301 Y-25.2874
G01 X6.9123 Y-25.2857
G01 X6.8290 Y-25.2816
G01 X6.8155 Y-25.2814
G01 X6.7277 Y-25.2857
G01 X6.7099 Y-25.2874
G01 X6.6185 Y-25.3012
G01 X6.5289 Y-25.3234
G01 X6.5117 Y-25.3286
G01 X6.4248 Y-25.3600
G01 X6.3332 Y-25.4033
G01 X6.2463 Y-25.4554
G01 X6.1720 Y-25.5102
G01 X6.1581 Y-25.5216
G01 X6.0963 Y-25.5776
G01 X6.0867 Y-25.5870
G01 X6.0217 Y-25.6589
G01 X5.9639 Y-25.7366
G01 X5.9566 Y-25.7479
G01 X5.9114 Y-25.8233
G01 X5.9052 Y-25.8352
G01 X5.8853 Y-25.8773
G01 X5.7281 Y-25.8773
G01 X5.7856 Y-25.7451
G01 X5.7901 Y-25.7328
G01 X5.7937 Y-25.7203
G01 X5.7964 Y-25.7075
G01 X5.7976 Y-25.6989
G01 X5.8074 Y-25.6195
G01 X5.8078 Y-25.6104
G01 X5.8077 Y-25.5968
G01 X5.8065 Y-25.5832
G01 X5.8051 Y-25.5743
G01 X5.8034 Y-25.5654
G01 X5.7998 Y-25.5522
G01 X5.7970 Y-25.5436
G01 X5.7919 Y-25.5310
G01 X5.7552 Y-25.4548
G01 X5.7483 Y-25.4431
G01 X5.7377 Y-25.4283
G01 X5.7289 Y-25.4180
G01 X5.7226 Y-25.4115
G01 X5.7125 Y-25.4023
G01 X5.7018 Y-25.3939
G01 X5.6905 Y-25.3863
G01 X5.6301 Y-25.3490
G01 X5.6183 Y-25.3424
G01 X5.6061 Y-25.3366
G01 X5.5935 Y-25.3317
G01 X5.5806 Y-25.3278
G01 X5.5674 Y-25.3249
G01 X5.5585 Y-25.3235
G01 X5.5204 Y-25.3184
G01 X5.5057 Y-25.3174
G01 X4.7969 Y-25.3173
G01 X4.7969 Y-15.3147
G01 X5.6501 Y-13.6083
G01 X5.6559 Y-13.5954
G01 X5.6607 Y-13.5822
G01 X5.6645 Y-13.5686
G01 X5.6788 Y-13.5076
G01 X5.6811 Y-13.4937
G01 X5.6824 Y-13.4797
G01 X5.6827 Y-13.1950
G01 X5.6822 Y-13.1820
G01 X5.6808 Y-13.1690
G01 X5.6794 Y-13.1604
G01 X5.6764 Y-13.1477
G01 X5.6539 Y-13.0711
G01 X5.6475 Y-13.0541
G01 X5.6437 Y-13.0459
G01 X5.6372 Y-13.0339
G01 X5.6299 Y-13.0225
G01 X5.6245 Y-13.0152
G01 X5.6158 Y-13.0047
G01 X5.6096 Y-12.9981
G01 X5.5996 Y-12.9888
G01 X5.5447 Y-12.9412
G01 X5.5447 Y-12.7010
G01 X5.5580 Y-12.6946
G01 X5.5659 Y-12.6904
G01 X5.5946 Y-12.6732
G01 X5.6057 Y-12.6656
G01 X5.6290 Y-12.6482
G01 X5.6359 Y-12.6426
G01 X5.6639 Y-12.6169
G01 X5.6866 Y-12.5923
G01 X5.6980 Y-12.5784
G01 X5.7152 Y-12.5551
G01 X5.7202 Y-12.5476
G01 X5.7396 Y-12.5150
G01 X5.7541 Y-12.4848
G01 X5.7594 Y-12.4724
G01 X5.7720 Y-12.4366
G01 X5.7814 Y-12.3998
G01 X5.7839 Y-12.3866
G01 X5.7886 Y-12.3534
G01 X5.7906 Y-12.3155
G01 X5.7907 Y-11.3610
G01 X5.7886 Y-11.3186
G01 X5.7832 Y-11.2810
G01 X5.7804 Y-11.2678
G01 X5.7720 Y-11.2354
G01 X5.7594 Y-11.1996
G01 X5.7541 Y-11.1872
G01 X5.7396 Y-11.1570
G01 X5.7225 Y-11.1282
G01 X5.7152 Y-11.1169
G01 X5.6952 Y-11.0900
G01 X5.6866 Y-11.0797
G01 X5.6639 Y-11.0551
G01 X5.6393 Y-11.0324
G01 X5.6290 Y-11.0238
G01 X5.6057 Y-11.0064
G01 X5.5946 Y-10.9988
G01 X5.5659 Y-10.9816
G01 X5.5580 Y-10.9774
G01 X5.5447 Y-10.9710
G01 X5.5447 Y-10.7341
G01 X5.5538 Y-10.7275
G01 X5.5643 Y-10.7188
G01 X5.5709 Y-10.7126
G01 X5.5802 Y-10.7026
G01 X5.6325 Y-10.6419
G01 X5.6430 Y-10.6270
G01 X5.6499 Y-10.6152
G01 X5.6539 Y-10.6070
G01 X5.6593 Y-10.5944
G01 X5.6637 Y-10.5814
G01 X5.6661 Y-10.5726
G01 X5.6794 Y-10.5116
G01 X5.6818 Y-10.4944
G01 X5.6826 Y-10.4813
G01 X5.6827 Y-7.0712
G01 X5.6818 Y-7.0539
G01 X5.6801 Y-7.0409
G01 X5.6764 Y-7.0240
G01 X5.6525 Y-6.9431
G01 X5.6457 Y-6.9263
G01 X5.6396 Y-6.9143
G01 X5.6326 Y-6.9027
G01 X5.6247 Y-6.8917
G01 X5.6161 Y-6.8813
G01 X5.6099 Y-6.8747
G01 X5.5851 Y-6.8517
G01 X5.2947 Y-6.5611
G00 Z2.0000
G00 X5.6749 Y-6.4533
G01 F60.00
G01 Z-0.1001
G01 F160.00
G01 X5.8258 Y-6.6043
G01 X5.8460 Y-6.6230
G01 X5.8553 Y-6.6322
G01 X5.8643 Y-6.6415
G01 X5.8817 Y-6.6610
G01 X5.8981 Y-6.6812
G01 X5.9059 Y-6.6916
G01 X5.9208 Y-6.7131
G01 X5.9278 Y-6.7240
G01 X5.9411 Y-6.7465
G01 X5.9473 Y-6.7580
G01 X5.9588 Y-6.7813
G01 X5.9641 Y-6.7932
G01 X5.9739 Y-6.8174
G01 X5.9825 Y-6.8420
G01 X6.0063 Y-6.9226
G01 X6.0097 Y-6.9347
G01 X6.0156 Y-6.9591
G01 X6.0204 Y-6.9837
G01 X6.0223 Y-6.9961
G01 X6.0239 Y-7.0086
G01 X6.0263 Y-7.0336
G01 X6.0275 Y-7.0587
G01 X6.0277 Y-7.2504
G01 X6.0338 Y-7.2361
G01 X6.0448 Y-7.2129
G01 X6.0570 Y-7.1903
G01 X6.0635 Y-7.1792
G01 X6.0703 Y-7.1682
G01 X6.0846 Y-7.1469
G01 X6.0922 Y-7.1365
G01 X6.1080 Y-7.1163
G01 X6.1163 Y-7.1064
G01 X6.1336 Y-7.0874
G01 X6.2022 Y-7.0189
G01 X6.2118 Y-7.0100
G01 X6.2316 Y-6.9929
G01 X6.2523 Y-6.9768
G01 X6.2630 Y-6.9692
G01 X6.2848 Y-6.9547
G01 X6.3073 Y-6.9413
G01 X6.3305 Y-6.9290
G01 X6.3423 Y-6.9233
G01 X6.3542 Y-6.9179
G01 X6.3785 Y-6.9080
G01 X6.4032 Y-6.8993
G01 X6.4157 Y-6.8955
G01 X6.4410 Y-6.8886
G01 X6.5364 Y-6.8680
G01 X6.5364 Y-5.6264
G01 X6.4856 Y-5.6189
G01 X6.4599 Y-5.6139
G01 X6.4345 Y-5.6076
G01 X6.4219 Y-5.6040
G01 X6.3970 Y-5.5958
G01 X6.3847 Y-5.5913
G01 X6.3725 Y-5.5864
G01 X6.3485 Y-5.5758
G01 X6.3367 Y-5.5701
G01 X6.3136 Y-5.5578
G01 X6.2911 Y-5.5443
G01 X6.2802 Y-5.5371
G01 X6.2588 Y-5.5220
G01 X6.2381 Y-5.5059
G01 X6.2281 Y-5.4974
G01 X6.1647 Y-5.4422
G01 X6.1457 Y-5.4241
G01 X6.1366 Y-5.4147
G01 X6.1277 Y-5.4050
G01 X6.1107 Y-5.3851
G01 X6.0947 Y-5.3644
G01 X6.0870 Y-5.3537
G01 X6.0726 Y-5.3319
G01 X6.0658 Y-5.3207
G01 X6.0530 Y-5.2978
G01 X6.0471 Y-5.2861
G01 X6.0360 Y-5.2623
G01 X6.0277 Y-5.2419
G01 X6.0275 Y-5.4377
G01 X6.0262 Y-5.4640
G01 X6.0236 Y-5.4903
G01 X6.0196 Y-5.5164
G01 X6.0144 Y-5.5422
G01 X5.9926 Y-5.6277
G01 X5.9889 Y-5.6400
G01 X5.9808 Y-5.6643
G01 X5.9716 Y-5.6881
G01 X5.9665 Y-5.6999
G01 X5.9611 Y-5.7115
G01 X5.9496 Y-5.7343
G01 X5.9434 Y-5.7455
G01 X5.9303 Y-5.7674
G01 X5.9233 Y-5.7781
G01 X5.9086 Y-5.7991
G01 X5.9008 Y-5.8092
G01 X5.8846 Y-5.8290
G01 X5.8675 Y-5.8480
G01 X5.8243 Y-5.8932
G01 X5.6749 Y-6.0427
G01 X5.6840 Y-6.1050
G01 X5.6865 Y-6.1308
G01 X5.6911 Y-6.2221
G01 X5.6918 Y-6.2480
G01 X5.6911 Y-6.2739
G01 X5.6865 Y-6.3652
G01 X5.6840 Y-6.3910
G01 X5.6749 Y-6.4533
G00 Z2.0000
G00 X5.7970 Y-6.4128
G01 F60.00
G01 Z-0.1001
G01 F160.00
G01 X5.9057 Y-6.5215
G01 X5.9258 Y-6.5402
G01 X5.9371 Y-6.5513
G01 X5.9588 Y-6.5744
G01 X5.9794 Y-6.5986
G01 X5.9892 Y-6.6111
G01 X6.0080 Y-6.6367
G01 X6.0254 Y-6.6632
G01 X6.0415 Y-6.6906
G01 X6.0563 Y-6.7187
G01 X6.0696 Y-6.7475
G01 X6.0815 Y-6.7769
G01 X6.0869 Y-6.7918
G01 X6.0966 Y-6.8221
G01 X6.1208 Y-6.9049
G01 X6.1273 Y-6.9315
G01 X6.1466 Y-6.9141
G01 X6.1588 Y-6.9039
G01 X6.1713 Y-6.8939
G01 X6.1970 Y-6.8750
G01 X6.2102 Y-6.8660
G01 X6.2372 Y-6.8490
G01 X6.2650 Y-6.8334
G01 X6.2792 Y-6.8261
G01 X6.3081 Y-6.8126
G01 X6.3377 Y-6.8005
G01 X6.3678 Y-6.7899
G01 X6.3830 Y-6.7852
G01 X6.3984 Y-6.7809
G01 X6.4214 Y-6.7752
G01 X6.4214 Y-5.7230
G01 X6.3888 Y-5.7141
G01 X6.3584 Y-5.7042
G01 X6.3435 Y-5.6986
G01 X6.3140 Y-5.6865
G01 X6.2851 Y-5.6729
G01 X6.2709 Y-5.6655
G01 X6.2432 Y-5.6498
G01 X6.2162 Y-5.6327
G01 X6.2030 Y-5.6237
G01 X6.1901 Y-5.6143
G01 X6.1650 Y-5.5946
G01 X6.1276 Y-5.5625
G01 X6.1227 Y-5.5835
G01 X6.1033 Y-5.6589
G01 X6.0941 Y-5.6887
G01 X6.0835 Y-5.7180
G01 X6.0715 Y-5.7467
G01 X6.0582 Y-5.7748
G01 X6.0434 Y-5.8023
G01 X6.0274 Y-5.8290
G01 X6.0189 Y-5.8420
G01 X6.0010 Y-5.8675
G01 X5.9818 Y-5.8921
G01 X5.9615 Y-5.9157
G01 X5.9056 Y-5.9746
G01 X5.7970 Y-6.0832
G01 X5.7998 Y-6.1066
G01 X5.8022 Y-6.1381
G01 X5.8060 Y-6.2165
G01 X5.8068 Y-6.2480
G01 X5.8060 Y-6.2795
G01 X5.8022 Y-6.3579
G01 X5.7998 Y-6.3894
G01 X5.7970 Y-6.4128
G00 Z2.0000
G00 X8.1858 Y-7.4884
G01 F60.00
G01 Z-0.1001
G01 F160.00
G01 X8.6551 Y-7.4884
G01 X8.2824 Y-7.1156
G01 X8.1858 Y-7.1156
G01 X8.1858 Y-7.4884
G00 Z2.0000
G00 X8.3008 Y-7.3733
G01 F60.00
G01 Z-0.1001
G01 F160.00
G01 X8.3774 Y-7.3733
G01 X8.3008 Y-7.2967
G01 X8.3008 Y-7.3733
G00 Z2.0000
G00 X9.1045 Y-7.0389
G01 F60.00
G01 Z-0.1001
G01 F160.00
G01 X9.1045 Y-6.5696
G01 X8.7318 Y-6.5696
G01 X8.7318 Y-6.6662
G01 X9.1045 Y-7.0389
G00 Z2.0000
G00 X8.9128 Y-6.6847
G01 F60.00
G01 Z-0.1001
G01 F160.00
G01 X8.9894 Y-6.7613
G01 X8.9894 Y-6.6847
G01 X8.9128 Y-6.6847
G00 Z2.0000
G00 X8.7318 Y-5.9264
G01 F60.00
G01 Z-0.1001
G01 F160.00
G01 X9.1045 Y-5.9264
G01 X9.1045 Y-5.4571
G01 X8.7318 Y-5.8298
G01 X8.7318 Y-5.9264
G00 Z2.0000
G00 X8.9128 Y-5.8113
G01 F60.00
G01 Z-0.1001
G01 F160.00
G01 X8.9894 Y-5.8113
G01 X8.9894 Y-5.7347
G01 X8.9128 Y-5.8113
G00 Z2.0000
G00 X8.3008 Y-5.1227
G01 F60.00
G01 Z-0.1001
G01 F160.00
G01 X8.3008 Y-5.1993
G01 X8.3774 Y-5.1227
G01 X8.3008 Y-5.1227
G00 Z2.0000
G00 X8.1858 Y-5.0077
G01 F60.00
G01 Z-0.1001
G01 F160.00
G01 X8.1858 Y-5.3804
G01 X8.2824 Y-5.3804
G01 X8.6550 Y-5.0077
G01 X8.1858 Y-5.0077
G00 Z2.0000
G00 X10.9766 Y-9.8801
G01 F60.00
G01 Z-0.1001
G01 F160.00
G01 X10.9766 Y-10.2726
G01 X10.9901 Y-10.2777
G01 X11.0640 Y-10.3128
G01 X11.1370 Y-10.3566
G01 X11.2054 Y-10.4073
G01 X11.2685 Y-10.4645
G01 X11.3257 Y-10.5276
G01 X11.3764 Y-10.5960
G01 X11.4202 Y-10.6690
G01 X11.4553 Y-10.7429
G01 X11.4604 Y-10.7564
G01 X11.8529 Y-10.7564
G01 X11.8257 Y-10.6546
G01 X11.8239 Y-10.6499
G01 X11.7344 Y-10.4578
G01 X11.7318 Y-10.4534
G01 X11.6103 Y-10.2798
G01 X11.6070 Y-10.2759
G01 X11.4571 Y-10.1260
G01 X11.4532 Y-10.1227
G01 X11.2796 Y-10.0012
G01 X11.2752 Y-9.9986
G01 X11.0831 Y-9.9091
G01 X11.0784 Y-9.9073
G01 X10.9766 Y-9.8801
G00 Z2.0000
G00 X11.0917 Y-10.0399
G01 F60.00
G01 Z-0.1001
G01 F160.00
G01 X11.0917 Y-10.1986
G01 X11.1142 Y-10.2093
G01 X11.1221 Y-10.2135
G01 X11.1934 Y-10.2562
G01 X11.2046 Y-10.2635
G01 X11.2784 Y-10.3184
G01 X11.3498 Y-10.3832
G01 X11.4146 Y-10.4546
G01 X11.4695 Y-10.5284
G01 X11.4768 Y-10.5396
G01 X11.5195 Y-10.6109
G01 X11.5237 Y-10.6188
G01 X11.5344 Y-10.6413
G01 X11.6931 Y-10.6413
G01 X11.6333 Y-10.5132
G01 X11.5204 Y-10.3519
G01 X11.3811 Y-10.2126
G01 X11.2198 Y-10.0997
G01 X11.0917 Y-10.0399
G00 Z2.0000
G00 X9.6169 Y-10.6413
G01 F60.00
G01 Z-0.1001
G01 F160.00
G01 X9.7756 Y-10.6413
G01 X9.7863 Y-10.6188
G01 X9.7905 Y-10.6109
G01 X9.8332 Y-10.5396
G01 X9.8405 Y-10.5284
G01 X9.8954 Y-10.4546
G01 X9.9602 Y-10.3832
G01 X10.0316 Y-10.3184
G01 X10.1054 Y-10.2635
G01 X10.1166 Y-10.2562
G01 X10.1879 Y-10.2135
G01 X10.1958 Y-10.2093
G01 X10.2183 Y-10.1986
G01 X10.2183 Y-10.0399
G01 X10.0902 Y-10.0997
G01 X9.9289 Y-10.2126
G01 X9.7896 Y-10.3519
G01 X9.6767 Y-10.5132
G01 X9.6169 Y-10.6413
G00 Z2.0000
G00 X9.4571 Y-10.7564
G01 F60.00
G01 Z-0.1001
G01 F160.00
G01 X9.8496 Y-10.7564
G01 X9.8547 Y-10.7429
G01 X9.8898 Y-10.6690
G01 X9.9336 Y-10.5960
G01 X9.9843 Y-10.5276
G01 X10.0415 Y-10.4645
G01 X10.1046 Y-10.4073
G01 X10.1730 Y-10.3566
G01 X10.2460 Y-10.3128
G01 X10.3199 Y-10.2777
G01 X10.3334 Y-10.2726
G01 X10.3334 Y-9.8801
G01 X10.2316 Y-9.9073
G01 X10.2269 Y-9.9091
G01 X10.0348 Y-9.9986
G01 X10.0304 Y-10.0012
G01 X9.8568 Y-10.1227
G01 X9.8529 Y-10.1260
G01 X9.7030 Y-10.2759
G01 X9.6997 Y-10.2798
G01 X9.5782 Y-10.4534
G01 X9.5756 Y-10.4578
G01 X9.4861 Y-10.6499
G01 X9.4843 Y-10.6546
G01 X9.4571 Y-10.7564
G00 Z2.0000
G00 X9.4571 Y-11.3996
G01 F60.00
G01 Z-0.1001
G01 F160.00
G01 X9.4843 Y-11.5014
G01 X9.4861 Y-11.5061
G01 X9.5756 Y-11.6982
G01 X9.5793 Y-11.7043
G01 X9.8598 Y-11.4238
G01 X9.8534 Y-11.4100
G01 X9.8496 Y-11.3996
G01 X9.4571 Y-11.3996
G00 Z2.0000
G00 X10.7917 Y-12.4133
G01 F60.00
G01 Z-0.1001
G01 F160.00
G01 X10.7895 Y-12.3980
G01 X10.7876 Y-12.3776
G01 X10.7870 Y-12.3674
G01 X10.7865 Y-12.3469
G01 X10.7867 Y-12.3366
G01 X10.7878 Y-12.3162
G01 X10.7900 Y-12.2958
G01 X10.7919 Y-12.2826
G01 X10.7739 Y-12.2848
G01 X10.7537 Y-12.2863
G01 X10.6752 Y-12.2902
G01 X10.6550 Y-12.2907
G01 X10.6348 Y-12.2902
G01 X10.5563 Y-12.2863
G01 X10.5361 Y-12.2848
G01 X10.5184 Y-12.2827
G01 X10.5205 Y-12.2975
G01 X10.5224 Y-12.3179
G01 X10.5230 Y-12.3281
G01 X10.5235 Y-12.3486
G01 X10.5229 Y-12.3691
G01 X10.5222 Y-12.3793
G01 X10.5200 Y-12.3997
G01 X10.5180 Y-12.4134
G01 X10.5361 Y-12.4112
G01 X10.5563 Y-12.4097
G01 X10.6348 Y-12.4058
G01 X10.6550 Y-12.4053
G01 X10.6752 Y-12.4058
G01 X10.7537 Y-12.4097
G01 X10.7739 Y-12.4112
G01 X10.7917 Y-12.4133
G00 Z2.0000
G00 X10.9612 Y-12.5641
G01 F60.00
G01 Z-0.1001
G01 F160.00
G01 X10.9505 Y-12.5436
G01 X10.9446 Y-12.5303
G01 X10.9394 Y-12.5167
G01 X10.9348 Y-12.5028
G01 X10.9122 Y-12.4277
G01 X10.9071 Y-12.4062
G01 X10.9037 Y-12.3843
G01 X10.9018 Y-12.3622
G01 X10.9015 Y-12.3474
G01 X10.9025 Y-12.3252
G01 X10.9040 Y-12.3105
G01 X10.9077 Y-12.2887
G01 X10.9129 Y-12.2671
G01 X10.9324 Y-12.1989
G01 X10.9368 Y-12.1847
G01 X10.9419 Y-12.1709
G01 X10.9477 Y-12.1573
G01 X10.9541 Y-12.1440
G01 X10.9607 Y-12.1320
G01 X10.8834 Y-12.1514
G01 X10.8691 Y-12.1546
G01 X10.8547 Y-12.1571
G01 X10.7771 Y-12.1686
G01 X10.7626 Y-12.1704
G01 X10.7480 Y-12.1714
G01 X10.6623 Y-12.1756
G01 X10.6404 Y-12.1753
G01 X10.5620 Y-12.1714
G01 X10.5401 Y-12.1696
G01 X10.4553 Y-12.1571
G01 X10.4409 Y-12.1546
G01 X10.4266 Y-12.1514
G01 X10.3704 Y-12.1373
G01 X10.3583 Y-12.1494
G01 X10.3654 Y-12.1652
G01 X10.3730 Y-12.1857
G01 X10.3957 Y-12.2606
G01 X10.3996 Y-12.2749
G01 X10.4042 Y-12.2966
G01 X10.4071 Y-12.3185
G01 X10.4084 Y-12.3407
G01 X10.4083 Y-12.3555
G01 X10.4069 Y-12.3776
G01 X10.4050 Y-12.3922
G01 X10.4023 Y-12.4068
G01 X10.3971 Y-12.4283
G01 X10.3776 Y-12.4966
G01 X10.3707 Y-12.5177
G01 X10.3623 Y-12.5382
G01 X10.3559 Y-12.5515
G01 X10.3490 Y-12.5641
G01 X10.4266 Y-12.5446
G01 X10.4409 Y-12.5414
G01 X10.4553 Y-12.5389
G01 X10.5329 Y-12.5274
G01 X10.5474 Y-12.5256
G01 X10.5620 Y-12.5246
G01 X10.6404 Y-12.5207
G01 X10.6550 Y-12.5203
G01 X10.6696 Y-12.5207
G01 X10.7480 Y-12.5246
G01 X10.7626 Y-12.5256
G01 X10.7771 Y-12.5274
G01 X10.8547 Y-12.5389
G01 X10.8691 Y-12.5414
G01 X10.8834 Y-12.5446
G01 X10.9612 Y-12.5641
G00 Z2.0000
G00 X11.7253 Y-13.0140
G01 F60.00
G01 Z-0.1001
G01 F160.00
G01 X11.6589 Y-13.0187
G01 X11.6367 Y-13.0195
G01 X11.6219 Y-13.0191
G01 X11.5998 Y-13.0171
G01 X11.5852 Y-13.0149
G01 X11.5700 Y-13.0117
G01 X11.6053 Y-13.0702
G01 X11.6691 Y-13.0702
G01 X11.7253 Y-13.0140
G00 Z2.0000
G00 X11.5363 Y-14.0508
G01 F60.00
G01 Z-0.1001
G01 F160.00
G01 X11.9005 Y-14.0507
G01 X11.9384 Y-14.0487
G01 X11.9804 Y-14.0425
G01 X12.0173 Y-14.0334
G01 X12.0301 Y-14.0293
G01 X12.0616 Y-14.0178
G01 X12.1000 Y-13.9997
G01 X12.1327 Y-13.9803
G01 X12.1438 Y-13.9727
G01 X12.1706 Y-13.9525
G01 X12.1988 Y-13.9272
G01 X19.6995 Y-6.4266
G01 X21.1973 Y-6.4266
G01 X21.2051 Y-6.4483
G01 X21.2086 Y-6.4566
G01 X21.2571 Y-6.5588
G01 X21.3128 Y-6.6522
G01 X21.3227 Y-6.6671
G01 X21.3876 Y-6.7542
G01 X21.4604 Y-6.8349
G01 X21.4731 Y-6.8476
G01 X21.5470 Y-6.9145
G01 X21.5573 Y-6.9232
G01 X21.6483 Y-6.9904
G01 X21.7414 Y-7.0465
G01 X21.7572 Y-7.0550
G01 X21.8555 Y-7.1012
G01 X21.9577 Y-7.1380
G01 X21.9749 Y-7.1432
G01 X22.0804 Y-7.1694
G01 X22.1878 Y-7.1856
G01 X22.2057 Y-7.1873
G01 X22.3142 Y-7.1925
G01 X22.4317 Y-7.1867
G01 X22.5480 Y-7.1694
G01 X22.6622 Y-7.1408
G01 X22.7729 Y-7.1012
G01 X22.8792 Y-7.0509
G01 X22.9801 Y-6.9904
G01 X23.0676 Y-6.9259
G01 X23.0814 Y-6.9145
G01 X23.1618 Y-6.8414
G01 X23.2408 Y-6.7542
G01 X23.3108 Y-6.6597
G01 X23.3713 Y-6.5588
G01 X23.4216 Y-6.4525
G01 X23.4612 Y-6.3418
G01 X23.4898 Y-6.2276
G01 X23.5071 Y-6.1113
G01 X23.5129 Y-5.9938
G01 X23.5071 Y-5.8763
G01 X23.4898 Y-5.7600
G01 X23.4612 Y-5.6458
G01 X23.4216 Y-5.5351
G01 X23.3713 Y-5.4288
G01 X23.3108 Y-5.3279
G01 X23.2463 Y-5.2404
G01 X23.2349 Y-5.2266
G01 X23.1618 Y-5.1462
G01 X23.0814 Y-5.0731
G01 X23.0676 Y-5.0617
G01 X22.9801 Y-4.9972
G01 X22.8870 Y-4.9411
G01 X22.8712 Y-4.9326
G01 X22.7729 Y-4.8864
G01 X22.6622 Y-4.8468
G01 X22.5568 Y-4.8201
G01 X22.5392 Y-4.8166
G01 X22.4317 Y-4.8009
G01 X22.3232 Y-4.7954
G01 X22.3052 Y-4.7954
G01 X22.1967 Y-4.8009
G01 X22.0892 Y-4.8166
G01 X22.0716 Y-4.8201
G01 X21.9662 Y-4.8468
G01 X21.8555 Y-4.8864
G01 X21.7572 Y-4.9326
G01 X21.7414 Y-4.9411
G01 X21.6483 Y-4.9972
G01 X21.5608 Y-5.0617
G01 X21.5470 Y-5.0731
G01 X21.4731 Y-5.1400
G01 X21.4604 Y-5.1527
G01 X21.3876 Y-5.2334
G01 X21.3227 Y-5.3205
G01 X21.3128 Y-5.3354
G01 X21.2571 Y-5.4288
G01 X21.2086 Y-5.5310
G01 X21.2051 Y-5.5393
G01 X21.1973 Y-5.5610
G01 X19.5112 Y-5.5612
G01 X19.4778 Y-5.5631
G01 X19.4402 Y-5.5685
G01 X19.4314 Y-5.5703
G01 X19.4032 Y-5.5773
G01 X19.3861 Y-5.5825
G01 X19.3546 Y-5.5940
G01 X19.3162 Y-5.6121
G01 X19.2798 Y-5.6340
G01 X19.2527 Y-5.6537
G01 X19.2422 Y-5.6621
G01 X19.2142 Y-5.6878
G01 X11.7167 Y-13.1852
G01 X11.5363 Y-13.1852
G01 X11.5237 Y-13.1588
G01 X11.5195 Y-13.1509
G01 X11.4768 Y-13.0796
G01 X11.4695 Y-13.0684
G01 X11.4146 Y-12.9946
G01 X11.3530 Y-12.9264
G01 X11.3433 Y-12.9170
G01 X11.2852 Y-12.8643
G01 X11.2713 Y-12.8529
G01 X11.2009 Y-12.8010
G01 X11.1182 Y-12.7514
G01 X11.0310 Y-12.7101
G01 X10.9488 Y-12.6805
G01 X10.9316 Y-12.6753
G01 X10.8467 Y-12.6542
G01 X10.7602 Y-12.6412
G01 X10.7424 Y-12.6394
G01 X10.6595 Y-12.6354
G01 X10.6460 Y-12.6356
G01 X10.5676 Y-12.6394
G01 X10.5498 Y-12.6412
G01 X10.4633 Y-12.6542
G01 X10.3784 Y-12.6753
G01 X10.3612 Y-12.6805
G01 X10.2790 Y-12.7101
G01 X10.1998 Y-12.7473
G01 X10.1840 Y-12.7558
G01 X10.1091 Y-12.8010
G01 X10.0387 Y-12.8529
G01 X10.0248 Y-12.8643
G01 X9.9602 Y-12.9232
G01 X9.8954 Y-12.9946
G01 X9.8431 Y-13.0647
G01 X9.8332 Y-13.0796
G01 X9.7928 Y-13.1470
G01 X9.7863 Y-13.1588
G01 X9.7471 Y-13.2420
G01 X9.7147 Y-13.3328
G01 X9.6912 Y-13.4263
G01 X9.6771 Y-13.5217
G01 X9.6723 Y-13.6180
G01 X9.6771 Y-13.7143
G01 X9.6912 Y-13.8097
G01 X9.7147 Y-13.9032
G01 X9.7471 Y-13.9940
G01 X9.7884 Y-14.0812
G01 X9.8380 Y-14.1639
G01 X9.8954 Y-14.2414
G01 X9.9602 Y-14.3128
G01 X10.0316 Y-14.3776
G01 X10.1091 Y-14.4350
G01 X10.1840 Y-14.4802
G01 X10.1958 Y-14.4867
G01 X10.2790 Y-14.5259
G01 X10.3698 Y-14.5583
G01 X10.4633 Y-14.5818
G01 X10.5587 Y-14.5959
G01 X10.6550 Y-14.6007
G01 X10.7513 Y-14.5959
G01 X10.8467 Y-14.5818
G01 X10.9316 Y-14.5607
G01 X10.9445 Y-14.5570
G01 X11.0310 Y-14.5259
G01 X11.1182 Y-14.4846
G01 X11.2009 Y-14.4350
G01 X11.2713 Y-14.3831
G01 X11.2818 Y-14.3747
G01 X11.3498 Y-14.3128
G01 X11.4087 Y-14.2482
G01 X11.4174 Y-14.2379
G01 X11.4669 Y-14.1713
G01 X11.4745 Y-14.1602
G01 X11.5195 Y-14.0851
G01 X11.5237 Y-14.0772
G01 X11.5363 Y-14.0508
G00 Z2.0000
G00 X11.3393 Y-14.8880
G01 F60.00
G01 Z-0.1001
G01 F160.00
G01 X11.3573 Y-14.8982
G01 X11.3573 Y-14.8778
G01 X11.3489 Y-14.8827
G01 X11.3393 Y-14.8880
G00 Z2.0000
G00 X11.0420 Y-14.8880
G01 F60.00
G01 Z-0.1001
G01 F160.00
G01 X11.0650 Y-14.8956
G01 X11.1389 Y-14.9221
G01 X11.1631 Y-14.9314
G01 X11.1868 Y-14.9419
G01 X11.2577 Y-14.9755
G01 X11.2809 Y-14.9871
G01 X11.3034 Y-14.9999
G01 X11.3707 Y-15.0402
G01 X11.3926 Y-15.0541
G01 X11.4138 Y-15.0690
G01 X11.4723 Y-15.1124
G01 X11.4723 Y-14.6636
G01 X11.4138 Y-14.7070
G01 X11.3926 Y-14.7219
G01 X11.3707 Y-14.7358
G01 X11.3034 Y-14.7761
G01 X11.2809 Y-14.7889
G01 X11.2577 Y-14.8005
G01 X11.1868 Y-14.8341
G01 X11.1631 Y-14.8446
G01 X11.1389 Y-14.8539
G01 X11.0650 Y-14.8804
G01 X11.0420 Y-14.8880
G00 Z2.0000
G00 X10.1160 Y-14.9453
G01 F60.00
G01 Z-0.1001
G01 F160.00
G01 X10.1350 Y-14.9365
G01 X10.1589 Y-14.9266
G01 X10.2450 Y-14.8956
G01 X10.2680 Y-14.8880
G01 X10.2450 Y-14.8804
G01 X10.1674 Y-14.8525
G01 X10.1566 Y-14.8760
G01 X10.1451 Y-14.8983
G01 X10.1325 Y-14.9200
G01 X10.1160 Y-14.9453
G00 Z2.0000
G00 X10.1009 Y-14.6963
G01 F60.00
G01 Z-0.1001
G01 F160.00
G01 X10.0954 Y-14.7132
G01 X10.0721 Y-14.7803
G01 X10.0614 Y-14.8077
G01 X10.0533 Y-14.8256
G01 X10.0442 Y-14.8430
G01 X10.0292 Y-14.8683
G01 X10.0181 Y-14.8846
G01 X9.6810 Y-15.3565
G01 X9.7057 Y-15.3438
G01 X9.7593 Y-15.3186
G01 X9.7780 Y-15.3108
G01 X9.7927 Y-15.3054
G01 X9.8122 Y-15.2866
G01 X9.8704 Y-15.2338
G01 X9.8857 Y-15.2206
G01 X9.9017 Y-15.2081
G01 X9.9647 Y-15.1614
G01 X9.9898 Y-15.1442
G01 X10.0657 Y-15.0985
G01 X10.0834 Y-15.0885
G01 X10.1014 Y-15.0794
G01 X10.1724 Y-15.0459
G01 X10.1909 Y-15.0376
G01 X10.2098 Y-15.0304
G01 X10.2837 Y-15.0039
G01 X10.3030 Y-14.9976
G01 X10.3225 Y-14.9921
G01 X10.3987 Y-14.9731
G01 X10.4184 Y-14.9686
G01 X10.4384 Y-14.9652
G01 X10.5160 Y-14.9537
G01 X10.5361 Y-14.9512
G01 X10.5563 Y-14.9497
G01 X10.6348 Y-14.9458
G01 X10.6651 Y-14.9455
G01 X10.7537 Y-14.9497
G01 X10.7839 Y-14.9523
G01 X10.8816 Y-14.9668
G01 X10.9113 Y-14.9731
G01 X10.9973 Y-14.9947
G01 X11.0263 Y-15.0039
G01 X11.1002 Y-15.0304
G01 X11.1191 Y-15.0376
G01 X11.1376 Y-15.0459
G01 X11.2086 Y-15.0794
G01 X11.2266 Y-15.0885
G01 X11.2443 Y-15.0985
G01 X11.3116 Y-15.1389
G01 X11.3287 Y-15.1497
G01 X11.3453 Y-15.1614
G01 X11.4083 Y-15.2081
G01 X11.4243 Y-15.2206
G01 X11.4396 Y-15.2338
G01 X11.4978 Y-15.2866
G01 X11.5125 Y-15.3005
G01 X11.5264 Y-15.3152
G01 X11.5873 Y-15.3827
G01 X11.5873 Y-14.5522
G01 X11.5879 Y-14.5301
G01 X11.5897 Y-14.5081
G01 X11.5926 Y-14.4813
G01 X11.5952 Y-14.4612
G01 X11.6011 Y-14.4314
G01 X11.6062 Y-14.4118
G01 X11.6122 Y-14.3925
G01 X11.6231 Y-14.3641
G01 X11.6359 Y-14.3366
G01 X11.6502 Y-14.3102
G01 X11.6049 Y-14.3713
G01 X11.5924 Y-14.3873
G01 X11.5792 Y-14.4026
G01 X11.5264 Y-14.4608
G01 X11.5125 Y-14.4755
G01 X11.4978 Y-14.4894
G01 X11.4396 Y-14.5422
G01 X11.4243 Y-14.5554
G01 X11.4083 Y-14.5679
G01 X11.3453 Y-14.6146
G01 X11.3287 Y-14.6263
G01 X11.3116 Y-14.6371
G01 X11.2443 Y-14.6775
G01 X11.2266 Y-14.6875
G01 X11.2086 Y-14.6966
G01 X11.1376 Y-14.7301
G01 X11.1191 Y-14.7384
G01 X11.1002 Y-14.7456
G01 X11.0263 Y-14.7721
G01 X11.0070 Y-14.7784
G01 X10.9875 Y-14.7839
G01 X10.9113 Y-14.8029
G01 X10.8916 Y-14.8074
G01 X10.8716 Y-14.8108
G01 X10.7839 Y-14.8237
G01 X10.7537 Y-14.8263
G01 X10.6752 Y-14.8302
G01 X10.6550 Y-14.8307
G01 X10.6348 Y-14.8302
G01 X10.5563 Y-14.8263
G01 X10.5261 Y-14.8237
G01 X10.4384 Y-14.8108
G01 X10.4184 Y-14.8074
G01 X10.3987 Y-14.8029
G01 X10.3225 Y-14.7839
G01 X10.3030 Y-14.7784
G01 X10.2837 Y-14.7721
G01 X10.2098 Y-14.7456
G01 X10.1909 Y-14.7384
G01 X10.1724 Y-14.7301
G01 X10.1009 Y-14.6963
G00 Z2.0000
G00 X9.9909 Y-14.4909
G01 F60.00
G01 Z-0.1001
G01 F160.00
G01 X9.9967 Y-14.5151
G01 X9.9994 Y-14.5297
G01 X10.0014 Y-14.5443
G01 X10.0027 Y-14.5590
G01 X10.0033 Y-14.5812
G01 X10.0028 Y-14.5960
G01 X10.0015 Y-14.6107
G01 X9.9982 Y-14.6326
G01 X9.9933 Y-14.6542
G01 X9.9891 Y-14.6684
G01 X9.9611 Y-14.7492
G01 X9.9558 Y-14.7623
G01 X9.9499 Y-14.7752
G01 X9.9434 Y-14.7878
G01 X9.9363 Y-14.8000
G01 X9.9246 Y-14.8177
G01 X8.9113 Y-16.2363
G01 X9.5590 Y-15.5887
G01 X9.6007 Y-15.5508
G01 X9.6118 Y-15.5412
G01 X9.6233 Y-15.5322
G01 X9.6687 Y-15.4987
G01 X9.6870 Y-15.4867
G01 X9.7292 Y-15.4615
G01 X9.7484 Y-15.4509
G01 X9.7993 Y-15.4267
G01 X9.8127 Y-15.4208
G01 X9.8263 Y-15.4156
G01 X9.8581 Y-15.4042
G01 X9.8737 Y-15.3871
G01 X9.8841 Y-15.3767
G01 X9.9476 Y-15.3190
G01 X9.9644 Y-15.3049
G01 X10.0332 Y-15.2537
G01 X10.0452 Y-15.2453
G01 X10.0575 Y-15.2375
G01 X10.1249 Y-15.1972
G01 X10.1441 Y-15.1866
G01 X10.2216 Y-15.1498
G01 X10.2349 Y-15.1439
G01 X10.2486 Y-15.1386
G01 X10.3225 Y-15.1122
G01 X10.3364 Y-15.1076
G01 X10.3504 Y-15.1037
G01 X10.4266 Y-15.0846
G01 X10.4409 Y-15.0814
G01 X10.4553 Y-15.0789
G01 X10.5329 Y-15.0674
G01 X10.5547 Y-15.0650
G01 X10.6404 Y-15.0607
G01 X10.6550 Y-15.0603
G01 X10.6696 Y-15.0607
G01 X10.7480 Y-15.0646
G01 X10.7699 Y-15.0664
G01 X10.8547 Y-15.0789
G01 X10.8691 Y-15.0814
G01 X10.8834 Y-15.0846
G01 X10.9596 Y-15.1037
G01 X10.9736 Y-15.1076
G01 X10.9875 Y-15.1122
G01 X11.0614 Y-15.1386
G01 X11.0751 Y-15.1439
G01 X11.0884 Y-15.1498
G01 X11.1594 Y-15.1834
G01 X11.1724 Y-15.1900
G01 X11.1851 Y-15.1972
G01 X11.2525 Y-15.2375
G01 X11.2648 Y-15.2453
G01 X11.2768 Y-15.2537
G01 X11.3398 Y-15.3005
G01 X11.3513 Y-15.3095
G01 X11.3624 Y-15.3190
G01 X11.4206 Y-15.3718
G01 X11.4363 Y-15.3871
G01 X11.4940 Y-15.4506
G01 X11.5035 Y-15.4617
G01 X11.5125 Y-15.4732
G01 X11.5593 Y-15.5362
G01 X11.5677 Y-15.5482
G01 X11.5755 Y-15.5605
G01 X11.6158 Y-15.6279
G01 X11.6230 Y-15.6406
G01 X11.6296 Y-15.6536
G01 X11.6632 Y-15.7246
G01 X11.6691 Y-15.7379
G01 X11.6744 Y-15.7516
G01 X11.7023 Y-15.8299
G01 X11.7023 Y-14.5522
G01 X11.7033 Y-14.5283
G01 X11.7078 Y-14.4863
G01 X11.7115 Y-14.4647
G01 X11.7167 Y-14.4435
G01 X11.7211 Y-14.4295
G01 X11.7289 Y-14.4090
G01 X11.7349 Y-14.3957
G01 X11.7416 Y-14.3828
G01 X11.7757 Y-14.3204
G01 X11.7865 Y-14.3022
G01 X11.7944 Y-14.2904
G01 X11.8029 Y-14.2791
G01 X11.8167 Y-14.2629
G01 X11.8264 Y-14.2526
G01 X11.9138 Y-14.1653
G01 X11.8960 Y-14.1658
G01 X11.6053 Y-14.1658
G01 X11.5755 Y-14.2155
G01 X11.5677 Y-14.2278
G01 X11.5593 Y-14.2398
G01 X11.5125 Y-14.3028
G01 X11.4988 Y-14.3199
G01 X11.4412 Y-14.3836
G01 X11.4312 Y-14.3942
G01 X11.4206 Y-14.4042
G01 X11.3624 Y-14.4570
G01 X11.3513 Y-14.4665
G01 X11.3398 Y-14.4755
G01 X11.2709 Y-14.5265
G01 X11.2525 Y-14.5385
G01 X11.1851 Y-14.5788
G01 X11.1724 Y-14.5860
G01 X11.1594 Y-14.5926
G01 X11.0884 Y-14.6262
G01 X11.0751 Y-14.6321
G01 X11.0614 Y-14.6374
G01 X10.9875 Y-14.6638
G01 X10.9736 Y-14.6684
G01 X10.9596 Y-14.6723
G01 X10.8834 Y-14.6914
G01 X10.8620 Y-14.6959
G01 X10.7771 Y-14.7086
G01 X10.7626 Y-14.7104
G01 X10.7480 Y-14.7114
G01 X10.6696 Y-14.7153
G01 X10.6550 Y-14.7157
G01 X10.6404 Y-14.7153
G01 X10.5620 Y-14.7114
G01 X10.5474 Y-14.7104
G01 X10.5329 Y-14.7086
G01 X10.4553 Y-14.6971
G01 X10.4337 Y-14.6931
G01 X10.3504 Y-14.6723
G01 X10.3364 Y-14.6684
G01 X10.3225 Y-14.6638
G01 X10.2486 Y-14.6374
G01 X10.2282 Y-14.6292
G01 X10.1506 Y-14.5926
G01 X10.1376 Y-14.5860
G01 X10.1249 Y-14.5788
G01 X10.0575 Y-14.5385
G01 X10.0452 Y-14.5307
G01 X10.0332 Y-14.5223
G01 X9.9909 Y-14.4909
G00 Z2.0000
G00 X7.7082 Y-14.9787
G01 F60.00
G01 Z-0.1001
G01 F160.00
G01 X7.3664 Y-14.9787
G01 X7.2567 Y-15.0884
G01 X7.2567 Y-15.1213
G01 X7.6700 Y-15.1213
G01 X7.6834 Y-15.1218
G01 X7.7012 Y-15.1240
G01 X7.7144 Y-15.1268
G01 X7.7273 Y-15.1306
G01 X7.7399 Y-15.1352
G01 X7.7521 Y-15.1408
G01 X7.7639 Y-15.1473
G01 X7.7752 Y-15.1547
G01 X7.7859 Y-15.1628
G01 X7.7992 Y-15.1748
G01 X7.8112 Y-15.1881
G01 X7.8219 Y-15.2025
G01 X7.8311 Y-15.2179
G01 X7.8388 Y-15.2341
G01 X7.8448 Y-15.2510
G01 X7.8482 Y-15.2640
G01 X7.8513 Y-15.2816
G01 X7.8522 Y-15.2906
G01 X7.8527 Y-15.3040
G01 X7.8527 Y-15.7173
G01 X7.9953 Y-15.7173
G01 X7.9953 Y-15.2658
G01 X7.9921 Y-15.2364
G01 X7.9583 Y-15.1461
G01 X7.9024 Y-15.0716
G01 X7.8279 Y-15.0157
G01 X7.7376 Y-14.9819
G01 X7.7082 Y-14.9787
G00 Z2.0000
G00 X7.7376 Y-15.3040
G01 F60.00
G01 Z-0.1001
G01 F160.00
G01 X7.7376 Y-15.8324
G01 X8.1104 Y-15.8324
G01 X8.1104 Y-15.2612
G01 X8.1053 Y-15.2132
G01 X8.1036 Y-15.2062
G01 X8.0617 Y-15.0942
G01 X8.0578 Y-15.0871
G01 X7.9870 Y-14.9927
G01 X7.9813 Y-14.9870
G01 X7.8869 Y-14.9162
G01 X7.8798 Y-14.9123
G01 X7.7678 Y-14.8704
G01 X7.7608 Y-14.8687
G01 X7.7128 Y-14.8637
G01 X7.3188 Y-14.8637
G01 X7.1416 Y-15.0408
G01 X7.1416 Y-15.2364
G01 X7.6700 Y-15.2364
G01 X7.6783 Y-15.2369
G01 X7.6848 Y-15.2380
G01 X7.6912 Y-15.2398
G01 X7.7019 Y-15.2443
G01 X7.7116 Y-15.2507
G01 X7.7166 Y-15.2550
G01 X7.7212 Y-15.2598
G01 X7.7280 Y-15.2692
G01 X7.7331 Y-15.2797
G01 X7.7352 Y-15.2860
G01 X7.7367 Y-15.2924
G01 X7.7376 Y-15.3040
G00 Z2.0000
G00 X6.4984 Y-14.8636
G01 F60.00
G01 Z-0.1001
G01 F160.00
G01 X6.4984 Y-15.2364
G01 X5.9650 Y-15.2365
G01 X5.9552 Y-15.2380
G01 X5.9457 Y-15.2409
G01 X5.9367 Y-15.2451
G01 X5.9271 Y-15.2517
G01 X5.9199 Y-15.2586
G01 X5.9128 Y-15.2678
G01 X5.9082 Y-15.2766
G01 X5.9048 Y-15.2860
G01 X5.9029 Y-15.2957
G01 X5.9024 Y-15.3040
G01 X5.9024 Y-17.0040
G01 X5.9029 Y-17.0123
G01 X5.9044 Y-17.0204
G01 X5.9069 Y-17.0283
G01 X5.9103 Y-17.0359
G01 X5.9157 Y-17.0443
G01 X5.9210 Y-17.0506
G01 X5.9271 Y-17.0563
G01 X5.9338 Y-17.0612
G01 X5.9411 Y-17.0652
G01 X5.9504 Y-17.0687
G01 X5.9601 Y-17.0709
G01 X5.9683 Y-17.0716
G01 X7.6700 Y-17.0716
G01 X7.6783 Y-17.0711
G01 X7.6864 Y-17.0696
G01 X7.6943 Y-17.0671
G01 X7.7019 Y-17.0637
G01 X7.7103 Y-17.0583
G01 X7.7166 Y-17.0530
G01 X7.7223 Y-17.0469
G01 X7.7272 Y-17.0402
G01 X7.7318 Y-17.0314
G01 X7.7347 Y-17.0236
G01 X7.7367 Y-17.0156
G01 X7.7376 Y-17.0073
G01 X7.7376 Y-16.4756
G01 X8.1388 Y-16.4756
G01 X8.1480 Y-16.4924
G01 X8.1536 Y-16.5007
G01 X8.1569 Y-16.5045
G01 X8.1617 Y-16.5092
G01 X8.1698 Y-16.5153
G01 X8.2409 Y-16.5541
G01 X8.2472 Y-16.5566
G01 X8.2536 Y-16.5584
G01 X8.2602 Y-16.5596
G01 X8.2669 Y-16.5601
G01 X8.2736 Y-16.5600
G01 X8.3461 Y-16.5548
G01 X8.3542 Y-16.5535
G01 X8.3636 Y-16.5507
G01 X8.3726 Y-16.5465
G01 X8.3795 Y-16.5421
G01 X8.4431 Y-16.4931
G01 X8.4479 Y-16.4884
G01 X8.4532 Y-16.4819
G01 X9.7374 Y-14.6840
G01 X9.7431 Y-14.6744
G01 X9.7462 Y-14.6669
G01 X9.7701 Y-14.5983
G01 X9.7724 Y-14.5885
G01 X9.7733 Y-14.5802
G01 X9.7730 Y-14.5718
G01 X9.7718 Y-14.5635
G01 X9.7548 Y-14.4928
G01 X9.7523 Y-14.4849
G01 X9.7490 Y-14.4773
G01 X9.7447 Y-14.4702
G01 X9.7226 Y-14.4413
G01 X9.7180 Y-14.4358
G01 X9.7008 Y-14.4186
G01 X9.5763 Y-14.2408
G01 X9.4845 Y-14.0440
G01 X9.4283 Y-13.8343
G01 X9.4094 Y-13.6180
G01 X9.4283 Y-13.4017
G01 X9.4845 Y-13.1920
G01 X9.5763 Y-12.9952
G01 X9.7008 Y-12.8174
G01 X9.8544 Y-12.6638
G01 X10.0322 Y-12.5393
G01 X10.0681 Y-12.5225
G01 X10.0777 Y-12.5167
G01 X10.0828 Y-12.5127
G01 X10.1373 Y-12.4646
G01 X10.1441 Y-12.4573
G01 X10.1498 Y-12.4490
G01 X10.1529 Y-12.4430
G01 X10.1559 Y-12.4352
G01 X10.1759 Y-12.3653
G01 X10.1776 Y-12.3571
G01 X10.1784 Y-12.3470
G01 X10.1777 Y-12.3370
G01 X10.1760 Y-12.3288
G01 X10.1550 Y-12.2592
G01 X10.1528 Y-12.2530
G01 X10.1500 Y-12.2470
G01 X10.1466 Y-12.2413
G01 X10.1426 Y-12.2359
G01 X10.1382 Y-12.2310
G01 X10.0797 Y-12.1802
G01 X10.0741 Y-12.1763
G01 X10.0697 Y-12.1737
G01 X10.0348 Y-12.1574
G01 X10.0287 Y-12.1537
G01 X10.3092 Y-11.8732
G01 X10.3261 Y-11.8808
G01 X10.4000 Y-11.9072
G01 X10.4063 Y-11.9092
G01 X10.4857 Y-11.9290
G01 X10.5667 Y-11.9411
G01 X10.5733 Y-11.9417
G01 X10.6550 Y-11.9456
G01 X10.7400 Y-11.9415
G01 X10.8243 Y-11.9290
G01 X10.9069 Y-11.9083
G01 X10.9870 Y-11.8796
G01 X11.0610 Y-11.8447
G01 X11.0669 Y-11.8416
G01 X11.1370 Y-11.7994
G01 X11.2028 Y-11.7507
G01 X11.2079 Y-11.7465
G01 X11.2661 Y-11.6938
G01 X11.2708 Y-11.6891
G01 X11.3257 Y-11.6284
G01 X11.3764 Y-11.5600
G01 X11.4202 Y-11.4870
G01 X11.4553 Y-11.4131
G01 X11.4604 Y-11.3996
G01 X11.8529 Y-11.3996
G01 X11.8257 Y-11.5014
G01 X11.8239 Y-11.5061
G01 X11.7344 Y-11.6982
G01 X11.7318 Y-11.7026
G01 X11.6103 Y-11.8762
G01 X11.6070 Y-11.8801
G01 X11.4571 Y-12.0300
G01 X11.4532 Y-12.0333
G01 X11.2796 Y-12.1548
G01 X11.2752 Y-12.1574
G01 X11.2419 Y-12.1729
G01 X11.2336 Y-12.1778
G01 X11.2272 Y-12.1828
G01 X11.1715 Y-12.2320
G01 X11.1659 Y-12.2382
G01 X11.1610 Y-12.2450
G01 X11.1578 Y-12.2509
G01 X11.1546 Y-12.2587
G01 X11.1337 Y-12.3318
G01 X11.1324 Y-12.3384
G01 X11.1317 Y-12.3451
G01 X11.1319 Y-12.3551
G01 X11.1336 Y-12.3651
G01 X11.1555 Y-12.4378
G01 X11.1586 Y-12.4455
G01 X11.1617 Y-12.4514
G01 X11.1663 Y-12.4582
G01 X11.1718 Y-12.4644
G01 X11.2276 Y-12.5130
G01 X11.2330 Y-12.5173
G01 X11.2418 Y-12.5225
G01 X11.2778 Y-12.5393
G01 X11.4556 Y-12.6638
G01 X11.5286 Y-12.7368
G01 X11.5348 Y-12.7420
G01 X11.5401 Y-12.7456
G01 X11.6097 Y-12.7835
G01 X11.6176 Y-12.7864
G01 X11.6241 Y-12.7881
G01 X11.6324 Y-12.7893
G01 X11.6391 Y-12.7895
G01 X11.7149 Y-12.7841
G01 X11.7216 Y-12.7831
G01 X11.7282 Y-12.7815
G01 X11.7361 Y-12.7785
G01 X11.7436 Y-12.7746
G01 X11.7927 Y-12.7429
G01 X11.8013 Y-12.7357
G01 X18.9843 Y-5.5527
G01 X19.0012 Y-5.5333
G01 X19.0115 Y-5.5194
G01 X19.0468 Y-5.4894
G01 X19.0602 Y-5.4768
G01 X19.0837 Y-5.4580
G01 X19.1343 Y-5.4151
G01 X19.1500 Y-5.4053
G01 X19.1547 Y-5.4020
G01 X19.2187 Y-5.3720
G01 X19.2778 Y-5.3419
G01 X19.2954 Y-5.3360
G01 X19.3006 Y-5.3338
G01 X19.3698 Y-5.3193
G01 X19.4360 Y-5.3031
G01 X19.4512 Y-5.3020
G01 X19.4583 Y-5.3010
G01 X19.5331 Y-5.3029
G01 X19.6736 Y-5.3029
G01 X19.6817 Y-5.3025
G01 X19.6927 Y-5.3002
G01 X19.7625 Y-5.2797
G01 X19.7704 Y-5.2766
G01 X19.7779 Y-5.2725
G01 X19.7835 Y-5.2685
G01 X19.8068 Y-5.2499
G01 X20.5270 Y-4.5676
G01 X21.9926 Y-4.5676
G01 X21.9989 Y-4.5672
G01 X22.0331 Y-4.5630
G01 X22.0856 Y-4.5504
G01 X22.3142 Y-4.5324
G01 X22.5428 Y-4.5504
G01 X22.5953 Y-4.5630
G01 X22.6295 Y-4.5672
G01 X22.6374 Y-4.5676
G01 X28.7212 Y-4.5676
G01 X28.7315 Y-4.5669
G01 X28.7809 Y-4.5578
G01 X28.7891 Y-4.5553
G01 X28.8237 Y-4.5424
G01 X28.8737 Y-4.5369
G01 X30.9947 Y-4.5369
G01 X31.0447 Y-4.5424
G01 X31.0793 Y-4.5553
G01 X31.0875 Y-4.5578
G01 X31.1369 Y-4.5669
G01 X31.1472 Y-4.5676
G01 X36.4323 Y-4.5676
G01 X36.4324 Y-33.3655
G01 X36.4330 Y-33.3751
G01 X36.4351 Y-33.3846
G01 X36.4551 Y-33.4527
G01 X36.4573 Y-33.4590
G01 X36.4609 Y-33.4666
G01 X36.4645 Y-33.4723
G01 X36.4697 Y-33.4789
G01 X36.4744 Y-33.4836
G01 X36.5306 Y-33.5323
G01 X36.5375 Y-33.5373
G01 X36.5434 Y-33.5406
G01 X36.5512 Y-33.5439
G01 X36.5593 Y-33.5462
G01 X36.6132 Y-33.5579
G01 X36.6196 Y-33.5588
G01 X36.6260 Y-33.5591
G01 X44.3671 Y-33.5591
G01 X44.3751 Y-33.5585
G01 X44.3830 Y-33.5568
G01 X44.4527 Y-33.5364
G01 X44.4606 Y-33.5335
G01 X44.4695 Y-33.5289
G01 X44.4776 Y-33.5229
G01 X44.4847 Y-33.5158
G01 X44.5323 Y-33.4609
G01 X44.5364 Y-33.4554
G01 X44.5406 Y-33.4481
G01 X44.5439 Y-33.4403
G01 X44.5462 Y-33.4322
G01 X44.5579 Y-33.3783
G01 X44.5588 Y-33.3719
G01 X44.5591 Y-33.3655
G01 X44.5591 Y-0.6345
G01 X44.5585 Y-0.6249
G01 X44.5564 Y-0.6154
G01 X44.5359 Y-0.5457
G01 X44.5329 Y-0.5379
G01 X44.5289 Y-0.5305
G01 X44.5229 Y-0.5224
G01 X44.5158 Y-0.5153
G01 X44.4609 Y-0.4677
G01 X44.4554 Y-0.4636
G01 X44.4481 Y-0.4594
G01 X44.4403 Y-0.4561
G01 X44.4322 Y-0.4538
G01 X44.3783 Y-0.4421
G01 X44.3719 Y-0.4412
G01 X44.3655 Y-0.4409
G01 X6.6260 Y-0.4409
G01 X6.6164 Y-0.4415
G01 X6.6085 Y-0.4432
G01 X6.5340 Y-0.4652
G01 X6.5279 Y-0.4679
G01 X6.5206 Y-0.4720
G01 X6.5152 Y-0.4760
G01 X6.5090 Y-0.4817
G01 X6.4603 Y-0.5379
G01 X6.4561 Y-0.5432
G01 X6.4533 Y-0.5474
G01 X6.4488 Y-0.5565
G01 X6.4457 Y-0.5661
G01 X6.4336 Y-0.6217
G01 X6.4324 Y-0.6329
G01 X6.4324 Y-4.9840
G01 X6.4330 Y-4.9936
G01 X6.4351 Y-5.0031
G01 X6.4567 Y-5.0760
G01 X6.4601 Y-5.0836
G01 X6.4645 Y-5.0908
G01 X6.4697 Y-5.0974
G01 X6.4757 Y-5.1032
G01 X6.5306 Y-5.1508
G01 X6.5374 Y-5.1557
G01 X6.5463 Y-5.1605
G01 X6.5542 Y-5.1634
G01 X6.5624 Y-5.1653
G01 X6.6343 Y-5.1757
G01 X6.6425 Y-5.1763
G01 X6.6540 Y-5.1756
G01 X6.6605 Y-5.1743
G01 X6.6668 Y-5.1724
G01 X6.7275 Y-5.1473
G01 X6.7351 Y-5.1436
G01 X6.7421 Y-5.1390
G01 X6.8472 Y-5.0602
G01 X6.8543 Y-5.0563
G01 X6.9663 Y-5.0144
G01 X6.9733 Y-5.0127
G01 X7.0213 Y-5.0076
G01 X7.5425 Y-5.0076
G01 X7.5425 Y-5.3804
G01 X7.0641 Y-5.3804
G01 X7.0558 Y-5.3809
G01 X7.0493 Y-5.3820
G01 X7.0429 Y-5.3838
G01 X7.0322 Y-5.3883
G01 X7.0265 Y-5.3918
G01 X7.0212 Y-5.3957
G01 X7.0129 Y-5.4038
G01 X7.0061 Y-5.4132
G01 X7.0029 Y-5.4191
G01 X7.0004 Y-5.4252
G01 X6.9974 Y-5.4364
G01 X6.9965 Y-5.4480
G01 X6.9965 Y-7.0480
G01 X6.9972 Y-7.0579
G01 X6.9989 Y-7.0660
G01 X7.0023 Y-7.0754
G01 X7.0069 Y-7.0842
G01 X7.0129 Y-7.0922
G01 X7.0199 Y-7.0992
G01 X7.0279 Y-7.1052
G01 X7.0367 Y-7.1098
G01 X7.0461 Y-7.1132
G01 X7.0575 Y-7.1153
G01 X7.0641 Y-7.1156
G01 X7.5425 Y-7.1156
G01 X7.5425 Y-7.4883
G01 X7.0213 Y-7.4883
G01 X6.9733 Y-7.4833
G01 X6.9663 Y-7.4816
G01 X6.8543 Y-7.4397
G01 X6.8472 Y-7.4358
G01 X6.7421 Y-7.3570
G01 X6.7368 Y-7.3534
G01 X6.7312 Y-7.3503
G01 X6.7252 Y-7.3478
G01 X6.6556 Y-7.3219
G01 X6.6458 Y-7.3195
G01 X6.6408 Y-7.3189
G01 X6.6340 Y-7.3187
G01 X6.6290 Y-7.3190
G01 X6.6224 Y-7.3199
G01 X6.5465 Y-7.3365
G01 X6.5386 Y-7.3394
G01 X6.5326 Y-7.3424
G01 X6.5255 Y-7.3470
G01 X6.5203 Y-7.3512
G01 X6.4665 Y-7.4049
G01 X6.4612 Y-7.4112
G01 X6.4567 Y-7.4181
G01 X6.4530 Y-7.4254
G01 X6.4503 Y-7.4332
G01 X6.4345 Y-7.4953
G01 X6.4331 Y-7.5019
G01 X6.4324 Y-7.5120
G01 X6.4325 Y-10.4895
G01 X6.4333 Y-10.4959
G01 X6.4347 Y-10.5022
G01 X6.4551 Y-10.5719
G01 X6.4580 Y-10.5798
G01 X6.4626 Y-10.5887
G01 X6.4686 Y-10.5968
G01 X6.4744 Y-10.6028
G01 X6.5294 Y-10.6504
G01 X6.5347 Y-10.6546
G01 X6.5404 Y-10.6582
G01 X6.5465 Y-10.6613
G01 X6.5512 Y-10.6631
G01 X6.5577 Y-10.6651
G01 X6.6311 Y-10.6773
G01 X6.6376 Y-10.6777
G01 X6.6441 Y-10.6775
G01 X6.6864 Y-10.6732
G01 X6.6864 Y-11.0518
G01 X6.6658 Y-11.0570
G01 X6.6380 Y-11.0669
G01 X6.6068 Y-11.0817
G01 X6.5815 Y-11.0969
G01 X6.5591 Y-11.1134
G01 X6.5540 Y-11.1176
G01 X6.5322 Y-11.1376
G01 X6.5125 Y-11.1595
G01 X6.4958 Y-11.1818
G01 X6.4921 Y-11.1873
G01 X6.4779 Y-11.2113
G01 X6.4645 Y-11.2394
G01 X6.4551 Y-11.2656
G01 X6.4531 Y-11.2720
G01 X6.4472 Y-11.2958
G01 X6.4459 Y-11.3023
G01 X6.4419 Y-11.3299
G01 X6.4404 Y-11.3610
G01 X6.4404 Y-12.3143
G01 X6.4419 Y-12.3421
G01 X6.4465 Y-12.3730
G01 X6.4540 Y-12.4032
G01 X6.4633 Y-12.4295
G01 X6.4659 Y-12.4356
G01 X6.4764 Y-12.4578
G01 X6.4795 Y-12.4636
G01 X6.4939 Y-12.4875
G01 X6.5125 Y-12.5125
G01 X6.5334 Y-12.5356
G01 X6.5540 Y-12.5544
G01 X6.5591 Y-12.5586
G01 X6.5829 Y-12.5760
G01 X6.6083 Y-12.5911
G01 X6.6364 Y-12.6045
G01 X6.6658 Y-12.6150
G01 X6.6864 Y-12.6202
G01 X6.6864 Y-12.9988
G01 X6.6444 Y-12.9944
G01 X6.6331 Y-12.9945
G01 X6.6267 Y-12.9953
G01 X6.5569 Y-13.0082
G01 X6.5504 Y-13.0098
G01 X6.5440 Y-13.0119
G01 X6.5379 Y-13.0147
G01 X6.5321 Y-13.0181
G01 X6.5280 Y-13.0211
G01 X6.5229 Y-13.0254
G01 X6.4687 Y-13.0764
G01 X6.4622 Y-13.0842
G01 X6.4570 Y-13.0929
G01 X6.4542 Y-13.0991
G01 X6.4521 Y-13.1055
G01 X6.4343 Y-13.1710
G01 X6.4325 Y-13.1823
G01 X6.4324 Y-13.4840
G01 X5.8820 Y-14.5848
G01 X5.8785 Y-14.5939
G01 X5.8766 Y-14.6017
G01 X5.8637 Y-14.6732
G01 X5.8630 Y-14.6799
G01 X5.8630 Y-14.6849
G01 X5.8634 Y-14.6916
G01 X5.8642 Y-14.6966
G01 X5.8654 Y-14.7015
G01 X5.8675 Y-14.7079
G01 X5.8960 Y-14.7766
G01 X5.8999 Y-14.7840
G01 X5.9046 Y-14.7909
G01 X5.9102 Y-14.7972
G01 X5.9179 Y-14.8037
G01 X5.9776 Y-14.8452
G01 X5.9862 Y-14.8503
G01 X5.9972 Y-14.8545
G01 X6.0053 Y-14.8564
G01 X6.0451 Y-14.8628
G01 X6.0543 Y-14.8636
G01 X6.4984 Y-14.8636
G00 Z2.0000
G00 X6.3833 Y-14.9787
G01 F60.00
G01 Z-0.1001
G01 F160.00
G01 X6.3833 Y-15.1213
G01 X5.9700 Y-15.1213
G01 X5.9610 Y-15.1216
G01 X5.9476 Y-15.1227
G01 X5.9300 Y-15.1258
G01 X5.9170 Y-15.1292
G01 X5.9043 Y-15.1336
G01 X5.8960 Y-15.1370
G01 X5.8839 Y-15.1429
G01 X5.8723 Y-15.1497
G01 X5.8612 Y-15.1573
G01 X5.8507 Y-15.1657
G01 X5.8441 Y-15.1717
G01 X5.8377 Y-15.1781
G01 X5.8288 Y-15.1881
G01 X5.8207 Y-15.1988
G01 X5.8133 Y-15.2101
G01 X5.8068 Y-15.2219
G01 X5.8012 Y-15.2341
G01 X5.7980 Y-15.2425
G01 X5.7940 Y-15.2553
G01 X5.7909 Y-15.2684
G01 X5.7887 Y-15.2816
G01 X5.7878 Y-15.2906
G01 X5.7873 Y-15.3040
G01 X5.7873 Y-17.0040
G01 X5.7878 Y-17.0174
G01 X5.7893 Y-17.0308
G01 X5.7918 Y-17.0440
G01 X5.7952 Y-17.0570
G01 X5.7996 Y-17.0697
G01 X5.8049 Y-17.0821
G01 X5.8089 Y-17.0901
G01 X5.8157 Y-17.1017
G01 X5.8233 Y-17.1128
G01 X5.8288 Y-17.1199
G01 X5.8377 Y-17.1299
G01 X5.8441 Y-17.1363
G01 X5.8507 Y-17.1423
G01 X5.8612 Y-17.1507
G01 X5.8723 Y-17.1583
G01 X5.8800 Y-17.1629
G01 X5.8879 Y-17.1672
G01 X5.9001 Y-17.1728
G01 X5.9085 Y-17.1760
G01 X5.9213 Y-17.1800
G01 X5.9344 Y-17.1831
G01 X5.9432 Y-17.1847
G01 X5.9566 Y-17.1862
G01 X5.9655 Y-17.1866
G01 X7.6745 Y-17.1866
G01 X7.6879 Y-17.1858
G01 X7.7012 Y-17.1840
G01 X7.7144 Y-17.1812
G01 X7.7230 Y-17.1788
G01 X7.7357 Y-17.1744
G01 X7.7481 Y-17.1691
G01 X7.7561 Y-17.1651
G01 X7.7677 Y-17.1583
G01 X7.7752 Y-17.1533
G01 X7.7859 Y-17.1452
G01 X7.7992 Y-17.1332
G01 X7.8083 Y-17.1233
G01 X7.8140 Y-17.1164
G01 X7.8243 Y-17.1017
G01 X7.8332 Y-17.0861
G01 X7.8404 Y-17.0697
G01 X7.8460 Y-17.0527
G01 X7.8491 Y-17.0396
G01 X7.8507 Y-17.0308
G01 X7.8522 Y-17.0174
G01 X7.8527 Y-17.0040
G01 X7.8527 Y-16.5907
G01 X8.0805 Y-16.5907
G01 X8.0891 Y-16.5984
G01 X8.0961 Y-16.6040
G01 X8.1111 Y-16.6143
G01 X8.1813 Y-16.6528
G01 X8.1935 Y-16.6589
G01 X8.2103 Y-16.6655
G01 X8.2190 Y-16.6682
G01 X8.2322 Y-16.6715
G01 X8.2501 Y-16.6742
G01 X8.2637 Y-16.6751
G01 X8.2728 Y-16.6751
G01 X8.3527 Y-16.6696
G01 X8.3659 Y-16.6682
G01 X8.3790 Y-16.6658
G01 X8.3876 Y-16.6637
G01 X8.3961 Y-16.6612
G01 X8.4085 Y-16.6566
G01 X8.4246 Y-16.6491
G01 X8.4362 Y-16.6425
G01 X8.4436 Y-16.6376
G01 X8.5092 Y-16.5876
G01 X8.5230 Y-16.5759
G01 X8.5356 Y-16.5629
G01 X8.5468 Y-16.5488
G01 X9.8310 Y-14.7509
G01 X9.8404 Y-14.7363
G01 X9.8465 Y-14.7248
G01 X9.8501 Y-14.7169
G01 X9.8549 Y-14.7047
G01 X9.8809 Y-14.6290
G01 X9.8843 Y-14.6158
G01 X9.8860 Y-14.6069
G01 X9.8880 Y-14.5889
G01 X9.8883 Y-14.5753
G01 X9.8880 Y-14.5662
G01 X9.8872 Y-14.5572
G01 X9.8851 Y-14.5437
G01 X9.8666 Y-14.4658
G01 X9.8615 Y-14.4486
G01 X9.8584 Y-14.4403
G01 X9.8529 Y-14.4280
G01 X9.8465 Y-14.4161
G01 X9.8393 Y-14.4048
G01 X9.8109 Y-14.3675
G01 X9.8014 Y-14.3567
G01 X9.7893 Y-14.3444
G01 X9.6763 Y-14.1831
G01 X9.5930 Y-14.0045
G01 X9.5420 Y-13.8142
G01 X9.5249 Y-13.6180
G01 X9.5420 Y-13.4218
G01 X9.5930 Y-13.2315
G01 X9.6763 Y-13.0529
G01 X9.7893 Y-12.8916
G01 X9.9286 Y-12.7523
G01 X10.0899 Y-12.6393
G01 X10.1152 Y-12.6275
G01 X10.1269 Y-12.6215
G01 X10.1380 Y-12.6148
G01 X10.1487 Y-12.6073
G01 X10.1588 Y-12.5990
G01 X10.2120 Y-12.5521
G01 X10.2219 Y-12.5427
G01 X10.2281 Y-12.5361
G01 X10.2367 Y-12.5256
G01 X10.2445 Y-12.5144
G01 X10.2515 Y-12.5028
G01 X10.2594 Y-12.4864
G01 X10.2657 Y-12.4694
G01 X10.2887 Y-12.3880
G01 X10.2913 Y-12.3747
G01 X10.2932 Y-12.3566
G01 X10.2934 Y-12.3430
G01 X10.2921 Y-12.3249
G01 X10.2891 Y-12.3070
G01 X10.2856 Y-12.2939
G01 X10.2637 Y-12.2217
G01 X10.2573 Y-12.2050
G01 X10.2493 Y-12.1890
G01 X10.2423 Y-12.1775
G01 X10.2372 Y-12.1702
G01 X10.2288 Y-12.1597
G01 X10.2228 Y-12.1531
G01 X10.2165 Y-12.1467
G01 X10.2069 Y-12.1381
G01 X10.3379 Y-12.0072
G01 X10.3655 Y-12.0170
G01 X10.3741 Y-12.0196
G01 X10.4545 Y-12.0398
G01 X10.4677 Y-12.0426
G01 X10.5587 Y-12.0559
G01 X10.6460 Y-12.0604
G01 X10.6595 Y-12.0606
G01 X10.7513 Y-12.0559
G01 X10.8467 Y-12.0418
G01 X10.9402 Y-12.0183
G01 X11.0227 Y-11.9891
G01 X11.0392 Y-11.9822
G01 X11.1182 Y-11.9446
G01 X11.2009 Y-11.8950
G01 X11.2784 Y-11.8376
G01 X11.3433 Y-11.7790
G01 X11.3560 Y-11.7663
G01 X11.4146 Y-11.7014
G01 X11.4695 Y-11.6276
G01 X11.4768 Y-11.6164
G01 X11.5195 Y-11.5451
G01 X11.5237 Y-11.5372
G01 X11.5344 Y-11.5147
G01 X11.6931 Y-11.5147
G01 X11.6333 Y-11.6428
G01 X11.5204 Y-11.8041
G01 X11.3811 Y-11.9434
G01 X11.2198 Y-12.0563
G01 X11.1870 Y-12.0718
G01 X11.1757 Y-12.0783
G01 X11.1648 Y-12.0856
G01 X11.1512 Y-12.0964
G01 X11.0946 Y-12.1464
G01 X11.0850 Y-12.1560
G01 X11.0761 Y-12.1663
G01 X11.0680 Y-12.1772
G01 X11.0607 Y-12.1887
G01 X11.0543 Y-12.2007
G01 X11.0488 Y-12.2132
G01 X11.0430 Y-12.2304
G01 X11.0235 Y-12.2987
G01 X11.0194 Y-12.3163
G01 X11.0171 Y-12.3343
G01 X11.0166 Y-12.3524
G01 X11.0179 Y-12.3705
G01 X11.0200 Y-12.3840
G01 X11.0231 Y-12.3972
G01 X11.0449 Y-12.4695
G01 X11.0509 Y-12.4864
G01 X11.0585 Y-12.5026
G01 X11.0677 Y-12.5179
G01 X11.0783 Y-12.5323
G01 X11.0903 Y-12.5456
G01 X11.1001 Y-12.5547
G01 X11.1523 Y-12.6000
G01 X11.1669 Y-12.6113
G01 X11.1745 Y-12.6164
G01 X11.1865 Y-12.6234
G01 X11.2201 Y-12.6393
G01 X11.3814 Y-12.7523
G01 X11.4525 Y-12.8230
G01 X11.4590 Y-12.8287
G01 X11.4694 Y-12.8366
G01 X11.4802 Y-12.8438
G01 X11.4878 Y-12.8481
G01 X11.5541 Y-12.8843
G01 X11.5664 Y-12.8900
G01 X11.5749 Y-12.8934
G01 X11.5878 Y-12.8976
G01 X11.6055 Y-12.9016
G01 X11.6235 Y-12.9039
G01 X11.6416 Y-12.9045
G01 X11.7260 Y-12.8986
G01 X11.7441 Y-12.8959
G01 X11.7618 Y-12.8915
G01 X11.7704 Y-12.8886
G01 X11.7831 Y-12.8835
G01 X11.7994 Y-12.8752
G01 X11.8595 Y-12.8366
G01 X11.8698 Y-12.8287
G01 X11.8827 Y-12.8170
G01 X19.0656 Y-5.6340
G01 X19.0719 Y-5.6274
G01 X19.0873 Y-5.6095
G01 X19.0962 Y-5.5984
G01 X19.1230 Y-5.5755
G01 X19.1366 Y-5.5630
G01 X19.1567 Y-5.5470
G01 X19.2014 Y-5.5090
G01 X19.2067 Y-5.5055
G01 X19.2122 Y-5.5021
G01 X19.2692 Y-5.4753
G01 X19.3214 Y-5.4487
G01 X19.3336 Y-5.4444
G01 X19.3952 Y-5.4315
G01 X19.4536 Y-5.4172
G01 X19.4649 Y-5.4162
G01 X19.5307 Y-5.4179
G01 X19.6736 Y-5.4180
G01 X19.6867 Y-5.4175
G01 X19.6996 Y-5.4161
G01 X19.7082 Y-5.4147
G01 X19.7209 Y-5.4117
G01 X19.7976 Y-5.3892
G01 X19.8064 Y-5.3862
G01 X19.8191 Y-5.3808
G01 X19.8314 Y-5.3744
G01 X19.8394 Y-5.3697
G01 X19.8544 Y-5.3591
G01 X19.8763 Y-5.3419
G01 X19.8859 Y-5.3334
G01 X20.5728 Y-4.6827
G01 X21.9953 Y-4.6826
G01 X22.0124 Y-4.6814
G01 X22.0504 Y-4.6767
G01 X22.0630 Y-4.6741
G01 X22.1036 Y-4.6644
G01 X22.3142 Y-4.6478
G01 X22.5248 Y-4.6644
G01 X22.5654 Y-4.6741
G01 X22.5780 Y-4.6767
G01 X22.6202 Y-4.6818
G01 X22.6374 Y-4.6827
G01 X28.7212 Y-4.6827
G01 X28.7352 Y-4.6821
G01 X28.7491 Y-4.6805
G01 X28.7980 Y-4.6717
G01 X28.8117 Y-4.6687
G01 X28.8207 Y-4.6661
G01 X28.8505 Y-4.6552
G01 X28.8800 Y-4.6520
G01 X30.9884 Y-4.6520
G01 X31.0179 Y-4.6552
G01 X31.0477 Y-4.6661
G01 X31.0567 Y-4.6687
G01 X31.0704 Y-4.6717
G01 X31.1193 Y-4.6805
G01 X31.1332 Y-4.6821
G01 X31.1472 Y-4.6827
G01 X36.3173 Y-4.6827
G01 X36.3173 Y-33.3655
G01 X36.3178 Y-33.3785
G01 X36.3192 Y-33.3915
G01 X36.3215 Y-33.4043
G01 X36.3247 Y-33.4170
G01 X36.3447 Y-33.4851
G01 X36.3491 Y-33.4980
G01 X36.3563 Y-33.5146
G01 X36.3605 Y-33.5226
G01 X36.3676 Y-33.5343
G01 X36.3783 Y-33.5489
G01 X36.3873 Y-33.5591
G01 X36.3937 Y-33.5656
G01 X36.4540 Y-33.6182
G01 X36.4684 Y-33.6294
G01 X36.4838 Y-33.6392
G01 X36.5002 Y-33.6473
G01 X36.5172 Y-33.6538
G01 X36.5348 Y-33.6586
G01 X36.5914 Y-33.6709
G01 X36.6086 Y-33.6733
G01 X36.6260 Y-33.6742
G01 X44.3698 Y-33.6741
G01 X44.3829 Y-33.6733
G01 X44.3915 Y-33.6723
G01 X44.4086 Y-33.6690
G01 X44.4851 Y-33.6468
G01 X44.4980 Y-33.6424
G01 X44.5105 Y-33.6372
G01 X44.5226 Y-33.6310
G01 X44.5343 Y-33.6239
G01 X44.5453 Y-33.6160
G01 X44.5524 Y-33.6103
G01 X44.5656 Y-33.5978
G01 X44.6182 Y-33.5375
G01 X44.6240 Y-33.5304
G01 X44.6320 Y-33.5193
G01 X44.6392 Y-33.5077
G01 X44.6454 Y-33.4955
G01 X44.6508 Y-33.4829
G01 X44.6538 Y-33.4743
G01 X44.6586 Y-33.4567
G01 X44.6716 Y-33.3958
G01 X44.6737 Y-33.3785
