(G-CODE GENERATED BY FLATCAM v8.994 - www.flatcam.org - Version Date: 2020/11/7)

(Name: led_bar.drl_edit_cnc)
(Type: G-code from Geometry)
(Units: MM)

(Created on Monday, 18 April 2022 at 04:27)

(This preprocessor is the default preprocessor used by FlatCAM.)
(It is made to work with MACH3 compatible motion controllers.)


(TOOLS DIAMETER: )
(Tool: 1 -> Dia: 0.8)
(Tool: 2 -> Dia: 1.0)

(FEEDRATE Z: )
(Tool: 1 -> Feedrate: 300)
(Tool: 2 -> Feedrate: 300)

(FEEDRATE RAPIDS: )
(Tool: 1 -> Feedrate Rapids: 1500)
(Tool: 2 -> Feedrate Rapids: 1500)

(Z_CUT: )
(Tool: 1 -> Z_Cut: -1.7)
(Tool: 2 -> Z_Cut: -1.7)

(Tools Offset: )
(Tool: 1 -> Offset Z: 0.0)
(Tool: 2 -> Offset Z: 0.0)

(Z_MOVE: )
(Tool: 1 -> Z_Move: 2)
(Tool: 2 -> Z_Move: 2)

(Z Toolchange: 30.0 mm)
(X,Y Toolchange: 0.0000, 0.0000 mm)
(Z Start: None mm)
(Z End: 0.5 mm)
(X,Y End: None mm)
(Steps per circle: 64)
(Preprocessor Excellon: default)

(X range:    3.9640 ...   41.5100  mm)
(Y range:  -29.4050 ...   -5.5940  mm)

(Spindle Speed: 0 RPM)
G21
G90
G94

G01 F300.00

M5
G00 Z30.0000
T1
G00 X0.0000 Y0.0000                
M6
(MSG, Change to Tool Dia = 0.8000 ||| Total drills for tool T1 = 54)
M0
G00 Z30.0000

G01 F300.00
M03
G00 X41.1100 Y-5.9940
G01 Z-1.7000
G01 Z0
G00 Z2.0000
G00 X41.1100 Y-8.5340
G01 Z-1.7000
G01 Z0
G00 Z2.0000
G00 X41.1100 Y-11.0740
G01 Z-1.7000
G01 Z0
G00 Z2.0000
G00 X41.1100 Y-13.6140
G01 Z-1.7000
G01 Z0
G00 Z2.0000
G00 X41.1100 Y-16.1540
G01 Z-1.7000
G01 Z0
G00 Z2.0000
G00 X41.1100 Y-18.6940
G01 Z-1.7000
G01 Z0
G00 Z2.0000
G00 X41.1100 Y-21.2340
G01 Z-1.7000
G01 Z0
G00 Z2.0000
G00 X41.1100 Y-23.7740
G01 Z-1.7000
G01 Z0
G00 Z2.0000
G00 X33.4900 Y-23.7740
G01 Z-1.7000
G01 Z0
G00 Z2.0000
G00 X33.4900 Y-21.2340
G01 Z-1.7000
G01 Z0
G00 Z2.0000
G00 X33.4900 Y-18.6940
G01 Z-1.7000
G01 Z0
G00 Z2.0000
G00 X33.4900 Y-16.1540
G01 Z-1.7000
G01 Z0
G00 Z2.0000
G00 X33.4900 Y-13.6140
G01 Z-1.7000
G01 Z0
G00 Z2.0000
G00 X33.4900 Y-11.0740
G01 Z-1.7000
G01 Z0
G00 Z2.0000
G00 X29.9340 Y-11.0740
G01 Z-1.7000
G01 Z0
G00 Z2.0000
G00 X29.9340 Y-13.6140
G01 Z-1.7000
G01 Z0
G00 Z2.0000
G00 X29.9340 Y-16.1540
G01 Z-1.7000
G01 Z0
G00 Z2.0000
G00 X29.9340 Y-18.6940
G01 Z-1.7000
G01 Z0
G00 Z2.0000
G00 X29.9340 Y-21.2340
G01 Z-1.7000
G01 Z0
G00 Z2.0000
G00 X29.9340 Y-23.7740
G01 Z-1.7000
G01 Z0
G00 Z2.0000
G00 X29.9340 Y-26.3140
G01 Z-1.7000
G01 Z0
G00 Z2.0000
G00 X29.9340 Y-28.8540
G01 Z-1.7000
G01 Z0
G00 Z2.0000
G00 X22.3140 Y-28.8540
G01 Z-1.7000
G01 Z0
G00 Z2.0000
G00 X22.3140 Y-26.3140
G01 Z-1.7000
G01 Z0
G00 Z2.0000
G00 X22.3140 Y-23.7740
G01 Z-1.7000
G01 Z0
G00 Z2.0000
G00 X22.3140 Y-21.2340
G01 Z-1.7000
G01 Z0
G00 Z2.0000
G00 X22.3140 Y-18.6940
G01 Z-1.7000
G01 Z0
G00 Z2.0000
G00 X22.3140 Y-16.1540
G01 Z-1.7000
G01 Z0
G00 Z2.0000
G00 X22.3140 Y-13.6140
G01 Z-1.7000
G01 Z0
G00 Z2.0000
G00 X22.3140 Y-11.0740
G01 Z-1.7000
G01 Z0
G00 Z2.0000
G00 X18.2750 Y-13.6180
G01 Z-1.7000
G01 Z0
G00 Z2.0000
G00 X18.2750 Y-16.1580
G01 Z-1.7000
G01 Z0
G00 Z2.0000
G00 X18.2750 Y-18.6980
G01 Z-1.7000
G01 Z0
G00 Z2.0000
G00 X18.2750 Y-21.2380
G01 Z-1.7000
G01 Z0
G00 Z2.0000
G00 X18.2750 Y-23.7780
G01 Z-1.7000
G01 Z0
G00 Z2.0000
G00 X18.2750 Y-26.3180
G01 Z-1.7000
G01 Z0
G00 Z2.0000
G00 X18.2750 Y-28.8580
G01 Z-1.7000
G01 Z0
G00 Z2.0000
G00 X10.6550 Y-28.8580
G01 Z-1.7000
G01 Z0
G00 Z2.0000
G00 X10.6550 Y-26.3180
G01 Z-1.7000
G01 Z0
G00 Z2.0000
G00 X10.6550 Y-23.7780
G01 Z-1.7000
G01 Z0
G00 Z2.0000
G00 X10.6550 Y-21.2380
G01 Z-1.7000
G01 Z0
G00 Z2.0000
G00 X10.6550 Y-18.6980
G01 Z-1.7000
G01 Z0
G00 Z2.0000
G00 X10.6550 Y-16.1580
G01 Z-1.7000
G01 Z0
G00 Z2.0000
G00 X10.6550 Y-13.6180
G01 Z-1.7000
G01 Z0
G00 Z2.0000
G00 X10.6550 Y-11.0780
G01 Z-1.7000
G01 Z0
G00 Z2.0000
G00 X4.3640 Y-6.2480
G01 Z-1.7000
G01 Z0
G00 Z2.0000
G00 X7.8640 Y-6.2480
G01 Z-1.7000
G01 Z0
G00 Z2.0000
G00 X18.2750 Y-11.0780
G01 Z-1.7000
G01 Z0
G00 Z2.0000
G00 X22.3140 Y-8.5340
G01 Z-1.7000
G01 Z0
G00 Z2.0000
G00 X22.3140 Y-5.9940
G01 Z-1.7000
G01 Z0
G00 Z2.0000
G00 X29.9340 Y-8.5340
G01 Z-1.7000
G01 Z0
G00 Z2.0000
G00 X29.9340 Y-5.9940
G01 Z-1.7000
G01 Z0
G00 Z2.0000
G00 X33.4900 Y-5.9940
G01 Z-1.7000
G01 Z0
G00 Z2.0000
G00 X33.4900 Y-8.5340
G01 Z-1.7000
G01 Z0
G00 Z2.0000
G01 F300.00

M5
G00 Z30.0000
T2
G00 X0.0000 Y0.0000                
M6
(MSG, Change to Tool Dia = 1.0000 ||| Total drills for tool T2 = 6)
M0
G00 Z30.0000

G01 F300.00
M03
G00 X6.8200 Y-16.1540
G01 Z-1.7000
G01 Z0
G00 Z2.0000
G00 X6.8200 Y-18.6940
G01 Z-1.7000
G01 Z0
G00 Z2.0000
G00 X6.8200 Y-21.2340
G01 Z-1.7000
G01 Z0
G00 Z2.0000
G00 X6.8200 Y-23.7740
G01 Z-1.7000
G01 Z0
G00 Z2.0000
G00 X6.8200 Y-26.3140
G01 Z-1.7000
G01 Z0
G00 Z2.0000
G00 X6.8200 Y-28.9050
G01 Z-1.7000
G01 Z0
G00 Z2.0000
M05
G00 Z0.50


M30
