%
(POWOCKET)
(MACHINE)
(  VENDOR AUTODESK)
(  MODEL GENERIC 3-AXIS)
(  DESCRIPTION THIS MACHINE HAS XY AXIS ON THE TABLE AND Z AXIS ON THE HEAD)
(T0 D=1.5 CR=0. - ZMIN=-3.2 - FLAT END MILL)
N10 G90 G94 G17 G91.1
N15 G21
(WHEN USING FUSION 360 FOR PERSONAL USE, THE FEEDRATE OF)
(RAPID MOVES IS REDUCED TO MATCH THE FEEDRATE OF CUTTING)
(MOVES, WHICH CAN INCREASE MACHINING TIME. UNRESTRICTED RAPID)
(MOVES ARE AVAILABLE WITH A FUSION 360 SUBSCRIPTION.)
N20 G28 G91 Z0.
N25 G90
(POWOCKET)
N30 T0 M6
N35 S12000 M3
N40 G17 G90 G94
N45 G54
N50 M8
N55 G0 X71.301 Y-38.188
N60 G43 Z15. H0
N65 G1 Z5. F48.
N70 Z-0.457
N75 G3 X72.201 I0.45 J0.
N80 X70.401 I-0.9 J0.
N85 X73.101 I1.35 J0.
N90 X69.501 I-1.8 J0.
N95 X73.101 I1.8 J0.
N100 G1 X73.094 Y-38.155
N105 X73.075 Y-38.129
N110 X73.046 Y-38.112
N115 X73.013 Y-38.108
N120 X71.389 Y-38.268
N125 X71.356 Y-38.264
N130 X71.327 Y-38.247
N135 X71.308 Y-38.22
N140 X71.301 Y-38.188
N145 Z-0.914
N150 G3 X72.201 I0.45 J0.
N155 X70.401 I-0.9 J0.
N160 X73.101 I1.35 J0.
N165 X69.501 I-1.8 J0.
N170 X73.101 I1.8 J0.
N175 G1 X73.094 Y-38.155
N180 X73.075 Y-38.129
N185 X73.046 Y-38.112
N190 X73.013 Y-38.108
N195 X71.389 Y-38.268
N200 X71.356 Y-38.264
N205 X71.327 Y-38.247
N210 X71.308 Y-38.22
N215 X71.301 Y-38.188
N220 Z-1.371
N225 G3 X72.201 I0.45 J0.
N230 X70.401 I-0.9 J0.
N235 X73.101 I1.35 J0.
N240 X69.501 I-1.8 J0.
N245 X73.101 I1.8 J0.
N250 G1 X73.094 Y-38.155
N255 X73.075 Y-38.129
N260 X73.046 Y-38.112
N265 X73.013 Y-38.108
N270 X71.389 Y-38.268
N275 X71.356 Y-38.264
N280 X71.327 Y-38.247
N285 X71.308 Y-38.22
N290 X71.301 Y-38.188
N295 Z-1.829
N300 G3 X72.201 I0.45 J0.
N305 X70.401 I-0.9 J0.
N310 X73.101 I1.35 J0.
N315 X69.501 I-1.8 J0.
N320 X73.101 I1.8 J0.
N325 G1 X73.094 Y-38.155
N330 X73.075 Y-38.129
N335 X73.046 Y-38.112
N340 X73.013 Y-38.108
N345 X71.389 Y-38.268
N350 X71.356 Y-38.264
N355 X71.327 Y-38.247
N360 X71.308 Y-38.22
N365 X71.301 Y-38.188
N370 Z-2.286
N375 G3 X72.201 I0.45 J0.
N380 X70.401 I-0.9 J0.
N385 X73.101 I1.35 J0.
N390 X69.501 I-1.8 J0.
N395 X73.101 I1.8 J0.
N400 G1 X73.094 Y-38.155
N405 X73.075 Y-38.129
N410 X73.046 Y-38.112
N415 X73.013 Y-38.108
N420 X71.389 Y-38.268
N425 X71.356 Y-38.264
N430 X71.327 Y-38.247
N435 X71.308 Y-38.22
N440 X71.301 Y-38.188
N445 Z-2.743
N450 G3 X72.201 I0.45 J0.
N455 X70.401 I-0.9 J0.
N460 X73.101 I1.35 J0.
N465 X69.501 I-1.8 J0.
N470 X73.101 I1.8 J0.
N475 G1 X73.094 Y-38.155
N480 X73.075 Y-38.129
N485 X73.046 Y-38.112
N490 X73.013 Y-38.108
N495 X71.389 Y-38.268
N500 X71.356 Y-38.264
N505 X71.327 Y-38.247
N510 X71.308 Y-38.22
N515 X71.301 Y-38.188
N520 Z-3.2
N525 G3 X72.201 I0.45 J0.
N530 X70.401 I-0.9 J0.
N535 X73.101 I1.35 J0.
N540 X69.501 I-1.8 J0.
N545 X73.101 I1.8 J0.
N550 G1 X73.097 Y-38.155 Z-3.196
N555 X73.087 Y-38.125 Z-3.185
N560 X73.073 Y-38.1 Z-3.167
N565 X73.058 Y-38.082 Z-3.144
N570 X73.044 Y-38.07 Z-3.115
N575 X73.035 Y-38.064 Z-3.083
N580 X73.032 Y-38.062 Z-3.05
N585 Z5.
N590 X90.407 Y-24.644
N595 Z-0.457
N600 X90.401 Y-24.628
N605 X90.387 Y-24.618
N610 X90.37
N615 X90.356 Y-24.628
N620 X90.35 Y-24.644
N625 X90.358 Y-24.672
N630 X90.378 Y-24.693
N635 X90.407 Y-24.7
N640 X93.407
N645 X93.435 Y-24.693
N650 X93.455 Y-24.672
N655 X93.463 Y-24.644
N660 X93.455 Y-24.616
N665 X93.435 Y-24.596
N670 X93.407 Y-24.588
N675 X90.407
N680 X90.379 Y-24.596
N685 X90.358 Y-24.616
N690 X90.35 Y-24.644
N695 G2 X90.187 Y-24.974 I-0.417 J0.002
N700 G3 X90.271 Y-25.331 I0.123 J-0.16
N705 G1 X90.338 Y-25.341
N710 X90.407 Y-25.344
N715 X93.407
N720 G3 Y-23.944 I0. J0.7
N725 G1 X90.407
N730 G3 X90.271 Y-25.331 I0. J-0.7
N735 G2 X90.773 Y-25.763 I-0.13 J-0.658
N740 G3 X91.315 Y-26.144 I0.542 J0.194
N745 G1 X93.407
N750 G3 Y-23.144 I0. J1.5
N755 G1 X90.407
N760 G3 Y-26.144 I0. J-1.5
N765 G1 X91.315
N770 G2 X91.952 Y-26.569 I0. J-0.691
N775 G3 X92.59 Y-26.994 I0.638 J0.266
N780 G1 X93.407
N785 G3 Y-22.294 I0. J2.35
N790 G1 X90.407
N795 G3 Y-26.994 I0. J-2.35
N800 G1 X92.59
N805 X92.623 Y-26.991 Z-0.453
N810 X92.653 Y-26.981 Z-0.442
N815 X92.677 Y-26.966 Z-0.424
N820 X92.695 Y-26.951 Z-0.401
N825 X92.707 Y-26.938 Z-0.372
N830 X92.714 Y-26.929 Z-0.341
N835 X92.716 Y-26.925 Z-0.307
N840 Z5.
N845 X90.407 Y-24.644
N850 Z-0.914
N855 X90.401 Y-24.628
N860 X90.387 Y-24.618
N865 X90.37
N870 X90.356 Y-24.628
N875 X90.35 Y-24.644
N880 X90.358 Y-24.672
N885 X90.378 Y-24.693
N890 X90.407 Y-24.7
N895 X93.407
N900 X93.435 Y-24.693
N905 X93.455 Y-24.672
N910 X93.463 Y-24.644
N915 X93.455 Y-24.616
N920 X93.435 Y-24.596
N925 X93.407 Y-24.588
N930 X90.407
N935 X90.379 Y-24.596
N940 X90.358 Y-24.616
N945 X90.35 Y-24.644
N950 G2 X90.187 Y-24.973 I-0.417 J0.002
N955 G3 X90.271 Y-25.331 I0.123 J-0.16
N960 G1 X90.338 Y-25.341
N965 X90.407 Y-25.344
N970 X93.407
N975 G3 Y-23.944 I0. J0.7
N980 G1 X90.407
N985 G3 X90.271 Y-25.331 I0. J-0.7
N990 G2 X90.773 Y-25.763 I-0.13 J-0.658
N995 G3 X91.314 Y-26.144 I0.541 J0.194
N1000 G1 X93.407
N1005 G3 Y-23.144 I0. J1.5
N1010 G1 X90.407
N1015 G3 Y-26.144 I0. J-1.5
N1020 G1 X91.314
N1025 G2 X91.952 Y-26.569 I0. J-0.691
N1030 G3 X92.589 Y-26.994 I0.638 J0.266
N1035 G1 X93.407
N1040 G3 Y-22.294 I0. J2.35
N1045 G1 X90.407
N1050 G3 Y-26.994 I0. J-2.35
N1055 G1 X92.589
N1060 X92.622 Y-26.991 Z-0.911
N1065 X92.652 Y-26.981 Z-0.899
N1070 X92.677 Y-26.966 Z-0.882
N1075 X92.695 Y-26.951 Z-0.858
N1080 X92.707 Y-26.938 Z-0.829
N1085 X92.713 Y-26.929 Z-0.798
N1090 X92.715 Y-26.925 Z-0.764
N1095 Z5.
N1100 X90.407 Y-24.644
N1105 Z-1.371
N1110 X90.401 Y-24.628
N1115 X90.387 Y-24.618
N1120 X90.37
N1125 X90.356 Y-24.628
N1130 X90.35 Y-24.644
N1135 X90.358 Y-24.672
N1140 X90.378 Y-24.693
N1145 X90.407 Y-24.7
N1150 X93.407
N1155 X93.435 Y-24.693
N1160 X93.455 Y-24.672
N1165 X93.463 Y-24.644
N1170 X93.455 Y-24.616
N1175 X93.435 Y-24.596
N1180 X93.407 Y-24.588
N1185 X90.407
N1190 X90.379 Y-24.596
N1195 X90.358 Y-24.616
N1200 X90.35 Y-24.644
N1205 G2 X90.187 Y-24.973 I-0.417 J0.002
N1210 G3 X90.271 Y-25.331 I0.123 J-0.16
N1215 G1 X90.338 Y-25.341
N1220 X90.407 Y-25.344
N1225 X93.407
N1230 G3 Y-23.944 I0. J0.7
N1235 G1 X90.407
N1240 G3 X90.271 Y-25.331 I0. J-0.7
N1245 G2 X90.773 Y-25.763 I-0.13 J-0.658
N1250 G3 X91.314 Y-26.144 I0.541 J0.194
N1255 G1 X93.407
N1260 G3 Y-23.144 I0. J1.5
N1265 G1 X90.407
N1270 G3 Y-26.144 I0. J-1.5
N1275 G1 X91.314
N1280 G2 X91.952 Y-26.569 I0. J-0.691
N1285 G3 X92.589 Y-26.994 I0.638 J0.266
N1290 G1 X93.407
N1295 G3 Y-22.294 I0. J2.35
N1300 G1 X90.407
N1305 G3 Y-26.994 I0. J-2.35
N1310 G1 X92.589
N1315 X92.622 Y-26.991 Z-1.368
N1320 X92.652 Y-26.981 Z-1.357
N1325 X92.677 Y-26.966 Z-1.339
N1330 X92.695 Y-26.951 Z-1.315
N1335 X92.707 Y-26.938 Z-1.287
N1340 X92.713 Y-26.929 Z-1.255
N1345 X92.715 Y-26.925 Z-1.221
N1350 Z5.
N1355 X90.407 Y-24.644
N1360 Z-1.829
N1365 X90.401 Y-24.628
N1370 X90.387 Y-24.618
N1375 X90.37
N1380 X90.356 Y-24.628
N1385 X90.35 Y-24.644
N1390 X90.358 Y-24.672
N1395 X90.378 Y-24.693
N1400 X90.407 Y-24.7
N1405 X93.407
N1410 X93.435 Y-24.693
N1415 X93.455 Y-24.672
N1420 X93.463 Y-24.644
N1425 X93.455 Y-24.616
N1430 X93.435 Y-24.596
N1435 X93.407 Y-24.588
N1440 X90.407
N1445 X90.379 Y-24.596
N1450 X90.358 Y-24.616
N1455 X90.35 Y-24.644
N1460 G2 X90.187 Y-24.973 I-0.417 J0.002
N1465 G3 X90.271 Y-25.331 I0.123 J-0.16
N1470 G1 X90.338 Y-25.341
N1475 X90.407 Y-25.344
N1480 X93.407
N1485 G3 Y-23.944 I0. J0.7
N1490 G1 X90.407
N1495 G3 X90.271 Y-25.331 I0. J-0.7
N1500 G2 X90.773 Y-25.763 I-0.13 J-0.658
N1505 G3 X91.314 Y-26.144 I0.541 J0.194
N1510 G1 X93.407
N1515 G3 Y-23.144 I0. J1.5
N1520 G1 X90.407
N1525 G3 Y-26.144 I0. J-1.5
N1530 G1 X91.314
N1535 G2 X91.952 Y-26.569 I0. J-0.691
N1540 G3 X92.589 Y-26.994 I0.638 J0.266
N1545 G1 X93.407
N1550 G3 Y-22.294 I0. J2.35
N1555 G1 X90.407
N1560 G3 Y-26.994 I0. J-2.35
N1565 G1 X92.589
N1570 X92.622 Y-26.991 Z-1.825
N1575 X92.652 Y-26.981 Z-1.814
N1580 X92.677 Y-26.966 Z-1.796
N1585 X92.695 Y-26.951 Z-1.772
N1590 X92.707 Y-26.938 Z-1.744
N1595 X92.713 Y-26.929 Z-1.712
N1600 X92.715 Y-26.925 Z-1.679
N1605 Z5.
N1610 X90.407 Y-24.644
N1615 Z-2.286
N1620 X90.401 Y-24.628
N1625 X90.387 Y-24.618
N1630 X90.37
N1635 X90.356 Y-24.628
N1640 X90.35 Y-24.644
N1645 X90.358 Y-24.672
N1650 X90.378 Y-24.693
N1655 X90.407 Y-24.7
N1660 X93.407
N1665 X93.435 Y-24.693
N1670 X93.455 Y-24.672
N1675 X93.463 Y-24.644
N1680 X93.455 Y-24.616
N1685 X93.435 Y-24.596
N1690 X93.407 Y-24.588
N1695 X90.407
N1700 X90.379 Y-24.596
N1705 X90.358 Y-24.616
N1710 X90.35 Y-24.644
N1715 G2 X90.187 Y-24.973 I-0.417 J0.002
N1720 G3 X90.271 Y-25.331 I0.123 J-0.16
N1725 G1 X90.338 Y-25.341
N1730 X90.407 Y-25.344
N1735 X93.407
N1740 G3 Y-23.944 I0. J0.7
N1745 G1 X90.407
N1750 G3 X90.271 Y-25.331 I0. J-0.7
N1755 G2 X90.773 Y-25.763 I-0.13 J-0.658
N1760 G3 X91.314 Y-26.144 I0.541 J0.194
N1765 G1 X93.407
N1770 G3 Y-23.144 I0. J1.5
N1775 G1 X90.407
N1780 G3 Y-26.144 I0. J-1.5
N1785 G1 X91.314
N1790 G2 X91.952 Y-26.569 I0. J-0.691
N1795 G3 X92.589 Y-26.994 I0.638 J0.266
N1800 G1 X93.407
N1805 G3 Y-22.294 I0. J2.35
N1810 G1 X90.407
N1815 G3 Y-26.994 I0. J-2.35
N1820 G1 X92.589
N1825 X92.622 Y-26.991 Z-2.282
N1830 X92.652 Y-26.981 Z-2.271
N1835 X92.677 Y-26.966 Z-2.253
N1840 X92.695 Y-26.951 Z-2.229
N1845 X92.707 Y-26.938 Z-2.201
N1850 X92.713 Y-26.929 Z-2.169
N1855 X92.715 Y-26.925 Z-2.136
N1860 Z5.
N1865 X90.407 Y-24.644
N1870 Z-2.743
N1875 X90.401 Y-24.628
N1880 X90.387 Y-24.618
N1885 X90.37
N1890 X90.356 Y-24.628
N1895 X90.35 Y-24.644
N1900 X90.358 Y-24.672
N1905 X90.378 Y-24.693
N1910 X90.407 Y-24.7
N1915 X93.407
N1920 X93.435 Y-24.693
N1925 X93.455 Y-24.672
N1930 X93.463 Y-24.644
N1935 X93.455 Y-24.616
N1940 X93.435 Y-24.596
N1945 X93.407 Y-24.588
N1950 X90.407
N1955 X90.379 Y-24.596
N1960 X90.358 Y-24.616
N1965 X90.35 Y-24.644
N1970 G2 X90.187 Y-24.973 I-0.417 J0.002
N1975 G3 X90.271 Y-25.331 I0.123 J-0.16
N1980 G1 X90.338 Y-25.341
N1985 X90.407 Y-25.344
N1990 X93.407
N1995 G3 Y-23.944 I0. J0.7
N2000 G1 X90.407
N2005 G3 X90.271 Y-25.331 I0. J-0.7
N2010 G2 X90.773 Y-25.763 I-0.13 J-0.658
N2015 G3 X91.314 Y-26.144 I0.541 J0.194
N2020 G1 X93.407
N2025 G3 Y-23.144 I0. J1.5
N2030 G1 X90.407
N2035 G3 Y-26.144 I0. J-1.5
N2040 G1 X91.314
N2045 G2 X91.952 Y-26.569 I0. J-0.691
N2050 G3 X92.589 Y-26.994 I0.638 J0.266
N2055 G1 X93.407
N2060 G3 Y-22.294 I0. J2.35
N2065 G1 X90.407
N2070 G3 Y-26.994 I0. J-2.35
N2075 G1 X92.589
N2080 X92.622 Y-26.991 Z-2.739
N2085 X92.652 Y-26.981 Z-2.728
N2090 X92.677 Y-26.966 Z-2.71
N2095 X92.695 Y-26.951 Z-2.686
N2100 X92.707 Y-26.938 Z-2.658
N2105 X92.713 Y-26.929 Z-2.626
N2110 X92.715 Y-26.925 Z-2.593
N2115 Z5.
N2120 X90.407 Y-24.644
N2125 Z-3.2
N2130 X90.401 Y-24.628
N2135 X90.387 Y-24.618
N2140 X90.37
N2145 X90.356 Y-24.628
N2150 X90.35 Y-24.644
N2155 X90.358 Y-24.672
N2160 X90.378 Y-24.693
N2165 X90.407 Y-24.7
N2170 X93.407
N2175 X93.435 Y-24.693
N2180 X93.455 Y-24.672
N2185 X93.463 Y-24.644
N2190 X93.455 Y-24.616
N2195 X93.435 Y-24.596
N2200 X93.407 Y-24.588
N2205 X90.407
N2210 X90.379 Y-24.596
N2215 X90.358 Y-24.616
N2220 X90.35 Y-24.644
N2225 G2 X90.187 Y-24.973 I-0.417 J0.002
N2230 G3 X90.271 Y-25.331 I0.123 J-0.16
N2235 G1 X90.338 Y-25.341
N2240 X90.407 Y-25.344
N2245 X93.407
N2250 G3 Y-23.944 I0. J0.7
N2255 G1 X90.407
N2260 G3 X90.271 Y-25.331 I0. J-0.7
N2265 G2 X90.773 Y-25.763 I-0.13 J-0.658
N2270 G3 X91.314 Y-26.144 I0.541 J0.194
N2275 G1 X93.407
N2280 G3 Y-23.144 I0. J1.5
N2285 G1 X90.407
N2290 G3 Y-26.144 I0. J-1.5
N2295 G1 X91.314
N2300 G2 X91.952 Y-26.569 I0. J-0.691
N2305 G3 X92.589 Y-26.994 I0.638 J0.266
N2310 G1 X93.407
N2315 G3 Y-22.294 I0. J2.35
N2320 G1 X90.407
N2325 G3 Y-26.994 I0. J-2.35
N2330 G1 X92.589
N2335 X92.622 Y-26.991 Z-3.196
N2340 X92.652 Y-26.981 Z-3.185
N2345 X92.677 Y-26.966 Z-3.167
N2350 X92.695 Y-26.951 Z-3.144
N2355 X92.707 Y-26.938 Z-3.115
N2360 X92.713 Y-26.929 Z-3.083
N2365 X92.715 Y-26.925 Z-3.05
N2370 Z5.
N2375 X85.106 Y-17.905
N2380 Z-0.457
N2385 X85.107 Y-17.935
N2390 X85.097 Y-17.962
N2395 X85.077 Y-17.983
N2400 X85.051 Y-17.996
N2405 X83.513 Y-18.355
N2410 X83.484 Y-18.356
N2415 X83.456 Y-18.346
N2420 X83.435 Y-18.326
N2425 X83.423 Y-18.299
N2430 X83.406 Y-18.259
N2435 X83.377 Y-18.227
N2440 X83.339 Y-18.206
N2445 X83.296 Y-18.199
N2450 X82.854
N2455 G3 X82.618 Y-18.434 I0. J-0.235
N2460 G1 Y-18.798
N2465 X82.626 Y-18.841
N2470 X82.647 Y-18.879
N2475 X82.679 Y-18.908
N2480 X82.72 Y-18.925
N2485 X82.763 Y-18.927
N2490 X82.805 Y-18.915
N2495 X82.841 Y-18.889
N2500 G2 X83.372 Y-18.434 I3.066 J-3.04
N2505 G1 X83.4 Y-18.408
N2510 X83.418 Y-18.374
N2515 X83.426 Y-18.337
N2520 X83.423 Y-18.299
N2525 G3 X83.202 Y-17.848 I-1.094 J-0.256
N2530 X82.748 Y-17.631 I-0.454 J-0.367
N2535 G1 X82.051
N2540 Y-21.179
N2545 X82.232
N2550 G2 X85.157 Y-18.255 I3.674 J-0.75
N2555 G1 Y-17.631
N2560 X82.748
N2565 X82.715 Y-17.635 Z-0.453
N2570 X82.685 Y-17.645 Z-0.442
N2575 X82.66 Y-17.66 Z-0.424
N2580 X82.642 Y-17.675 Z-0.401
N2585 X82.63 Y-17.688 Z-0.372
N2590 X82.624 Y-17.697 Z-0.341
N2595 X82.622 Y-17.7 Z-0.307
N2600 Z5.
N2605 X85.106 Y-17.905
N2610 Z-0.914
N2615 X85.107 Y-17.935
N2620 X85.097 Y-17.962
N2625 X85.077 Y-17.983
N2630 X85.051 Y-17.996
N2635 X83.513 Y-18.355
N2640 X83.484 Y-18.356
N2645 X83.456 Y-18.346
N2650 X83.435 Y-18.326
N2655 X83.423 Y-18.299
N2660 X83.406 Y-18.259
N2665 X83.377 Y-18.227
N2670 X83.339 Y-18.206
N2675 X83.296 Y-18.199
N2680 X82.854
N2685 G3 X82.618 Y-18.434 I0. J-0.235
N2690 G1 Y-18.798
N2695 X82.626 Y-18.841
N2700 X82.647 Y-18.879
N2705 X82.679 Y-18.908
N2710 X82.72 Y-18.925
N2715 X82.763 Y-18.927
N2720 X82.805 Y-18.915
N2725 X82.841 Y-18.889
N2730 G2 X83.372 Y-18.434 I3.066 J-3.04
N2735 G1 X83.4 Y-18.408
N2740 X83.418 Y-18.374
N2745 X83.426 Y-18.337
N2750 X83.423 Y-18.299
N2755 G3 X83.202 Y-17.848 I-1.094 J-0.256
N2760 X82.748 Y-17.631 I-0.454 J-0.367
N2765 G1 X82.051
N2770 Y-21.179
N2775 X82.232
N2780 G2 X85.157 Y-18.255 I3.674 J-0.75
N2785 G1 Y-17.631
N2790 X82.748
N2795 X82.715 Y-17.635 Z-0.911
N2800 X82.685 Y-17.645 Z-0.899
N2805 X82.66 Y-17.66 Z-0.882
N2810 X82.642 Y-17.675 Z-0.858
N2815 X82.63 Y-17.688 Z-0.829
N2820 X82.624 Y-17.697 Z-0.798
N2825 X82.622 Y-17.7 Z-0.764
N2830 Z5.
N2835 X85.106 Y-17.905
N2840 Z-1.371
N2845 X85.107 Y-17.935
N2850 X85.097 Y-17.962
N2855 X85.077 Y-17.983
N2860 X85.051 Y-17.996
N2865 X83.513 Y-18.355
N2870 X83.484 Y-18.356
N2875 X83.456 Y-18.346
N2880 X83.435 Y-18.326
N2885 X83.423 Y-18.299
N2890 X83.406 Y-18.259
N2895 X83.377 Y-18.227
N2900 X83.339 Y-18.206
N2905 X83.296 Y-18.199
N2910 X82.854
N2915 G3 X82.618 Y-18.434 I0. J-0.235
N2920 G1 Y-18.798
N2925 X82.626 Y-18.841
N2930 X82.647 Y-18.879
N2935 X82.679 Y-18.908
N2940 X82.72 Y-18.925
N2945 X82.763 Y-18.927
N2950 X82.805 Y-18.915
N2955 X82.841 Y-18.889
N2960 G2 X83.372 Y-18.434 I3.066 J-3.04
N2965 G1 X83.4 Y-18.408
N2970 X83.418 Y-18.374
N2975 X83.426 Y-18.337
N2980 X83.423 Y-18.299
N2985 G3 X83.202 Y-17.848 I-1.094 J-0.256
N2990 X82.748 Y-17.631 I-0.454 J-0.367
N2995 G1 X82.051
N3000 Y-21.179
N3005 X82.232
N3010 G2 X85.157 Y-18.255 I3.674 J-0.75
N3015 G1 Y-17.631
N3020 X82.748
N3025 X82.715 Y-17.635 Z-1.368
N3030 X82.685 Y-17.645 Z-1.357
N3035 X82.66 Y-17.66 Z-1.339
N3040 X82.642 Y-17.675 Z-1.315
N3045 X82.63 Y-17.688 Z-1.287
N3050 X82.624 Y-17.697 Z-1.255
N3055 X82.622 Y-17.7 Z-1.221
N3060 Z5.
N3065 X85.106 Y-17.905
N3070 Z-1.829
N3075 X85.107 Y-17.935
N3080 X85.097 Y-17.962
N3085 X85.077 Y-17.983
N3090 X85.051 Y-17.996
N3095 X83.513 Y-18.355
N3100 X83.484 Y-18.356
N3105 X83.456 Y-18.346
N3110 X83.435 Y-18.326
N3115 X83.423 Y-18.299
N3120 X83.406 Y-18.259
N3125 X83.377 Y-18.227
N3130 X83.339 Y-18.206
N3135 X83.296 Y-18.199
N3140 X82.854
N3145 G3 X82.618 Y-18.434 I0. J-0.235
N3150 G1 Y-18.798
N3155 X82.626 Y-18.841
N3160 X82.647 Y-18.879
N3165 X82.679 Y-18.908
N3170 X82.72 Y-18.925
N3175 X82.763 Y-18.927
N3180 X82.805 Y-18.915
N3185 X82.841 Y-18.889
N3190 G2 X83.372 Y-18.434 I3.066 J-3.04
N3195 G1 X83.4 Y-18.408
N3200 X83.418 Y-18.374
N3205 X83.426 Y-18.337
N3210 X83.423 Y-18.299
N3215 G3 X83.202 Y-17.848 I-1.094 J-0.256
N3220 X82.748 Y-17.631 I-0.454 J-0.367
N3225 G1 X82.051
N3230 Y-21.179
N3235 X82.232
N3240 G2 X85.157 Y-18.255 I3.674 J-0.75
N3245 G1 Y-17.631
N3250 X82.748
N3255 X82.715 Y-17.635 Z-1.825
N3260 X82.685 Y-17.645 Z-1.814
N3265 X82.66 Y-17.66 Z-1.796
N3270 X82.642 Y-17.675 Z-1.772
N3275 X82.63 Y-17.688 Z-1.744
N3280 X82.624 Y-17.697 Z-1.712
N3285 X82.622 Y-17.7 Z-1.679
N3290 Z5.
N3295 X85.106 Y-17.905
N3300 Z-2.286
N3305 X85.107 Y-17.935
N3310 X85.097 Y-17.962
N3315 X85.077 Y-17.983
N3320 X85.051 Y-17.996
N3325 X83.513 Y-18.355
N3330 X83.484 Y-18.356
N3335 X83.456 Y-18.346
N3340 X83.435 Y-18.326
N3345 X83.423 Y-18.299
N3350 X83.406 Y-18.259
N3355 X83.377 Y-18.227
N3360 X83.339 Y-18.206
N3365 X83.296 Y-18.199
N3370 X82.854
N3375 G3 X82.618 Y-18.434 I0. J-0.235
N3380 G1 Y-18.798
N3385 X82.626 Y-18.841
N3390 X82.647 Y-18.879
N3395 X82.679 Y-18.908
N3400 X82.72 Y-18.925
N3405 X82.763 Y-18.927
N3410 X82.805 Y-18.915
N3415 X82.841 Y-18.889
N3420 G2 X83.372 Y-18.434 I3.066 J-3.04
N3425 G1 X83.4 Y-18.408
N3430 X83.418 Y-18.374
N3435 X83.426 Y-18.337
N3440 X83.423 Y-18.299
N3445 G3 X83.202 Y-17.848 I-1.094 J-0.256
N3450 X82.748 Y-17.631 I-0.454 J-0.367
N3455 G1 X82.051
N3460 Y-21.179
N3465 X82.232
N3470 G2 X85.157 Y-18.255 I3.674 J-0.75
N3475 G1 Y-17.631
N3480 X82.748
N3485 X82.715 Y-17.635 Z-2.282
N3490 X82.685 Y-17.645 Z-2.271
N3495 X82.66 Y-17.66 Z-2.253
N3500 X82.642 Y-17.675 Z-2.229
N3505 X82.63 Y-17.688 Z-2.201
N3510 X82.624 Y-17.697 Z-2.169
N3515 X82.622 Y-17.7 Z-2.136
N3520 Z5.
N3525 X85.106 Y-17.905
N3530 Z-2.743
N3535 X85.107 Y-17.935
N3540 X85.097 Y-17.962
N3545 X85.077 Y-17.983
N3550 X85.051 Y-17.996
N3555 X83.513 Y-18.355
N3560 X83.484 Y-18.356
N3565 X83.456 Y-18.346
N3570 X83.435 Y-18.326
N3575 X83.423 Y-18.299
N3580 X83.406 Y-18.259
N3585 X83.377 Y-18.227
N3590 X83.339 Y-18.206
N3595 X83.296 Y-18.199
N3600 X82.854
N3605 G3 X82.618 Y-18.434 I0. J-0.235
N3610 G1 Y-18.798
N3615 X82.626 Y-18.841
N3620 X82.647 Y-18.879
N3625 X82.679 Y-18.908
N3630 X82.72 Y-18.925
N3635 X82.763 Y-18.927
N3640 X82.805 Y-18.915
N3645 X82.841 Y-18.889
N3650 G2 X83.372 Y-18.434 I3.066 J-3.04
N3655 G1 X83.4 Y-18.408
N3660 X83.418 Y-18.374
N3665 X83.426 Y-18.337
N3670 X83.423 Y-18.299
N3675 G3 X83.202 Y-17.848 I-1.094 J-0.256
N3680 X82.748 Y-17.631 I-0.454 J-0.367
N3685 G1 X82.051
N3690 Y-21.179
N3695 X82.232
N3700 G2 X85.157 Y-18.255 I3.674 J-0.75
N3705 G1 Y-17.631
N3710 X82.748
N3715 X82.715 Y-17.635 Z-2.739
N3720 X82.685 Y-17.645 Z-2.728
N3725 X82.66 Y-17.66 Z-2.71
N3730 X82.642 Y-17.675 Z-2.686
N3735 X82.63 Y-17.688 Z-2.658
N3740 X82.624 Y-17.697 Z-2.626
N3745 X82.622 Y-17.7 Z-2.593
N3750 Z5.
N3755 X85.106 Y-17.905
N3760 Z-3.2
N3765 X85.107 Y-17.935
N3770 X85.097 Y-17.962
N3775 X85.077 Y-17.983
N3780 X85.051 Y-17.996
N3785 X83.513 Y-18.355
N3790 X83.484 Y-18.356
N3795 X83.456 Y-18.346
N3800 X83.435 Y-18.326
N3805 X83.423 Y-18.299
N3810 X83.406 Y-18.259
N3815 X83.377 Y-18.227
N3820 X83.339 Y-18.206
N3825 X83.296 Y-18.199
N3830 X82.854
N3835 G3 X82.618 Y-18.434 I0. J-0.235
N3840 G1 Y-18.798
N3845 X82.626 Y-18.841
N3850 X82.647 Y-18.879
N3855 X82.679 Y-18.908
N3860 X82.72 Y-18.925
N3865 X82.763 Y-18.927
N3870 X82.805 Y-18.915
N3875 X82.841 Y-18.889
N3880 G2 X83.372 Y-18.434 I3.066 J-3.04
N3885 G1 X83.4 Y-18.408
N3890 X83.418 Y-18.374
N3895 X83.426 Y-18.337
N3900 X83.423 Y-18.299
N3905 G3 X83.202 Y-17.848 I-1.094 J-0.256
N3910 X82.748 Y-17.631 I-0.454 J-0.367
N3915 G1 X82.051
N3920 Y-21.179
N3925 X82.232
N3930 G2 X85.157 Y-18.255 I3.674 J-0.75
N3935 G1 Y-17.631
N3940 X82.748
N3945 X82.715 Y-17.635 Z-3.196
N3950 X82.685 Y-17.645 Z-3.185
N3955 X82.66 Y-17.66 Z-3.167
N3960 X82.642 Y-17.675 Z-3.144
N3965 X82.63 Y-17.688 Z-3.115
N3970 X82.624 Y-17.697 Z-3.083
N3975 X82.622 Y-17.7 Z-3.05
N3980 Z5.
N3985 X60.322 Y-17.6
N3990 Z-0.457
N3995 X60.335 Y-17.573
N4000 X60.356 Y-17.554
N4005 X60.383 Y-17.543
N4010 X60.413 Y-17.545
N4015 X62.059 Y-17.939
N4020 X62.085 Y-17.951
N4025 X62.105 Y-17.973
N4030 X62.115 Y-18.
N4035 X62.114 Y-18.03
N4040 X62.111 Y-18.067
N4045 X62.118 Y-18.104
N4050 X62.136 Y-18.137
N4055 X62.162 Y-18.163
N4060 G2 X62.729 Y-18.682 I-2.639 J-3.453
N4065 G1 X62.764 Y-18.709
N4070 X62.806 Y-18.723
N4075 X62.85 Y-18.722
N4080 X62.892 Y-18.706
N4085 X62.925 Y-18.677
N4090 X62.947 Y-18.638
N4095 X62.955 Y-18.594
N4100 Y-18.165
N4105 G3 X62.719 Y-17.93 I-0.235 J0.
N4110 G1 X62.241
N4115 X62.198 Y-17.937
N4120 X62.16 Y-17.958
N4125 X62.131 Y-17.99
N4130 X62.114 Y-18.03
N4135 G3 X62.107 Y-18.638 I1.339 J-0.321
N4140 X62.375 Y-19.183 I1.21 J0.258
N4145 G2 X63.197 Y-20.867 I-2.853 J-2.434
N4150 G1 X63.551
N4155 Y-17.333
N4160 X60.272
N4165 Y-17.942
N4170 G2 X62.375 Y-19.183 I-0.75 J-3.674
N4175 G1 X62.4 Y-19.202
N4180 X62.431 Y-19.209
N4185 X62.461 Y-19.203
N4190 X62.487 Y-19.186
N4195 X62.503 Y-19.159
N4200 X62.507 Y-19.128
N4205 X62.498 Y-19.098
N4210 X62.478 Y-19.074
N4215 X60.442 Y-17.54
N4220 X60.412 Y-17.527
N4225 X60.379
N4230 X60.35 Y-17.542
N4235 X60.33 Y-17.568
N4240 X60.322 Y-17.6
N4245 Z-0.914
N4250 X60.337 Y-17.601
N4255 X62.056 Y-17.939
N4260 X62.083 Y-17.95
N4265 X62.104 Y-17.972
N4270 X62.115 Y-18.
N4275 X62.114 Y-18.03
N4280 X62.111 Y-18.067
N4285 X62.118 Y-18.104
N4290 X62.136 Y-18.137
N4295 X62.162 Y-18.163
N4300 G2 X62.729 Y-18.682 I-2.639 J-3.453
N4305 G1 X62.764 Y-18.709
N4310 X62.806 Y-18.723
N4315 X62.85 Y-18.722
N4320 X62.892 Y-18.706
N4325 X62.925 Y-18.677
N4330 X62.947 Y-18.638
N4335 X62.955 Y-18.594
N4340 Y-18.165
N4345 G3 X62.719 Y-17.93 I-0.235 J0.
N4350 G1 X62.241
N4355 X62.198 Y-17.937
N4360 X62.16 Y-17.958
N4365 X62.131 Y-17.99
N4370 X62.114 Y-18.03
N4375 G3 X62.107 Y-18.638 I1.339 J-0.321
N4380 X62.375 Y-19.183 I1.21 J0.258
N4385 G2 X63.197 Y-20.867 I-2.853 J-2.434
N4390 G1 X63.551
N4395 Y-17.333
N4400 X60.272
N4405 Y-17.942
N4410 G2 X62.375 Y-19.183 I-0.75 J-3.674
N4415 G1 X62.4 Y-19.202
N4420 X62.431 Y-19.209
N4425 X62.461 Y-19.203
N4430 X62.487 Y-19.186
N4435 X62.503 Y-19.159
N4440 X62.507 Y-19.128
N4445 X62.498 Y-19.098
N4450 X62.478 Y-19.074
N4455 X60.442 Y-17.54
N4460 X60.412 Y-17.527
N4465 X60.379
N4470 X60.35 Y-17.542
N4475 X60.33 Y-17.568
N4480 X60.322 Y-17.6
N4485 Z-1.371
N4490 X60.337 Y-17.601
N4495 X62.056 Y-17.939
N4500 X62.083 Y-17.95
N4505 X62.104 Y-17.972
N4510 X62.115 Y-18.
N4515 X62.114 Y-18.03
N4520 X62.111 Y-18.067
N4525 X62.118 Y-18.104
N4530 X62.136 Y-18.137
N4535 X62.162 Y-18.163
N4540 G2 X62.729 Y-18.682 I-2.639 J-3.453
N4545 G1 X62.764 Y-18.709
N4550 X62.806 Y-18.723
N4555 X62.85 Y-18.722
N4560 X62.892 Y-18.706
N4565 X62.925 Y-18.677
N4570 X62.947 Y-18.638
N4575 X62.955 Y-18.594
N4580 Y-18.165
N4585 G3 X62.719 Y-17.93 I-0.235 J0.
N4590 G1 X62.241
N4595 X62.198 Y-17.937
N4600 X62.16 Y-17.958
N4605 X62.131 Y-17.99
N4610 X62.114 Y-18.03
N4615 G3 X62.107 Y-18.638 I1.339 J-0.321
N4620 X62.375 Y-19.183 I1.21 J0.258
N4625 G2 X63.197 Y-20.867 I-2.853 J-2.434
N4630 G1 X63.551
N4635 Y-17.333
N4640 X60.272
N4645 Y-17.942
N4650 G2 X62.375 Y-19.183 I-0.75 J-3.674
N4655 G1 X62.4 Y-19.202
N4660 X62.431 Y-19.209
N4665 X62.461 Y-19.203
N4670 X62.487 Y-19.186
N4675 X62.503 Y-19.159
N4680 X62.507 Y-19.128
N4685 X62.498 Y-19.098
N4690 X62.478 Y-19.074
N4695 X60.442 Y-17.54
N4700 X60.412 Y-17.527
N4705 X60.379
N4710 X60.35 Y-17.542
N4715 X60.33 Y-17.568
N4720 X60.322 Y-17.6
N4725 Z-1.829
N4730 X60.337 Y-17.601
N4735 X62.056 Y-17.939
N4740 X62.083 Y-17.95
N4745 X62.104 Y-17.972
N4750 X62.115 Y-18.
N4755 X62.114 Y-18.03
N4760 X62.111 Y-18.067
N4765 X62.118 Y-18.104
N4770 X62.136 Y-18.137
N4775 X62.162 Y-18.163
N4780 G2 X62.729 Y-18.682 I-2.639 J-3.453
N4785 G1 X62.764 Y-18.709
N4790 X62.806 Y-18.723
N4795 X62.85 Y-18.722
N4800 X62.892 Y-18.706
N4805 X62.925 Y-18.677
N4810 X62.947 Y-18.638
N4815 X62.955 Y-18.594
N4820 Y-18.165
N4825 G3 X62.719 Y-17.93 I-0.235 J0.
N4830 G1 X62.241
N4835 X62.198 Y-17.937
N4840 X62.16 Y-17.958
N4845 X62.131 Y-17.99
N4850 X62.114 Y-18.03
N4855 G3 X62.107 Y-18.638 I1.339 J-0.321
N4860 X62.375 Y-19.183 I1.21 J0.258
N4865 G2 X63.197 Y-20.867 I-2.853 J-2.434
N4870 G1 X63.551
N4875 Y-17.333
N4880 X60.272
N4885 Y-17.942
N4890 G2 X62.375 Y-19.183 I-0.75 J-3.674
N4895 G1 X62.4 Y-19.202
N4900 X62.431 Y-19.209
N4905 X62.461 Y-19.203
N4910 X62.487 Y-19.186
N4915 X62.503 Y-19.159
N4920 X62.507 Y-19.128
N4925 X62.498 Y-19.098
N4930 X62.478 Y-19.074
N4935 X60.442 Y-17.54
N4940 X60.412 Y-17.527
N4945 X60.379
N4950 X60.35 Y-17.542
N4955 X60.33 Y-17.568
N4960 X60.322 Y-17.6
N4965 Z-2.286
N4970 X60.337 Y-17.601
N4975 X62.056 Y-17.939
N4980 X62.083 Y-17.95
N4985 X62.104 Y-17.972
N4990 X62.115 Y-18.
N4995 X62.114 Y-18.03
N5000 X62.111 Y-18.067
N5005 X62.118 Y-18.104
N5010 X62.136 Y-18.137
N5015 X62.162 Y-18.163
N5020 G2 X62.729 Y-18.682 I-2.639 J-3.453
N5025 G1 X62.764 Y-18.709
N5030 X62.806 Y-18.723
N5035 X62.85 Y-18.722
N5040 X62.892 Y-18.706
N5045 X62.925 Y-18.677
N5050 X62.947 Y-18.638
N5055 X62.955 Y-18.594
N5060 Y-18.165
N5065 G3 X62.719 Y-17.93 I-0.235 J0.
N5070 G1 X62.241
N5075 X62.198 Y-17.937
N5080 X62.16 Y-17.958
N5085 X62.131 Y-17.99
N5090 X62.114 Y-18.03
N5095 G3 X62.107 Y-18.638 I1.339 J-0.321
N5100 X62.375 Y-19.183 I1.21 J0.258
N5105 G2 X63.197 Y-20.867 I-2.853 J-2.434
N5110 G1 X63.551
N5115 Y-17.333
N5120 X60.272
N5125 Y-17.942
N5130 G2 X62.375 Y-19.183 I-0.75 J-3.674
N5135 G1 X62.4 Y-19.202
N5140 X62.431 Y-19.209
N5145 X62.461 Y-19.203
N5150 X62.487 Y-19.186
N5155 X62.503 Y-19.159
N5160 X62.507 Y-19.128
N5165 X62.498 Y-19.098
N5170 X62.478 Y-19.074
N5175 X60.442 Y-17.54
N5180 X60.412 Y-17.527
N5185 X60.379
N5190 X60.35 Y-17.542
N5195 X60.33 Y-17.568
N5200 X60.322 Y-17.6
N5205 Z-2.743
N5210 X60.337 Y-17.601
N5215 X62.056 Y-17.939
N5220 X62.083 Y-17.95
N5225 X62.104 Y-17.972
N5230 X62.115 Y-18.
N5235 X62.114 Y-18.03
N5240 X62.111 Y-18.067
N5245 X62.118 Y-18.104
N5250 X62.136 Y-18.137
N5255 X62.162 Y-18.163
N5260 G2 X62.729 Y-18.682 I-2.639 J-3.453
N5265 G1 X62.764 Y-18.709
N5270 X62.806 Y-18.723
N5275 X62.85 Y-18.722
N5280 X62.892 Y-18.706
N5285 X62.925 Y-18.677
N5290 X62.947 Y-18.638
N5295 X62.955 Y-18.594
N5300 Y-18.165
N5305 G3 X62.719 Y-17.93 I-0.235 J0.
N5310 G1 X62.241
N5315 X62.198 Y-17.937
N5320 X62.16 Y-17.958
N5325 X62.131 Y-17.99
N5330 X62.114 Y-18.03
N5335 G3 X62.107 Y-18.638 I1.339 J-0.321
N5340 X62.375 Y-19.183 I1.21 J0.258
N5345 G2 X63.197 Y-20.867 I-2.853 J-2.434
N5350 G1 X63.551
N5355 Y-17.333
N5360 X60.272
N5365 Y-17.942
N5370 G2 X62.375 Y-19.183 I-0.75 J-3.674
N5375 G1 X62.4 Y-19.202
N5380 X62.431 Y-19.209
N5385 X62.461 Y-19.203
N5390 X62.487 Y-19.186
N5395 X62.503 Y-19.159
N5400 X62.507 Y-19.128
N5405 X62.498 Y-19.098
N5410 X62.478 Y-19.074
N5415 X60.442 Y-17.54
N5420 X60.412 Y-17.527
N5425 X60.379
N5430 X60.35 Y-17.542
N5435 X60.33 Y-17.568
N5440 X60.322 Y-17.6
N5445 Z-3.2
N5450 X60.337 Y-17.601
N5455 X62.056 Y-17.939
N5460 X62.083 Y-17.95
N5465 X62.104 Y-17.972
N5470 X62.115 Y-18.
N5475 X62.114 Y-18.03
N5480 X62.111 Y-18.067
N5485 X62.118 Y-18.104
N5490 X62.136 Y-18.137
N5495 X62.162 Y-18.163
N5500 G2 X62.729 Y-18.682 I-2.639 J-3.453
N5505 G1 X62.764 Y-18.709
N5510 X62.806 Y-18.723
N5515 X62.85 Y-18.722
N5520 X62.892 Y-18.706
N5525 X62.925 Y-18.677
N5530 X62.947 Y-18.638
N5535 X62.955 Y-18.594
N5540 Y-18.165
N5545 G3 X62.719 Y-17.93 I-0.235 J0.
N5550 G1 X62.241
N5555 X62.198 Y-17.937
N5560 X62.16 Y-17.958
N5565 X62.131 Y-17.99
N5570 X62.114 Y-18.03
N5575 G3 X62.107 Y-18.638 I1.339 J-0.321
N5580 X62.375 Y-19.183 I1.21 J0.258
N5585 G2 X63.197 Y-20.867 I-2.853 J-2.434
N5590 G1 X63.551
N5595 Y-17.333
N5600 X60.272
N5605 Y-17.942
N5610 G2 X62.375 Y-19.183 I-0.75 J-3.674
N5615 G1 X62.4 Y-19.206 Z-3.196
N5620 X62.427 Y-19.222 Z-3.185
N5625 X62.454 Y-19.231 Z-3.167
N5630 X62.477 Y-19.235 Z-3.144
N5635 X62.495 Z-3.115
N5640 X62.506 Z-3.083
N5645 X62.51 Y-19.234 Z-3.05
N5650 Z5.
N5655 X52.022 Y-24.331
N5660 Z-0.457
N5665 X52.017 Y-24.326
N5670 X52.012 Y-24.331
N5675 X52.02 Y-24.369
N5680 X52.041 Y-24.4
N5685 X52.072 Y-24.421
N5690 X52.109 Y-24.429
N5695 G3 X53.566 Y-24.408 I0. J51.423
N5700 G2 X55.022 Y-24.388 I1.456 J-51.402
N5705 G1 X55.05 Y-24.38
N5710 X55.071 Y-24.36
N5715 X55.078 Y-24.331
N5720 X55.071 Y-24.303
N5725 X55.05 Y-24.283
N5730 X55.022 Y-24.275
N5735 G2 X53.566 Y-24.255 I0. J51.423
N5740 G3 X52.109 Y-24.234 I-1.456 J-51.402
N5745 G1 X52.072 Y-24.242
N5750 X52.041 Y-24.263
N5755 X52.02 Y-24.294
N5760 X52.012 Y-24.331
N5765 G2 X51.85 Y-24.669 I-0.433 J0.
N5770 G3 X51.958 Y-25.028 I0.126 J-0.158
N5775 G1 X52.022 Y-25.031
N5780 X55.022
N5785 G3 Y-23.632 I0. J0.7
N5790 G1 X52.022
N5795 G3 X51.958 Y-25.028 I0. J-0.7
N5800 G2 X52.511 Y-25.443 I-0.061 J-0.659
N5805 G3 X53.083 Y-25.831 I0.572 J0.227
N5810 G1 X55.022
N5815 G3 Y-22.831 I0. J1.5
N5820 G1 X52.022
N5825 G3 Y-25.831 I0. J-1.5
N5830 G1 X53.083
N5835 G2 X53.721 Y-26.257 I0. J-0.691
N5840 G3 X54.358 Y-26.681 I0.638 J0.266
N5845 G1 X55.022
N5850 G3 Y-21.982 I0. J2.35
N5855 G1 X52.022
N5860 G3 Y-26.681 I0. J-2.35
N5865 G1 X54.358
N5870 X54.391 Y-26.678 Z-0.453
N5875 X54.421 Y-26.668 Z-0.442
N5880 X54.446 Y-26.653 Z-0.424
N5885 X54.464 Y-26.638 Z-0.401
N5890 X54.476 Y-26.625 Z-0.372
N5895 X54.483 Y-26.616 Z-0.341
N5900 X54.485 Y-26.613 Z-0.307
N5905 Z5.
N5910 X52.022 Y-24.331
N5915 Z-0.914
N5920 X52.017 Y-24.326
N5925 X52.012 Y-24.331
N5930 X52.02 Y-24.369
N5935 X52.041 Y-24.4
N5940 X52.072 Y-24.421
N5945 X52.109 Y-24.429
N5950 G3 X53.566 Y-24.408 I0. J51.423
N5955 G2 X55.022 Y-24.388 I1.456 J-51.402
N5960 G1 X55.05 Y-24.38
N5965 X55.071 Y-24.36
N5970 X55.078 Y-24.331
N5975 X55.071 Y-24.303
N5980 X55.05 Y-24.283
N5985 X55.022 Y-24.275
N5990 G2 X53.566 Y-24.255 I0. J51.423
N5995 G3 X52.109 Y-24.234 I-1.456 J-51.402
N6000 G1 X52.072 Y-24.242
N6005 X52.041 Y-24.263
N6010 X52.02 Y-24.294
N6015 X52.012 Y-24.331
N6020 G2 X51.85 Y-24.669 I-0.433 J0.
N6025 G3 X51.958 Y-25.028 I0.126 J-0.158
N6030 G1 X52.022 Y-25.031
N6035 X55.022
N6040 G3 Y-23.632 I0. J0.7
N6045 G1 X52.022
N6050 G3 X51.958 Y-25.028 I0. J-0.7
N6055 G2 X52.511 Y-25.443 I-0.061 J-0.659
N6060 G3 X53.083 Y-25.831 I0.572 J0.227
N6065 G1 X55.022
N6070 G3 Y-22.831 I0. J1.5
N6075 G1 X52.022
N6080 G3 Y-25.831 I0. J-1.5
N6085 G1 X53.083
N6090 G2 X53.721 Y-26.257 I0. J-0.691
N6095 G3 X54.358 Y-26.681 I0.638 J0.266
N6100 G1 X55.022
N6105 G3 Y-21.982 I0. J2.35
N6110 G1 X52.022
N6115 G3 Y-26.681 I0. J-2.35
N6120 G1 X54.358
N6125 X54.391 Y-26.678 Z-0.911
N6130 X54.421 Y-26.668 Z-0.899
N6135 X54.446 Y-26.653 Z-0.882
N6140 X54.464 Y-26.638 Z-0.858
N6145 X54.476 Y-26.625 Z-0.829
N6150 X54.483 Y-26.616 Z-0.798
N6155 X54.485 Y-26.613 Z-0.764
N6160 Z5.
N6165 X52.022 Y-24.331
N6170 Z-1.371
N6175 X52.017 Y-24.326
N6180 X52.012 Y-24.331
N6185 X52.02 Y-24.369
N6190 X52.041 Y-24.4
N6195 X52.072 Y-24.421
N6200 X52.109 Y-24.429
N6205 G3 X53.566 Y-24.408 I0. J51.423
N6210 G2 X55.022 Y-24.388 I1.456 J-51.402
N6215 G1 X55.05 Y-24.38
N6220 X55.071 Y-24.36
N6225 X55.078 Y-24.331
N6230 X55.071 Y-24.303
N6235 X55.05 Y-24.283
N6240 X55.022 Y-24.275
N6245 G2 X53.566 Y-24.255 I0. J51.423
N6250 G3 X52.109 Y-24.234 I-1.456 J-51.402
N6255 G1 X52.072 Y-24.242
N6260 X52.041 Y-24.263
N6265 X52.02 Y-24.294
N6270 X52.012 Y-24.331
N6275 G2 X51.85 Y-24.669 I-0.433 J0.
N6280 G3 X51.958 Y-25.028 I0.126 J-0.158
N6285 G1 X52.022 Y-25.031
N6290 X55.022
N6295 G3 Y-23.632 I0. J0.7
N6300 G1 X52.022
N6305 G3 X51.958 Y-25.028 I0. J-0.7
N6310 G2 X52.511 Y-25.443 I-0.061 J-0.659
N6315 G3 X53.083 Y-25.831 I0.572 J0.227
N6320 G1 X55.022
N6325 G3 Y-22.831 I0. J1.5
N6330 G1 X52.022
N6335 G3 Y-25.831 I0. J-1.5
N6340 G1 X53.083
N6345 G2 X53.721 Y-26.257 I0. J-0.691
N6350 G3 X54.358 Y-26.681 I0.638 J0.266
N6355 G1 X55.022
N6360 G3 Y-21.982 I0. J2.35
N6365 G1 X52.022
N6370 G3 Y-26.681 I0. J-2.35
N6375 G1 X54.358
N6380 X54.391 Y-26.678 Z-1.368
N6385 X54.421 Y-26.668 Z-1.357
N6390 X54.446 Y-26.653 Z-1.339
N6395 X54.464 Y-26.638 Z-1.315
N6400 X54.476 Y-26.625 Z-1.287
N6405 X54.483 Y-26.616 Z-1.255
N6410 X54.485 Y-26.613 Z-1.221
N6415 Z5.
N6420 X52.022 Y-24.331
N6425 Z-1.829
N6430 X52.017 Y-24.326
N6435 X52.012 Y-24.331
N6440 X52.02 Y-24.369
N6445 X52.041 Y-24.4
N6450 X52.072 Y-24.421
N6455 X52.109 Y-24.429
N6460 G3 X53.566 Y-24.408 I0. J51.423
N6465 G2 X55.022 Y-24.388 I1.456 J-51.402
N6470 G1 X55.05 Y-24.38
N6475 X55.071 Y-24.36
N6480 X55.078 Y-24.331
N6485 X55.071 Y-24.303
N6490 X55.05 Y-24.283
N6495 X55.022 Y-24.275
N6500 G2 X53.566 Y-24.255 I0. J51.423
N6505 G3 X52.109 Y-24.234 I-1.456 J-51.402
N6510 G1 X52.072 Y-24.242
N6515 X52.041 Y-24.263
N6520 X52.02 Y-24.294
N6525 X52.012 Y-24.331
N6530 G2 X51.85 Y-24.669 I-0.433 J0.
N6535 G3 X51.958 Y-25.028 I0.126 J-0.158
N6540 G1 X52.022 Y-25.031
N6545 X55.022
N6550 G3 Y-23.632 I0. J0.7
N6555 G1 X52.022
N6560 G3 X51.958 Y-25.028 I0. J-0.7
N6565 G2 X52.511 Y-25.443 I-0.061 J-0.659
N6570 G3 X53.083 Y-25.831 I0.572 J0.227
N6575 G1 X55.022
N6580 G3 Y-22.831 I0. J1.5
N6585 G1 X52.022
N6590 G3 Y-25.831 I0. J-1.5
N6595 G1 X53.083
N6600 G2 X53.721 Y-26.257 I0. J-0.691
N6605 G3 X54.358 Y-26.681 I0.638 J0.266
N6610 G1 X55.022
N6615 G3 Y-21.982 I0. J2.35
N6620 G1 X52.022
N6625 G3 Y-26.681 I0. J-2.35
N6630 G1 X54.358
N6635 X54.391 Y-26.678 Z-1.825
N6640 X54.421 Y-26.668 Z-1.814
N6645 X54.446 Y-26.653 Z-1.796
N6650 X54.464 Y-26.638 Z-1.772
N6655 X54.476 Y-26.625 Z-1.744
N6660 X54.483 Y-26.616 Z-1.712
N6665 X54.485 Y-26.613 Z-1.679
N6670 Z5.
N6675 X52.022 Y-24.331
N6680 Z-2.286
N6685 X52.017 Y-24.326
N6690 X52.012 Y-24.331
N6695 X52.02 Y-24.369
N6700 X52.041 Y-24.4
N6705 X52.072 Y-24.421
N6710 X52.109 Y-24.429
N6715 G3 X53.566 Y-24.408 I0. J51.423
N6720 G2 X55.022 Y-24.388 I1.456 J-51.402
N6725 G1 X55.05 Y-24.38
N6730 X55.071 Y-24.36
N6735 X55.078 Y-24.331
N6740 X55.071 Y-24.303
N6745 X55.05 Y-24.283
N6750 X55.022 Y-24.275
N6755 G2 X53.566 Y-24.255 I0. J51.423
N6760 G3 X52.109 Y-24.234 I-1.456 J-51.402
N6765 G1 X52.072 Y-24.242
N6770 X52.041 Y-24.263
N6775 X52.02 Y-24.294
N6780 X52.012 Y-24.331
N6785 G2 X51.85 Y-24.669 I-0.433 J0.
N6790 G3 X51.958 Y-25.028 I0.126 J-0.158
N6795 G1 X52.022 Y-25.031
N6800 X55.022
N6805 G3 Y-23.632 I0. J0.7
N6810 G1 X52.022
N6815 G3 X51.958 Y-25.028 I0. J-0.7
N6820 G2 X52.511 Y-25.443 I-0.061 J-0.659
N6825 G3 X53.083 Y-25.831 I0.572 J0.227
N6830 G1 X55.022
N6835 G3 Y-22.831 I0. J1.5
N6840 G1 X52.022
N6845 G3 Y-25.831 I0. J-1.5
N6850 G1 X53.083
N6855 G2 X53.721 Y-26.257 I0. J-0.691
N6860 G3 X54.358 Y-26.681 I0.638 J0.266
N6865 G1 X55.022
N6870 G3 Y-21.982 I0. J2.35
N6875 G1 X52.022
N6880 G3 Y-26.681 I0. J-2.35
N6885 G1 X54.358
N6890 X54.391 Y-26.678 Z-2.282
N6895 X54.421 Y-26.668 Z-2.271
N6900 X54.446 Y-26.653 Z-2.253
N6905 X54.464 Y-26.638 Z-2.229
N6910 X54.476 Y-26.625 Z-2.201
N6915 X54.483 Y-26.616 Z-2.169
N6920 X54.485 Y-26.613 Z-2.136
N6925 Z5.
N6930 X52.022 Y-24.331
N6935 Z-2.743
N6940 X52.017 Y-24.326
N6945 X52.012 Y-24.331
N6950 X52.02 Y-24.369
N6955 X52.041 Y-24.4
N6960 X52.072 Y-24.421
N6965 X52.109 Y-24.429
N6970 G3 X53.566 Y-24.408 I0. J51.423
N6975 G2 X55.022 Y-24.388 I1.456 J-51.402
N6980 G1 X55.05 Y-24.38
N6985 X55.071 Y-24.36
N6990 X55.078 Y-24.331
N6995 X55.071 Y-24.303
N7000 X55.05 Y-24.283
N7005 X55.022 Y-24.275
N7010 G2 X53.566 Y-24.255 I0. J51.423
N7015 G3 X52.109 Y-24.234 I-1.456 J-51.402
N7020 G1 X52.072 Y-24.242
N7025 X52.041 Y-24.263
N7030 X52.02 Y-24.294
N7035 X52.012 Y-24.331
N7040 G2 X51.85 Y-24.669 I-0.433 J0.
N7045 G3 X51.958 Y-25.028 I0.126 J-0.158
N7050 G1 X52.022 Y-25.031
N7055 X55.022
N7060 G3 Y-23.632 I0. J0.7
N7065 G1 X52.022
N7070 G3 X51.958 Y-25.028 I0. J-0.7
N7075 G2 X52.511 Y-25.443 I-0.061 J-0.659
N7080 G3 X53.083 Y-25.831 I0.572 J0.227
N7085 G1 X55.022
N7090 G3 Y-22.831 I0. J1.5
N7095 G1 X52.022
N7100 G3 Y-25.831 I0. J-1.5
N7105 G1 X53.083
N7110 G2 X53.721 Y-26.257 I0. J-0.691
N7115 G3 X54.358 Y-26.681 I0.638 J0.266
N7120 G1 X55.022
N7125 G3 Y-21.982 I0. J2.35
N7130 G1 X52.022
N7135 G3 Y-26.681 I0. J-2.35
N7140 G1 X54.358
N7145 X54.391 Y-26.678 Z-2.739
N7150 X54.421 Y-26.668 Z-2.728
N7155 X54.446 Y-26.653 Z-2.71
N7160 X54.464 Y-26.638 Z-2.686
N7165 X54.476 Y-26.625 Z-2.658
N7170 X54.483 Y-26.616 Z-2.626
N7175 X54.485 Y-26.613 Z-2.593
N7180 Z5.
N7185 X52.022 Y-24.331
N7190 Z-3.2
N7195 X52.017 Y-24.326
N7200 X52.012 Y-24.331
N7205 X52.02 Y-24.369
N7210 X52.041 Y-24.4
N7215 X52.072 Y-24.421
N7220 X52.109 Y-24.429
N7225 G3 X53.566 Y-24.408 I0. J51.423
N7230 G2 X55.022 Y-24.388 I1.456 J-51.402
N7235 G1 X55.05 Y-24.38
N7240 X55.071 Y-24.36
N7245 X55.078 Y-24.331
N7250 X55.071 Y-24.303
N7255 X55.05 Y-24.283
N7260 X55.022 Y-24.275
N7265 G2 X53.566 Y-24.255 I0. J51.423
N7270 G3 X52.109 Y-24.234 I-1.456 J-51.402
N7275 G1 X52.072 Y-24.242
N7280 X52.041 Y-24.263
N7285 X52.02 Y-24.294
N7290 X52.012 Y-24.331
N7295 G2 X51.85 Y-24.669 I-0.433 J0.
N7300 G3 X51.958 Y-25.028 I0.126 J-0.158
N7305 G1 X52.022 Y-25.031
N7310 X55.022
N7315 G3 Y-23.632 I0. J0.7
N7320 G1 X52.022
N7325 G3 X51.958 Y-25.028 I0. J-0.7
N7330 G2 X52.511 Y-25.443 I-0.061 J-0.659
N7335 G3 X53.083 Y-25.831 I0.572 J0.227
N7340 G1 X55.022
N7345 G3 Y-22.831 I0. J1.5
N7350 G1 X52.022
N7355 G3 Y-25.831 I0. J-1.5
N7360 G1 X53.083
N7365 G2 X53.721 Y-26.257 I0. J-0.691
N7370 G3 X54.358 Y-26.681 I0.638 J0.266
N7375 G1 X55.022
N7380 G3 Y-21.982 I0. J2.35
N7385 G1 X52.022
N7390 G3 Y-26.681 I0. J-2.35
N7395 G1 X54.358
N7400 X54.391 Y-26.678 Z-3.196
N7405 X54.421 Y-26.668 Z-3.185
N7410 X54.446 Y-26.653 Z-3.167
N7415 X54.464 Y-26.638 Z-3.144
N7420 X54.476 Y-26.625 Z-3.115
N7425 X54.483 Y-26.616 Z-3.083
N7430 X54.485 Y-26.613 Z-3.05
N7435 Z5.
N7440 X32.204 Y-12.299
N7445 Z-0.457
N7450 X32.199 Y-12.293
N7455 X32.194 Y-12.298
N7460 X32.201 Y-12.336
N7465 X32.222 Y-12.367
N7470 X32.254 Y-12.388
N7475 X32.291 Y-12.396
N7480 G3 X33.747 Y-12.375 I0. J51.421
N7485 G2 X35.204 Y-12.355 I1.457 J-51.445
N7490 G1 X35.232 Y-12.347
N7495 X35.252 Y-12.327
N7500 X35.26 Y-12.298
N7505 X35.252 Y-12.27
N7510 X35.232 Y-12.25
N7515 X35.204 Y-12.242
N7520 G2 X33.747 Y-12.222 I0.001 J51.465
N7525 G3 X32.291 Y-12.201 I-1.456 J-51.401
N7530 G1 X32.254 Y-12.209
N7535 X32.222 Y-12.23
N7540 X32.201 Y-12.261
N7545 X32.194 Y-12.298
N7550 G2 X32.031 Y-12.636 I-0.433 J0.
N7555 G3 X32.139 Y-12.995 I0.126 J-0.158
N7560 G1 X32.204 Y-12.998
N7565 X35.204
N7570 G3 Y-11.598 I0. J0.7
N7575 G1 X32.204
N7580 G3 X32.139 Y-12.995 I0. J-0.7
N7585 G2 X32.693 Y-13.41 I-0.061 J-0.659
N7590 G3 X33.265 Y-13.799 I0.572 J0.227
N7595 G1 X35.204
N7600 G3 Y-10.798 I0. J1.5
N7605 G1 X32.204
N7610 G3 Y-13.799 I0. J-1.5
N7615 G1 X33.265
N7620 G2 X33.902 Y-14.224 I0. J-0.691
N7625 G3 X34.54 Y-14.649 I0.638 J0.266
N7630 G1 X35.204
N7635 G3 Y-9.948 I0. J2.35
N7640 G1 X32.204
N7645 G3 Y-14.649 I0. J-2.35
N7650 G1 X34.54
N7655 Y-14.648
N7660 X32.204 Y-12.299
N7665 Z-0.914
N7670 X32.209 Y-12.295
N7675 X32.206 Y-12.289
N7680 X32.2 Y-12.29
N7685 X32.194 Y-12.298
N7690 X32.201 Y-12.336
N7695 X32.222 Y-12.367
N7700 X32.254 Y-12.388
N7705 X32.291 Y-12.396
N7710 G3 X33.747 Y-12.375 I0. J51.421
N7715 G2 X35.204 Y-12.355 I1.457 J-51.445
N7720 G1 X35.232 Y-12.347
N7725 X35.252 Y-12.327
N7730 X35.26 Y-12.298
N7735 X35.252 Y-12.27
N7740 X35.232 Y-12.25
N7745 X35.204 Y-12.242
N7750 G2 X33.747 Y-12.222 I0.001 J51.465
N7755 G3 X32.291 Y-12.201 I-1.456 J-51.401
N7760 G1 X32.254 Y-12.209
N7765 X32.222 Y-12.23
N7770 X32.201 Y-12.261
N7775 X32.194 Y-12.298
N7780 G2 X32.031 Y-12.636 I-0.433 J0.
N7785 G3 X32.139 Y-12.995 I0.126 J-0.158
N7790 G1 X32.204 Y-12.998
N7795 X35.204
N7800 G3 Y-11.598 I0. J0.7
N7805 G1 X32.204
N7810 G3 X32.139 Y-12.995 I0. J-0.7
N7815 G2 X32.693 Y-13.41 I-0.061 J-0.659
N7820 G3 X33.265 Y-13.799 I0.572 J0.227
N7825 G1 X35.204
N7830 G3 Y-10.798 I0. J1.5
N7835 G1 X32.204
N7840 G3 Y-13.799 I0. J-1.5
N7845 G1 X33.265
N7850 G2 X33.902 Y-14.224 I0. J-0.691
N7855 G3 X34.54 Y-14.649 I0.638 J0.266
N7860 G1 X35.204
N7865 G3 Y-9.948 I0. J2.35
N7870 G1 X32.204
N7875 G3 Y-14.649 I0. J-2.35
N7880 G1 X34.54
N7885 Y-14.648
N7890 X32.204 Y-12.299
N7895 Z-1.371
N7900 X32.209 Y-12.295
N7905 X32.206 Y-12.289
N7910 X32.2 Y-12.29
N7915 X32.194 Y-12.298
N7920 X32.201 Y-12.336
N7925 X32.222 Y-12.367
N7930 X32.254 Y-12.388
N7935 X32.291 Y-12.396
N7940 G3 X33.747 Y-12.375 I0. J51.421
N7945 G2 X35.204 Y-12.355 I1.457 J-51.445
N7950 G1 X35.232 Y-12.347
N7955 X35.252 Y-12.327
N7960 X35.26 Y-12.298
N7965 X35.252 Y-12.27
N7970 X35.232 Y-12.25
N7975 X35.204 Y-12.242
N7980 G2 X33.747 Y-12.222 I0.001 J51.465
N7985 G3 X32.291 Y-12.201 I-1.456 J-51.401
N7990 G1 X32.254 Y-12.209
N7995 X32.222 Y-12.23
N8000 X32.201 Y-12.261
N8005 X32.194 Y-12.298
N8010 G2 X32.031 Y-12.636 I-0.433 J0.
N8015 G3 X32.139 Y-12.995 I0.126 J-0.158
N8020 G1 X32.204 Y-12.998
N8025 X35.204
N8030 G3 Y-11.598 I0. J0.7
N8035 G1 X32.204
N8040 G3 X32.139 Y-12.995 I0. J-0.7
N8045 G2 X32.693 Y-13.41 I-0.061 J-0.659
N8050 G3 X33.265 Y-13.799 I0.572 J0.227
N8055 G1 X35.204
N8060 G3 Y-10.798 I0. J1.5
N8065 G1 X32.204
N8070 G3 Y-13.799 I0. J-1.5
N8075 G1 X33.265
N8080 G2 X33.902 Y-14.224 I0. J-0.691
N8085 G3 X34.54 Y-14.649 I0.638 J0.266
N8090 G1 X35.204
N8095 G3 Y-9.948 I0. J2.35
N8100 G1 X32.204
N8105 G3 Y-14.649 I0. J-2.35
N8110 G1 X34.54
N8115 Y-14.648
N8120 X32.204 Y-12.299
N8125 Z-1.829
N8130 X32.209 Y-12.295
N8135 X32.206 Y-12.289
N8140 X32.2 Y-12.29
N8145 X32.194 Y-12.298
N8150 X32.201 Y-12.336
N8155 X32.222 Y-12.367
N8160 X32.254 Y-12.388
N8165 X32.291 Y-12.396
N8170 G3 X33.747 Y-12.375 I0. J51.421
N8175 G2 X35.204 Y-12.355 I1.457 J-51.445
N8180 G1 X35.232 Y-12.347
N8185 X35.252 Y-12.327
N8190 X35.26 Y-12.298
N8195 X35.252 Y-12.27
N8200 X35.232 Y-12.25
N8205 X35.204 Y-12.242
N8210 G2 X33.747 Y-12.222 I0.001 J51.465
N8215 G3 X32.291 Y-12.201 I-1.456 J-51.401
N8220 G1 X32.254 Y-12.209
N8225 X32.222 Y-12.23
N8230 X32.201 Y-12.261
N8235 X32.194 Y-12.298
N8240 G2 X32.031 Y-12.636 I-0.433 J0.
N8245 G3 X32.139 Y-12.995 I0.126 J-0.158
N8250 G1 X32.204 Y-12.998
N8255 X35.204
N8260 G3 Y-11.598 I0. J0.7
N8265 G1 X32.204
N8270 G3 X32.139 Y-12.995 I0. J-0.7
N8275 G2 X32.693 Y-13.41 I-0.061 J-0.659
N8280 G3 X33.265 Y-13.799 I0.572 J0.227
N8285 G1 X35.204
N8290 G3 Y-10.798 I0. J1.5
N8295 G1 X32.204
N8300 G3 Y-13.799 I0. J-1.5
N8305 G1 X33.265
N8310 G2 X33.902 Y-14.224 I0. J-0.691
N8315 G3 X34.54 Y-14.649 I0.638 J0.266
N8320 G1 X35.204
N8325 G3 Y-9.948 I0. J2.35
N8330 G1 X32.204
N8335 G3 Y-14.649 I0. J-2.35
N8340 G1 X34.54
N8345 Y-14.648
N8350 X32.204 Y-12.299
N8355 Z-2.286
N8360 X32.209 Y-12.295
N8365 X32.206 Y-12.289
N8370 X32.2 Y-12.29
N8375 X32.194 Y-12.298
N8380 X32.201 Y-12.336
N8385 X32.222 Y-12.367
N8390 X32.254 Y-12.388
N8395 X32.291 Y-12.396
N8400 G3 X33.747 Y-12.375 I0. J51.421
N8405 G2 X35.204 Y-12.355 I1.457 J-51.445
N8410 G1 X35.232 Y-12.347
N8415 X35.252 Y-12.327
N8420 X35.26 Y-12.298
N8425 X35.252 Y-12.27
N8430 X35.232 Y-12.25
N8435 X35.204 Y-12.242
N8440 G2 X33.747 Y-12.222 I0.001 J51.465
N8445 G3 X32.291 Y-12.201 I-1.456 J-51.401
N8450 G1 X32.254 Y-12.209
N8455 X32.222 Y-12.23
N8460 X32.201 Y-12.261
N8465 X32.194 Y-12.298
N8470 G2 X32.031 Y-12.636 I-0.433 J0.
N8475 G3 X32.139 Y-12.995 I0.126 J-0.158
N8480 G1 X32.204 Y-12.998
N8485 X35.204
N8490 G3 Y-11.598 I0. J0.7
N8495 G1 X32.204
N8500 G3 X32.139 Y-12.995 I0. J-0.7
N8505 G2 X32.693 Y-13.41 I-0.061 J-0.659
N8510 G3 X33.265 Y-13.799 I0.572 J0.227
N8515 G1 X35.204
N8520 G3 Y-10.798 I0. J1.5
N8525 G1 X32.204
N8530 G3 Y-13.799 I0. J-1.5
N8535 G1 X33.265
N8540 G2 X33.902 Y-14.224 I0. J-0.691
N8545 G3 X34.54 Y-14.649 I0.638 J0.266
N8550 G1 X35.204
N8555 G3 Y-9.948 I0. J2.35
N8560 G1 X32.204
N8565 G3 Y-14.649 I0. J-2.35
N8570 G1 X34.54
N8575 Y-14.648
N8580 X32.204 Y-12.299
N8585 Z-2.743
N8590 X32.209 Y-12.295
N8595 X32.206 Y-12.289
N8600 X32.2 Y-12.29
N8605 X32.194 Y-12.298
N8610 X32.201 Y-12.336
N8615 X32.222 Y-12.367
N8620 X32.254 Y-12.388
N8625 X32.291 Y-12.396
N8630 G3 X33.747 Y-12.375 I0. J51.421
N8635 G2 X35.204 Y-12.355 I1.457 J-51.445
N8640 G1 X35.232 Y-12.347
N8645 X35.252 Y-12.327
N8650 X35.26 Y-12.298
N8655 X35.252 Y-12.27
N8660 X35.232 Y-12.25
N8665 X35.204 Y-12.242
N8670 G2 X33.747 Y-12.222 I0.001 J51.465
N8675 G3 X32.291 Y-12.201 I-1.456 J-51.401
N8680 G1 X32.254 Y-12.209
N8685 X32.222 Y-12.23
N8690 X32.201 Y-12.261
N8695 X32.194 Y-12.298
N8700 G2 X32.031 Y-12.636 I-0.433 J0.
N8705 G3 X32.139 Y-12.995 I0.126 J-0.158
N8710 G1 X32.204 Y-12.998
N8715 X35.204
N8720 G3 Y-11.598 I0. J0.7
N8725 G1 X32.204
N8730 G3 X32.139 Y-12.995 I0. J-0.7
N8735 G2 X32.693 Y-13.41 I-0.061 J-0.659
N8740 G3 X33.265 Y-13.799 I0.572 J0.227
N8745 G1 X35.204
N8750 G3 Y-10.798 I0. J1.5
N8755 G1 X32.204
N8760 G3 Y-13.799 I0. J-1.5
N8765 G1 X33.265
N8770 G2 X33.902 Y-14.224 I0. J-0.691
N8775 G3 X34.54 Y-14.649 I0.638 J0.266
N8780 G1 X35.204
N8785 G3 Y-9.948 I0. J2.35
N8790 G1 X32.204
N8795 G3 Y-14.649 I0. J-2.35
N8800 G1 X34.54
N8805 Y-14.648
N8810 X32.204 Y-12.299
N8815 Z-3.2
N8820 X32.209 Y-12.295
N8825 X32.206 Y-12.289
N8830 X32.2 Y-12.29
N8835 X32.194 Y-12.298
N8840 X32.201 Y-12.336
N8845 X32.222 Y-12.367
N8850 X32.254 Y-12.388
N8855 X32.291 Y-12.396
N8860 G3 X33.747 Y-12.375 I0. J51.421
N8865 G2 X35.204 Y-12.355 I1.457 J-51.445
N8870 G1 X35.232 Y-12.347
N8875 X35.252 Y-12.327
N8880 X35.26 Y-12.298
N8885 X35.252 Y-12.27
N8890 X35.232 Y-12.25
N8895 X35.204 Y-12.242
N8900 G2 X33.747 Y-12.222 I0.001 J51.465
N8905 G3 X32.291 Y-12.201 I-1.456 J-51.401
N8910 G1 X32.254 Y-12.209
N8915 X32.222 Y-12.23
N8920 X32.201 Y-12.261
N8925 X32.194 Y-12.298
N8930 G2 X32.031 Y-12.636 I-0.433 J0.
N8935 G3 X32.139 Y-12.995 I0.126 J-0.158
N8940 G1 X32.204 Y-12.998
N8945 X35.204
N8950 G3 Y-11.598 I0. J0.7
N8955 G1 X32.204
N8960 G3 X32.139 Y-12.995 I0. J-0.7
N8965 G2 X32.693 Y-13.41 I-0.061 J-0.659
N8970 G3 X33.265 Y-13.799 I0.572 J0.227
N8975 G1 X35.204
N8980 G3 Y-10.798 I0. J1.5
N8985 G1 X32.204
N8990 G3 Y-13.799 I0. J-1.5
N8995 G1 X33.265
N9000 G2 X33.902 Y-14.224 I0. J-0.691
N9005 G3 X34.54 Y-14.649 I0.638 J0.266
N9010 G1 X35.204
N9015 G3 Y-9.948 I0. J2.35
N9020 G1 X32.204
N9025 G3 Y-14.649 I0. J-2.35
N9030 G1 X34.54
N9035 X34.573 Y-14.645 Z-3.196
N9040 X34.603 Y-14.635 Z-3.185
N9045 X34.627 Y-14.62 Z-3.167
N9050 X34.645 Y-14.605 Z-3.144
N9055 X34.657 Y-14.592 Z-3.115
N9060 X34.664 Y-14.583 Z-3.083
N9065 X34.666 Y-14.58 Z-3.05
N9070 Z5.
N9075 X13.094 Y-22.281
N9080 Z-0.457
N9085 G3 X13.993 I0.45 J0.
N9090 X12.193 I-0.9 J0.
N9095 X14.894 I1.35 J0.
N9100 X11.293 I-1.8 J0.
N9105 X14.894 I1.8 J0.
N9110 G1 X13.094
N9115 Z-0.914
N9120 G3 X13.993 I0.45 J0.
N9125 X12.193 I-0.9 J0.
N9130 X14.894 I1.35 J0.
N9135 X11.293 I-1.8 J0.
N9140 X14.894 I1.8 J0.
N9145 G1 X13.094
N9150 Z-1.371
N9155 G3 X13.993 I0.45 J0.
N9160 X12.193 I-0.9 J0.
N9165 X14.894 I1.35 J0.
N9170 X11.293 I-1.8 J0.
N9175 X14.894 I1.8 J0.
N9180 G1 X13.094
N9185 Z-1.829
N9190 G3 X13.993 I0.45 J0.
N9195 X12.193 I-0.9 J0.
N9200 X14.894 I1.35 J0.
N9205 X11.293 I-1.8 J0.
N9210 X14.894 I1.8 J0.
N9215 G1 X13.094
N9220 Z-2.286
N9225 G3 X13.993 I0.45 J0.
N9230 X12.193 I-0.9 J0.
N9235 X14.894 I1.35 J0.
N9240 X11.293 I-1.8 J0.
N9245 X14.894 I1.8 J0.
N9250 G1 X13.094
N9255 Z-2.743
N9260 G3 X13.993 I0.45 J0.
N9265 X12.193 I-0.9 J0.
N9270 X14.894 I1.35 J0.
N9275 X11.293 I-1.8 J0.
N9280 X14.894 I1.8 J0.
N9285 G1 X13.094
N9290 Z-3.2
N9295 G3 X13.993 I0.45 J0.
N9300 X12.193 I-0.9 J0.
N9305 X14.894 I1.35 J0.
N9310 X11.293 I-1.8 J0.
N9315 X14.894 I1.8 J0.
N9320 G1 X14.89 Y-22.248 Z-3.196
N9325 X14.88 Y-22.218 Z-3.185
N9330 X14.865 Y-22.193 Z-3.167
N9335 X14.85 Y-22.175 Z-3.144
N9340 X14.837 Y-22.163 Z-3.115
N9345 X14.828 Y-22.157 Z-3.083
N9350 X14.825 Y-22.154 Z-3.05
N9355 Z5.
N9360 X32.204 Y-44.049
N9365 Z-0.457
N9370 X32.22 Y-44.043
N9375 X32.23 Y-44.029
N9380 Y-44.012
N9385 X32.22 Y-43.998
N9390 X32.204 Y-43.992
N9395 X32.176 Y-44.
N9400 X32.155 Y-44.02
N9405 X32.148 Y-44.049
N9410 X32.155 Y-44.077
N9415 X32.176 Y-44.097
N9420 X32.204 Y-44.105
N9425 X35.204
N9430 X35.232 Y-44.097
N9435 X35.252 Y-44.077
N9440 X35.26 Y-44.049
N9445 X35.252 Y-44.02
N9450 X35.232 Y-44.
N9455 X35.204 Y-43.992
N9460 X32.204
N9465 G2 X31.874 Y-43.831 I0. J0.417
N9470 G3 X31.516 Y-43.916 I-0.159 J-0.123
N9475 X32.204 Y-44.749 I0.687 J-0.133
N9480 G1 X35.204
N9485 G3 Y-43.348 I0. J0.7
N9490 G1 X32.204
N9495 G3 X31.516 Y-43.916 I0. J-0.7
N9500 G2 X31.145 Y-44.356 I-0.579 J0.112
N9505 G3 X30.973 Y-44.907 I0.128 J-0.342
N9510 X32.204 Y-45.549 I1.23 J0.858
N9515 G1 X35.204
N9520 G3 Y-42.549 I0. J1.5
N9525 G1 X32.204
N9530 G3 X30.973 Y-44.907 I0. J-1.5
N9535 G2 X31.023 Y-45.57 I-0.534 J-0.373
N9540 G3 X31.247 Y-46.195 I0.412 J-0.205
N9545 X32.204 Y-46.398 I0.956 J2.147
N9550 G1 X35.204
N9555 G3 Y-41.699 I0. J2.35
N9560 G1 X32.204
N9565 G3 X31.247 Y-46.195 I0. J-2.35
N9570 G1 X31.277 Y-46.202
N9575 X31.307 Y-46.197
N9580 X31.333 Y-46.181
N9585 X31.35 Y-46.156
N9590 X32.275 Y-44.16
N9595 X32.282 Y-44.129
N9600 X32.277 Y-44.099
N9605 X32.26 Y-44.072
N9610 X32.234 Y-44.055
N9615 X32.204 Y-44.049
N9620 Z-0.914
N9625 X32.22 Y-44.043
N9630 X32.23 Y-44.029
N9635 Y-44.012
N9640 X32.22 Y-43.998
N9645 X32.204 Y-43.992
N9650 X32.176 Y-44.
N9655 X32.155 Y-44.02
N9660 X32.148 Y-44.049
N9665 X32.155 Y-44.077
N9670 X32.176 Y-44.097
N9675 X32.204 Y-44.105
N9680 X35.204
N9685 X35.232 Y-44.097
N9690 X35.252 Y-44.077
N9695 X35.26 Y-44.049
N9700 X35.252 Y-44.02
N9705 X35.232 Y-44.
N9710 X35.204 Y-43.992
N9715 X32.204
N9720 G2 X31.874 Y-43.831 I0. J0.417
N9725 G3 X31.516 Y-43.916 I-0.159 J-0.123
N9730 X32.204 Y-44.749 I0.687 J-0.133
N9735 G1 X35.204
N9740 G3 Y-43.348 I0. J0.7
N9745 G1 X32.204
N9750 G3 X31.516 Y-43.916 I0. J-0.7
N9755 G2 X31.145 Y-44.356 I-0.579 J0.112
N9760 G3 X30.973 Y-44.907 I0.128 J-0.342
N9765 X32.204 Y-45.549 I1.23 J0.858
N9770 G1 X35.204
N9775 G3 Y-42.549 I0. J1.5
N9780 G1 X32.204
N9785 G3 X30.973 Y-44.907 I0. J-1.5
N9790 G2 X31.023 Y-45.57 I-0.534 J-0.373
N9795 G3 X31.247 Y-46.195 I0.412 J-0.205
N9800 X32.204 Y-46.398 I0.956 J2.147
N9805 G1 X35.204
N9810 G3 Y-41.699 I0. J2.35
N9815 G1 X32.204
N9820 G3 X31.247 Y-46.195 I0. J-2.35
N9825 G1 X31.277 Y-46.202
N9830 X31.307 Y-46.197
N9835 X31.333 Y-46.181
N9840 X31.35 Y-46.156
N9845 X32.275 Y-44.16
N9850 X32.282 Y-44.129
N9855 X32.277 Y-44.099
N9860 X32.26 Y-44.072
N9865 X32.234 Y-44.055
N9870 X32.204 Y-44.049
N9875 Z-1.371
N9880 X32.22 Y-44.043
N9885 X32.23 Y-44.029
N9890 Y-44.012
N9895 X32.22 Y-43.998
N9900 X32.204 Y-43.992
N9905 X32.176 Y-44.
N9910 X32.155 Y-44.02
N9915 X32.148 Y-44.049
N9920 X32.155 Y-44.077
N9925 X32.176 Y-44.097
N9930 X32.204 Y-44.105
N9935 X35.204
N9940 X35.232 Y-44.097
N9945 X35.252 Y-44.077
N9950 X35.26 Y-44.049
N9955 X35.252 Y-44.02
N9960 X35.232 Y-44.
N9965 X35.204 Y-43.992
N9970 X32.204
N9975 G2 X31.874 Y-43.831 I0. J0.417
N9980 G3 X31.516 Y-43.916 I-0.159 J-0.123
N9985 X32.204 Y-44.749 I0.687 J-0.133
N9990 G1 X35.204
N9995 G3 Y-43.348 I0. J0.7
N10000 G1 X32.204
N10005 G3 X31.516 Y-43.916 I0. J-0.7
N10010 G2 X31.145 Y-44.356 I-0.579 J0.112
N10015 G3 X30.973 Y-44.907 I0.128 J-0.342
N10020 X32.204 Y-45.549 I1.23 J0.858
N10025 G1 X35.204
N10030 G3 Y-42.549 I0. J1.5
N10035 G1 X32.204
N10040 G3 X30.973 Y-44.907 I0. J-1.5
N10045 G2 X31.023 Y-45.57 I-0.534 J-0.373
N10050 G3 X31.247 Y-46.195 I0.412 J-0.205
N10055 X32.204 Y-46.398 I0.956 J2.147
N10060 G1 X35.204
N10065 G3 Y-41.699 I0. J2.35
N10070 G1 X32.204
N10075 G3 X31.247 Y-46.195 I0. J-2.35
N10080 G1 X31.277 Y-46.202
N10085 X31.307 Y-46.197
N10090 X31.333 Y-46.181
N10095 X31.35 Y-46.156
N10100 X32.275 Y-44.16
N10105 X32.282 Y-44.129
N10110 X32.277 Y-44.099
N10115 X32.26 Y-44.072
N10120 X32.234 Y-44.055
N10125 X32.204 Y-44.049
N10130 Z-1.829
N10135 X32.22 Y-44.043
N10140 X32.23 Y-44.029
N10145 Y-44.012
N10150 X32.22 Y-43.998
N10155 X32.204 Y-43.992
N10160 X32.176 Y-44.
N10165 X32.155 Y-44.02
N10170 X32.148 Y-44.049
N10175 X32.155 Y-44.077
N10180 X32.176 Y-44.097
N10185 X32.204 Y-44.105
N10190 X35.204
N10195 X35.232 Y-44.097
N10200 X35.252 Y-44.077
N10205 X35.26 Y-44.049
N10210 X35.252 Y-44.02
N10215 X35.232 Y-44.
N10220 X35.204 Y-43.992
N10225 X32.204
N10230 G2 X31.874 Y-43.831 I0. J0.417
N10235 G3 X31.516 Y-43.916 I-0.159 J-0.123
N10240 X32.204 Y-44.749 I0.687 J-0.133
N10245 G1 X35.204
N10250 G3 Y-43.348 I0. J0.7
N10255 G1 X32.204
N10260 G3 X31.516 Y-43.916 I0. J-0.7
N10265 G2 X31.145 Y-44.356 I-0.579 J0.112
N10270 G3 X30.973 Y-44.907 I0.128 J-0.342
N10275 X32.204 Y-45.549 I1.23 J0.858
N10280 G1 X35.204
N10285 G3 Y-42.549 I0. J1.5
N10290 G1 X32.204
N10295 G3 X30.973 Y-44.907 I0. J-1.5
N10300 G2 X31.023 Y-45.57 I-0.534 J-0.373
N10305 G3 X31.247 Y-46.195 I0.412 J-0.205
N10310 X32.204 Y-46.398 I0.956 J2.147
N10315 G1 X35.204
N10320 G3 Y-41.699 I0. J2.35
N10325 G1 X32.204
N10330 G3 X31.247 Y-46.195 I0. J-2.35
N10335 G1 X31.277 Y-46.202
N10340 X31.307 Y-46.197
N10345 X31.333 Y-46.181
N10350 X31.35 Y-46.156
N10355 X32.275 Y-44.16
N10360 X32.282 Y-44.129
N10365 X32.277 Y-44.099
N10370 X32.26 Y-44.072
N10375 X32.234 Y-44.055
N10380 X32.204 Y-44.049
N10385 Z-2.286
N10390 X32.22 Y-44.043
N10395 X32.23 Y-44.029
N10400 Y-44.012
N10405 X32.22 Y-43.998
N10410 X32.204 Y-43.992
N10415 X32.176 Y-44.
N10420 X32.155 Y-44.02
N10425 X32.148 Y-44.049
N10430 X32.155 Y-44.077
N10435 X32.176 Y-44.097
N10440 X32.204 Y-44.105
N10445 X35.204
N10450 X35.232 Y-44.097
N10455 X35.252 Y-44.077
N10460 X35.26 Y-44.049
N10465 X35.252 Y-44.02
N10470 X35.232 Y-44.
N10475 X35.204 Y-43.992
N10480 X32.204
N10485 G2 X31.874 Y-43.831 I0. J0.417
N10490 G3 X31.516 Y-43.916 I-0.159 J-0.123
N10495 X32.204 Y-44.749 I0.687 J-0.133
N10500 G1 X35.204
N10505 G3 Y-43.348 I0. J0.7
N10510 G1 X32.204
N10515 G3 X31.516 Y-43.916 I0. J-0.7
N10520 G2 X31.145 Y-44.356 I-0.579 J0.112
N10525 G3 X30.973 Y-44.907 I0.128 J-0.342
N10530 X32.204 Y-45.549 I1.23 J0.858
N10535 G1 X35.204
N10540 G3 Y-42.549 I0. J1.5
N10545 G1 X32.204
N10550 G3 X30.973 Y-44.907 I0. J-1.5
N10555 G2 X31.023 Y-45.57 I-0.534 J-0.373
N10560 G3 X31.247 Y-46.195 I0.412 J-0.205
N10565 X32.204 Y-46.398 I0.956 J2.147
N10570 G1 X35.204
N10575 G3 Y-41.699 I0. J2.35
N10580 G1 X32.204
N10585 G3 X31.247 Y-46.195 I0. J-2.35
N10590 G1 X31.277 Y-46.202
N10595 X31.307 Y-46.197
N10600 X31.333 Y-46.181
N10605 X31.35 Y-46.156
N10610 X32.275 Y-44.16
N10615 X32.282 Y-44.129
N10620 X32.277 Y-44.099
N10625 X32.26 Y-44.072
N10630 X32.234 Y-44.055
N10635 X32.204 Y-44.049
N10640 Z-2.743
N10645 X32.22 Y-44.043
N10650 X32.23 Y-44.029
N10655 Y-44.012
N10660 X32.22 Y-43.998
N10665 X32.204 Y-43.992
N10670 X32.176 Y-44.
N10675 X32.155 Y-44.02
N10680 X32.148 Y-44.049
N10685 X32.155 Y-44.077
N10690 X32.176 Y-44.097
N10695 X32.204 Y-44.105
N10700 X35.204
N10705 X35.232 Y-44.097
N10710 X35.252 Y-44.077
N10715 X35.26 Y-44.049
N10720 X35.252 Y-44.02
N10725 X35.232 Y-44.
N10730 X35.204 Y-43.992
N10735 X32.204
N10740 G2 X31.874 Y-43.831 I0. J0.417
N10745 G3 X31.516 Y-43.916 I-0.159 J-0.123
N10750 X32.204 Y-44.749 I0.687 J-0.133
N10755 G1 X35.204
N10760 G3 Y-43.348 I0. J0.7
N10765 G1 X32.204
N10770 G3 X31.516 Y-43.916 I0. J-0.7
N10775 G2 X31.145 Y-44.356 I-0.579 J0.112
N10780 G3 X30.973 Y-44.907 I0.128 J-0.342
N10785 X32.204 Y-45.549 I1.23 J0.858
N10790 G1 X35.204
N10795 G3 Y-42.549 I0. J1.5
N10800 G1 X32.204
N10805 G3 X30.973 Y-44.907 I0. J-1.5
N10810 G2 X31.023 Y-45.57 I-0.534 J-0.373
N10815 G3 X31.247 Y-46.195 I0.412 J-0.205
N10820 X32.204 Y-46.398 I0.956 J2.147
N10825 G1 X35.204
N10830 G3 Y-41.699 I0. J2.35
N10835 G1 X32.204
N10840 G3 X31.247 Y-46.195 I0. J-2.35
N10845 G1 X31.277 Y-46.202
N10850 X31.307 Y-46.197
N10855 X31.333 Y-46.181
N10860 X31.35 Y-46.156
N10865 X32.275 Y-44.16
N10870 X32.282 Y-44.129
N10875 X32.277 Y-44.099
N10880 X32.26 Y-44.072
N10885 X32.234 Y-44.055
N10890 X32.204 Y-44.049
N10895 Z-3.2
N10900 X32.22 Y-44.043
N10905 X32.23 Y-44.029
N10910 Y-44.012
N10915 X32.22 Y-43.998
N10920 X32.204 Y-43.992
N10925 X32.176 Y-44.
N10930 X32.155 Y-44.02
N10935 X32.148 Y-44.049
N10940 X32.155 Y-44.077
N10945 X32.176 Y-44.097
N10950 X32.204 Y-44.105
N10955 X35.204
N10960 X35.232 Y-44.097
N10965 X35.252 Y-44.077
N10970 X35.26 Y-44.049
N10975 X35.252 Y-44.02
N10980 X35.232 Y-44.
N10985 X35.204 Y-43.992
N10990 X32.204
N10995 G2 X31.874 Y-43.831 I0. J0.417
N11000 G3 X31.516 Y-43.916 I-0.159 J-0.123
N11005 X32.204 Y-44.749 I0.687 J-0.133
N11010 G1 X35.204
N11015 G3 Y-43.348 I0. J0.7
N11020 G1 X32.204
N11025 G3 X31.516 Y-43.916 I0. J-0.7
N11030 G2 X31.145 Y-44.356 I-0.579 J0.112
N11035 G3 X30.973 Y-44.907 I0.128 J-0.342
N11040 X32.204 Y-45.549 I1.23 J0.858
N11045 G1 X35.204
N11050 G3 Y-42.549 I0. J1.5
N11055 G1 X32.204
N11060 G3 X30.973 Y-44.907 I0. J-1.5
N11065 G2 X31.023 Y-45.57 I-0.534 J-0.373
N11070 G3 X31.247 Y-46.195 I0.412 J-0.205
N11075 X32.204 Y-46.398 I0.956 J2.147
N11080 G1 X35.204
N11085 G3 Y-41.699 I0. J2.35
N11090 G1 X32.204
N11095 G3 X31.247 Y-46.195 I0. J-2.35
N11100 G1 X31.279 Y-46.205 Z-3.196
N11105 X31.311 Y-46.208 Z-3.185
N11110 X31.339 Y-46.205 Z-3.167
N11115 X31.362 Y-46.198 Z-3.144
N11120 X31.378 Y-46.191 Z-3.115
N11125 X31.388 Y-46.186 Z-3.083
N11130 X31.391 Y-46.183 Z-3.05
N11135 Z5.
N11140 X26.904 Y-50.78
N11145 Z-0.457
N11150 X26.892 Y-50.807
N11155 X26.87 Y-50.827
N11160 X26.843 Y-50.837
N11165 X26.814 Y-50.836
N11170 X25.262 Y-50.471
N11175 X25.235 Y-50.459
N11180 X25.215 Y-50.438
N11185 X25.205 Y-50.41
N11190 X25.206 Y-50.381
N11195 X25.209 Y-50.343
N11200 X25.201 Y-50.306
N11205 X25.183 Y-50.273
N11210 X25.156 Y-50.246
N11215 G2 X24.631 Y-49.793 I2.547 J3.483
N11220 G1 X24.596 Y-49.768
N11225 X24.554 Y-49.755
N11230 X24.51 Y-49.758
N11235 X24.47 Y-49.774
N11240 X24.437 Y-49.803
N11245 X24.416 Y-49.842
N11250 X24.409 Y-49.885
N11255 Y-50.246
N11260 G3 X24.644 Y-50.481 I0.235 J0.
N11265 G1 X25.079
N11270 X25.122 Y-50.474
N11275 X25.16 Y-50.453
N11280 X25.189 Y-50.421
N11285 X25.206 Y-50.381
N11290 G3 X25.211 Y-49.813 I-1.258 J0.296
N11295 X24.949 Y-49.308 I-1.055 J-0.228
N11300 G2 X23.963 Y-47.031 I2.755 J2.545
N11305 G1 X23.844
N11310 Y-51.047
N11315 X26.954
N11320 Y-50.438
N11325 G2 X24.949 Y-49.308 I0.75 J3.674
N11330 G1 X24.924 Y-49.286 Z-0.453
N11335 X24.896 Y-49.271 Z-0.442
N11340 X24.869 Y-49.263 Z-0.424
N11345 X24.845 Y-49.26 Z-0.401
N11350 X24.828 Z-0.372
N11355 X24.817 Y-49.261 Z-0.341
N11360 X24.813 Y-49.262 Z-0.307
N11365 Z5.
N11370 X26.904 Y-50.78
N11375 Z-0.914
N11380 X26.892 Y-50.807
N11385 X26.87 Y-50.827
N11390 X26.843 Y-50.837
N11395 X26.814 Y-50.836
N11400 X25.262 Y-50.471
N11405 X25.235 Y-50.459
N11410 X25.215 Y-50.438
N11415 X25.205 Y-50.41
N11420 X25.206 Y-50.381
N11425 X25.209 Y-50.343
N11430 X25.201 Y-50.306
N11435 X25.183 Y-50.273
N11440 X25.156 Y-50.246
N11445 G2 X24.631 Y-49.793 I2.547 J3.483
N11450 G1 X24.596 Y-49.768
N11455 X24.554 Y-49.755
N11460 X24.51 Y-49.758
N11465 X24.47 Y-49.774
N11470 X24.437 Y-49.803
N11475 X24.416 Y-49.842
N11480 X24.409 Y-49.885
N11485 Y-50.246
N11490 G3 X24.644 Y-50.481 I0.235 J0.
N11495 G1 X25.079
N11500 X25.122 Y-50.474
N11505 X25.16 Y-50.453
N11510 X25.189 Y-50.421
N11515 X25.206 Y-50.381
N11520 G3 X25.211 Y-49.813 I-1.258 J0.296
N11525 X24.949 Y-49.308 I-1.055 J-0.228
N11530 G2 X23.963 Y-47.031 I2.755 J2.545
N11535 G1 X23.844
N11540 Y-51.047
N11545 X26.954
N11550 Y-50.438
N11555 G2 X24.949 Y-49.308 I0.75 J3.674
N11560 G1 X24.924 Y-49.286 Z-0.911
N11565 X24.896 Y-49.271 Z-0.899
N11570 X24.869 Y-49.263 Z-0.882
N11575 X24.845 Y-49.26 Z-0.858
N11580 X24.828 Z-0.829
N11585 X24.817 Y-49.261 Z-0.798
N11590 X24.813 Y-49.262 Z-0.764
N11595 Z5.
N11600 X26.904 Y-50.78
N11605 Z-1.371
N11610 X26.892 Y-50.807
N11615 X26.87 Y-50.827
N11620 X26.843 Y-50.837
N11625 X26.814 Y-50.836
N11630 X25.262 Y-50.471
N11635 X25.235 Y-50.459
N11640 X25.215 Y-50.438
N11645 X25.205 Y-50.41
N11650 X25.206 Y-50.381
N11655 X25.209 Y-50.343
N11660 X25.201 Y-50.306
N11665 X25.183 Y-50.273
N11670 X25.156 Y-50.246
N11675 G2 X24.631 Y-49.793 I2.547 J3.483
N11680 G1 X24.596 Y-49.768
N11685 X24.554 Y-49.755
N11690 X24.51 Y-49.758
N11695 X24.47 Y-49.774
N11700 X24.437 Y-49.803
N11705 X24.416 Y-49.842
N11710 X24.409 Y-49.885
N11715 Y-50.246
N11720 G3 X24.644 Y-50.481 I0.235 J0.
N11725 G1 X25.079
N11730 X25.122 Y-50.474
N11735 X25.16 Y-50.453
N11740 X25.189 Y-50.421
N11745 X25.206 Y-50.381
N11750 G3 X25.211 Y-49.813 I-1.258 J0.296
N11755 X24.949 Y-49.308 I-1.055 J-0.228
N11760 G2 X23.963 Y-47.031 I2.755 J2.545
N11765 G1 X23.844
N11770 Y-51.047
N11775 X26.954
N11780 Y-50.438
N11785 G2 X24.949 Y-49.308 I0.75 J3.674
N11790 G1 X24.924 Y-49.286 Z-1.368
N11795 X24.896 Y-49.271 Z-1.357
N11800 X24.869 Y-49.263 Z-1.339
N11805 X24.845 Y-49.26 Z-1.315
N11810 X24.828 Z-1.287
N11815 X24.817 Y-49.261 Z-1.255
N11820 X24.813 Y-49.262 Z-1.221
N11825 Z5.
N11830 X26.904 Y-50.78
N11835 Z-1.829
N11840 X26.892 Y-50.807
N11845 X26.87 Y-50.827
N11850 X26.843 Y-50.837
N11855 X26.814 Y-50.836
N11860 X25.262 Y-50.471
N11865 X25.235 Y-50.459
N11870 X25.215 Y-50.438
N11875 X25.205 Y-50.41
N11880 X25.206 Y-50.381
N11885 X25.209 Y-50.343
N11890 X25.201 Y-50.306
N11895 X25.183 Y-50.273
N11900 X25.156 Y-50.246
N11905 G2 X24.631 Y-49.793 I2.547 J3.483
N11910 G1 X24.596 Y-49.768
N11915 X24.554 Y-49.755
N11920 X24.51 Y-49.758
N11925 X24.47 Y-49.774
N11930 X24.437 Y-49.803
N11935 X24.416 Y-49.842
N11940 X24.409 Y-49.885
N11945 Y-50.246
N11950 G3 X24.644 Y-50.481 I0.235 J0.
N11955 G1 X25.079
N11960 X25.122 Y-50.474
N11965 X25.16 Y-50.453
N11970 X25.189 Y-50.421
N11975 X25.206 Y-50.381
N11980 G3 X25.211 Y-49.813 I-1.258 J0.296
N11985 X24.949 Y-49.308 I-1.055 J-0.228
N11990 G2 X23.963 Y-47.031 I2.755 J2.545
N11995 G1 X23.844
N12000 Y-51.047
N12005 X26.954
N12010 Y-50.438
N12015 G2 X24.949 Y-49.308 I0.75 J3.674
N12020 G1 X24.924 Y-49.286 Z-1.825
N12025 X24.896 Y-49.271 Z-1.814
N12030 X24.869 Y-49.263 Z-1.796
N12035 X24.845 Y-49.26 Z-1.772
N12040 X24.828 Z-1.744
N12045 X24.817 Y-49.261 Z-1.712
N12050 X24.813 Y-49.262 Z-1.679
N12055 Z5.
N12060 X26.904 Y-50.78
N12065 Z-2.286
N12070 X26.892 Y-50.807
N12075 X26.87 Y-50.827
N12080 X26.843 Y-50.837
N12085 X26.814 Y-50.836
N12090 X25.262 Y-50.471
N12095 X25.235 Y-50.459
N12100 X25.215 Y-50.438
N12105 X25.205 Y-50.41
N12110 X25.206 Y-50.381
N12115 X25.209 Y-50.343
N12120 X25.201 Y-50.306
N12125 X25.183 Y-50.273
N12130 X25.156 Y-50.246
N12135 G2 X24.631 Y-49.793 I2.547 J3.483
N12140 G1 X24.596 Y-49.768
N12145 X24.554 Y-49.755
N12150 X24.51 Y-49.758
N12155 X24.47 Y-49.774
N12160 X24.437 Y-49.803
N12165 X24.416 Y-49.842
N12170 X24.409 Y-49.885
N12175 Y-50.246
N12180 G3 X24.644 Y-50.481 I0.235 J0.
N12185 G1 X25.079
N12190 X25.122 Y-50.474
N12195 X25.16 Y-50.453
N12200 X25.189 Y-50.421
N12205 X25.206 Y-50.381
N12210 G3 X25.211 Y-49.813 I-1.258 J0.296
N12215 X24.949 Y-49.308 I-1.055 J-0.228
N12220 G2 X23.963 Y-47.031 I2.755 J2.545
N12225 G1 X23.844
N12230 Y-51.047
N12235 X26.954
N12240 Y-50.438
N12245 G2 X24.949 Y-49.308 I0.75 J3.674
N12250 G1 X24.924 Y-49.286 Z-2.282
N12255 X24.896 Y-49.271 Z-2.271
N12260 X24.869 Y-49.263 Z-2.253
N12265 X24.845 Y-49.26 Z-2.229
N12270 X24.828 Z-2.201
N12275 X24.817 Y-49.261 Z-2.169
N12280 X24.813 Y-49.262 Z-2.136
N12285 Z5.
N12290 X26.904 Y-50.78
N12295 Z-2.743
N12300 X26.892 Y-50.807
N12305 X26.87 Y-50.827
N12310 X26.843 Y-50.837
N12315 X26.814 Y-50.836
N12320 X25.262 Y-50.471
N12325 X25.235 Y-50.459
N12330 X25.215 Y-50.438
N12335 X25.205 Y-50.41
N12340 X25.206 Y-50.381
N12345 X25.209 Y-50.343
N12350 X25.201 Y-50.306
N12355 X25.183 Y-50.273
N12360 X25.156 Y-50.246
N12365 G2 X24.631 Y-49.793 I2.547 J3.483
N12370 G1 X24.596 Y-49.768
N12375 X24.554 Y-49.755
N12380 X24.51 Y-49.758
N12385 X24.47 Y-49.774
N12390 X24.437 Y-49.803
N12395 X24.416 Y-49.842
N12400 X24.409 Y-49.885
N12405 Y-50.246
N12410 G3 X24.644 Y-50.481 I0.235 J0.
N12415 G1 X25.079
N12420 X25.122 Y-50.474
N12425 X25.16 Y-50.453
N12430 X25.189 Y-50.421
N12435 X25.206 Y-50.381
N12440 G3 X25.211 Y-49.813 I-1.258 J0.296
N12445 X24.949 Y-49.308 I-1.055 J-0.228
N12450 G2 X23.963 Y-47.031 I2.755 J2.545
N12455 G1 X23.844
N12460 Y-51.047
N12465 X26.954
N12470 Y-50.438
N12475 G2 X24.949 Y-49.308 I0.75 J3.674
N12480 G1 X24.924 Y-49.286 Z-2.739
N12485 X24.896 Y-49.271 Z-2.728
N12490 X24.869 Y-49.263 Z-2.71
N12495 X24.845 Y-49.26 Z-2.686
N12500 X24.828 Z-2.658
N12505 X24.817 Y-49.261 Z-2.626
N12510 X24.813 Y-49.262 Z-2.593
N12515 Z5.
N12520 X26.904 Y-50.78
N12525 Z-3.2
N12530 X26.892 Y-50.807
N12535 X26.87 Y-50.827
N12540 X26.843 Y-50.837
N12545 X26.814 Y-50.836
N12550 X25.262 Y-50.471
N12555 X25.235 Y-50.459
N12560 X25.215 Y-50.438
N12565 X25.205 Y-50.41
N12570 X25.206 Y-50.381
N12575 X25.209 Y-50.343
N12580 X25.201 Y-50.306
N12585 X25.183 Y-50.273
N12590 X25.156 Y-50.246
N12595 G2 X24.631 Y-49.793 I2.547 J3.483
N12600 G1 X24.596 Y-49.768
N12605 X24.554 Y-49.755
N12610 X24.51 Y-49.758
N12615 X24.47 Y-49.774
N12620 X24.437 Y-49.803
N12625 X24.416 Y-49.842
N12630 X24.409 Y-49.885
N12635 Y-50.246
N12640 G3 X24.644 Y-50.481 I0.235 J0.
N12645 G1 X25.079
N12650 X25.122 Y-50.474
N12655 X25.16 Y-50.453
N12660 X25.189 Y-50.421
N12665 X25.206 Y-50.381
N12670 G3 X25.211 Y-49.813 I-1.258 J0.296
N12675 X24.949 Y-49.308 I-1.055 J-0.228
N12680 G2 X23.963 Y-47.031 I2.755 J2.545
N12685 G1 X23.844
N12690 Y-51.047
N12695 X26.954
N12700 Y-50.438
N12705 G2 X24.949 Y-49.308 I0.75 J3.674
N12710 G1 X24.924 Y-49.286 Z-3.196
N12715 X24.896 Y-49.271 Z-3.185
N12720 X24.869 Y-49.263 Z-3.167
N12725 X24.845 Y-49.26 Z-3.144
N12730 X24.828 Z-3.115
N12735 X24.817 Y-49.261 Z-3.083
N12740 X24.813 Y-49.262 Z-3.05
N12745 Z5.
N12750 X21.722 Y-63.106
N12755 Z-0.457
N12760 X21.711 Y-63.133
N12765 X21.69 Y-63.154
N12770 X21.662 Y-63.164
N12775 X21.633
N12780 X20.164 Y-62.848
N12785 X20.137 Y-62.836
N12790 X20.117 Y-62.815
N12795 X20.106 Y-62.788
N12800 Y-62.759
N12805 X20.109 Y-62.72
N12810 X20.099 Y-62.682
N12815 X20.079 Y-62.648
N12820 X20.05 Y-62.622
N12825 G2 X19.688 Y-62.363 I2.473 J3.826
N12830 G1 X19.652 Y-62.342
N12835 X19.611 Y-62.334
N12840 X19.57 Y-62.34
N12845 X19.533 Y-62.358
N12850 X19.503 Y-62.387
N12855 X19.484 Y-62.424
N12860 X19.477 Y-62.465
N12865 Y-62.686
N12870 X19.483 Y-62.732
N12875 X19.501 Y-62.774
N12880 X19.529 Y-62.81
N12885 X19.565 Y-62.838
N12890 X19.607 Y-62.856
N12895 X19.653 Y-62.861
N12900 X19.979
N12905 X20.023 Y-62.854
N12910 X20.061 Y-62.833
N12915 X20.09 Y-62.8
N12920 X20.106 Y-62.759
N12925 G2 X20.245 Y-62.195 I9.724 J-2.093
N12930 G3 X20.076 Y-61.639 I-0.522 J0.145
N12935 G2 X18.848 Y-59.547 I2.446 J2.842
N12940 G1 X18.672
N12945 Y-63.667
N12950 X21.772
N12955 Y-62.471
N12960 G2 X20.076 Y-61.639 I0.75 J3.674
N12965 G1 X20.049 Y-61.62 Z-0.453
N12970 X20.019 Y-61.608 Z-0.442
N12975 X19.991 Y-61.603 Z-0.424
N12980 X19.968 Z-0.401
N12985 X19.95 Y-61.605 Z-0.372
N12990 X19.939 Y-61.608 Z-0.341
N12995 X19.936 Y-61.609 Z-0.307
N13000 Z5.
N13005 X21.722 Y-63.106
N13010 Z-0.914
N13015 X21.711 Y-63.133
N13020 X21.69 Y-63.154
N13025 X21.662 Y-63.164
N13030 X21.633
N13035 X20.164 Y-62.848
N13040 X20.137 Y-62.836
N13045 X20.117 Y-62.815
N13050 X20.106 Y-62.788
N13055 Y-62.759
N13060 X20.109 Y-62.72
N13065 X20.099 Y-62.682
N13070 X20.079 Y-62.648
N13075 X20.05 Y-62.622
N13080 G2 X19.688 Y-62.363 I2.473 J3.826
N13085 G1 X19.652 Y-62.342
N13090 X19.611 Y-62.334
N13095 X19.57 Y-62.34
N13100 X19.533 Y-62.358
N13105 X19.503 Y-62.387
N13110 X19.484 Y-62.424
N13115 X19.477 Y-62.465
N13120 Y-62.686
N13125 X19.483 Y-62.732
N13130 X19.501 Y-62.774
N13135 X19.529 Y-62.81
N13140 X19.565 Y-62.838
N13145 X19.607 Y-62.856
N13150 X19.653 Y-62.861
N13155 X19.979
N13160 X20.023 Y-62.854
N13165 X20.061 Y-62.833
N13170 X20.09 Y-62.8
N13175 X20.106 Y-62.759
N13180 G2 X20.245 Y-62.195 I9.724 J-2.093
N13185 G3 X20.076 Y-61.639 I-0.522 J0.145
N13190 G2 X18.848 Y-59.547 I2.446 J2.842
N13195 G1 X18.672
N13200 Y-63.667
N13205 X21.772
N13210 Y-62.471
N13215 G2 X20.076 Y-61.639 I0.75 J3.674
N13220 G1 X20.049 Y-61.62 Z-0.911
N13225 X20.019 Y-61.608 Z-0.899
N13230 X19.991 Y-61.603 Z-0.882
N13235 X19.968 Z-0.858
N13240 X19.95 Y-61.605 Z-0.829
N13245 X19.939 Y-61.608 Z-0.798
N13250 X19.936 Y-61.609 Z-0.764
N13255 Z5.
N13260 X21.722 Y-63.106
N13265 Z-1.371
N13270 X21.711 Y-63.133
N13275 X21.69 Y-63.154
N13280 X21.662 Y-63.164
N13285 X21.633
N13290 X20.164 Y-62.848
N13295 X20.137 Y-62.836
N13300 X20.117 Y-62.815
N13305 X20.106 Y-62.788
N13310 Y-62.759
N13315 X20.109 Y-62.72
N13320 X20.099 Y-62.682
N13325 X20.079 Y-62.648
N13330 X20.05 Y-62.622
N13335 G2 X19.688 Y-62.363 I2.473 J3.826
N13340 G1 X19.652 Y-62.342
N13345 X19.611 Y-62.334
N13350 X19.57 Y-62.34
N13355 X19.533 Y-62.358
N13360 X19.503 Y-62.387
N13365 X19.484 Y-62.424
N13370 X19.477 Y-62.465
N13375 Y-62.686
N13380 X19.483 Y-62.732
N13385 X19.501 Y-62.774
N13390 X19.529 Y-62.81
N13395 X19.565 Y-62.838
N13400 X19.607 Y-62.856
N13405 X19.653 Y-62.861
N13410 X19.979
N13415 X20.023 Y-62.854
N13420 X20.061 Y-62.833
N13425 X20.09 Y-62.8
N13430 X20.106 Y-62.759
N13435 G2 X20.245 Y-62.195 I9.724 J-2.093
N13440 G3 X20.076 Y-61.639 I-0.522 J0.145
N13445 G2 X18.848 Y-59.547 I2.446 J2.842
N13450 G1 X18.672
N13455 Y-63.667
N13460 X21.772
N13465 Y-62.471
N13470 G2 X20.076 Y-61.639 I0.75 J3.674
N13475 G1 X20.049 Y-61.62 Z-1.368
N13480 X20.019 Y-61.608 Z-1.357
N13485 X19.991 Y-61.603 Z-1.339
N13490 X19.968 Z-1.315
N13495 X19.95 Y-61.605 Z-1.287
N13500 X19.939 Y-61.608 Z-1.255
N13505 X19.936 Y-61.609 Z-1.221
N13510 Z5.
N13515 X21.722 Y-63.106
N13520 Z-1.829
N13525 X21.711 Y-63.133
N13530 X21.69 Y-63.154
N13535 X21.662 Y-63.164
N13540 X21.633
N13545 X20.164 Y-62.848
N13550 X20.137 Y-62.836
N13555 X20.117 Y-62.815
N13560 X20.106 Y-62.788
N13565 Y-62.759
N13570 X20.109 Y-62.72
N13575 X20.099 Y-62.682
N13580 X20.079 Y-62.648
N13585 X20.05 Y-62.622
N13590 G2 X19.688 Y-62.363 I2.473 J3.826
N13595 G1 X19.652 Y-62.342
N13600 X19.611 Y-62.334
N13605 X19.57 Y-62.34
N13610 X19.533 Y-62.358
N13615 X19.503 Y-62.387
N13620 X19.484 Y-62.424
N13625 X19.477 Y-62.465
N13630 Y-62.686
N13635 X19.483 Y-62.732
N13640 X19.501 Y-62.774
N13645 X19.529 Y-62.81
N13650 X19.565 Y-62.838
N13655 X19.607 Y-62.856
N13660 X19.653 Y-62.861
N13665 X19.979
N13670 X20.023 Y-62.854
N13675 X20.061 Y-62.833
N13680 X20.09 Y-62.8
N13685 X20.106 Y-62.759
N13690 G2 X20.245 Y-62.195 I9.724 J-2.093
N13695 G3 X20.076 Y-61.639 I-0.522 J0.145
N13700 G2 X18.848 Y-59.547 I2.446 J2.842
N13705 G1 X18.672
N13710 Y-63.667
N13715 X21.772
N13720 Y-62.471
N13725 G2 X20.076 Y-61.639 I0.75 J3.674
N13730 G1 X20.049 Y-61.62 Z-1.825
N13735 X20.019 Y-61.608 Z-1.814
N13740 X19.991 Y-61.603 Z-1.796
N13745 X19.968 Z-1.772
N13750 X19.95 Y-61.605 Z-1.744
N13755 X19.939 Y-61.608 Z-1.712
N13760 X19.936 Y-61.609 Z-1.679
N13765 Z5.
N13770 X21.722 Y-63.106
N13775 Z-2.286
N13780 X21.711 Y-63.133
N13785 X21.69 Y-63.154
N13790 X21.662 Y-63.164
N13795 X21.633
N13800 X20.164 Y-62.848
N13805 X20.137 Y-62.836
N13810 X20.117 Y-62.815
N13815 X20.106 Y-62.788
N13820 Y-62.759
N13825 X20.109 Y-62.72
N13830 X20.099 Y-62.682
N13835 X20.079 Y-62.648
N13840 X20.05 Y-62.622
N13845 G2 X19.688 Y-62.363 I2.473 J3.826
N13850 G1 X19.652 Y-62.342
N13855 X19.611 Y-62.334
N13860 X19.57 Y-62.34
N13865 X19.533 Y-62.358
N13870 X19.503 Y-62.387
N13875 X19.484 Y-62.424
N13880 X19.477 Y-62.465
N13885 Y-62.686
N13890 X19.483 Y-62.732
N13895 X19.501 Y-62.774
N13900 X19.529 Y-62.81
N13905 X19.565 Y-62.838
N13910 X19.607 Y-62.856
N13915 X19.653 Y-62.861
N13920 X19.979
N13925 X20.023 Y-62.854
N13930 X20.061 Y-62.833
N13935 X20.09 Y-62.8
N13940 X20.106 Y-62.759
N13945 G2 X20.245 Y-62.195 I9.724 J-2.093
N13950 G3 X20.076 Y-61.639 I-0.522 J0.145
N13955 G2 X18.848 Y-59.547 I2.446 J2.842
N13960 G1 X18.672
N13965 Y-63.667
N13970 X21.772
N13975 Y-62.471
N13980 G2 X20.076 Y-61.639 I0.75 J3.674
N13985 G1 X20.049 Y-61.62 Z-2.282
N13990 X20.019 Y-61.608 Z-2.271
N13995 X19.991 Y-61.603 Z-2.253
N14000 X19.968 Z-2.229
N14005 X19.95 Y-61.605 Z-2.201
N14010 X19.939 Y-61.608 Z-2.169
N14015 X19.936 Y-61.609 Z-2.136
N14020 Z5.
N14025 X21.722 Y-63.106
N14030 Z-2.743
N14035 X21.711 Y-63.133
N14040 X21.69 Y-63.154
N14045 X21.662 Y-63.164
N14050 X21.633
N14055 X20.164 Y-62.848
N14060 X20.137 Y-62.836
N14065 X20.117 Y-62.815
N14070 X20.106 Y-62.788
N14075 Y-62.759
N14080 X20.109 Y-62.72
N14085 X20.099 Y-62.682
N14090 X20.079 Y-62.648
N14095 X20.05 Y-62.622
N14100 G2 X19.688 Y-62.363 I2.473 J3.826
N14105 G1 X19.652 Y-62.342
N14110 X19.611 Y-62.334
N14115 X19.57 Y-62.34
N14120 X19.533 Y-62.358
N14125 X19.503 Y-62.387
N14130 X19.484 Y-62.424
N14135 X19.477 Y-62.465
N14140 Y-62.686
N14145 X19.483 Y-62.732
N14150 X19.501 Y-62.774
N14155 X19.529 Y-62.81
N14160 X19.565 Y-62.838
N14165 X19.607 Y-62.856
N14170 X19.653 Y-62.861
N14175 X19.979
N14180 X20.023 Y-62.854
N14185 X20.061 Y-62.833
N14190 X20.09 Y-62.8
N14195 X20.106 Y-62.759
N14200 G2 X20.245 Y-62.195 I9.724 J-2.093
N14205 G3 X20.076 Y-61.639 I-0.522 J0.145
N14210 G2 X18.848 Y-59.547 I2.446 J2.842
N14215 G1 X18.672
N14220 Y-63.667
N14225 X21.772
N14230 Y-62.471
N14235 G2 X20.076 Y-61.639 I0.75 J3.674
N14240 G1 X20.049 Y-61.62 Z-2.739
N14245 X20.019 Y-61.608 Z-2.728
N14250 X19.991 Y-61.603 Z-2.71
N14255 X19.968 Z-2.686
N14260 X19.95 Y-61.605 Z-2.658
N14265 X19.939 Y-61.608 Z-2.626
N14270 X19.936 Y-61.609 Z-2.593
N14275 Z5.
N14280 X21.722 Y-63.106
N14285 Z-3.2
N14290 X21.711 Y-63.133
N14295 X21.69 Y-63.154
N14300 X21.662 Y-63.164
N14305 X21.633
N14310 X20.164 Y-62.848
N14315 X20.137 Y-62.836
N14320 X20.117 Y-62.815
N14325 X20.106 Y-62.788
N14330 Y-62.759
N14335 X20.109 Y-62.72
N14340 X20.099 Y-62.682
N14345 X20.079 Y-62.648
N14350 X20.05 Y-62.622
N14355 G2 X19.688 Y-62.363 I2.473 J3.826
N14360 G1 X19.652 Y-62.342
N14365 X19.611 Y-62.334
N14370 X19.57 Y-62.34
N14375 X19.533 Y-62.358
N14380 X19.503 Y-62.387
N14385 X19.484 Y-62.424
N14390 X19.477 Y-62.465
N14395 Y-62.686
N14400 X19.483 Y-62.732
N14405 X19.501 Y-62.774
N14410 X19.529 Y-62.81
N14415 X19.565 Y-62.838
N14420 X19.607 Y-62.856
N14425 X19.653 Y-62.861
N14430 X19.979
N14435 X20.023 Y-62.854
N14440 X20.061 Y-62.833
N14445 X20.09 Y-62.8
N14450 X20.106 Y-62.759
N14455 G2 X20.245 Y-62.195 I9.724 J-2.093
N14460 G3 X20.076 Y-61.639 I-0.522 J0.145
N14465 G2 X18.848 Y-59.547 I2.446 J2.842
N14470 G1 X18.672
N14475 Y-63.667
N14480 X21.772
N14485 Y-62.471
N14490 G2 X20.076 Y-61.639 I0.75 J3.674
N14495 G1 X20.049 Y-61.62 Z-3.196
N14500 X20.019 Y-61.608 Z-3.185
N14505 X19.991 Y-61.603 Z-3.167
N14510 X19.968 Z-3.144
N14515 X19.95 Y-61.605 Z-3.115
N14520 X19.939 Y-61.608 Z-3.083
N14525 X19.936 Y-61.609 Z-3.05
N14530 Z5.
N14535 X16.99 Y-74.416
N14540 Z-0.457
N14545 G3 X17.89 I0.45 J0.
N14550 X16.09 I-0.9 J0.
N14555 X18.791 I1.35 J0.
N14560 X15.19 I-1.8 J0.
N14565 X18.791 I1.8 J0.
N14570 G1 X18.784 Y-74.384
N14575 X18.764 Y-74.357
N14580 X18.736 Y-74.34
N14585 X18.703 Y-74.337
N14590 X17.078 Y-74.496
N14595 X17.045 Y-74.493
N14600 X17.017 Y-74.476
N14605 X16.997 Y-74.449
N14610 X16.99 Y-74.416
N14615 Z-0.914
N14620 G3 X17.89 I0.45 J0.
N14625 X16.09 I-0.9 J0.
N14630 X18.791 I1.35 J0.
N14635 X15.19 I-1.8 J0.
N14640 X18.791 I1.8 J0.
N14645 G1 X18.784 Y-74.384
N14650 X18.764 Y-74.357
N14655 X18.736 Y-74.34
N14660 X18.703 Y-74.337
N14665 X17.078 Y-74.496
N14670 X17.045 Y-74.493
N14675 X17.017 Y-74.476
N14680 X16.997 Y-74.449
N14685 X16.99 Y-74.416
N14690 Z-1.371
N14695 G3 X17.89 I0.45 J0.
N14700 X16.09 I-0.9 J0.
N14705 X18.791 I1.35 J0.
N14710 X15.19 I-1.8 J0.
N14715 X18.791 I1.8 J0.
N14720 G1 X18.784 Y-74.384
N14725 X18.764 Y-74.357
N14730 X18.736 Y-74.34
N14735 X18.703 Y-74.337
N14740 X17.078 Y-74.496
N14745 X17.045 Y-74.493
N14750 X17.017 Y-74.476
N14755 X16.997 Y-74.449
N14760 X16.99 Y-74.416
N14765 Z-1.829
N14770 G3 X17.89 I0.45 J0.
N14775 X16.09 I-0.9 J0.
N14780 X18.791 I1.35 J0.
N14785 X15.19 I-1.8 J0.
N14790 X18.791 I1.8 J0.
N14795 G1 X18.784 Y-74.384
N14800 X18.764 Y-74.357
N14805 X18.736 Y-74.34
N14810 X18.703 Y-74.337
N14815 X17.078 Y-74.496
N14820 X17.045 Y-74.493
N14825 X17.017 Y-74.476
N14830 X16.997 Y-74.449
N14835 X16.99 Y-74.416
N14840 Z-2.286
N14845 G3 X17.89 I0.45 J0.
N14850 X16.09 I-0.9 J0.
N14855 X18.791 I1.35 J0.
N14860 X15.19 I-1.8 J0.
N14865 X18.791 I1.8 J0.
N14870 G1 X18.784 Y-74.384
N14875 X18.764 Y-74.357
N14880 X18.736 Y-74.34
N14885 X18.703 Y-74.337
N14890 X17.078 Y-74.496
N14895 X17.045 Y-74.493
N14900 X17.017 Y-74.476
N14905 X16.997 Y-74.449
N14910 X16.99 Y-74.416
N14915 Z-2.743
N14920 G3 X17.89 I0.45 J0.
N14925 X16.09 I-0.9 J0.
N14930 X18.791 I1.35 J0.
N14935 X15.19 I-1.8 J0.
N14940 X18.791 I1.8 J0.
N14945 G1 X18.784 Y-74.384
N14950 X18.764 Y-74.357
N14955 X18.736 Y-74.34
N14960 X18.703 Y-74.337
N14965 X17.078 Y-74.496
N14970 X17.045 Y-74.493
N14975 X17.017 Y-74.476
N14980 X16.997 Y-74.449
N14985 X16.99 Y-74.416
N14990 Z-3.2
N14995 G3 X17.89 I0.45 J0.
N15000 X16.09 I-0.9 J0.
N15005 X18.791 I1.35 J0.
N15010 X15.19 I-1.8 J0.
N15015 X18.791 I1.8 J0.
N15020 G1 X18.787 Y-74.383 Z-3.196
N15025 X18.777 Y-74.353 Z-3.185
N15030 X18.762 Y-74.329 Z-3.167
N15035 X18.747 Y-74.311 Z-3.144
N15040 X18.734 Y-74.299 Z-3.115
N15045 X18.725 Y-74.292 Z-3.083
N15050 X18.722 Y-74.29 Z-3.05
N15055 Z5.
N15060 X35.991 Y-74.416
N15065 Z-0.457
N15070 G3 X36.89 I0.45 J0.
N15075 X35.09 I-0.9 J0.
N15080 X37.791 I1.35 J0.
N15085 X34.191 I-1.8 J0.
N15090 X37.791 I1.8 J0.
N15095 G1 X37.784 Y-74.385
N15100 X37.766 Y-74.359
N15105 X37.738 Y-74.341
N15110 X37.707 Y-74.336
N15115 X35.991 Y-74.416
N15120 Z-0.914
N15125 G3 X36.89 I0.45 J0.
N15130 X35.09 I-0.9 J0.
N15135 X37.791 I1.35 J0.
N15140 X34.191 I-1.8 J0.
N15145 X37.791 I1.8 J0.
N15150 G1 X37.784 Y-74.385
N15155 X37.766 Y-74.359
N15160 X37.738 Y-74.341
N15165 X37.707 Y-74.336
N15170 X35.991 Y-74.416
N15175 Z-1.371
N15180 G3 X36.89 I0.45 J0.
N15185 X35.09 I-0.9 J0.
N15190 X37.791 I1.35 J0.
N15195 X34.191 I-1.8 J0.
N15200 X37.791 I1.8 J0.
N15205 G1 X37.784 Y-74.385
N15210 X37.766 Y-74.359
N15215 X37.738 Y-74.341
N15220 X37.707 Y-74.336
N15225 X35.991 Y-74.416
N15230 Z-1.829
N15235 G3 X36.89 I0.45 J0.
N15240 X35.09 I-0.9 J0.
N15245 X37.791 I1.35 J0.
N15250 X34.191 I-1.8 J0.
N15255 X37.791 I1.8 J0.
N15260 G1 X37.784 Y-74.385
N15265 X37.766 Y-74.359
N15270 X37.738 Y-74.341
N15275 X37.707 Y-74.336
N15280 X35.991 Y-74.416
N15285 Z-2.286
N15290 G3 X36.89 I0.45 J0.
N15295 X35.09 I-0.9 J0.
N15300 X37.791 I1.35 J0.
N15305 X34.191 I-1.8 J0.
N15310 X37.791 I1.8 J0.
N15315 G1 X37.784 Y-74.385
N15320 X37.766 Y-74.359
N15325 X37.738 Y-74.341
N15330 X37.707 Y-74.336
N15335 X35.991 Y-74.416
N15340 Z-2.743
N15345 G3 X36.89 I0.45 J0.
N15350 X35.09 I-0.9 J0.
N15355 X37.791 I1.35 J0.
N15360 X34.191 I-1.8 J0.
N15365 X37.791 I1.8 J0.
N15370 G1 X37.784 Y-74.385
N15375 X37.766 Y-74.359
N15380 X37.738 Y-74.341
N15385 X37.707 Y-74.336
N15390 X35.991 Y-74.416
N15395 Z-3.2
N15400 G3 X36.89 I0.45 J0.
N15405 X35.09 I-0.9 J0.
N15410 X37.791 I1.35 J0.
N15415 X34.191 I-1.8 J0.
N15420 X37.791 I1.8 J0.
N15425 G1 X37.787 Y-74.383 Z-3.196
N15430 X37.777 Y-74.353 Z-3.185
N15435 X37.762 Y-74.329 Z-3.167
N15440 X37.747 Y-74.311 Z-3.144
N15445 X37.734 Y-74.299 Z-3.115
N15450 X37.725 Y-74.292 Z-3.083
N15455 X37.722 Y-74.29 Z-3.05
N15460 Z5.
N15465 X54.991 Y-74.416
N15470 Z-0.457
N15475 G3 X55.89 I0.45 J0.
N15480 X54.09 I-0.9 J0.
N15485 X56.791 I1.35 J0.
N15490 X53.191 I-1.8 J0.
N15495 X56.791 I1.8 J0.
N15500 G1 X56.784 Y-74.385
N15505 X56.766 Y-74.359
N15510 X56.738 Y-74.341
N15515 X56.707 Y-74.336
N15520 X54.991 Y-74.416
N15525 Z-0.914
N15530 G3 X55.89 I0.45 J0.
N15535 X54.09 I-0.9 J0.
N15540 X56.791 I1.35 J0.
N15545 X53.191 I-1.8 J0.
N15550 X56.791 I1.8 J0.
N15555 G1 X56.784 Y-74.385
N15560 X56.766 Y-74.359
N15565 X56.738 Y-74.341
N15570 X56.707 Y-74.336
N15575 X54.991 Y-74.416
N15580 Z-1.371
N15585 G3 X55.89 I0.45 J0.
N15590 X54.09 I-0.9 J0.
N15595 X56.791 I1.35 J0.
N15600 X53.191 I-1.8 J0.
N15605 X56.791 I1.8 J0.
N15610 G1 X56.784 Y-74.385
N15615 X56.766 Y-74.359
N15620 X56.738 Y-74.341
N15625 X56.707 Y-74.336
N15630 X54.991 Y-74.416
N15635 Z-1.829
N15640 G3 X55.89 I0.45 J0.
N15645 X54.09 I-0.9 J0.
N15650 X56.791 I1.35 J0.
N15655 X53.191 I-1.8 J0.
N15660 X56.791 I1.8 J0.
N15665 G1 X56.784 Y-74.385
N15670 X56.766 Y-74.359
N15675 X56.738 Y-74.341
N15680 X56.707 Y-74.336
N15685 X54.991 Y-74.416
N15690 Z-2.286
N15695 G3 X55.89 I0.45 J0.
N15700 X54.09 I-0.9 J0.
N15705 X56.791 I1.35 J0.
N15710 X53.191 I-1.8 J0.
N15715 X56.791 I1.8 J0.
N15720 G1 X56.784 Y-74.385
N15725 X56.766 Y-74.359
N15730 X56.738 Y-74.341
N15735 X56.707 Y-74.336
N15740 X54.991 Y-74.416
N15745 Z-2.743
N15750 G3 X55.89 I0.45 J0.
N15755 X54.09 I-0.9 J0.
N15760 X56.791 I1.35 J0.
N15765 X53.191 I-1.8 J0.
N15770 X56.791 I1.8 J0.
N15775 G1 X56.784 Y-74.385
N15780 X56.766 Y-74.359
N15785 X56.738 Y-74.341
N15790 X56.707 Y-74.336
N15795 X54.991 Y-74.416
N15800 Z-3.2
N15805 G3 X55.89 I0.45 J0.
N15810 X54.09 I-0.9 J0.
N15815 X56.791 I1.35 J0.
N15820 X53.191 I-1.8 J0.
N15825 X56.791 I1.8 J0.
N15830 G1 X56.787 Y-74.383 Z-3.196
N15835 X56.777 Y-74.353 Z-3.185
N15840 X56.762 Y-74.329 Z-3.167
N15845 X56.747 Y-74.311 Z-3.144
N15850 X56.734 Y-74.299 Z-3.115
N15855 X56.725 Y-74.292 Z-3.083
N15860 X56.722 Y-74.29 Z-3.05
N15865 Z5.
N15870 X59.291 Y-63.106
N15875 Z-0.457
N15880 X59.292 Y-63.077
N15885 X59.305 Y-63.051
N15890 X59.327 Y-63.032
N15895 X59.355 Y-63.022
N15900 X61.852 Y-62.685
N15905 X61.881 Y-62.686
N15910 X61.908 Y-62.699
N15915 X61.927 Y-62.721
N15920 X61.936 Y-62.749
N15925 X61.947 Y-62.785
N15930 X61.967 Y-62.816
N15935 X61.995 Y-62.841
N15940 X62.029 Y-62.856
N15945 X62.065 Y-62.861
N15950 X62.511
N15955 G3 X62.746 Y-62.626 I0. J0.235
N15960 G1 Y-62.315
N15965 X62.739 Y-62.273
N15970 X62.719 Y-62.236
N15975 X62.688 Y-62.207
N15980 X62.65 Y-62.189
N15985 X62.607 Y-62.185
N15990 X62.566 Y-62.195
N15995 X62.53 Y-62.217
N16000 G2 X61.995 Y-62.622 I-3.008 J3.421
N16005 G1 X61.967 Y-62.646
N16010 X61.947 Y-62.677
N16015 X61.937 Y-62.712
N16020 X61.936 Y-62.749
N16025 G3 X62.18 Y-63.364 I1.364 J0.184
N16030 X62.768 Y-63.667 I0.588 J0.42
N16035 G1 X63.551
N16040 Y-59.547
N16045 X63.197
N16050 G2 X59.522 Y-62.547 I-3.674 J0.75
N16055 G1 X59.241
N16060 Y-63.667
N16065 X62.768
N16070 X62.799 Y-63.66
N16075 X62.825 Y-63.641
N16080 X62.84 Y-63.613
N16085 X62.842 Y-63.581
N16090 X62.831 Y-63.551
N16095 X62.808 Y-63.528
N16100 X62.779 Y-63.517
N16105 X59.376 Y-63.032
N16110 X59.344 Y-63.035
N16115 X59.316 Y-63.05
N16120 X59.297 Y-63.075
N16125 X59.291 Y-63.106
N16130 Z-0.914
N16135 X59.303 Y-63.105
N16140 X61.85 Y-62.685
N16145 X61.88 Y-62.686
N16150 X61.907 Y-62.699
N16155 X61.927 Y-62.721
N16160 X61.936 Y-62.749
N16165 X61.947 Y-62.785
N16170 X61.967 Y-62.816
N16175 X61.995 Y-62.841
N16180 X62.029 Y-62.856
N16185 X62.065 Y-62.861
N16190 X62.511
N16195 G3 X62.746 Y-62.626 I0. J0.235
N16200 G1 Y-62.315
N16205 X62.739 Y-62.273
N16210 X62.719 Y-62.236
N16215 X62.688 Y-62.207
N16220 X62.65 Y-62.189
N16225 X62.607 Y-62.185
N16230 X62.566 Y-62.195
N16235 X62.53 Y-62.217
N16240 G2 X61.995 Y-62.622 I-3.008 J3.421
N16245 G1 X61.967 Y-62.646
N16250 X61.947 Y-62.677
N16255 X61.937 Y-62.712
N16260 X61.936 Y-62.749
N16265 G3 X62.18 Y-63.364 I1.364 J0.184
N16270 X62.768 Y-63.667 I0.588 J0.42
N16275 G1 X63.551
N16280 Y-59.547
N16285 X63.197
N16290 G2 X59.522 Y-62.547 I-3.674 J0.75
N16295 G1 X59.241
N16300 Y-63.667
N16305 X62.768
N16310 X62.799 Y-63.66
N16315 X62.825 Y-63.641
N16320 X62.84 Y-63.613
N16325 X62.842 Y-63.581
N16330 X62.831 Y-63.551
N16335 X62.808 Y-63.528
N16340 X62.779 Y-63.517
N16345 X59.376 Y-63.032
N16350 X59.344 Y-63.035
N16355 X59.316 Y-63.05
N16360 X59.297 Y-63.075
N16365 X59.291 Y-63.106
N16370 Z-1.371
N16375 X59.303 Y-63.105
N16380 X61.85 Y-62.685
N16385 X61.88 Y-62.686
N16390 X61.907 Y-62.699
N16395 X61.927 Y-62.721
N16400 X61.936 Y-62.749
N16405 X61.947 Y-62.785
N16410 X61.967 Y-62.816
N16415 X61.995 Y-62.841
N16420 X62.029 Y-62.856
N16425 X62.065 Y-62.861
N16430 X62.511
N16435 G3 X62.746 Y-62.626 I0. J0.235
N16440 G1 Y-62.315
N16445 X62.739 Y-62.273
N16450 X62.719 Y-62.236
N16455 X62.688 Y-62.207
N16460 X62.65 Y-62.189
N16465 X62.607 Y-62.185
N16470 X62.566 Y-62.195
N16475 X62.53 Y-62.217
N16480 G2 X61.995 Y-62.622 I-3.008 J3.421
N16485 G1 X61.967 Y-62.646
N16490 X61.947 Y-62.677
N16495 X61.937 Y-62.712
N16500 X61.936 Y-62.749
N16505 G3 X62.18 Y-63.364 I1.364 J0.184
N16510 X62.768 Y-63.667 I0.588 J0.42
N16515 G1 X63.551
N16520 Y-59.547
N16525 X63.197
N16530 G2 X59.522 Y-62.547 I-3.674 J0.75
N16535 G1 X59.241
N16540 Y-63.667
N16545 X62.768
N16550 X62.799 Y-63.66
N16555 X62.825 Y-63.641
N16560 X62.84 Y-63.613
N16565 X62.842 Y-63.581
N16570 X62.831 Y-63.551
N16575 X62.808 Y-63.528
N16580 X62.779 Y-63.517
N16585 X59.376 Y-63.032
N16590 X59.344 Y-63.035
N16595 X59.316 Y-63.05
N16600 X59.297 Y-63.075
N16605 X59.291 Y-63.106
N16610 Z-1.829
N16615 X59.303 Y-63.105
N16620 X61.85 Y-62.685
N16625 X61.88 Y-62.686
N16630 X61.907 Y-62.699
N16635 X61.927 Y-62.721
N16640 X61.936 Y-62.749
N16645 X61.947 Y-62.785
N16650 X61.967 Y-62.816
N16655 X61.995 Y-62.841
N16660 X62.029 Y-62.856
N16665 X62.065 Y-62.861
N16670 X62.511
N16675 G3 X62.746 Y-62.626 I0. J0.235
N16680 G1 Y-62.315
N16685 X62.739 Y-62.273
N16690 X62.719 Y-62.236
N16695 X62.688 Y-62.207
N16700 X62.65 Y-62.189
N16705 X62.607 Y-62.185
N16710 X62.566 Y-62.195
N16715 X62.53 Y-62.217
N16720 G2 X61.995 Y-62.622 I-3.008 J3.421
N16725 G1 X61.967 Y-62.646
N16730 X61.947 Y-62.677
N16735 X61.937 Y-62.712
N16740 X61.936 Y-62.749
N16745 G3 X62.18 Y-63.364 I1.364 J0.184
N16750 X62.768 Y-63.667 I0.588 J0.42
N16755 G1 X63.551
N16760 Y-59.547
N16765 X63.197
N16770 G2 X59.522 Y-62.547 I-3.674 J0.75
N16775 G1 X59.241
N16780 Y-63.667
N16785 X62.768
N16790 X62.799 Y-63.66
N16795 X62.825 Y-63.641
N16800 X62.84 Y-63.613
N16805 X62.842 Y-63.581
N16810 X62.831 Y-63.551
N16815 X62.808 Y-63.528
N16820 X62.779 Y-63.517
N16825 X59.376 Y-63.032
N16830 X59.344 Y-63.035
N16835 X59.316 Y-63.05
N16840 X59.297 Y-63.075
N16845 X59.291 Y-63.106
N16850 Z-2.286
N16855 X59.303 Y-63.105
N16860 X61.85 Y-62.685
N16865 X61.88 Y-62.686
N16870 X61.907 Y-62.699
N16875 X61.927 Y-62.721
N16880 X61.936 Y-62.749
N16885 X61.947 Y-62.785
N16890 X61.967 Y-62.816
N16895 X61.995 Y-62.841
N16900 X62.029 Y-62.856
N16905 X62.065 Y-62.861
N16910 X62.511
N16915 G3 X62.746 Y-62.626 I0. J0.235
N16920 G1 Y-62.315
N16925 X62.739 Y-62.273
N16930 X62.719 Y-62.236
N16935 X62.688 Y-62.207
N16940 X62.65 Y-62.189
N16945 X62.607 Y-62.185
N16950 X62.566 Y-62.195
N16955 X62.53 Y-62.217
N16960 G2 X61.995 Y-62.622 I-3.008 J3.421
N16965 G1 X61.967 Y-62.646
N16970 X61.947 Y-62.677
N16975 X61.937 Y-62.712
N16980 X61.936 Y-62.749
N16985 G3 X62.18 Y-63.364 I1.364 J0.184
N16990 X62.768 Y-63.667 I0.588 J0.42
N16995 G1 X63.551
N17000 Y-59.547
N17005 X63.197
N17010 G2 X59.522 Y-62.547 I-3.674 J0.75
N17015 G1 X59.241
N17020 Y-63.667
N17025 X62.768
N17030 X62.799 Y-63.66
N17035 X62.825 Y-63.641
N17040 X62.84 Y-63.613
N17045 X62.842 Y-63.581
N17050 X62.831 Y-63.551
N17055 X62.808 Y-63.528
N17060 X62.779 Y-63.517
N17065 X59.376 Y-63.032
N17070 X59.344 Y-63.035
N17075 X59.316 Y-63.05
N17080 X59.297 Y-63.075
N17085 X59.291 Y-63.106
N17090 Z-2.743
N17095 X59.303 Y-63.105
N17100 X61.85 Y-62.685
N17105 X61.88 Y-62.686
N17110 X61.907 Y-62.699
N17115 X61.927 Y-62.721
N17120 X61.936 Y-62.749
N17125 X61.947 Y-62.785
N17130 X61.967 Y-62.816
N17135 X61.995 Y-62.841
N17140 X62.029 Y-62.856
N17145 X62.065 Y-62.861
N17150 X62.511
N17155 G3 X62.746 Y-62.626 I0. J0.235
N17160 G1 Y-62.315
N17165 X62.739 Y-62.273
N17170 X62.719 Y-62.236
N17175 X62.688 Y-62.207
N17180 X62.65 Y-62.189
N17185 X62.607 Y-62.185
N17190 X62.566 Y-62.195
N17195 X62.53 Y-62.217
N17200 G2 X61.995 Y-62.622 I-3.008 J3.421
N17205 G1 X61.967 Y-62.646
N17210 X61.947 Y-62.677
N17215 X61.937 Y-62.712
N17220 X61.936 Y-62.749
N17225 G3 X62.18 Y-63.364 I1.364 J0.184
N17230 X62.768 Y-63.667 I0.588 J0.42
N17235 G1 X63.551
N17240 Y-59.547
N17245 X63.197
N17250 G2 X59.522 Y-62.547 I-3.674 J0.75
N17255 G1 X59.241
N17260 Y-63.667
N17265 X62.768
N17270 X62.799 Y-63.66
N17275 X62.825 Y-63.641
N17280 X62.84 Y-63.613
N17285 X62.842 Y-63.581
N17290 X62.831 Y-63.551
N17295 X62.808 Y-63.528
N17300 X62.779 Y-63.517
N17305 X59.376 Y-63.032
N17310 X59.344 Y-63.035
N17315 X59.316 Y-63.05
N17320 X59.297 Y-63.075
N17325 X59.291 Y-63.106
N17330 Z-3.2
N17335 X59.303 Y-63.105
N17340 X61.85 Y-62.685
N17345 X61.88 Y-62.686
N17350 X61.907 Y-62.699
N17355 X61.927 Y-62.721
N17360 X61.936 Y-62.749
N17365 X61.947 Y-62.785
N17370 X61.967 Y-62.816
N17375 X61.995 Y-62.841
N17380 X62.029 Y-62.856
N17385 X62.065 Y-62.861
N17390 X62.511
N17395 G3 X62.746 Y-62.626 I0. J0.235
N17400 G1 Y-62.315
N17405 X62.739 Y-62.273
N17410 X62.719 Y-62.236
N17415 X62.688 Y-62.207
N17420 X62.65 Y-62.189
N17425 X62.607 Y-62.185
N17430 X62.566 Y-62.195
N17435 X62.53 Y-62.217
N17440 G2 X61.995 Y-62.622 I-3.008 J3.421
N17445 G1 X61.967 Y-62.646
N17450 X61.947 Y-62.677
N17455 X61.937 Y-62.712
N17460 X61.936 Y-62.749
N17465 G3 X62.18 Y-63.364 I1.364 J0.184
N17470 X62.768 Y-63.667 I0.588 J0.42
N17475 G1 X63.551
N17480 Y-59.547
N17485 X63.197
N17490 G2 X59.522 Y-62.547 I-3.674 J0.75
N17495 G1 X59.241
N17500 Y-63.667
N17505 X62.768
N17510 X62.801 Y-63.663 Z-3.196
N17515 X62.831 Y-63.653 Z-3.185
N17520 X62.856 Y-63.638 Z-3.167
N17525 X62.874 Y-63.623 Z-3.144
N17530 X62.886 Y-63.61 Z-3.115
N17535 X62.892 Y-63.601 Z-3.083
N17540 X62.894 Y-63.598 Z-3.05
N17545 Z5.
N17550 X52.022 Y-56.082
N17555 Z-0.457
N17560 X52.017 Y-56.076
N17565 X52.012 Y-56.082
N17570 X52.02 Y-56.119
N17575 X52.041 Y-56.15
N17580 X52.072 Y-56.171
N17585 X52.109 Y-56.179
N17590 G3 X53.566 Y-56.158 I0. J51.423
N17595 G2 X55.022 Y-56.138 I1.456 J-51.402
N17600 G1 X55.05 Y-56.13
N17605 X55.071 Y-56.11
N17610 X55.078 Y-56.082
N17615 X55.071 Y-56.053
N17620 X55.05 Y-56.033
N17625 X55.022 Y-56.025
N17630 G2 X53.566 Y-56.005 I0. J51.423
N17635 G3 X52.109 Y-55.984 I-1.456 J-51.402
N17640 G1 X52.072 Y-55.992
N17645 X52.041 Y-56.013
N17650 X52.02 Y-56.044
N17655 X52.012 Y-56.082
N17660 G2 X51.85 Y-56.419 I-0.433 J0.
N17665 G3 X51.958 Y-56.778 I0.126 J-0.158
N17670 G1 X52.022 Y-56.782
N17675 X55.022
N17680 G3 Y-55.382 I0. J0.7
N17685 G1 X52.022
N17690 G3 X51.958 Y-56.778 I0. J-0.7
N17695 G2 X52.511 Y-57.193 I-0.061 J-0.659
N17700 G3 X53.083 Y-57.582 I0.572 J0.227
N17705 G1 X55.022
N17710 G3 Y-54.582 I0. J1.5
N17715 G1 X52.022
N17720 G3 Y-57.582 I0. J-1.5
N17725 G1 X53.083
N17730 G2 X53.721 Y-58.007 I0. J-0.691
N17735 G3 X54.358 Y-58.431 I0.638 J0.266
N17740 G1 X55.022
N17745 G3 Y-53.731 I0. J2.35
N17750 G1 X52.022
N17755 G3 Y-58.431 I0. J-2.35
N17760 G1 X54.358
N17765 X54.391 Y-58.425
N17770 X54.418 Y-58.406
N17775 X54.436 Y-58.379
N17780 X54.441 Y-58.346
N17785 X54.434 Y-58.314
N17790 X54.415 Y-58.288
N17795 X52.022 Y-56.082
N17800 Z-0.914
N17805 X52.027 Y-56.078
N17810 X52.025 Y-56.072
N17815 X52.019 Y-56.073
N17820 X52.012 Y-56.082
N17825 X52.02 Y-56.119
N17830 X52.041 Y-56.15
N17835 X52.072 Y-56.171
N17840 X52.109 Y-56.179
N17845 G3 X53.566 Y-56.158 I0. J51.423
N17850 G2 X55.022 Y-56.138 I1.456 J-51.402
N17855 G1 X55.05 Y-56.13
N17860 X55.071 Y-56.11
N17865 X55.078 Y-56.082
N17870 X55.071 Y-56.053
N17875 X55.05 Y-56.033
N17880 X55.022 Y-56.025
N17885 G2 X53.566 Y-56.005 I0. J51.423
N17890 G3 X52.109 Y-55.984 I-1.456 J-51.402
N17895 G1 X52.072 Y-55.992
N17900 X52.041 Y-56.013
N17905 X52.02 Y-56.044
N17910 X52.012 Y-56.082
N17915 G2 X51.85 Y-56.419 I-0.433 J0.
N17920 G3 X51.958 Y-56.778 I0.126 J-0.158
N17925 G1 X52.022 Y-56.782
N17930 X55.022
N17935 G3 Y-55.382 I0. J0.7
N17940 G1 X52.022
N17945 G3 X51.958 Y-56.778 I0. J-0.7
N17950 G2 X52.511 Y-57.193 I-0.061 J-0.659
N17955 G3 X53.083 Y-57.582 I0.572 J0.227
N17960 G1 X55.022
N17965 G3 Y-54.582 I0. J1.5
N17970 G1 X52.022
N17975 G3 Y-57.582 I0. J-1.5
N17980 G1 X53.083
N17985 G2 X53.721 Y-58.007 I0. J-0.691
N17990 G3 X54.358 Y-58.431 I0.638 J0.266
N17995 G1 X55.022
N18000 G3 Y-53.731 I0. J2.35
N18005 G1 X52.022
N18010 G3 Y-58.431 I0. J-2.35
N18015 G1 X54.358
N18020 X54.391 Y-58.425
N18025 X54.418 Y-58.406
N18030 X54.436 Y-58.379
N18035 X54.441 Y-58.346
N18040 X54.434 Y-58.314
N18045 X54.415 Y-58.288
N18050 X52.022 Y-56.082
N18055 Z-1.371
N18060 X52.027 Y-56.078
N18065 X52.025 Y-56.072
N18070 X52.019 Y-56.073
N18075 X52.012 Y-56.082
N18080 X52.02 Y-56.119
N18085 X52.041 Y-56.15
N18090 X52.072 Y-56.171
N18095 X52.109 Y-56.179
N18100 G3 X53.566 Y-56.158 I0. J51.423
N18105 G2 X55.022 Y-56.138 I1.456 J-51.402
N18110 G1 X55.05 Y-56.13
N18115 X55.071 Y-56.11
N18120 X55.078 Y-56.082
N18125 X55.071 Y-56.053
N18130 X55.05 Y-56.033
N18135 X55.022 Y-56.025
N18140 G2 X53.566 Y-56.005 I0. J51.423
N18145 G3 X52.109 Y-55.984 I-1.456 J-51.402
N18150 G1 X52.072 Y-55.992
N18155 X52.041 Y-56.013
N18160 X52.02 Y-56.044
N18165 X52.012 Y-56.082
N18170 G2 X51.85 Y-56.419 I-0.433 J0.
N18175 G3 X51.958 Y-56.778 I0.126 J-0.158
N18180 G1 X52.022 Y-56.782
N18185 X55.022
N18190 G3 Y-55.382 I0. J0.7
N18195 G1 X52.022
N18200 G3 X51.958 Y-56.778 I0. J-0.7
N18205 G2 X52.511 Y-57.193 I-0.061 J-0.659
N18210 G3 X53.083 Y-57.582 I0.572 J0.227
N18215 G1 X55.022
N18220 G3 Y-54.582 I0. J1.5
N18225 G1 X52.022
N18230 G3 Y-57.582 I0. J-1.5
N18235 G1 X53.083
N18240 G2 X53.721 Y-58.007 I0. J-0.691
N18245 G3 X54.358 Y-58.431 I0.638 J0.266
N18250 G1 X55.022
N18255 G3 Y-53.731 I0. J2.35
N18260 G1 X52.022
N18265 G3 Y-58.431 I0. J-2.35
N18270 G1 X54.358
N18275 X54.391 Y-58.425
N18280 X54.418 Y-58.406
N18285 X54.436 Y-58.379
N18290 X54.441 Y-58.346
N18295 X54.434 Y-58.314
N18300 X54.415 Y-58.288
N18305 X52.022 Y-56.082
N18310 Z-1.829
N18315 X52.027 Y-56.078
N18320 X52.025 Y-56.072
N18325 X52.019 Y-56.073
N18330 X52.012 Y-56.082
N18335 X52.02 Y-56.119
N18340 X52.041 Y-56.15
N18345 X52.072 Y-56.171
N18350 X52.109 Y-56.179
N18355 G3 X53.566 Y-56.158 I0. J51.423
N18360 G2 X55.022 Y-56.138 I1.456 J-51.402
N18365 G1 X55.05 Y-56.13
N18370 X55.071 Y-56.11
N18375 X55.078 Y-56.082
N18380 X55.071 Y-56.053
N18385 X55.05 Y-56.033
N18390 X55.022 Y-56.025
N18395 G2 X53.566 Y-56.005 I0. J51.423
N18400 G3 X52.109 Y-55.984 I-1.456 J-51.402
N18405 G1 X52.072 Y-55.992
N18410 X52.041 Y-56.013
N18415 X52.02 Y-56.044
N18420 X52.012 Y-56.082
N18425 G2 X51.85 Y-56.419 I-0.433 J0.
N18430 G3 X51.958 Y-56.778 I0.126 J-0.158
N18435 G1 X52.022 Y-56.782
N18440 X55.022
N18445 G3 Y-55.382 I0. J0.7
N18450 G1 X52.022
N18455 G3 X51.958 Y-56.778 I0. J-0.7
N18460 G2 X52.511 Y-57.193 I-0.061 J-0.659
N18465 G3 X53.083 Y-57.582 I0.572 J0.227
N18470 G1 X55.022
N18475 G3 Y-54.582 I0. J1.5
N18480 G1 X52.022
N18485 G3 Y-57.582 I0. J-1.5
N18490 G1 X53.083
N18495 G2 X53.721 Y-58.007 I0. J-0.691
N18500 G3 X54.358 Y-58.431 I0.638 J0.266
N18505 G1 X55.022
N18510 G3 Y-53.731 I0. J2.35
N18515 G1 X52.022
N18520 G3 Y-58.431 I0. J-2.35
N18525 G1 X54.358
N18530 X54.391 Y-58.425
N18535 X54.418 Y-58.406
N18540 X54.436 Y-58.379
N18545 X54.441 Y-58.346
N18550 X54.434 Y-58.314
N18555 X54.415 Y-58.288
N18560 X52.022 Y-56.082
N18565 Z-2.286
N18570 X52.027 Y-56.078
N18575 X52.025 Y-56.072
N18580 X52.019 Y-56.073
N18585 X52.012 Y-56.082
N18590 X52.02 Y-56.119
N18595 X52.041 Y-56.15
N18600 X52.072 Y-56.171
N18605 X52.109 Y-56.179
N18610 G3 X53.566 Y-56.158 I0. J51.423
N18615 G2 X55.022 Y-56.138 I1.456 J-51.402
N18620 G1 X55.05 Y-56.13
N18625 X55.071 Y-56.11
N18630 X55.078 Y-56.082
N18635 X55.071 Y-56.053
N18640 X55.05 Y-56.033
N18645 X55.022 Y-56.025
N18650 G2 X53.566 Y-56.005 I0. J51.423
N18655 G3 X52.109 Y-55.984 I-1.456 J-51.402
N18660 G1 X52.072 Y-55.992
N18665 X52.041 Y-56.013
N18670 X52.02 Y-56.044
N18675 X52.012 Y-56.082
N18680 G2 X51.85 Y-56.419 I-0.433 J0.
N18685 G3 X51.958 Y-56.778 I0.126 J-0.158
N18690 G1 X52.022 Y-56.782
N18695 X55.022
N18700 G3 Y-55.382 I0. J0.7
N18705 G1 X52.022
N18710 G3 X51.958 Y-56.778 I0. J-0.7
N18715 G2 X52.511 Y-57.193 I-0.061 J-0.659
N18720 G3 X53.083 Y-57.582 I0.572 J0.227
N18725 G1 X55.022
N18730 G3 Y-54.582 I0. J1.5
N18735 G1 X52.022
N18740 G3 Y-57.582 I0. J-1.5
N18745 G1 X53.083
N18750 G2 X53.721 Y-58.007 I0. J-0.691
N18755 G3 X54.358 Y-58.431 I0.638 J0.266
N18760 G1 X55.022
N18765 G3 Y-53.731 I0. J2.35
N18770 G1 X52.022
N18775 G3 Y-58.431 I0. J-2.35
N18780 G1 X54.358
N18785 X54.391 Y-58.425
N18790 X54.418 Y-58.406
N18795 X54.436 Y-58.379
N18800 X54.441 Y-58.346
N18805 X54.434 Y-58.314
N18810 X54.415 Y-58.288
N18815 X52.022 Y-56.082
N18820 Z-2.743
N18825 X52.027 Y-56.078
N18830 X52.025 Y-56.072
N18835 X52.019 Y-56.073
N18840 X52.012 Y-56.082
N18845 X52.02 Y-56.119
N18850 X52.041 Y-56.15
N18855 X52.072 Y-56.171
N18860 X52.109 Y-56.179
N18865 G3 X53.566 Y-56.158 I0. J51.423
N18870 G2 X55.022 Y-56.138 I1.456 J-51.402
N18875 G1 X55.05 Y-56.13
N18880 X55.071 Y-56.11
N18885 X55.078 Y-56.082
N18890 X55.071 Y-56.053
N18895 X55.05 Y-56.033
N18900 X55.022 Y-56.025
N18905 G2 X53.566 Y-56.005 I0. J51.423
N18910 G3 X52.109 Y-55.984 I-1.456 J-51.402
N18915 G1 X52.072 Y-55.992
N18920 X52.041 Y-56.013
N18925 X52.02 Y-56.044
N18930 X52.012 Y-56.082
N18935 G2 X51.85 Y-56.419 I-0.433 J0.
N18940 G3 X51.958 Y-56.778 I0.126 J-0.158
N18945 G1 X52.022 Y-56.782
N18950 X55.022
N18955 G3 Y-55.382 I0. J0.7
N18960 G1 X52.022
N18965 G3 X51.958 Y-56.778 I0. J-0.7
N18970 G2 X52.511 Y-57.193 I-0.061 J-0.659
N18975 G3 X53.083 Y-57.582 I0.572 J0.227
N18980 G1 X55.022
N18985 G3 Y-54.582 I0. J1.5
N18990 G1 X52.022
N18995 G3 Y-57.582 I0. J-1.5
N19000 G1 X53.083
N19005 G2 X53.721 Y-58.007 I0. J-0.691
N19010 G3 X54.358 Y-58.431 I0.638 J0.266
N19015 G1 X55.022
N19020 G3 Y-53.731 I0. J2.35
N19025 G1 X52.022
N19030 G3 Y-58.431 I0. J-2.35
N19035 G1 X54.358
N19040 X54.391 Y-58.425
N19045 X54.418 Y-58.406
N19050 X54.436 Y-58.379
N19055 X54.441 Y-58.346
N19060 X54.434 Y-58.314
N19065 X54.415 Y-58.288
N19070 X52.022 Y-56.082
N19075 Z-3.2
N19080 X52.027 Y-56.078
N19085 X52.025 Y-56.072
N19090 X52.019 Y-56.073
N19095 X52.012 Y-56.082
