%
(ADAPTIVE_ARROWBOI)
(MACHINE)
(  VENDOR AUTODESK)
(  MODEL GENERIC 3-AXIS)
(  DESCRIPTION THIS MACHINE HAS XY AXIS ON THE TABLE AND Z AXIS ON THE HEAD)
(T0 D=1.5 CR=0. - ZMIN=-3.2 - FLAT END MILL)
N10 G90 G94 G17 G91.1
N15 G21
(WHEN USING FUSION 360 FOR PERSONAL USE, THE FEEDRATE OF)
(RAPID MOVES IS REDUCED TO MATCH THE FEEDRATE OF CUTTING)
(MOVES, WHICH CAN INCREASE MACHINING TIME. UNRESTRICTED RAPID)
(MOVES ARE AVAILABLE WITH A FUSION 360 SUBSCRIPTION.)
N20 G28 G91 Z0.
N25 G90
(ADAPTIVE_ARROWBOI)
N30 T0 M6
N35 S12000 M3
N40 G17 G90 G94
N45 G54
N50 M8
N55 G0 X78.29 Y-63.302
N60 G43 Z15. H0
N65 G1 Z2.65 F48.
N70 Z2.5
N75 Z-0.5
N80 X78.302 Y-63.301
N85 X78.303 Y-63.297
N90 Y-63.294
N95 X78.301 Y-63.286
N100 X78.296 Y-63.281
N105 X78.289 Y-63.278
N110 X78.281
N115 X78.274 Y-63.28
N120 X78.268 Y-63.285
N125 X78.258 Y-63.296
N130 X78.255 Y-63.311
N135 X78.259 Y-63.325
N140 X78.268 Y-63.337
N145 X78.281 Y-63.345
N150 X78.296 Y-63.348
N155 X78.311 Y-63.346
N160 X78.325 Y-63.341
N165 X78.337 Y-63.332
N170 X78.346 Y-63.32
N175 X78.352 Y-63.306
N180 X78.354 Y-63.291
N185 Y-63.276
N190 X78.35 Y-63.262
N195 X78.31 Y-63.232
N200 X78.262 Y-63.244
N205 X78.241 Y-63.289
N210 Y-63.336
N215 Y-63.35
N220 X78.246 Y-63.365
N225 X78.253 Y-63.378
N230 X78.263 Y-63.389
N235 X78.275 Y-63.398
N240 X78.288 Y-63.405
N245 X78.303 Y-63.41
N250 X78.317 Y-63.413
N255 X78.332
N260 X78.347 Y-63.412
N265 X78.362 Y-63.408
N270 X78.376 Y-63.403
N275 X78.389 Y-63.397
N280 X78.402 Y-63.389
N285 X78.414 Y-63.379
N290 X78.424 Y-63.368
N295 X78.433 Y-63.357
N300 X78.441 Y-63.344
N305 X78.448 Y-63.33
N310 X78.453 Y-63.316
N315 X78.456 Y-63.302
N320 X78.458 Y-63.287
N325 X78.459 Y-63.272
N330 X78.458 Y-63.257
N335 X78.419 Y-63.187
N340 X78.342 Y-63.163
N345 X78.27 Y-63.197
N350 X78.241 Y-63.272
N355 X78.252 Y-63.304 Z-0.493
N360 X78.261 Y-63.331 Z-0.473
N365 X78.267 Y-63.349 Z-0.444
N370 X78.27 Y-63.355 Z-0.41
N375 Z5.
N380 X78.241 Y-63.336
N385 Z2.65
N390 Z2.5
N395 Z-0.5 F12.
N400 Y-63.397 F48.
N405 Y-63.412
N410 X78.245 Y-63.427
N415 X78.251 Y-63.44
N420 X78.259 Y-63.453
N425 X78.268 Y-63.465
N430 X78.279 Y-63.475
N435 X78.291 Y-63.484
N440 X78.304 Y-63.492
N445 X78.317 Y-63.499
N450 X78.331 Y-63.504
N455 G3 X78.581 Y-63.414 I0.063 J0.215
N460 G1 X78.593 Y-63.396
N465 X78.605 Y-63.375
N470 X78.614 Y-63.353
N475 X78.622 Y-63.331
N480 X78.627 Y-63.31
N485 X78.631 Y-63.289
N490 X78.633 Y-63.268
N495 Y-63.248
N500 X78.632 Y-63.229
N505 X78.581 Y-63.125
N510 X78.481 Y-63.067
N515 X78.365 Y-63.076
N520 X78.275 Y-63.148
N525 X78.241 Y-63.259
N530 X78.249 Y-63.305 Z-0.46
N535 X78.272 Y-63.346 Z-0.42
N540 X78.306 Y-63.378 Z-0.38
N545 X78.349 Y-63.397 Z-0.34
N550 X78.396 Y-63.403 Z-0.3
N555 G3 X78.433 Y-63.11 I-0.005 J0.15
N560 G1 X78.46 Y-63.109
N565 X78.414 Y-63.128
N570 X78.371 Y-63.154
N575 X78.333 Y-63.186
N580 X78.295 Y-63.232 Z-0.35
N585 X78.266 Y-63.283 Z-0.4
N590 X78.248 Y-63.339 Z-0.45
N595 X78.241 Y-63.397 Z-0.5
N600 Y-63.48
N605 Y-63.487
N610 Y-63.491
N615 Y-63.494
N620 X78.242 Y-63.509
N625 X78.246 Y-63.523
N630 X78.251 Y-63.537
N635 X78.258 Y-63.551
N640 X78.266 Y-63.563
N645 X78.275 Y-63.576
N650 X78.286 Y-63.589
N655 X78.298 Y-63.601
N660 X78.312 Y-63.613
N665 X78.328 Y-63.625
N670 X78.346 Y-63.635
N675 X78.388 Y-63.653
N680 X78.432 Y-63.663
N685 X78.477 Y-63.667
N690 X78.522 Y-63.659 Z-0.461
N695 X78.564 Y-63.642 Z-0.423
N700 X78.6 Y-63.615 Z-0.384
N705 X78.629 Y-63.58 Z-0.346
N710 X78.648 Y-63.539 Z-0.307
N715 X78.651 Y-63.531 Z-0.3
N720 X78.658 Y-63.49
N725 X78.656 Y-63.448
N730 X78.644 Y-63.408
N735 X78.624 Y-63.372
N740 X78.591 Y-63.334
N745 X78.549 Y-63.306
N750 X78.502 Y-63.288
N755 X78.452 Y-63.282
N760 X78.404 Y-63.287
N765 X78.359 Y-63.304
N770 X78.319 Y-63.329 Z-0.34
N775 X78.286 Y-63.362 Z-0.38
N780 X78.261 Y-63.402 Z-0.42
N785 X78.246 Y-63.447 Z-0.46
N790 X78.241 Y-63.494 Z-0.5
N795 X78.242 Y-63.525
N800 X78.248 Y-63.547
N805 X78.257 Y-63.57
N810 X78.269 Y-63.589
N815 X78.285 Y-63.608
N820 X78.29 Y-63.615
N825 X78.31 Y-63.634
N830 X78.33 Y-63.647
N835 X78.344 Y-63.654
N840 X78.359 Y-63.66
N845 X78.375 Y-63.664
N850 X78.397 Y-63.666
N855 X78.42 Y-63.667
N860 X78.489
N865 G3 X78.858 Y-63.396 I-0.008 J0.398
N870 G1 X78.875 Y-63.266
N875 X78.843 Y-63.139
N880 X78.766 Y-63.033
N885 X78.655 Y-62.963
N890 X78.526 Y-62.938
N895 X78.42
N900 X78.381 Y-62.94
N905 X78.375 Y-62.941
N910 X78.352 Y-62.947
N915 X78.33 Y-62.957
N920 X78.312 Y-62.969
N925 X78.294 Y-62.985
N930 X78.285 Y-62.994
N935 X78.269 Y-63.012
N940 X78.258 Y-63.03
N945 X78.248 Y-63.052
N950 X78.243 Y-63.075
N955 X78.241 Y-63.12
N960 Y-63.259
N965 X78.253 Y-63.382
N970 X78.28 Y-63.504
N975 G3 X78.489 Y-63.667 I0.217 J0.063
N980 G1 X78.759
N985 X78.789 Y-63.665
N990 X78.813 Y-63.662
N995 G3 X79.053 Y-63.496 I-0.077 J0.368
N1000 G1 X79.075 Y-63.461
N1005 X79.093 Y-63.426
N1010 X79.095 Y-63.423
N1015 X79.122 Y-63.289
N1020 X79.095 Y-63.155
N1025 X79.02 Y-63.041
N1030 X78.906 Y-62.965
N1035 X78.772 Y-62.938
N1040 X78.526
N1045 X78.48 Y-62.947 Z-0.46
N1050 X78.439 Y-62.97 Z-0.42
N1055 X78.407 Y-63.004 Z-0.38
N1060 X78.387 Y-63.046 Z-0.34
N1065 X78.381 Y-63.093 Z-0.3
N1070 X78.387 Y-63.127
N1075 X78.4 Y-63.16
N1080 X78.595 Y-63.518
N1085 X78.633 Y-63.588 Z-0.368
N1090 X78.656 Y-63.62 Z-0.401
N1095 X78.686 Y-63.644 Z-0.434
N1100 X78.721 Y-63.66 Z-0.467
N1105 X78.759 Y-63.667 Z-0.5
N1110 X79.005
N1115 X79.036 Y-63.665
N1120 G3 X79.276 Y-63.526 I-0.047 J0.357
N1125 G1 X79.301 Y-63.493
N1130 X79.321 Y-63.46
N1135 X79.338 Y-63.427
N1140 X79.34 Y-63.423
N1145 X79.367 Y-63.289
N1150 X79.341 Y-63.155
N1155 X79.265 Y-63.041
N1160 X79.151 Y-62.965
N1165 X79.017 Y-62.938
N1170 X78.772
N1175 X78.726 Y-62.947 Z-0.46
N1180 X78.685 Y-62.97 Z-0.42
N1185 X78.653 Y-63.004 Z-0.38
N1190 X78.633 Y-63.046 Z-0.34
N1195 X78.627 Y-63.093 Z-0.3
N1200 X78.632 Y-63.127
N1205 X78.645 Y-63.159
N1210 X78.84 Y-63.518
N1215 X78.878 Y-63.588 Z-0.368
N1220 X78.901 Y-63.62 Z-0.401
N1225 X78.931 Y-63.644 Z-0.434
N1230 X78.966 Y-63.66 Z-0.467
N1235 X79.005 Y-63.667 Z-0.5
N1240 X79.254
N1245 X79.281 Y-63.665
N1250 G3 X79.521 Y-63.526 I-0.047 J0.358
N1255 G1 X79.546 Y-63.493
N1260 X79.567 Y-63.46
N1265 X79.584 Y-63.427
N1270 X79.586 Y-63.423
N1275 X79.613 Y-63.289
N1280 X79.586 Y-63.155
N1285 X79.51 Y-63.041
N1290 X79.397 Y-62.965
N1295 X79.263 Y-62.938
N1300 X79.017
N1305 X78.971 Y-62.947 Z-0.46
N1310 X78.93 Y-62.97 Z-0.42
N1315 X78.898 Y-63.004 Z-0.38
N1320 X78.878 Y-63.046 Z-0.34
N1325 X78.872 Y-63.093 Z-0.3
N1330 X78.873 Y-63.096
N1335 X78.878 Y-63.129
N1340 X78.891 Y-63.16
N1345 X79.089 Y-63.518
N1350 X79.128 Y-63.589 Z-0.369
N1355 X79.151 Y-63.62 Z-0.402
N1360 X79.181 Y-63.644 Z-0.434
N1365 X79.216 Y-63.66 Z-0.467
N1370 X79.254 Y-63.667 Z-0.5
N1375 X79.5
N1380 X79.527 Y-63.665
N1385 G3 X79.767 Y-63.526 I-0.047 J0.358
N1390 G1 X79.792 Y-63.493
N1395 X79.812 Y-63.46
N1400 X79.829 Y-63.427
N1405 X79.831 Y-63.423
N1410 X79.858 Y-63.289
N1415 X79.832 Y-63.155
N1420 X79.756 Y-63.041
N1425 X79.642 Y-62.965
N1430 X79.508 Y-62.938
N1435 X79.263
N1440 X79.217 Y-62.947 Z-0.46
N1445 X79.176 Y-62.97 Z-0.42
N1450 X79.144 Y-63.004 Z-0.38
N1455 X79.124 Y-63.046 Z-0.34
N1460 X79.118 Y-63.093 Z-0.3
N1465 Y-63.096
N1470 X79.124 Y-63.129
N1475 X79.137 Y-63.16
N1480 X79.334 Y-63.518
N1485 X79.374 Y-63.589 Z-0.369
N1490 X79.396 Y-63.62 Z-0.401
N1495 X79.426 Y-63.644 Z-0.434
N1500 X79.462 Y-63.66 Z-0.467
N1505 X79.5 Y-63.667 Z-0.5
N1510 X79.749
N1515 X79.772 Y-63.665
N1520 G3 X80.013 Y-63.526 I-0.047 J0.358
N1525 G1 X80.037 Y-63.493
N1530 X80.058 Y-63.46
N1535 X80.075 Y-63.428
N1540 X80.077 Y-63.423
N1545 X80.104 Y-63.289
N1550 X80.077 Y-63.155
N1555 X80.002 Y-63.041
N1560 X79.888 Y-62.965
N1565 X79.754 Y-62.938
N1570 X79.508
N1575 X79.462 Y-62.947 Z-0.46
N1580 X79.421 Y-62.97 Z-0.42
N1585 X79.389 Y-63.004 Z-0.38
N1590 X79.369 Y-63.046 Z-0.34
N1595 X79.364 Y-63.093 Z-0.3
N1600 Y-63.098
N1605 X79.37 Y-63.131
N1610 X79.383 Y-63.161
N1615 X79.584 Y-63.519
N1620 X79.624 Y-63.59 Z-0.37
N1625 X79.647 Y-63.621 Z-0.402
N1630 X79.677 Y-63.645 Z-0.435
N1635 X79.712 Y-63.66 Z-0.467
N1640 X79.749 Y-63.667 Z-0.5
N1645 X79.995
N1650 X80.018 Y-63.665
N1655 G3 X80.258 Y-63.526 I-0.047 J0.358
N1660 G1 X80.283 Y-63.493
N1665 X80.304 Y-63.46
N1670 X80.32 Y-63.428
N1675 X80.322 Y-63.423
N1680 X80.349 Y-63.289
N1685 X80.323 Y-63.155
N1690 X80.247 Y-63.041
N1695 X80.134 Y-62.965
N1700 X79.999 Y-62.938
N1705 X79.754
N1710 X79.708 Y-62.947 Z-0.46
N1715 X79.667 Y-62.97 Z-0.42
N1720 X79.635 Y-63.004 Z-0.38
N1725 X79.615 Y-63.046 Z-0.34
N1730 X79.609 Y-63.093 Z-0.3
N1735 Y-63.098
N1740 X79.615 Y-63.131
N1745 X79.628 Y-63.161
N1750 X79.829 Y-63.519
N1755 X79.869 Y-63.59 Z-0.37
N1760 X79.892 Y-63.621 Z-0.402
N1765 X79.922 Y-63.645 Z-0.435
N1770 X79.957 Y-63.66 Z-0.467
N1775 X79.995 Y-63.667 Z-0.5
N1780 X80.244
N1785 X80.263 Y-63.666
N1790 G3 X80.504 Y-63.526 I-0.047 J0.358
N1795 G1 X80.529 Y-63.493
N1800 X80.549 Y-63.46
N1805 X80.566 Y-63.428
N1810 X80.568 Y-63.423
N1815 X80.595 Y-63.289
N1820 X80.569 Y-63.155
N1825 X80.493 Y-63.041
N1830 X80.379 Y-62.965
N1835 X80.245 Y-62.938
N1840 X79.999
N1845 X79.953 Y-62.947 Z-0.46
N1850 X79.912 Y-62.97 Z-0.42
N1855 X79.88 Y-63.004 Z-0.38
N1860 X79.861 Y-63.046 Z-0.34
N1865 X79.855 Y-63.093 Z-0.3
N1870 Y-63.1
N1875 X79.861 Y-63.132
N1880 X79.874 Y-63.162
N1885 X80.078 Y-63.519
N1890 X80.119 Y-63.591 Z-0.37
N1895 X80.142 Y-63.621 Z-0.403
N1900 X80.172 Y-63.645 Z-0.435
N1905 X80.207 Y-63.66 Z-0.468
N1910 X80.244 Y-63.667 Z-0.5
N1915 X80.49
N1920 X80.509 Y-63.666
N1925 G3 X80.75 Y-63.526 I-0.047 J0.358
N1930 G1 X80.774 Y-63.493
N1935 X80.795 Y-63.46
N1940 X80.812 Y-63.428
N1945 X80.814 Y-63.423
N1950 X80.841 Y-63.289
N1955 X80.814 Y-63.155
N1960 X80.739 Y-63.041
N1965 X80.625 Y-62.965
N1970 X80.491 Y-62.938
N1975 X80.245
N1980 X80.199 Y-62.947 Z-0.46
N1985 X80.158 Y-62.97 Z-0.42
N1990 X80.126 Y-63.004 Z-0.38
N1995 X80.106 Y-63.046 Z-0.34
N2000 X80.1 Y-63.093 Z-0.3
N2005 X80.101 Y-63.1
N2010 X80.107 Y-63.132
N2015 X80.12 Y-63.162
N2020 X80.323 Y-63.519
N2025 X80.365 Y-63.591 Z-0.37
N2030 X80.387 Y-63.621 Z-0.403
N2035 X80.417 Y-63.645 Z-0.435
N2040 X80.452 Y-63.66 Z-0.468
N2045 X80.49 Y-63.667 Z-0.5
N2050 X80.739
N2055 X80.755 Y-63.666
N2060 G3 X80.995 Y-63.526 I-0.047 J0.358
N2065 G1 X81.02 Y-63.494
N2070 X81.041 Y-63.46
N2075 X81.058 Y-63.428
N2080 X81.06 Y-63.423
N2085 X81.087 Y-63.289
N2090 X81.06 Y-63.155
N2095 X80.984 Y-63.041
N2100 X80.871 Y-62.965
N2105 X80.737 Y-62.938
N2110 X80.491
N2115 X80.445 Y-62.947 Z-0.46
N2120 X80.404 Y-62.97 Z-0.42
N2125 X80.372 Y-63.004 Z-0.38
N2130 X80.352 Y-63.046 Z-0.34
N2135 X80.346 Y-63.093 Z-0.3
N2140 X80.347 Y-63.102
N2145 X80.353 Y-63.133
N2150 X80.366 Y-63.163
N2155 X80.573 Y-63.519
N2160 X80.615 Y-63.592 Z-0.371
N2165 X80.638 Y-63.622 Z-0.403
N2170 X80.667 Y-63.645 Z-0.436
N2175 X80.702 Y-63.66 Z-0.468
N2180 X80.739 Y-63.667 Z-0.5
N2185 X80.985
N2190 X81.001 Y-63.666
N2195 G3 X81.241 Y-63.526 I-0.047 J0.358
N2200 G1 X81.266 Y-63.494
N2205 X81.286 Y-63.46
N2210 X81.303 Y-63.428
N2215 X81.305 Y-63.423
N2220 X81.332 Y-63.289
N2225 X81.306 Y-63.155
N2230 X81.23 Y-63.041
N2235 X81.117 Y-62.965
N2240 X80.982 Y-62.938
N2245 X80.737
N2250 X80.691 Y-62.947 Z-0.46
N2255 X80.65 Y-62.97 Z-0.42
N2260 X80.618 Y-63.004 Z-0.38
N2265 X80.598 Y-63.046 Z-0.34
N2270 X80.592 Y-63.093 Z-0.3
N2275 X80.593 Y-63.102
N2280 X80.599 Y-63.133
N2285 X80.612 Y-63.163
N2290 X80.818 Y-63.519
N2295 X80.86 Y-63.592 Z-0.371
N2300 X80.883 Y-63.622 Z-0.403
N2305 X80.913 Y-63.645 Z-0.436
N2310 X80.947 Y-63.66 Z-0.468
N2315 X80.985 Y-63.667 Z-0.5
N2320 X81.223
N2325 X81.247 Y-63.665
N2330 G3 X81.487 Y-63.526 I-0.047 J0.358
N2335 G1 X81.512 Y-63.493
N2340 X81.532 Y-63.46
N2345 X81.549 Y-63.428
N2350 X81.551 Y-63.423
N2355 X81.577 Y-63.312
N2360 X81.566 Y-63.198
N2365 X81.519 Y-63.094
N2370 X81.441 Y-63.01
N2375 X81.34 Y-62.956
N2380 X81.228 Y-62.938
N2385 X80.982
N2390 X80.936 Y-62.947 Z-0.46
N2395 X80.895 Y-62.97 Z-0.42
N2400 X80.863 Y-63.004 Z-0.38
N2405 X80.844 Y-63.046 Z-0.34
N2410 X80.838 Y-63.093 Z-0.3
N2415 Y-63.098
N2420 X80.844 Y-63.131
N2425 X80.857 Y-63.161
N2430 X81.058 Y-63.519
N2435 X81.098 Y-63.59 Z-0.37
N2440 X81.12 Y-63.621 Z-0.402
N2445 X81.15 Y-63.645 Z-0.435
N2450 X81.185 Y-63.66 Z-0.467
N2455 X81.223 Y-63.667 Z-0.5
N2460 X81.459
N2465 G3 X81.712 Y-63.549 I-0.006 J0.343
N2470 G1 X81.737 Y-63.522
N2475 X81.758 Y-63.493
N2480 X81.776 Y-63.465
N2485 X81.793 Y-63.432
N2490 X81.81 Y-63.392
N2495 X81.814 Y-63.38
N2500 X81.831 Y-63.262
N2505 X81.807 Y-63.146
N2510 X81.746 Y-63.043
N2515 X81.655 Y-62.968
N2520 X81.543 Y-62.927
N2525 X81.424 Y-62.926
N2530 X81.384 Y-62.94 Z-0.464
N2535 X81.35 Y-62.964 Z-0.429
N2540 X81.324 Y-62.997 Z-0.393
N2545 X81.308 Y-63.035 Z-0.358
N2550 X81.303 Y-63.077 Z-0.322
N2555 X81.304 Y-63.103 Z-0.3
N2560 X81.314 Y-63.511
N2565 X81.315 Y-63.52 Z-0.308
N2570 X81.323 Y-63.565 Z-0.346
N2575 X81.343 Y-63.605 Z-0.385
N2580 X81.375 Y-63.637 Z-0.423
N2585 X81.415 Y-63.658 Z-0.462
N2590 X81.459 Y-63.667 Z-0.5
N2595 X81.705
N2600 X81.738 Y-63.665
N2605 G3 X81.965 Y-63.548 I-0.043 J0.361
N2610 X82.096 Y-63.26 I-0.352 J0.333
N2615 G1 X82.099 Y-63.219
N2620 Y-63.178
N2625 X82.098 Y-63.161
N2630 X82.061 Y-63.032
N2635 X81.979 Y-62.927
N2640 X81.863 Y-62.86
N2645 X81.731 Y-62.841
N2650 X81.601 Y-62.874
N2655 X81.565 Y-62.899 Z-0.462
N2660 X81.538 Y-62.934 Z-0.425
N2665 X81.522 Y-62.975 Z-0.387
N2670 X81.52 Y-63.019 Z-0.35
N2675 X81.522 Y-63.046 Z-0.327
N2680 X81.524 Y-63.078 Z-0.3
N2685 X81.559 Y-63.512
N2690 X81.56 Y-63.529 Z-0.315
N2695 X81.57 Y-63.571 Z-0.352
N2700 X81.591 Y-63.609 Z-0.389
N2705 X81.623 Y-63.639 Z-0.426
N2710 X81.662 Y-63.659 Z-0.463
N2715 X81.705 Y-63.667 Z-0.5
N2720 X81.975
N2725 X81.992 Y-63.666
N2730 X82.054 Y-63.653
N2735 X82.113 Y-63.631
N2740 X82.168 Y-63.599
N2745 X82.218 Y-63.559
N2750 G3 X82.393 Y-63.165 I-0.37 J0.401
N2755 X82.335 Y-62.883 I-0.586 J0.025
N2760 G1 X82.261 Y-62.775
N2765 X82.153 Y-62.701
N2770 X82.025 Y-62.672
N2775 X81.896 Y-62.693
N2780 X81.783 Y-62.76
N2785 X81.754 Y-62.798 Z-0.459
N2790 X81.738 Y-62.843 Z-0.418
N2795 X81.737 Y-62.891 Z-0.377
N2800 X81.75 Y-62.981 Z-0.3
N2805 X81.759 Y-63.04
N2810 X81.827 Y-63.512
N2815 X81.831 Y-63.538 Z-0.323
N2820 X81.843 Y-63.578 Z-0.358
N2825 X81.865 Y-63.613 Z-0.394
N2830 X81.896 Y-63.641 Z-0.429
N2835 X81.934 Y-63.659 Z-0.465
N2840 X81.975 Y-63.667 Z-0.5
N2845 X82.245
N2850 G3 X82.48 Y-63.577 I-0.018 J0.401
N2855 X82.679 Y-63.3 I-0.369 J0.475
N2860 X82.598 Y-62.636 I-0.684 J0.254
N2865 G1 X82.561 Y-62.587
N2870 X82.52 Y-62.541
N2875 X82.479 Y-62.502
N2880 X82.462 Y-62.488
N2885 X82.358 Y-62.43
N2890 X82.24 Y-62.41
N2895 X82.122 Y-62.43
N2900 X82.018 Y-62.489
N2905 X81.94 Y-62.58
N2910 X81.926 Y-62.615 Z-0.468
N2915 X81.921 Y-62.652 Z-0.436
N2920 Y-62.653 Z-0.435
N2925 X81.924 Y-62.683 Z-0.409
N2930 X81.95 Y-62.809 Z-0.3
N2935 X81.999 Y-63.045
N2940 X82.096 Y-63.512
N2945 X82.103 Y-63.547 Z-0.33
N2950 X82.116 Y-63.585 Z-0.364
N2955 X82.139 Y-63.617 Z-0.398
N2960 X82.169 Y-63.643 Z-0.432
N2965 X82.205 Y-63.66 Z-0.466
N2970 X82.245 Y-63.667 Z-0.5
N2975 X82.539
N2980 X82.564 Y-63.665
N2985 G3 X82.803 Y-63.565 I-0.053 J0.462
N2990 X83.007 Y-63.306 I-0.418 J0.539
N2995 X83.086 Y-62.896 I-0.787 J0.363
N3000 X82.917 Y-62.394 I-0.954 J-0.041
N3005 X82.625 Y-62.135 I-0.685 J-0.479
N3010 G1 X82.562 Y-62.105
N3015 X82.503 Y-62.083
N3020 X82.448 Y-62.067
N3025 X82.447
N3030 X82.335 Y-62.063
N3035 X82.228 Y-62.094
N3040 X82.136 Y-62.157
N3045 X82.068 Y-62.246
N3050 X82.032 Y-62.351
N3055 Y-62.384 Z-0.472
N3060 X82.038 Y-62.417 Z-0.444
N3065 X82.089 Y-62.578 Z-0.3
N3070 X82.233 Y-63.032
N3075 X82.242 Y-63.059
N3080 X82.386 Y-63.513
N3085 X82.402 Y-63.562 Z-0.343
N3090 X82.422 Y-63.603 Z-0.383
N3095 X82.454 Y-63.636 Z-0.422
N3100 X82.494 Y-63.658 Z-0.461
N3105 X82.539 Y-63.667 Z-0.5
N3110 X82.854
N3115 G3 X83.113 Y-63.583 I-0.011 J0.477
N3120 X83.318 Y-63.379 I-0.385 J0.593
N3125 X83.442 Y-63.109 I-0.757 J0.512
N3130 G1 X83.461 Y-63.028
N3135 X83.475 Y-62.943
N3140 X83.481 Y-62.855
N3145 G3 X83.433 Y-62.483 I-1.175 J0.038
N3150 X83.264 Y-62.131 I-1.171 J-0.345
N3155 G1 X83.205 Y-62.052
N3160 X83.139 Y-61.978
N3165 X83.068 Y-61.911
N3170 G3 X82.789 Y-61.734 I-0.694 J-0.788
N3175 X82.514 Y-61.666 I-0.355 J-0.841
N3180 G1 X82.444 Y-61.663
N3185 X82.374 Y-61.666
N3190 X82.358 Y-61.668
N3195 X82.238 Y-61.706
N3200 X82.139 Y-61.783
N3205 X82.074 Y-61.891
N3210 X82.051 Y-62.015
N3215 Y-62.175
N3220 X82.055 Y-62.206 Z-0.473
N3225 X82.066 Y-62.235 Z-0.447
N3230 X82.142 Y-62.39 Z-0.3
N3235 X82.351 Y-62.818
N3240 X82.483 Y-63.089
N3245 X82.693 Y-63.517
N3250 X82.725 Y-63.582 Z-0.362
N3255 X82.747 Y-63.616 Z-0.397
N3260 X82.778 Y-63.642 Z-0.431
N3265 X82.814 Y-63.66 Z-0.466
N3270 X82.854 Y-63.667 Z-0.5
N3275 X83.214
N3280 X83.242 Y-63.665
N3285 G3 X83.485 Y-63.576 I-0.059 J0.537
N3290 X83.672 Y-63.406 I-0.419 J0.647
N3295 X83.829 Y-63.125 I-0.786 J0.625
N3300 G1 X83.858 Y-63.037
N3305 X83.881 Y-62.942
N3310 X83.897 Y-62.84
N3315 X83.905 Y-62.736
N3320 X83.904 Y-62.627
N3325 X83.894 Y-62.514
N3330 X83.875 Y-62.399
N3335 X83.864 Y-62.355
N3340 X83.835 Y-62.278
N3345 X83.788 Y-62.21
N3350 X83.727 Y-62.155
N3355 X83.684 Y-62.136 Z-0.46
N3360 X83.638 Y-62.131 Z-0.42
N3365 X83.592 Y-62.14 Z-0.38
N3370 X83.551 Y-62.163 Z-0.34
N3375 X83.519 Y-62.198 Z-0.3
N3380 X83.503 Y-62.232
N3385 X83.36 Y-62.647
N3390 X83.218 Y-63.059
N3395 X83.078 Y-63.468
N3400 X83.07 Y-63.511
N3405 X83.075 Y-63.558 Z-0.34
N3410 X83.095 Y-63.601 Z-0.38
N3415 X83.127 Y-63.635 Z-0.42
N3420 X83.168 Y-63.658 Z-0.46
N3425 X83.214 Y-63.667 Z-0.5
N3430 X83.594
N3435 X83.678 Y-63.656
N3440 X83.758 Y-63.633
N3445 X83.834 Y-63.598
N3450 G3 X84.037 Y-63.44 I-0.374 J0.693
N3455 G1 X84.088 Y-63.382
N3460 X84.138 Y-63.314
N3465 X84.184 Y-63.241
N3470 X84.227 Y-63.157
N3475 X84.266 Y-63.063
N3480 X84.299 Y-62.964
N3485 X84.325 Y-62.856
N3490 X84.34 Y-62.757
N3495 Y-62.756
N3500 X84.325 Y-62.625
N3505 X84.262 Y-62.508
N3510 X84.16 Y-62.424
N3515 X84.116 Y-62.409 Z-0.46
N3520 X84.069 Z-0.42
N3525 X84.025 Y-62.424 Z-0.38
N3530 X83.987 Y-62.451 Z-0.34
N3535 X83.959 Y-62.489 Z-0.301
N3540 Z-0.3
N3545 X83.741 Y-62.913
N3550 X83.654 Y-63.083
N3555 X83.466 Y-63.448
N3560 X83.455 Y-63.479
N3565 X83.45 Y-63.511
N3570 X83.456 Y-63.558 Z-0.34
N3575 X83.475 Y-63.601 Z-0.38
N3580 X83.507 Y-63.635 Z-0.42
N3585 X83.548 Y-63.658 Z-0.46
N3590 X83.594 Y-63.667 Z-0.5
N3595 X83.979
N3600 G3 X84.25 Y-63.592 I-0.012 J0.575
N3605 X84.47 Y-63.421 I-0.405 J0.749
N3610 X84.68 Y-63.086 I-0.7 J0.671
N3615 G1 X84.702 Y-63.019
N3620 X84.709 Y-62.987
N3625 X84.717 Y-62.864
N3630 X84.681 Y-62.746
N3635 X84.607 Y-62.648
N3640 X84.503 Y-62.582
N3645 X84.462 Y-62.573 Z-0.464
N3650 X84.42 Y-62.575 Z-0.429
N3655 X84.381 Y-62.589 Z-0.393
N3660 X84.347 Y-62.614 Z-0.358
N3665 X84.321 Y-62.647 Z-0.322
N3670 X84.308 Y-62.669 Z-0.3
N3675 X84.067 Y-63.08
N3680 X84.059 Y-63.094
N3685 X83.855 Y-63.441
N3690 X83.84 Y-63.475
N3695 X83.835 Y-63.511
N3700 X83.84 Y-63.558 Z-0.34
N3705 X83.86 Y-63.601 Z-0.38
N3710 X83.892 Y-63.635 Z-0.42
N3715 X83.933 Y-63.658 Z-0.46
N3720 X83.979 Y-63.667 Z-0.5
N3725 X84.404
N3730 G3 X84.673 Y-63.592 I-0.015 J0.577
N3735 X85.05 Y-63.122 I-0.365 J0.679
N3740 G1 X85.053 Y-63.109
N3745 X85.059 Y-62.976
N3750 X85.015 Y-62.851
N3755 X84.927 Y-62.751
N3760 X84.809 Y-62.691
N3765 X84.77 Y-62.686 Z-0.466
N3770 X84.731 Y-62.692 Z-0.432
N3775 X84.694 Y-62.709 Z-0.399
N3780 X84.664 Y-62.734 Z-0.365
N3785 X84.64 Y-62.766 Z-0.331
N3790 X84.623 Y-62.798 Z-0.3
N3795 X84.47 Y-63.086
N3800 X84.277 Y-63.446
N3805 X84.265 Y-63.478
N3810 X84.26 Y-63.511
N3815 X84.266 Y-63.558 Z-0.34
N3820 X84.285 Y-63.601 Z-0.38
N3825 X84.317 Y-63.635 Z-0.42
N3830 X84.358 Y-63.658 Z-0.46
N3835 X84.404 Y-63.667 Z-0.5
N3840 X84.809
N3845 X84.823
N3850 X84.828
N3855 X84.849 Y-63.665
N3860 X84.852
N3865 X84.971 Y-63.627
N3870 X85.07 Y-63.549
N3875 X85.134 Y-63.441
N3880 X85.157 Y-63.318
N3885 X85.149 Y-63.26 Z-0.45
N3890 X85.131 Y-63.204 Z-0.4
N3895 X85.103 Y-63.152 Z-0.35
N3900 X85.066 Y-63.106 Z-0.3
N3905 G3 X84.736 Y-63.026 I-0.229 J-0.223
N3910 X84.615 Y-63.578 I0.103 J-0.312
N3915 G1 X84.662 Y-63.614 Z-0.35
N3920 X84.714 Y-63.642 Z-0.4
N3925 X84.77 Y-63.659 Z-0.45
N3930 X84.828 Y-63.667 Z-0.5
N3935 X84.989 Y-63.666
N3940 X85.011 Y-63.665
N3945 X85.033 Y-63.66
N3950 X85.034 Y-63.659
N3955 X85.057 Y-63.65
N3960 X85.068 Y-63.643
N3965 X85.079 Y-63.635
N3970 X85.105 Y-63.615
N3975 X85.116 Y-63.604
N3980 X85.124 Y-63.594
N3985 X85.133 Y-63.582
N3990 X85.14 Y-63.57
N3995 X85.149 Y-63.547
N4000 X85.155 Y-63.525
N4005 X85.157 Y-63.48
N4010 Y-62.94
N4015 X85.156 Y-62.895
N4020 X85.151 Y-62.872
N4025 X85.143 Y-62.85
N4030 X85.135 Y-62.834
N4035 X85.124 Y-62.819
N4040 X85.112 Y-62.805
N4045 X85.096 Y-62.791
N4050 X85.079 Y-62.779
N4055 X85.062 Y-62.768
N4060 X85.045 Y-62.76
N4065 G2 X84.674 Y-62.651 I7.699 J26.88
N4070 X84.286 Y-62.49 I3.043 J7.889
N4075 G1 X84.269 Y-62.482
N4080 X84.224 Y-62.459
N4085 X83.954 Y-62.31
N4090 X83.909 Y-62.282
N4095 X83.881 Y-62.265
N4100 G2 X83.567 Y-62.04 I8.561 J12.314
N4105 X83.234 Y-61.74 I5.838 J6.812
N4110 G1 X83.14 Y-61.635
N4115 X83.06 Y-61.545
N4120 G3 X82.411 Y-61.283 I-0.613 J-0.584
N4125 G1 X82.344 Y-61.289
N4130 X82.341 Y-61.29
N4135 X82.227 Y-61.331
N4140 X82.133 Y-61.409
N4145 X82.072 Y-61.515
N4150 X82.051 Y-61.635
N4155 X82.06 Y-61.679 Z-0.461
N4160 X82.081 Y-61.719 Z-0.423
N4165 X82.113 Y-61.751 Z-0.384
N4170 X82.154 Y-61.772 Z-0.345
N4175 X82.199 Y-61.779 Z-0.306
N4180 X82.206 Y-61.78 Z-0.3
N4185 X82.572 Y-61.785
N4190 X82.942 Y-61.791
N4195 X82.978 Y-61.787
N4200 X83.011 Y-61.775
N4205 X83.041 Y-61.756
N4210 X83.072 Y-61.721 Z-0.34
N4215 X83.09 Y-61.677 Z-0.38
N4220 X83.094 Y-61.631 Z-0.42
N4225 X83.084 Y-61.585 Z-0.46
N4230 X83.06 Y-61.545 Z-0.5
N4235 X83.02 Y-61.5
N4240 X82.981 Y-61.455
N4245 G2 X82.801 Y-61.205 I5.039 J3.819
N4250 G3 X82.527 Y-61.014 I-0.418 J-0.31
N4255 G1 X82.484 Y-61.003
N4260 X82.442 Y-60.995
N4265 X82.436 Y-60.994
N4270 X82.32 Y-61.002
N4275 X82.213 Y-61.048
N4280 X82.126 Y-61.126
N4285 X82.07 Y-61.228
N4290 X82.051 Y-61.343
N4295 X82.06 Y-61.389 Z-0.46
N4300 X82.083 Y-61.43 Z-0.42
N4305 X82.117 Y-61.462 Z-0.38
N4310 X82.16 Y-61.481 Z-0.34
N4315 X82.206 Y-61.487 Z-0.3
N4320 X82.217 Y-61.486
N4325 X82.289 Y-61.479
N4330 X82.691 Y-61.437
N4335 X82.726 Y-61.429
N4340 X82.758 Y-61.413
N4345 X82.793 Y-61.381 Z-0.34
N4350 X82.816 Y-61.34 Z-0.38
N4355 X82.826 Y-61.294 Z-0.42
N4360 X82.82 Y-61.248 Z-0.46
N4365 X82.801 Y-61.205 Z-0.5
N4370 X82.755 Y-61.14
N4375 X82.726 Y-61.095
N4380 X82.7 Y-61.05
N4385 X82.65 Y-60.96
N4390 X82.632 Y-60.931
N4395 X82.532 Y-60.842
N4400 X82.405 Y-60.802
N4405 X82.272 Y-60.816
N4410 X82.157 Y-60.883
N4415 X82.079 Y-60.992
N4420 X82.051 Y-61.122
N4425 X82.06 Y-61.168 Z-0.46
N4430 X82.083 Y-61.209 Z-0.42
N4435 X82.117 Y-61.241 Z-0.38
N4440 X82.16 Y-61.261 Z-0.34
N4445 X82.206 Y-61.267 Z-0.3
N4450 X82.242 Y-61.261
N4455 X82.557 Y-61.172
N4460 X82.584 Y-61.161
N4465 X82.622 Y-61.134 Z-0.34
N4470 X82.65 Y-61.096 Z-0.38
N4475 X82.664 Y-61.051 Z-0.42
N4480 Y-61.004 Z-0.46
N4485 X82.65 Y-60.96 Z-0.5
N4490 X82.6 Y-60.87
N4495 X82.575 Y-60.825
N4500 X82.544 Y-60.766
N4505 X82.535 Y-60.751
N4510 X82.433 Y-60.666
N4515 X82.303 Y-60.64
N4520 X82.176 Y-60.681
N4525 X82.084 Y-60.778
N4530 X82.051 Y-60.907
N4535 X82.06 Y-60.962 Z-0.452
N4540 X82.082 Y-61.013 Z-0.405
N4545 X82.119 Y-61.063 Z-0.352
N4550 X82.166 Y-61.102 Z-0.3
N4555 G3 X82.546 Y-60.994 I0.142 J0.22
N4560 G1 X82.565 Y-60.938 Z-0.35
N4565 X82.571 Y-60.88 Z-0.4
N4570 X82.564 Y-60.821 Z-0.45
N4575 X82.544 Y-60.766 Z-0.5
N4580 X82.527 Y-60.735
N4585 X82.515 Y-60.707
N4590 X82.478 Y-60.62
N4595 X82.471 Y-60.605
N4600 X82.464 Y-60.592
N4605 X82.455 Y-60.58
N4610 X82.446 Y-60.568
N4615 X82.354 Y-60.51
N4620 X82.247 Y-60.501
N4625 X82.147 Y-60.542
N4630 X82.076 Y-60.623
N4635 X82.051 Y-60.728
N4640 X82.056 Y-60.764 Z-0.469
N4645 X82.069 Y-60.798 Z-0.438
N4650 X82.075 Y-60.81 Z-0.427
N4655 X82.105 Y-60.85 Z-0.385
N4660 X82.142 Y-60.883 Z-0.342
N4665 X82.186 Y-60.906 Z-0.3
N4670 G3 X82.441 Y-60.842 I0.083 J0.208
N4675 G1 X82.472 Y-60.792 Z-0.35
N4680 X82.489 Y-60.736 Z-0.4
N4685 X82.491 Y-60.677 Z-0.45
N4690 X82.478 Y-60.62 Z-0.5
N4695 X82.419 Y-60.476
N4700 X82.412 Y-60.463
N4705 X82.405 Y-60.45
N4710 X82.396 Y-60.438
N4715 X82.386 Y-60.426
N4720 X82.374 Y-60.415
N4725 X82.273 Y-60.371
N4730 X82.164 Y-60.388
N4735 X82.082 Y-60.461
N4740 X82.051 Y-60.567
N4745 X82.055 Y-60.598
N4750 X82.066 Y-60.627
N4755 X82.096 Y-60.672
N4760 X82.137 Y-60.706
N4765 X82.186 Y-60.728
N4770 X82.239 Y-60.735
N4775 G3 X82.419 Y-60.476 I0. J0.192
N4780 G1 X82.395 Y-60.42
N4785 X82.373 Y-60.361
N4790 X82.371 Y-60.356
N4795 X82.37 Y-60.352
N4800 X82.364 Y-60.338
N4805 X82.279 Y-60.271
N4810 X82.172 Y-60.268
N4815 X82.085 Y-60.33
N4820 X82.051 Y-60.431
N4825 X82.055 Y-60.456
N4830 X82.063 Y-60.479
N4835 G3 X82.37 Y-60.352 I0.149 J0.074
N4840 G1 X82.361 Y-60.33
N4845 X82.352 Y-60.307
N4850 X82.339 Y-60.285
N4855 X82.335 Y-60.279
N4860 X82.324 Y-60.267
N4865 X82.312 Y-60.255
N4870 X82.301 Y-60.247
N4875 X82.289 Y-60.24
N4880 X82.267 Y-60.23
N4885 X82.245 Y-60.224
N4890 X82.222 Y-60.221
N4895 X82.2
N4900 X82.177 Y-60.223
N4905 X82.155 Y-60.229
N4910 X82.142 Y-60.233
N4915 X82.129 Y-60.24
N4920 X82.11 Y-60.252
N4925 X82.092 Y-60.269
N4930 X82.078 Y-60.285
N4935 X82.071 Y-60.297
N4940 X82.065 Y-60.309
N4945 X82.057 Y-60.33
N4950 X82.052 Y-60.352
N4955 X82.051 Y-60.375
N4960 Y-62.015
N4965 X82.06 Y-62.06
N4970 X82.081 Y-62.101
N4975 X82.114 Y-62.132
N4980 X82.155 Y-62.153
N4985 X82.201 Y-62.16
N4990 G3 X82.265 Y-61.874 I0. J0.15
N4995 G1 X82.237 Y-61.867 Z-0.497
N5000 X82.21 Y-61.86 Z-0.489
N5005 X82.201 Z-0.485
N5010 X82.168 Y-61.869 Z-0.461
N5015 X82.143 Y-61.877 Z-0.429
N5020 X82.127 Y-61.881 Z-0.391
N5025 X82.122 Y-61.883 Z-0.35
N5030 Z5.
N5035 X78.29 Y-63.302
N5040 Z2.15
N5045 Z2.
N5050 Z-1.
N5055 X78.302 Y-63.301
N5060 X78.303 Y-63.297
N5065 Y-63.294
N5070 X78.301 Y-63.286
N5075 X78.296 Y-63.281
N5080 X78.289 Y-63.278
N5085 X78.281
N5090 X78.274 Y-63.28
N5095 X78.268 Y-63.285
N5100 X78.258 Y-63.296
N5105 X78.255 Y-63.311
N5110 X78.259 Y-63.325
N5115 X78.268 Y-63.337
N5120 X78.281 Y-63.345
N5125 X78.296 Y-63.348
N5130 X78.311 Y-63.346
N5135 X78.325 Y-63.341
N5140 X78.337 Y-63.332
N5145 X78.346 Y-63.32
N5150 X78.352 Y-63.306
N5155 X78.354 Y-63.291
N5160 Y-63.276
N5165 X78.35 Y-63.262
N5170 X78.31 Y-63.232
N5175 X78.262 Y-63.244
N5180 X78.241 Y-63.289
N5185 Y-63.336
N5190 Y-63.35
N5195 X78.246 Y-63.365
N5200 X78.253 Y-63.378
N5205 X78.263 Y-63.389
N5210 X78.275 Y-63.398
N5215 X78.288 Y-63.405
N5220 X78.303 Y-63.41
N5225 X78.317 Y-63.413
N5230 X78.332
N5235 X78.347 Y-63.412
N5240 X78.362 Y-63.408
N5245 X78.376 Y-63.403
N5250 X78.389 Y-63.397
N5255 X78.402 Y-63.389
N5260 X78.414 Y-63.379
N5265 X78.424 Y-63.368
N5270 X78.433 Y-63.357
N5275 X78.441 Y-63.344
N5280 X78.448 Y-63.33
N5285 X78.453 Y-63.316
N5290 X78.456 Y-63.302
N5295 X78.458 Y-63.287
N5300 X78.459 Y-63.272
N5305 X78.458 Y-63.257
N5310 X78.419 Y-63.187
N5315 X78.342 Y-63.163
N5320 X78.27 Y-63.197
N5325 X78.241 Y-63.272
N5330 X78.252 Y-63.304 Z-0.993
N5335 X78.261 Y-63.331 Z-0.973
N5340 X78.267 Y-63.349 Z-0.944
N5345 X78.27 Y-63.355 Z-0.91
N5350 Z5.
N5355 X78.241 Y-63.336
N5360 Z2.15
N5365 Z2.
N5370 Z-1. F12.
N5375 Y-63.397 F48.
N5380 Y-63.412
N5385 X78.245 Y-63.427
N5390 X78.251 Y-63.44
N5395 X78.259 Y-63.453
N5400 X78.268 Y-63.465
N5405 X78.279 Y-63.475
N5410 X78.291 Y-63.484
N5415 X78.304 Y-63.492
N5420 X78.317 Y-63.499
N5425 X78.331 Y-63.504
N5430 G3 X78.581 Y-63.414 I0.063 J0.215
N5435 G1 X78.593 Y-63.396
N5440 X78.605 Y-63.375
N5445 X78.614 Y-63.353
N5450 X78.622 Y-63.331
N5455 X78.627 Y-63.31
N5460 X78.631 Y-63.289
N5465 X78.633 Y-63.268
N5470 Y-63.248
N5475 X78.632 Y-63.229
N5480 X78.581 Y-63.125
N5485 X78.481 Y-63.067
N5490 X78.365 Y-63.076
N5495 X78.275 Y-63.148
N5500 X78.241 Y-63.259
N5505 X78.249 Y-63.305 Z-0.96
N5510 X78.272 Y-63.346 Z-0.92
N5515 X78.306 Y-63.378 Z-0.88
N5520 X78.349 Y-63.397 Z-0.84
N5525 X78.396 Y-63.403 Z-0.8
N5530 G3 X78.433 Y-63.11 I-0.005 J0.15
N5535 G1 X78.46 Y-63.109
N5540 X78.414 Y-63.128
N5545 X78.371 Y-63.154
N5550 X78.333 Y-63.186
N5555 X78.295 Y-63.232 Z-0.85
N5560 X78.266 Y-63.283 Z-0.9
N5565 X78.248 Y-63.339 Z-0.95
N5570 X78.241 Y-63.397 Z-1.
N5575 Y-63.48
N5580 Y-63.487
N5585 Y-63.491
N5590 Y-63.494
N5595 X78.242 Y-63.509
N5600 X78.246 Y-63.523
N5605 X78.251 Y-63.537
N5610 X78.258 Y-63.551
N5615 X78.266 Y-63.563
N5620 X78.275 Y-63.576
N5625 X78.286 Y-63.589
N5630 X78.298 Y-63.601
N5635 X78.312 Y-63.613
N5640 X78.328 Y-63.625
N5645 X78.346 Y-63.635
N5650 X78.388 Y-63.653
N5655 X78.432 Y-63.663
N5660 X78.477 Y-63.667
N5665 X78.522 Y-63.659 Z-0.961
N5670 X78.564 Y-63.642 Z-0.923
N5675 X78.6 Y-63.615 Z-0.884
N5680 X78.629 Y-63.58 Z-0.846
N5685 X78.648 Y-63.539 Z-0.807
N5690 X78.651 Y-63.531 Z-0.8
N5695 X78.658 Y-63.49
N5700 X78.656 Y-63.448
N5705 X78.644 Y-63.408
N5710 X78.624 Y-63.372
N5715 X78.591 Y-63.334
N5720 X78.549 Y-63.306
N5725 X78.502 Y-63.288
N5730 X78.452 Y-63.282
N5735 X78.404 Y-63.287
N5740 X78.359 Y-63.304
N5745 X78.319 Y-63.329 Z-0.84
N5750 X78.286 Y-63.362 Z-0.88
N5755 X78.261 Y-63.402 Z-0.92
N5760 X78.246 Y-63.447 Z-0.96
N5765 X78.241 Y-63.494 Z-1.
N5770 X78.242 Y-63.525
N5775 X78.248 Y-63.547
N5780 X78.257 Y-63.57
N5785 X78.269 Y-63.589
N5790 X78.285 Y-63.608
N5795 X78.29 Y-63.615
N5800 X78.31 Y-63.634
N5805 X78.33 Y-63.647
N5810 X78.344 Y-63.654
N5815 X78.359 Y-63.66
N5820 X78.375 Y-63.664
N5825 X78.397 Y-63.666
N5830 X78.42 Y-63.667
N5835 X78.489
N5840 G3 X78.858 Y-63.396 I-0.008 J0.398
N5845 G1 X78.875 Y-63.266
N5850 X78.843 Y-63.139
N5855 X78.766 Y-63.033
N5860 X78.655 Y-62.963
N5865 X78.526 Y-62.938
N5870 X78.42
N5875 X78.381 Y-62.94
N5880 X78.375 Y-62.941
N5885 X78.352 Y-62.947
N5890 X78.33 Y-62.957
N5895 X78.312 Y-62.969
N5900 X78.294 Y-62.985
N5905 X78.285 Y-62.994
N5910 X78.269 Y-63.012
N5915 X78.258 Y-63.03
N5920 X78.248 Y-63.052
N5925 X78.243 Y-63.075
N5930 X78.241 Y-63.12
N5935 Y-63.259
N5940 X78.253 Y-63.382
N5945 X78.28 Y-63.504
N5950 G3 X78.489 Y-63.667 I0.217 J0.063
N5955 G1 X78.759
N5960 X78.789 Y-63.665
N5965 X78.813 Y-63.662
N5970 G3 X79.053 Y-63.496 I-0.077 J0.368
N5975 G1 X79.075 Y-63.461
N5980 X79.093 Y-63.426
N5985 X79.095 Y-63.423
N5990 X79.122 Y-63.289
N5995 X79.095 Y-63.155
N6000 X79.02 Y-63.041
N6005 X78.906 Y-62.965
N6010 X78.772 Y-62.938
N6015 X78.526
N6020 X78.48 Y-62.947 Z-0.96
N6025 X78.439 Y-62.97 Z-0.92
N6030 X78.407 Y-63.004 Z-0.88
N6035 X78.387 Y-63.046 Z-0.84
N6040 X78.381 Y-63.093 Z-0.8
N6045 X78.387 Y-63.127
N6050 X78.4 Y-63.16
N6055 X78.595 Y-63.518
N6060 X78.633 Y-63.588 Z-0.868
N6065 X78.656 Y-63.62 Z-0.901
N6070 X78.686 Y-63.644 Z-0.934
N6075 X78.721 Y-63.66 Z-0.967
N6080 X78.759 Y-63.667 Z-1.
N6085 X79.005
N6090 X79.036 Y-63.665
N6095 G3 X79.276 Y-63.526 I-0.047 J0.357
N6100 G1 X79.301 Y-63.493
N6105 X79.321 Y-63.46
N6110 X79.338 Y-63.427
N6115 X79.34 Y-63.423
N6120 X79.367 Y-63.289
N6125 X79.341 Y-63.155
N6130 X79.265 Y-63.041
N6135 X79.151 Y-62.965
N6140 X79.017 Y-62.938
N6145 X78.772
N6150 X78.726 Y-62.947 Z-0.96
N6155 X78.685 Y-62.97 Z-0.92
N6160 X78.653 Y-63.004 Z-0.88
N6165 X78.633 Y-63.046 Z-0.84
N6170 X78.627 Y-63.093 Z-0.8
N6175 X78.632 Y-63.127
N6180 X78.645 Y-63.159
N6185 X78.84 Y-63.518
N6190 X78.878 Y-63.588 Z-0.868
N6195 X78.901 Y-63.62 Z-0.901
N6200 X78.931 Y-63.644 Z-0.934
N6205 X78.966 Y-63.66 Z-0.967
N6210 X79.005 Y-63.667 Z-1.
N6215 X79.254
N6220 X79.281 Y-63.665
N6225 G3 X79.521 Y-63.526 I-0.047 J0.358
N6230 G1 X79.546 Y-63.493
N6235 X79.567 Y-63.46
N6240 X79.584 Y-63.427
N6245 X79.586 Y-63.423
N6250 X79.613 Y-63.289
N6255 X79.586 Y-63.155
N6260 X79.51 Y-63.041
N6265 X79.397 Y-62.965
N6270 X79.263 Y-62.938
N6275 X79.017
N6280 X78.971 Y-62.947 Z-0.96
N6285 X78.93 Y-62.97 Z-0.92
N6290 X78.898 Y-63.004 Z-0.88
N6295 X78.878 Y-63.046 Z-0.84
N6300 X78.872 Y-63.093 Z-0.8
N6305 X78.873 Y-63.096
N6310 X78.878 Y-63.129
N6315 X78.891 Y-63.16
N6320 X79.089 Y-63.518
N6325 X79.128 Y-63.589 Z-0.869
N6330 X79.151 Y-63.62 Z-0.902
N6335 X79.181 Y-63.644 Z-0.934
N6340 X79.216 Y-63.66 Z-0.967
N6345 X79.254 Y-63.667 Z-1.
N6350 X79.5
N6355 X79.527 Y-63.665
N6360 G3 X79.767 Y-63.526 I-0.047 J0.358
N6365 G1 X79.792 Y-63.493
N6370 X79.812 Y-63.46
N6375 X79.829 Y-63.427
N6380 X79.831 Y-63.423
N6385 X79.858 Y-63.289
N6390 X79.832 Y-63.155
N6395 X79.756 Y-63.041
N6400 X79.642 Y-62.965
N6405 X79.508 Y-62.938
N6410 X79.263
N6415 X79.217 Y-62.947 Z-0.96
N6420 X79.176 Y-62.97 Z-0.92
N6425 X79.144 Y-63.004 Z-0.88
N6430 X79.124 Y-63.046 Z-0.84
N6435 X79.118 Y-63.093 Z-0.8
N6440 Y-63.096
N6445 X79.124 Y-63.129
N6450 X79.137 Y-63.16
N6455 X79.334 Y-63.518
N6460 X79.374 Y-63.589 Z-0.869
N6465 X79.396 Y-63.62 Z-0.901
N6470 X79.426 Y-63.644 Z-0.934
N6475 X79.462 Y-63.66 Z-0.967
N6480 X79.5 Y-63.667 Z-1.
N6485 X79.749
N6490 X79.772 Y-63.665
N6495 G3 X80.013 Y-63.526 I-0.047 J0.358
N6500 G1 X80.037 Y-63.493
N6505 X80.058 Y-63.46
N6510 X80.075 Y-63.428
N6515 X80.077 Y-63.423
N6520 X80.104 Y-63.289
N6525 X80.077 Y-63.155
N6530 X80.002 Y-63.041
N6535 X79.888 Y-62.965
N6540 X79.754 Y-62.938
N6545 X79.508
N6550 X79.462 Y-62.947 Z-0.96
N6555 X79.421 Y-62.97 Z-0.92
N6560 X79.389 Y-63.004 Z-0.88
N6565 X79.369 Y-63.046 Z-0.84
N6570 X79.364 Y-63.093 Z-0.8
N6575 Y-63.098
N6580 X79.37 Y-63.131
N6585 X79.383 Y-63.161
N6590 X79.584 Y-63.519
N6595 X79.624 Y-63.59 Z-0.87
N6600 X79.647 Y-63.621 Z-0.902
N6605 X79.677 Y-63.645 Z-0.935
N6610 X79.712 Y-63.66 Z-0.967
N6615 X79.749 Y-63.667 Z-1.
N6620 X79.995
N6625 X80.018 Y-63.665
N6630 G3 X80.258 Y-63.526 I-0.047 J0.358
N6635 G1 X80.283 Y-63.493
N6640 X80.304 Y-63.46
N6645 X80.32 Y-63.428
N6650 X80.322 Y-63.423
N6655 X80.349 Y-63.289
N6660 X80.323 Y-63.155
N6665 X80.247 Y-63.041
N6670 X80.134 Y-62.965
N6675 X79.999 Y-62.938
N6680 X79.754
N6685 X79.708 Y-62.947 Z-0.96
N6690 X79.667 Y-62.97 Z-0.92
N6695 X79.635 Y-63.004 Z-0.88
N6700 X79.615 Y-63.046 Z-0.84
N6705 X79.609 Y-63.093 Z-0.8
N6710 Y-63.098
N6715 X79.615 Y-63.131
N6720 X79.628 Y-63.161
N6725 X79.829 Y-63.519
N6730 X79.869 Y-63.59 Z-0.87
N6735 X79.892 Y-63.621 Z-0.902
N6740 X79.922 Y-63.645 Z-0.935
N6745 X79.957 Y-63.66 Z-0.967
N6750 X79.995 Y-63.667 Z-1.
N6755 X80.244
N6760 X80.263 Y-63.666
N6765 G3 X80.504 Y-63.526 I-0.047 J0.358
N6770 G1 X80.529 Y-63.493
N6775 X80.549 Y-63.46
N6780 X80.566 Y-63.428
N6785 X80.568 Y-63.423
N6790 X80.595 Y-63.289
N6795 X80.569 Y-63.155
N6800 X80.493 Y-63.041
N6805 X80.379 Y-62.965
N6810 X80.245 Y-62.938
N6815 X79.999
N6820 X79.953 Y-62.947 Z-0.96
N6825 X79.912 Y-62.97 Z-0.92
N6830 X79.88 Y-63.004 Z-0.88
N6835 X79.861 Y-63.046 Z-0.84
N6840 X79.855 Y-63.093 Z-0.8
N6845 Y-63.1
N6850 X79.861 Y-63.132
N6855 X79.874 Y-63.162
N6860 X80.078 Y-63.519
N6865 X80.119 Y-63.591 Z-0.87
N6870 X80.142 Y-63.621 Z-0.903
N6875 X80.172 Y-63.645 Z-0.935
N6880 X80.207 Y-63.66 Z-0.968
N6885 X80.244 Y-63.667 Z-1.
N6890 X80.49
N6895 X80.509 Y-63.666
N6900 G3 X80.75 Y-63.526 I-0.047 J0.358
N6905 G1 X80.774 Y-63.493
N6910 X80.795 Y-63.46
N6915 X80.812 Y-63.428
N6920 X80.814 Y-63.423
N6925 X80.841 Y-63.289
N6930 X80.814 Y-63.155
N6935 X80.739 Y-63.041
N6940 X80.625 Y-62.965
N6945 X80.491 Y-62.938
N6950 X80.245
N6955 X80.199 Y-62.947 Z-0.96
N6960 X80.158 Y-62.97 Z-0.92
N6965 X80.126 Y-63.004 Z-0.88
N6970 X80.106 Y-63.046 Z-0.84
N6975 X80.1 Y-63.093 Z-0.8
N6980 X80.101 Y-63.1
N6985 X80.107 Y-63.132
N6990 X80.12 Y-63.162
N6995 X80.323 Y-63.519
N7000 X80.365 Y-63.591 Z-0.87
N7005 X80.387 Y-63.621 Z-0.903
N7010 X80.417 Y-63.645 Z-0.935
N7015 X80.452 Y-63.66 Z-0.968
N7020 X80.49 Y-63.667 Z-1.
N7025 X80.739
N7030 X80.755 Y-63.666
N7035 G3 X80.995 Y-63.526 I-0.047 J0.358
N7040 G1 X81.02 Y-63.494
N7045 X81.041 Y-63.46
N7050 X81.058 Y-63.428
N7055 X81.06 Y-63.423
N7060 X81.087 Y-63.289
N7065 X81.06 Y-63.155
N7070 X80.984 Y-63.041
N7075 X80.871 Y-62.965
N7080 X80.737 Y-62.938
N7085 X80.491
N7090 X80.445 Y-62.947 Z-0.96
N7095 X80.404 Y-62.97 Z-0.92
N7100 X80.372 Y-63.004 Z-0.88
N7105 X80.352 Y-63.046 Z-0.84
N7110 X80.346 Y-63.093 Z-0.8
N7115 X80.347 Y-63.102
N7120 X80.353 Y-63.133
N7125 X80.366 Y-63.163
N7130 X80.573 Y-63.519
N7135 X80.615 Y-63.592 Z-0.871
N7140 X80.638 Y-63.622 Z-0.903
N7145 X80.667 Y-63.645 Z-0.936
N7150 X80.702 Y-63.66 Z-0.968
N7155 X80.739 Y-63.667 Z-1.
N7160 X80.985
N7165 X81.001 Y-63.666
N7170 G3 X81.241 Y-63.526 I-0.047 J0.358
N7175 G1 X81.266 Y-63.494
N7180 X81.286 Y-63.46
N7185 X81.303 Y-63.428
N7190 X81.305 Y-63.423
N7195 X81.332 Y-63.289
N7200 X81.306 Y-63.155
N7205 X81.23 Y-63.041
N7210 X81.117 Y-62.965
N7215 X80.982 Y-62.938
N7220 X80.737
N7225 X80.691 Y-62.947 Z-0.96
N7230 X80.65 Y-62.97 Z-0.92
N7235 X80.618 Y-63.004 Z-0.88
N7240 X80.598 Y-63.046 Z-0.84
N7245 X80.592 Y-63.093 Z-0.8
N7250 X80.593 Y-63.102
N7255 X80.599 Y-63.133
N7260 X80.612 Y-63.163
N7265 X80.818 Y-63.519
N7270 X80.86 Y-63.592 Z-0.871
N7275 X80.883 Y-63.622 Z-0.903
N7280 X80.913 Y-63.645 Z-0.936
N7285 X80.947 Y-63.66 Z-0.968
N7290 X80.985 Y-63.667 Z-1.
N7295 X81.223
N7300 X81.247 Y-63.665
N7305 G3 X81.487 Y-63.526 I-0.047 J0.358
N7310 G1 X81.512 Y-63.493
N7315 X81.532 Y-63.46
N7320 X81.549 Y-63.428
N7325 X81.551 Y-63.423
N7330 X81.577 Y-63.312
N7335 X81.566 Y-63.198
N7340 X81.519 Y-63.094
N7345 X81.441 Y-63.01
N7350 X81.34 Y-62.956
N7355 X81.228 Y-62.938
N7360 X80.982
N7365 X80.936 Y-62.947 Z-0.96
N7370 X80.895 Y-62.97 Z-0.92
N7375 X80.863 Y-63.004 Z-0.88
N7380 X80.844 Y-63.046 Z-0.84
N7385 X80.838 Y-63.093 Z-0.8
N7390 Y-63.098
N7395 X80.844 Y-63.131
N7400 X80.857 Y-63.161
N7405 X81.058 Y-63.519
N7410 X81.098 Y-63.59 Z-0.87
N7415 X81.12 Y-63.621 Z-0.902
N7420 X81.15 Y-63.645 Z-0.935
N7425 X81.185 Y-63.66 Z-0.967
N7430 X81.223 Y-63.667 Z-1.
N7435 X81.459
N7440 G3 X81.712 Y-63.549 I-0.006 J0.343
N7445 G1 X81.737 Y-63.522
N7450 X81.758 Y-63.493
N7455 X81.776 Y-63.465
N7460 X81.793 Y-63.432
N7465 X81.81 Y-63.392
N7470 X81.814 Y-63.38
N7475 X81.831 Y-63.262
N7480 X81.807 Y-63.146
N7485 X81.746 Y-63.043
N7490 X81.655 Y-62.968
N7495 X81.543 Y-62.927
N7500 X81.424 Y-62.926
N7505 X81.384 Y-62.94 Z-0.964
N7510 X81.35 Y-62.964 Z-0.929
N7515 X81.324 Y-62.997 Z-0.893
N7520 X81.308 Y-63.035 Z-0.858
N7525 X81.303 Y-63.077 Z-0.822
N7530 X81.304 Y-63.103 Z-0.8
N7535 X81.314 Y-63.511
N7540 X81.315 Y-63.52 Z-0.808
N7545 X81.323 Y-63.565 Z-0.846
N7550 X81.343 Y-63.605 Z-0.885
N7555 X81.375 Y-63.637 Z-0.923
N7560 X81.415 Y-63.658 Z-0.962
N7565 X81.459 Y-63.667 Z-1.
N7570 X81.705
N7575 X81.738 Y-63.665
N7580 G3 X81.965 Y-63.548 I-0.043 J0.361
N7585 X82.096 Y-63.26 I-0.352 J0.333
N7590 G1 X82.099 Y-63.219
N7595 Y-63.178
N7600 X82.098 Y-63.161
N7605 X82.061 Y-63.032
N7610 X81.979 Y-62.927
N7615 X81.863 Y-62.86
N7620 X81.731 Y-62.841
N7625 X81.601 Y-62.874
N7630 X81.565 Y-62.899 Z-0.962
N7635 X81.538 Y-62.934 Z-0.925
N7640 X81.522 Y-62.975 Z-0.887
N7645 X81.52 Y-63.019 Z-0.85
N7650 X81.522 Y-63.046 Z-0.827
N7655 X81.524 Y-63.078 Z-0.8
N7660 X81.559 Y-63.512
N7665 X81.56 Y-63.529 Z-0.815
N7670 X81.57 Y-63.571 Z-0.852
N7675 X81.591 Y-63.609 Z-0.889
N7680 X81.623 Y-63.639 Z-0.926
N7685 X81.662 Y-63.659 Z-0.963
N7690 X81.705 Y-63.667 Z-1.
N7695 X81.975
N7700 X81.992 Y-63.666
N7705 X82.054 Y-63.653
N7710 X82.113 Y-63.631
N7715 X82.168 Y-63.599
N7720 X82.218 Y-63.559
N7725 G3 X82.393 Y-63.165 I-0.37 J0.401
N7730 X82.335 Y-62.883 I-0.586 J0.025
N7735 G1 X82.261 Y-62.775
N7740 X82.153 Y-62.701
N7745 X82.025 Y-62.672
N7750 X81.896 Y-62.693
N7755 X81.783 Y-62.76
N7760 X81.754 Y-62.798 Z-0.959
N7765 X81.738 Y-62.843 Z-0.918
N7770 X81.737 Y-62.891 Z-0.877
N7775 X81.75 Y-62.981 Z-0.8
N7780 X81.759 Y-63.04
N7785 X81.827 Y-63.512
N7790 X81.831 Y-63.538 Z-0.823
N7795 X81.843 Y-63.578 Z-0.858
N7800 X81.865 Y-63.613 Z-0.894
N7805 X81.896 Y-63.641 Z-0.929
N7810 X81.934 Y-63.659 Z-0.965
N7815 X81.975 Y-63.667 Z-1.
N7820 X82.245
N7825 G3 X82.48 Y-63.577 I-0.018 J0.401
N7830 X82.679 Y-63.3 I-0.369 J0.475
N7835 X82.598 Y-62.636 I-0.684 J0.254
N7840 G1 X82.561 Y-62.587
N7845 X82.52 Y-62.541
N7850 X82.479 Y-62.502
N7855 X82.462 Y-62.488
N7860 X82.358 Y-62.43
N7865 X82.24 Y-62.41
N7870 X82.122 Y-62.43
N7875 X82.018 Y-62.489
N7880 X81.94 Y-62.58
N7885 X81.926 Y-62.615 Z-0.968
N7890 X81.921 Y-62.652 Z-0.936
N7895 Y-62.653 Z-0.935
N7900 X81.924 Y-62.683 Z-0.909
N7905 X81.95 Y-62.809 Z-0.8
N7910 X81.999 Y-63.045
N7915 X82.096 Y-63.512
N7920 X82.103 Y-63.547 Z-0.83
N7925 X82.116 Y-63.585 Z-0.864
N7930 X82.139 Y-63.617 Z-0.898
N7935 X82.169 Y-63.643 Z-0.932
N7940 X82.205 Y-63.66 Z-0.966
N7945 X82.245 Y-63.667 Z-1.
N7950 X82.539
N7955 X82.564 Y-63.665
N7960 G3 X82.803 Y-63.565 I-0.053 J0.462
N7965 X83.007 Y-63.306 I-0.418 J0.539
N7970 X83.086 Y-62.896 I-0.787 J0.363
N7975 X82.917 Y-62.394 I-0.954 J-0.041
N7980 X82.625 Y-62.135 I-0.685 J-0.479
N7985 G1 X82.562 Y-62.105
N7990 X82.503 Y-62.083
N7995 X82.448 Y-62.067
N8000 X82.447
N8005 X82.335 Y-62.063
N8010 X82.228 Y-62.094
N8015 X82.136 Y-62.157
N8020 X82.068 Y-62.246
N8025 X82.032 Y-62.351
N8030 Y-62.384 Z-0.972
N8035 X82.038 Y-62.417 Z-0.944
N8040 X82.089 Y-62.578 Z-0.8
N8045 X82.233 Y-63.032
N8050 X82.242 Y-63.059
N8055 X82.386 Y-63.513
N8060 X82.402 Y-63.562 Z-0.843
N8065 X82.422 Y-63.603 Z-0.883
N8070 X82.454 Y-63.636 Z-0.922
N8075 X82.494 Y-63.658 Z-0.961
N8080 X82.539 Y-63.667 Z-1.
N8085 X82.854
N8090 G3 X83.113 Y-63.583 I-0.011 J0.477
N8095 X83.318 Y-63.379 I-0.385 J0.593
N8100 X83.442 Y-63.109 I-0.757 J0.512
N8105 G1 X83.461 Y-63.028
N8110 X83.475 Y-62.943
N8115 X83.481 Y-62.855
N8120 G3 X83.433 Y-62.483 I-1.175 J0.038
N8125 X83.264 Y-62.131 I-1.171 J-0.345
N8130 G1 X83.205 Y-62.052
N8135 X83.139 Y-61.978
N8140 X83.068 Y-61.911
N8145 G3 X82.789 Y-61.734 I-0.694 J-0.788
N8150 X82.514 Y-61.666 I-0.355 J-0.841
N8155 G1 X82.444 Y-61.663
N8160 X82.374 Y-61.666
N8165 X82.358 Y-61.668
N8170 X82.238 Y-61.706
N8175 X82.139 Y-61.783
N8180 X82.074 Y-61.891
N8185 X82.051 Y-62.015
N8190 Y-62.175
N8195 X82.055 Y-62.206 Z-0.973
N8200 X82.066 Y-62.235 Z-0.947
N8205 X82.142 Y-62.39 Z-0.8
N8210 X82.351 Y-62.818
N8215 X82.483 Y-63.089
N8220 X82.693 Y-63.517
N8225 X82.725 Y-63.582 Z-0.862
N8230 X82.747 Y-63.616 Z-0.897
N8235 X82.778 Y-63.642 Z-0.931
N8240 X82.814 Y-63.66 Z-0.966
N8245 X82.854 Y-63.667 Z-1.
N8250 X83.214
N8255 X83.242 Y-63.665
N8260 G3 X83.485 Y-63.576 I-0.059 J0.537
N8265 X83.672 Y-63.406 I-0.419 J0.647
N8270 X83.829 Y-63.125 I-0.786 J0.625
N8275 G1 X83.858 Y-63.037
N8280 X83.881 Y-62.942
N8285 X83.897 Y-62.84
N8290 X83.905 Y-62.736
N8295 X83.904 Y-62.627
N8300 X83.894 Y-62.514
N8305 X83.875 Y-62.399
N8310 X83.864 Y-62.355
N8315 X83.835 Y-62.278
N8320 X83.788 Y-62.21
N8325 X83.727 Y-62.155
N8330 X83.684 Y-62.136 Z-0.96
N8335 X83.638 Y-62.131 Z-0.92
N8340 X83.592 Y-62.14 Z-0.88
N8345 X83.551 Y-62.163 Z-0.84
N8350 X83.519 Y-62.198 Z-0.8
N8355 X83.503 Y-62.232
N8360 X83.36 Y-62.647
N8365 X83.218 Y-63.059
N8370 X83.078 Y-63.468
N8375 X83.07 Y-63.511
N8380 X83.075 Y-63.558 Z-0.84
N8385 X83.095 Y-63.601 Z-0.88
N8390 X83.127 Y-63.635 Z-0.92
N8395 X83.168 Y-63.658 Z-0.96
N8400 X83.214 Y-63.667 Z-1.
N8405 X83.594
N8410 X83.678 Y-63.656
N8415 X83.758 Y-63.633
N8420 X83.834 Y-63.598
N8425 G3 X84.037 Y-63.44 I-0.374 J0.693
N8430 G1 X84.088 Y-63.382
N8435 X84.138 Y-63.314
N8440 X84.184 Y-63.241
N8445 X84.227 Y-63.157
N8450 X84.266 Y-63.063
N8455 X84.299 Y-62.964
N8460 X84.325 Y-62.856
N8465 X84.34 Y-62.757
N8470 Y-62.756
N8475 X84.325 Y-62.625
N8480 X84.262 Y-62.508
N8485 X84.16 Y-62.424
N8490 X84.116 Y-62.409 Z-0.96
N8495 X84.069 Z-0.92
N8500 X84.025 Y-62.424 Z-0.88
N8505 X83.987 Y-62.451 Z-0.84
N8510 X83.959 Y-62.489 Z-0.801
N8515 Z-0.8
N8520 X83.741 Y-62.913
N8525 X83.654 Y-63.083
N8530 X83.466 Y-63.448
N8535 X83.455 Y-63.479
N8540 X83.45 Y-63.511
N8545 X83.456 Y-63.558 Z-0.84
N8550 X83.475 Y-63.601 Z-0.88
N8555 X83.507 Y-63.635 Z-0.92
N8560 X83.548 Y-63.658 Z-0.96
N8565 X83.594 Y-63.667 Z-1.
N8570 X83.979
N8575 G3 X84.25 Y-63.592 I-0.012 J0.575
N8580 X84.47 Y-63.421 I-0.405 J0.749
N8585 X84.68 Y-63.086 I-0.7 J0.671
N8590 G1 X84.702 Y-63.019
N8595 X84.709 Y-62.987
N8600 X84.717 Y-62.864
N8605 X84.681 Y-62.746
N8610 X84.607 Y-62.648
N8615 X84.503 Y-62.582
N8620 X84.462 Y-62.573 Z-0.964
N8625 X84.42 Y-62.575 Z-0.929
N8630 X84.381 Y-62.589 Z-0.893
N8635 X84.347 Y-62.614 Z-0.858
N8640 X84.321 Y-62.647 Z-0.822
N8645 X84.308 Y-62.669 Z-0.8
N8650 X84.067 Y-63.08
N8655 X84.059 Y-63.094
N8660 X83.855 Y-63.441
N8665 X83.84 Y-63.475
N8670 X83.835 Y-63.511
N8675 X83.84 Y-63.558 Z-0.84
N8680 X83.86 Y-63.601 Z-0.88
N8685 X83.892 Y-63.635 Z-0.92
N8690 X83.933 Y-63.658 Z-0.96
N8695 X83.979 Y-63.667 Z-1.
N8700 X84.404
N8705 G3 X84.673 Y-63.592 I-0.015 J0.577
N8710 X85.05 Y-63.122 I-0.365 J0.679
N8715 G1 X85.053 Y-63.109
N8720 X85.059 Y-62.976
N8725 X85.015 Y-62.851
N8730 X84.927 Y-62.751
N8735 X84.809 Y-62.691
N8740 X84.77 Y-62.686 Z-0.966
N8745 X84.731 Y-62.692 Z-0.932
N8750 X84.694 Y-62.709 Z-0.899
N8755 X84.664 Y-62.734 Z-0.865
N8760 X84.64 Y-62.766 Z-0.831
N8765 X84.623 Y-62.798 Z-0.8
N8770 X84.47 Y-63.086
N8775 X84.277 Y-63.446
N8780 X84.265 Y-63.478
N8785 X84.26 Y-63.511
N8790 X84.266 Y-63.558 Z-0.84
N8795 X84.285 Y-63.601 Z-0.88
N8800 X84.317 Y-63.635 Z-0.92
N8805 X84.358 Y-63.658 Z-0.96
N8810 X84.404 Y-63.667 Z-1.
N8815 X84.809
N8820 X84.823
N8825 X84.828
N8830 X84.849 Y-63.665
N8835 X84.852
N8840 X84.971 Y-63.627
N8845 X85.07 Y-63.549
N8850 X85.134 Y-63.441
N8855 X85.157 Y-63.318
N8860 X85.149 Y-63.26 Z-0.95
N8865 X85.131 Y-63.204 Z-0.9
N8870 X85.103 Y-63.152 Z-0.85
N8875 X85.066 Y-63.106 Z-0.8
N8880 G3 X84.736 Y-63.026 I-0.229 J-0.223
N8885 X84.615 Y-63.578 I0.103 J-0.312
N8890 G1 X84.662 Y-63.614 Z-0.85
N8895 X84.714 Y-63.642 Z-0.9
N8900 X84.77 Y-63.659 Z-0.95
N8905 X84.828 Y-63.667 Z-1.
N8910 X84.989 Y-63.666
N8915 X85.011 Y-63.665
N8920 X85.033 Y-63.66
N8925 X85.034 Y-63.659
N8930 X85.057 Y-63.65
N8935 X85.068 Y-63.643
N8940 X85.079 Y-63.635
N8945 X85.105 Y-63.615
N8950 X85.116 Y-63.604
N8955 X85.124 Y-63.594
N8960 X85.133 Y-63.582
N8965 X85.14 Y-63.57
N8970 X85.149 Y-63.547
N8975 X85.155 Y-63.525
N8980 X85.157 Y-63.48
N8985 Y-62.94
N8990 X85.156 Y-62.895
N8995 X85.151 Y-62.872
N9000 X85.143 Y-62.85
N9005 X85.135 Y-62.834
N9010 X85.124 Y-62.819
N9015 X85.112 Y-62.805
N9020 X85.096 Y-62.791
N9025 X85.079 Y-62.779
N9030 X85.062 Y-62.768
N9035 X85.045 Y-62.76
N9040 G2 X84.674 Y-62.651 I7.699 J26.88
N9045 X84.286 Y-62.49 I3.043 J7.889
N9050 G1 X84.269 Y-62.482
N9055 X84.224 Y-62.459
N9060 X83.954 Y-62.31
N9065 X83.909 Y-62.282
N9070 X83.881 Y-62.265
N9075 G2 X83.567 Y-62.04 I8.561 J12.314
N9080 X83.234 Y-61.74 I5.838 J6.812
N9085 G1 X83.14 Y-61.635
N9090 X83.06 Y-61.545
N9095 G3 X82.411 Y-61.283 I-0.613 J-0.584
N9100 G1 X82.344 Y-61.289
N9105 X82.341 Y-61.29
N9110 X82.227 Y-61.331
N9115 X82.133 Y-61.409
N9120 X82.072 Y-61.515
N9125 X82.051 Y-61.635
N9130 X82.06 Y-61.679 Z-0.961
N9135 X82.081 Y-61.719 Z-0.923
N9140 X82.113 Y-61.751 Z-0.884
N9145 X82.154 Y-61.772 Z-0.845
N9150 X82.199 Y-61.779 Z-0.806
N9155 X82.206 Y-61.78 Z-0.8
N9160 X82.572 Y-61.785
N9165 X82.942 Y-61.791
N9170 X82.978 Y-61.787
N9175 X83.011 Y-61.775
N9180 X83.041 Y-61.756
N9185 X83.072 Y-61.721 Z-0.84
N9190 X83.09 Y-61.677 Z-0.88
N9195 X83.094 Y-61.631 Z-0.92
N9200 X83.084 Y-61.585 Z-0.96
N9205 X83.06 Y-61.545 Z-1.
N9210 X83.02 Y-61.5
N9215 X82.981 Y-61.455
N9220 G2 X82.801 Y-61.205 I5.039 J3.819
N9225 G3 X82.527 Y-61.014 I-0.418 J-0.31
N9230 G1 X82.484 Y-61.003
N9235 X82.442 Y-60.995
N9240 X82.436 Y-60.994
N9245 X82.32 Y-61.002
N9250 X82.213 Y-61.048
N9255 X82.126 Y-61.126
N9260 X82.07 Y-61.228
N9265 X82.051 Y-61.343
N9270 X82.06 Y-61.389 Z-0.96
N9275 X82.083 Y-61.43 Z-0.92
N9280 X82.117 Y-61.462 Z-0.88
N9285 X82.16 Y-61.481 Z-0.84
N9290 X82.206 Y-61.487 Z-0.8
N9295 X82.217 Y-61.486
N9300 X82.289 Y-61.479
N9305 X82.691 Y-61.437
N9310 X82.726 Y-61.429
N9315 X82.758 Y-61.413
N9320 X82.793 Y-61.381 Z-0.84
N9325 X82.816 Y-61.34 Z-0.88
N9330 X82.826 Y-61.294 Z-0.92
N9335 X82.82 Y-61.248 Z-0.96
N9340 X82.801 Y-61.205 Z-1.
N9345 X82.755 Y-61.14
N9350 X82.726 Y-61.095
N9355 X82.7 Y-61.05
N9360 X82.65 Y-60.96
N9365 X82.632 Y-60.931
N9370 X82.532 Y-60.842
N9375 X82.405 Y-60.802
N9380 X82.272 Y-60.816
N9385 X82.157 Y-60.883
N9390 X82.079 Y-60.992
N9395 X82.051 Y-61.122
N9400 X82.06 Y-61.168 Z-0.96
N9405 X82.083 Y-61.209 Z-0.92
N9410 X82.117 Y-61.241 Z-0.88
N9415 X82.16 Y-61.261 Z-0.84
N9420 X82.206 Y-61.267 Z-0.8
N9425 X82.242 Y-61.261
N9430 X82.557 Y-61.172
N9435 X82.584 Y-61.161
N9440 X82.622 Y-61.134 Z-0.84
N9445 X82.65 Y-61.096 Z-0.88
N9450 X82.664 Y-61.051 Z-0.92
N9455 Y-61.004 Z-0.96
N9460 X82.65 Y-60.96 Z-1.
N9465 X82.6 Y-60.87
N9470 X82.575 Y-60.825
N9475 X82.544 Y-60.766
N9480 X82.535 Y-60.751
N9485 X82.433 Y-60.666
N9490 X82.303 Y-60.64
N9495 X82.176 Y-60.681
N9500 X82.084 Y-60.778
N9505 X82.051 Y-60.907
N9510 X82.06 Y-60.962 Z-0.952
N9515 X82.082 Y-61.013 Z-0.905
N9520 X82.119 Y-61.063 Z-0.852
N9525 X82.166 Y-61.102 Z-0.8
N9530 G3 X82.546 Y-60.994 I0.142 J0.22
N9535 G1 X82.565 Y-60.938 Z-0.85
N9540 X82.571 Y-60.88 Z-0.9
N9545 X82.564 Y-60.821 Z-0.95
N9550 X82.544 Y-60.766 Z-1.
N9555 X82.527 Y-60.735
N9560 X82.515 Y-60.707
N9565 X82.478 Y-60.62
N9570 X82.471 Y-60.605
N9575 X82.464 Y-60.592
N9580 X82.455 Y-60.58
N9585 X82.446 Y-60.568
N9590 X82.354 Y-60.51
N9595 X82.247 Y-60.501
N9600 X82.147 Y-60.542
N9605 X82.076 Y-60.623
N9610 X82.051 Y-60.728
N9615 X82.056 Y-60.764 Z-0.969
N9620 X82.069 Y-60.798 Z-0.938
N9625 X82.075 Y-60.81 Z-0.927
N9630 X82.105 Y-60.85 Z-0.885
N9635 X82.142 Y-60.883 Z-0.842
N9640 X82.186 Y-60.906 Z-0.8
N9645 G3 X82.441 Y-60.842 I0.083 J0.208
N9650 G1 X82.472 Y-60.792 Z-0.85
N9655 X82.489 Y-60.736 Z-0.9
N9660 X82.491 Y-60.677 Z-0.95
N9665 X82.478 Y-60.62 Z-1.
N9670 X82.419 Y-60.476
N9675 X82.412 Y-60.463
N9680 X82.405 Y-60.45
N9685 X82.396 Y-60.438
N9690 X82.386 Y-60.426
N9695 X82.374 Y-60.415
N9700 X82.273 Y-60.371
N9705 X82.164 Y-60.388
N9710 X82.082 Y-60.461
N9715 X82.051 Y-60.567
N9720 X82.055 Y-60.598
N9725 X82.066 Y-60.627
N9730 X82.096 Y-60.672
N9735 X82.137 Y-60.706
N9740 X82.186 Y-60.728
N9745 X82.239 Y-60.735
N9750 G3 X82.419 Y-60.476 I0. J0.192
N9755 G1 X82.395 Y-60.42
N9760 X82.373 Y-60.361
N9765 X82.371 Y-60.356
N9770 X82.37 Y-60.352
N9775 X82.364 Y-60.338
N9780 X82.279 Y-60.271
N9785 X82.172 Y-60.268
N9790 X82.085 Y-60.33
N9795 X82.051 Y-60.431
N9800 X82.055 Y-60.456
N9805 X82.063 Y-60.479
N9810 G3 X82.37 Y-60.352 I0.149 J0.074
N9815 G1 X82.361 Y-60.33
N9820 X82.352 Y-60.307
N9825 X82.339 Y-60.285
N9830 X82.335 Y-60.279
N9835 X82.324 Y-60.267
N9840 X82.312 Y-60.255
N9845 X82.301 Y-60.247
N9850 X82.289 Y-60.24
N9855 X82.267 Y-60.23
N9860 X82.245 Y-60.224
N9865 X82.222 Y-60.221
N9870 X82.2
N9875 X82.177 Y-60.223
N9880 X82.155 Y-60.229
N9885 X82.142 Y-60.233
N9890 X82.129 Y-60.24
N9895 X82.11 Y-60.252
N9900 X82.092 Y-60.269
N9905 X82.078 Y-60.285
N9910 X82.071 Y-60.297
N9915 X82.065 Y-60.309
N9920 X82.057 Y-60.33
N9925 X82.052 Y-60.352
N9930 X82.051 Y-60.375
N9935 Y-62.015
N9940 X82.06 Y-62.06
N9945 X82.081 Y-62.101
N9950 X82.114 Y-62.132
N9955 X82.155 Y-62.153
N9960 X82.201 Y-62.16
N9965 G3 X82.265 Y-61.874 I0. J0.15
N9970 G1 X82.237 Y-61.867 Z-0.997
N9975 X82.21 Y-61.86 Z-0.989
N9980 X82.201 Z-0.985
N9985 X82.168 Y-61.869 Z-0.961
N9990 X82.143 Y-61.877 Z-0.929
N9995 X82.127 Y-61.881 Z-0.891
N10000 X82.122 Y-61.883 Z-0.85
N10005 Z5.
N10010 X78.29 Y-63.302
N10015 Z1.65
N10020 Z1.5
N10025 Z-1.5
N10030 X78.302 Y-63.301
N10035 X78.303 Y-63.297
N10040 Y-63.294
N10045 X78.301 Y-63.286
N10050 X78.296 Y-63.281
N10055 X78.289 Y-63.278
N10060 X78.281
N10065 X78.274 Y-63.28
N10070 X78.268 Y-63.285
N10075 X78.258 Y-63.296
N10080 X78.255 Y-63.311
N10085 X78.259 Y-63.325
N10090 X78.268 Y-63.337
N10095 X78.281 Y-63.345
N10100 X78.296 Y-63.348
N10105 X78.311 Y-63.346
N10110 X78.325 Y-63.341
N10115 X78.337 Y-63.332
N10120 X78.346 Y-63.32
N10125 X78.352 Y-63.306
N10130 X78.354 Y-63.291
N10135 Y-63.276
N10140 X78.35 Y-63.262
N10145 X78.31 Y-63.232
N10150 X78.262 Y-63.244
N10155 X78.241 Y-63.289
N10160 Y-63.336
N10165 Y-63.35
N10170 X78.246 Y-63.365
N10175 X78.253 Y-63.378
N10180 X78.263 Y-63.389
N10185 X78.275 Y-63.398
N10190 X78.288 Y-63.405
N10195 X78.303 Y-63.41
N10200 X78.317 Y-63.413
N10205 X78.332
N10210 X78.347 Y-63.412
N10215 X78.362 Y-63.408
N10220 X78.376 Y-63.403
N10225 X78.389 Y-63.397
N10230 X78.402 Y-63.389
N10235 X78.414 Y-63.379
N10240 X78.424 Y-63.368
N10245 X78.433 Y-63.357
N10250 X78.441 Y-63.344
N10255 X78.448 Y-63.33
N10260 X78.453 Y-63.316
N10265 X78.456 Y-63.302
N10270 X78.458 Y-63.287
N10275 X78.459 Y-63.272
N10280 X78.458 Y-63.257
N10285 X78.419 Y-63.187
N10290 X78.342 Y-63.163
N10295 X78.27 Y-63.197
N10300 X78.241 Y-63.272
N10305 X78.252 Y-63.304 Z-1.493
N10310 X78.261 Y-63.331 Z-1.473
N10315 X78.267 Y-63.349 Z-1.444
N10320 X78.27 Y-63.355 Z-1.41
N10325 Z5.
N10330 X78.241 Y-63.336
N10335 Z1.65
N10340 Z1.5
N10345 Z-1.5 F12.
N10350 Y-63.397 F48.
N10355 Y-63.412
N10360 X78.245 Y-63.427
N10365 X78.251 Y-63.44
N10370 X78.259 Y-63.453
N10375 X78.268 Y-63.465
N10380 X78.279 Y-63.475
N10385 X78.291 Y-63.484
N10390 X78.304 Y-63.492
N10395 X78.317 Y-63.499
N10400 X78.331 Y-63.504
N10405 G3 X78.581 Y-63.414 I0.063 J0.215
N10410 G1 X78.593 Y-63.396
N10415 X78.605 Y-63.375
N10420 X78.614 Y-63.353
N10425 X78.622 Y-63.331
N10430 X78.627 Y-63.31
N10435 X78.631 Y-63.289
N10440 X78.633 Y-63.268
N10445 Y-63.248
N10450 X78.632 Y-63.229
N10455 X78.581 Y-63.125
N10460 X78.481 Y-63.067
N10465 X78.365 Y-63.076
N10470 X78.275 Y-63.148
N10475 X78.241 Y-63.259
N10480 X78.249 Y-63.305 Z-1.46
N10485 X78.272 Y-63.346 Z-1.42
N10490 X78.306 Y-63.378 Z-1.38
N10495 X78.349 Y-63.397 Z-1.34
N10500 X78.396 Y-63.403 Z-1.3
N10505 G3 X78.433 Y-63.11 I-0.005 J0.15
N10510 G1 X78.46 Y-63.109
N10515 X78.414 Y-63.128
N10520 X78.371 Y-63.154
N10525 X78.333 Y-63.186
N10530 X78.295 Y-63.232 Z-1.35
N10535 X78.266 Y-63.283 Z-1.4
N10540 X78.248 Y-63.339 Z-1.45
N10545 X78.241 Y-63.397 Z-1.5
N10550 Y-63.48
N10555 Y-63.487
N10560 Y-63.491
N10565 Y-63.494
N10570 X78.242 Y-63.509
N10575 X78.246 Y-63.523
N10580 X78.251 Y-63.537
N10585 X78.258 Y-63.551
N10590 X78.266 Y-63.563
N10595 X78.275 Y-63.576
N10600 X78.286 Y-63.589
N10605 X78.298 Y-63.601
N10610 X78.312 Y-63.613
N10615 X78.328 Y-63.625
N10620 X78.346 Y-63.635
N10625 X78.388 Y-63.653
N10630 X78.432 Y-63.663
N10635 X78.477 Y-63.667
N10640 X78.522 Y-63.659 Z-1.461
N10645 X78.564 Y-63.642 Z-1.423
N10650 X78.6 Y-63.615 Z-1.384
N10655 X78.629 Y-63.58 Z-1.346
N10660 X78.648 Y-63.539 Z-1.307
N10665 X78.651 Y-63.531 Z-1.3
N10670 X78.658 Y-63.49
N10675 X78.656 Y-63.448
N10680 X78.644 Y-63.408
N10685 X78.624 Y-63.372
N10690 X78.591 Y-63.334
N10695 X78.549 Y-63.306
N10700 X78.502 Y-63.288
N10705 X78.452 Y-63.282
N10710 X78.404 Y-63.287
N10715 X78.359 Y-63.304
N10720 X78.319 Y-63.329 Z-1.34
N10725 X78.286 Y-63.362 Z-1.38
N10730 X78.261 Y-63.402 Z-1.42
N10735 X78.246 Y-63.447 Z-1.46
N10740 X78.241 Y-63.494 Z-1.5
N10745 X78.242 Y-63.525
N10750 X78.248 Y-63.547
N10755 X78.257 Y-63.57
N10760 X78.269 Y-63.589
N10765 X78.285 Y-63.608
N10770 X78.29 Y-63.615
N10775 X78.31 Y-63.634
N10780 X78.33 Y-63.647
N10785 X78.344 Y-63.654
N10790 X78.359 Y-63.66
N10795 X78.375 Y-63.664
N10800 X78.397 Y-63.666
N10805 X78.42 Y-63.667
N10810 X78.489
N10815 G3 X78.858 Y-63.396 I-0.008 J0.398
N10820 G1 X78.875 Y-63.266
N10825 X78.843 Y-63.139
N10830 X78.766 Y-63.033
N10835 X78.655 Y-62.963
N10840 X78.526 Y-62.938
N10845 X78.42
N10850 X78.381 Y-62.94
N10855 X78.375 Y-62.941
N10860 X78.352 Y-62.947
N10865 X78.33 Y-62.957
N10870 X78.312 Y-62.969
N10875 X78.294 Y-62.985
N10880 X78.285 Y-62.994
N10885 X78.269 Y-63.012
N10890 X78.258 Y-63.03
N10895 X78.248 Y-63.052
N10900 X78.243 Y-63.075
N10905 X78.241 Y-63.12
N10910 Y-63.259
N10915 X78.253 Y-63.382
N10920 X78.28 Y-63.504
N10925 G3 X78.489 Y-63.667 I0.217 J0.063
N10930 G1 X78.759
N10935 X78.789 Y-63.665
N10940 X78.813 Y-63.662
N10945 G3 X79.053 Y-63.496 I-0.077 J0.368
N10950 G1 X79.075 Y-63.461
N10955 X79.093 Y-63.426
N10960 X79.095 Y-63.423
N10965 X79.122 Y-63.289
N10970 X79.095 Y-63.155
N10975 X79.02 Y-63.041
N10980 X78.906 Y-62.965
N10985 X78.772 Y-62.938
N10990 X78.526
N10995 X78.48 Y-62.947 Z-1.46
N11000 X78.439 Y-62.97 Z-1.42
N11005 X78.407 Y-63.004 Z-1.38
N11010 X78.387 Y-63.046 Z-1.34
N11015 X78.381 Y-63.093 Z-1.3
N11020 X78.387 Y-63.127
N11025 X78.4 Y-63.16
N11030 X78.595 Y-63.518
N11035 X78.633 Y-63.588 Z-1.368
N11040 X78.656 Y-63.62 Z-1.401
N11045 X78.686 Y-63.644 Z-1.434
N11050 X78.721 Y-63.66 Z-1.467
N11055 X78.759 Y-63.667 Z-1.5
N11060 X79.005
N11065 X79.036 Y-63.665
N11070 G3 X79.276 Y-63.526 I-0.047 J0.357
N11075 G1 X79.301 Y-63.493
N11080 X79.321 Y-63.46
N11085 X79.338 Y-63.427
N11090 X79.34 Y-63.423
N11095 X79.367 Y-63.289
N11100 X79.341 Y-63.155
N11105 X79.265 Y-63.041
N11110 X79.151 Y-62.965
N11115 X79.017 Y-62.938
N11120 X78.772
N11125 X78.726 Y-62.947 Z-1.46
N11130 X78.685 Y-62.97 Z-1.42
N11135 X78.653 Y-63.004 Z-1.38
N11140 X78.633 Y-63.046 Z-1.34
N11145 X78.627 Y-63.093 Z-1.3
N11150 X78.632 Y-63.127
N11155 X78.645 Y-63.159
N11160 X78.84 Y-63.518
N11165 X78.878 Y-63.588 Z-1.368
N11170 X78.901 Y-63.62 Z-1.401
N11175 X78.931 Y-63.644 Z-1.434
N11180 X78.966 Y-63.66 Z-1.467
N11185 X79.005 Y-63.667 Z-1.5
N11190 X79.254
N11195 X79.281 Y-63.665
N11200 G3 X79.521 Y-63.526 I-0.047 J0.358
N11205 G1 X79.546 Y-63.493
N11210 X79.567 Y-63.46
N11215 X79.584 Y-63.427
N11220 X79.586 Y-63.423
N11225 X79.613 Y-63.289
N11230 X79.586 Y-63.155
N11235 X79.51 Y-63.041
N11240 X79.397 Y-62.965
N11245 X79.263 Y-62.938
N11250 X79.017
N11255 X78.971 Y-62.947 Z-1.46
N11260 X78.93 Y-62.97 Z-1.42
N11265 X78.898 Y-63.004 Z-1.38
N11270 X78.878 Y-63.046 Z-1.34
N11275 X78.872 Y-63.093 Z-1.3
N11280 X78.873 Y-63.096
N11285 X78.878 Y-63.129
N11290 X78.891 Y-63.16
N11295 X79.089 Y-63.518
N11300 X79.128 Y-63.589 Z-1.369
N11305 X79.151 Y-63.62 Z-1.402
N11310 X79.181 Y-63.644 Z-1.434
N11315 X79.216 Y-63.66 Z-1.467
N11320 X79.254 Y-63.667 Z-1.5
N11325 X79.5
N11330 X79.527 Y-63.665
N11335 G3 X79.767 Y-63.526 I-0.047 J0.358
N11340 G1 X79.792 Y-63.493
N11345 X79.812 Y-63.46
N11350 X79.829 Y-63.427
N11355 X79.831 Y-63.423
N11360 X79.858 Y-63.289
N11365 X79.832 Y-63.155
N11370 X79.756 Y-63.041
N11375 X79.642 Y-62.965
N11380 X79.508 Y-62.938
N11385 X79.263
N11390 X79.217 Y-62.947 Z-1.46
N11395 X79.176 Y-62.97 Z-1.42
N11400 X79.144 Y-63.004 Z-1.38
N11405 X79.124 Y-63.046 Z-1.34
N11410 X79.118 Y-63.093 Z-1.3
N11415 Y-63.096
N11420 X79.124 Y-63.129
N11425 X79.137 Y-63.16
N11430 X79.334 Y-63.518
N11435 X79.374 Y-63.589 Z-1.369
N11440 X79.396 Y-63.62 Z-1.401
N11445 X79.426 Y-63.644 Z-1.434
N11450 X79.462 Y-63.66 Z-1.467
N11455 X79.5 Y-63.667 Z-1.5
N11460 X79.749
N11465 X79.772 Y-63.665
N11470 G3 X80.013 Y-63.526 I-0.047 J0.358
N11475 G1 X80.037 Y-63.493
N11480 X80.058 Y-63.46
N11485 X80.075 Y-63.428
N11490 X80.077 Y-63.423
N11495 X80.104 Y-63.289
N11500 X80.077 Y-63.155
N11505 X80.002 Y-63.041
N11510 X79.888 Y-62.965
N11515 X79.754 Y-62.938
N11520 X79.508
N11525 X79.462 Y-62.947 Z-1.46
N11530 X79.421 Y-62.97 Z-1.42
N11535 X79.389 Y-63.004 Z-1.38
N11540 X79.369 Y-63.046 Z-1.34
N11545 X79.364 Y-63.093 Z-1.3
N11550 Y-63.098
N11555 X79.37 Y-63.131
N11560 X79.383 Y-63.161
N11565 X79.584 Y-63.519
N11570 X79.624 Y-63.59 Z-1.37
N11575 X79.647 Y-63.621 Z-1.402
N11580 X79.677 Y-63.645 Z-1.435
N11585 X79.712 Y-63.66 Z-1.467
N11590 X79.749 Y-63.667 Z-1.5
N11595 X79.995
N11600 X80.018 Y-63.665
N11605 G3 X80.258 Y-63.526 I-0.047 J0.358
N11610 G1 X80.283 Y-63.493
N11615 X80.304 Y-63.46
N11620 X80.32 Y-63.428
N11625 X80.322 Y-63.423
N11630 X80.349 Y-63.289
N11635 X80.323 Y-63.155
N11640 X80.247 Y-63.041
N11645 X80.134 Y-62.965
N11650 X79.999 Y-62.938
N11655 X79.754
N11660 X79.708 Y-62.947 Z-1.46
N11665 X79.667 Y-62.97 Z-1.42
N11670 X79.635 Y-63.004 Z-1.38
N11675 X79.615 Y-63.046 Z-1.34
N11680 X79.609 Y-63.093 Z-1.3
N11685 Y-63.098
N11690 X79.615 Y-63.131
N11695 X79.628 Y-63.161
N11700 X79.829 Y-63.519
N11705 X79.869 Y-63.59 Z-1.37
N11710 X79.892 Y-63.621 Z-1.402
N11715 X79.922 Y-63.645 Z-1.435
N11720 X79.957 Y-63.66 Z-1.467
N11725 X79.995 Y-63.667 Z-1.5
N11730 X80.244
N11735 X80.263 Y-63.666
N11740 G3 X80.504 Y-63.526 I-0.047 J0.358
N11745 G1 X80.529 Y-63.493
N11750 X80.549 Y-63.46
N11755 X80.566 Y-63.428
N11760 X80.568 Y-63.423
N11765 X80.595 Y-63.289
N11770 X80.569 Y-63.155
N11775 X80.493 Y-63.041
N11780 X80.379 Y-62.965
N11785 X80.245 Y-62.938
N11790 X79.999
N11795 X79.953 Y-62.947 Z-1.46
N11800 X79.912 Y-62.97 Z-1.42
N11805 X79.88 Y-63.004 Z-1.38
N11810 X79.861 Y-63.046 Z-1.34
N11815 X79.855 Y-63.093 Z-1.3
N11820 Y-63.1
N11825 X79.861 Y-63.132
N11830 X79.874 Y-63.162
N11835 X80.078 Y-63.519
N11840 X80.119 Y-63.591 Z-1.37
N11845 X80.142 Y-63.621 Z-1.403
N11850 X80.172 Y-63.645 Z-1.435
N11855 X80.207 Y-63.66 Z-1.468
N11860 X80.244 Y-63.667 Z-1.5
N11865 X80.49
N11870 X80.509 Y-63.666
N11875 G3 X80.75 Y-63.526 I-0.047 J0.358
N11880 G1 X80.774 Y-63.493
N11885 X80.795 Y-63.46
N11890 X80.812 Y-63.428
N11895 X80.814 Y-63.423
N11900 X80.841 Y-63.289
N11905 X80.814 Y-63.155
N11910 X80.739 Y-63.041
N11915 X80.625 Y-62.965
N11920 X80.491 Y-62.938
N11925 X80.245
N11930 X80.199 Y-62.947 Z-1.46
N11935 X80.158 Y-62.97 Z-1.42
N11940 X80.126 Y-63.004 Z-1.38
N11945 X80.106 Y-63.046 Z-1.34
N11950 X80.1 Y-63.093 Z-1.3
N11955 X80.101 Y-63.1
N11960 X80.107 Y-63.132
N11965 X80.12 Y-63.162
N11970 X80.323 Y-63.519
N11975 X80.365 Y-63.591 Z-1.37
N11980 X80.387 Y-63.621 Z-1.403
N11985 X80.417 Y-63.645 Z-1.435
N11990 X80.452 Y-63.66 Z-1.468
N11995 X80.49 Y-63.667 Z-1.5
N12000 X80.739
N12005 X80.755 Y-63.666
N12010 G3 X80.995 Y-63.526 I-0.047 J0.358
N12015 G1 X81.02 Y-63.494
N12020 X81.041 Y-63.46
N12025 X81.058 Y-63.428
N12030 X81.06 Y-63.423
N12035 X81.087 Y-63.289
N12040 X81.06 Y-63.155
N12045 X80.984 Y-63.041
N12050 X80.871 Y-62.965
N12055 X80.737 Y-62.938
N12060 X80.491
N12065 X80.445 Y-62.947 Z-1.46
N12070 X80.404 Y-62.97 Z-1.42
N12075 X80.372 Y-63.004 Z-1.38
N12080 X80.352 Y-63.046 Z-1.34
N12085 X80.346 Y-63.093 Z-1.3
N12090 X80.347 Y-63.102
N12095 X80.353 Y-63.133
N12100 X80.366 Y-63.163
N12105 X80.573 Y-63.519
N12110 X80.615 Y-63.592 Z-1.371
N12115 X80.638 Y-63.622 Z-1.403
N12120 X80.667 Y-63.645 Z-1.436
N12125 X80.702 Y-63.66 Z-1.468
N12130 X80.739 Y-63.667 Z-1.5
N12135 X80.985
N12140 X81.001 Y-63.666
N12145 G3 X81.241 Y-63.526 I-0.047 J0.358
N12150 G1 X81.266 Y-63.494
N12155 X81.286 Y-63.46
N12160 X81.303 Y-63.428
N12165 X81.305 Y-63.423
N12170 X81.332 Y-63.289
N12175 X81.306 Y-63.155
N12180 X81.23 Y-63.041
N12185 X81.117 Y-62.965
N12190 X80.982 Y-62.938
N12195 X80.737
N12200 X80.691 Y-62.947 Z-1.46
N12205 X80.65 Y-62.97 Z-1.42
N12210 X80.618 Y-63.004 Z-1.38
N12215 X80.598 Y-63.046 Z-1.34
N12220 X80.592 Y-63.093 Z-1.3
N12225 X80.593 Y-63.102
N12230 X80.599 Y-63.133
N12235 X80.612 Y-63.163
N12240 X80.818 Y-63.519
N12245 X80.86 Y-63.592 Z-1.371
N12250 X80.883 Y-63.622 Z-1.403
N12255 X80.913 Y-63.645 Z-1.436
N12260 X80.947 Y-63.66 Z-1.468
N12265 X80.985 Y-63.667 Z-1.5
N12270 X81.223
N12275 X81.247 Y-63.665
N12280 G3 X81.487 Y-63.526 I-0.047 J0.358
N12285 G1 X81.512 Y-63.493
N12290 X81.532 Y-63.46
N12295 X81.549 Y-63.428
N12300 X81.551 Y-63.423
N12305 X81.577 Y-63.312
N12310 X81.566 Y-63.198
N12315 X81.519 Y-63.094
N12320 X81.441 Y-63.01
N12325 X81.34 Y-62.956
N12330 X81.228 Y-62.938
N12335 X80.982
N12340 X80.936 Y-62.947 Z-1.46
N12345 X80.895 Y-62.97 Z-1.42
N12350 X80.863 Y-63.004 Z-1.38
N12355 X80.844 Y-63.046 Z-1.34
N12360 X80.838 Y-63.093 Z-1.3
N12365 Y-63.098
N12370 X80.844 Y-63.131
N12375 X80.857 Y-63.161
N12380 X81.058 Y-63.519
N12385 X81.098 Y-63.59 Z-1.37
N12390 X81.12 Y-63.621 Z-1.402
N12395 X81.15 Y-63.645 Z-1.435
N12400 X81.185 Y-63.66 Z-1.467
N12405 X81.223 Y-63.667 Z-1.5
N12410 X81.459
N12415 G3 X81.712 Y-63.549 I-0.006 J0.343
N12420 G1 X81.737 Y-63.522
N12425 X81.758 Y-63.493
N12430 X81.776 Y-63.465
N12435 X81.793 Y-63.432
N12440 X81.81 Y-63.392
N12445 X81.814 Y-63.38
N12450 X81.831 Y-63.262
N12455 X81.807 Y-63.146
N12460 X81.746 Y-63.043
N12465 X81.655 Y-62.968
N12470 X81.543 Y-62.927
N12475 X81.424 Y-62.926
N12480 X81.384 Y-62.94 Z-1.464
N12485 X81.35 Y-62.964 Z-1.429
N12490 X81.324 Y-62.997 Z-1.393
N12495 X81.308 Y-63.035 Z-1.358
N12500 X81.303 Y-63.077 Z-1.322
N12505 X81.304 Y-63.103 Z-1.3
N12510 X81.314 Y-63.511
N12515 X81.315 Y-63.52 Z-1.308
N12520 X81.323 Y-63.565 Z-1.346
N12525 X81.343 Y-63.605 Z-1.385
N12530 X81.375 Y-63.637 Z-1.423
N12535 X81.415 Y-63.658 Z-1.462
N12540 X81.459 Y-63.667 Z-1.5
N12545 X81.705
N12550 X81.738 Y-63.665
N12555 G3 X81.965 Y-63.548 I-0.043 J0.361
N12560 X82.096 Y-63.26 I-0.352 J0.333
N12565 G1 X82.099 Y-63.219
N12570 Y-63.178
N12575 X82.098 Y-63.161
N12580 X82.061 Y-63.032
N12585 X81.979 Y-62.927
N12590 X81.863 Y-62.86
N12595 X81.731 Y-62.841
N12600 X81.601 Y-62.874
N12605 X81.565 Y-62.899 Z-1.462
N12610 X81.538 Y-62.934 Z-1.425
N12615 X81.522 Y-62.975 Z-1.387
N12620 X81.52 Y-63.019 Z-1.35
N12625 X81.522 Y-63.046 Z-1.327
N12630 X81.524 Y-63.078 Z-1.3
N12635 X81.559 Y-63.512
N12640 X81.56 Y-63.529 Z-1.315
N12645 X81.57 Y-63.571 Z-1.352
N12650 X81.591 Y-63.609 Z-1.389
N12655 X81.623 Y-63.639 Z-1.426
N12660 X81.662 Y-63.659 Z-1.463
N12665 X81.705 Y-63.667 Z-1.5
N12670 X81.975
N12675 X81.992 Y-63.666
N12680 X82.054 Y-63.653
N12685 X82.113 Y-63.631
N12690 X82.168 Y-63.599
N12695 X82.218 Y-63.559
N12700 G3 X82.393 Y-63.165 I-0.37 J0.401
N12705 X82.335 Y-62.883 I-0.586 J0.025
N12710 G1 X82.261 Y-62.775
N12715 X82.153 Y-62.701
N12720 X82.025 Y-62.672
N12725 X81.896 Y-62.693
N12730 X81.783 Y-62.76
N12735 X81.754 Y-62.798 Z-1.459
N12740 X81.738 Y-62.843 Z-1.418
N12745 X81.737 Y-62.891 Z-1.377
N12750 X81.75 Y-62.981 Z-1.3
N12755 X81.759 Y-63.04
N12760 X81.827 Y-63.512
N12765 X81.831 Y-63.538 Z-1.323
N12770 X81.843 Y-63.578 Z-1.358
N12775 X81.865 Y-63.613 Z-1.394
N12780 X81.896 Y-63.641 Z-1.429
N12785 X81.934 Y-63.659 Z-1.465
N12790 X81.975 Y-63.667 Z-1.5
N12795 X82.245
N12800 G3 X82.48 Y-63.577 I-0.018 J0.401
N12805 X82.679 Y-63.3 I-0.369 J0.475
N12810 X82.598 Y-62.636 I-0.684 J0.254
N12815 G1 X82.561 Y-62.587
N12820 X82.52 Y-62.541
N12825 X82.479 Y-62.502
N12830 X82.462 Y-62.488
N12835 X82.358 Y-62.43
N12840 X82.24 Y-62.41
N12845 X82.122 Y-62.43
N12850 X82.018 Y-62.489
N12855 X81.94 Y-62.58
N12860 X81.926 Y-62.615 Z-1.468
N12865 X81.921 Y-62.652 Z-1.436
N12870 Y-62.653 Z-1.435
N12875 X81.924 Y-62.683 Z-1.409
N12880 X81.95 Y-62.809 Z-1.3
N12885 X81.999 Y-63.045
N12890 X82.096 Y-63.512
N12895 X82.103 Y-63.547 Z-1.33
N12900 X82.116 Y-63.585 Z-1.364
N12905 X82.139 Y-63.617 Z-1.398
N12910 X82.169 Y-63.643 Z-1.432
N12915 X82.205 Y-63.66 Z-1.466
N12920 X82.245 Y-63.667 Z-1.5
N12925 X82.539
N12930 X82.564 Y-63.665
N12935 G3 X82.803 Y-63.565 I-0.053 J0.462
N12940 X83.007 Y-63.306 I-0.418 J0.539
N12945 X83.086 Y-62.896 I-0.787 J0.363
N12950 X82.917 Y-62.394 I-0.954 J-0.041
N12955 X82.625 Y-62.135 I-0.685 J-0.479
N12960 G1 X82.562 Y-62.105
N12965 X82.503 Y-62.083
N12970 X82.448 Y-62.067
N12975 X82.447
N12980 X82.335 Y-62.063
N12985 X82.228 Y-62.094
N12990 X82.136 Y-62.157
N12995 X82.068 Y-62.246
N13000 X82.032 Y-62.351
N13005 Y-62.384 Z-1.472
N13010 X82.038 Y-62.417 Z-1.444
N13015 X82.089 Y-62.578 Z-1.3
N13020 X82.233 Y-63.032
N13025 X82.242 Y-63.059
N13030 X82.386 Y-63.513
N13035 X82.402 Y-63.562 Z-1.343
N13040 X82.422 Y-63.603 Z-1.383
N13045 X82.454 Y-63.636 Z-1.422
N13050 X82.494 Y-63.658 Z-1.461
N13055 X82.539 Y-63.667 Z-1.5
N13060 X82.854
N13065 G3 X83.113 Y-63.583 I-0.011 J0.477
N13070 X83.318 Y-63.379 I-0.385 J0.593
N13075 X83.442 Y-63.109 I-0.757 J0.512
N13080 G1 X83.461 Y-63.028
N13085 X83.475 Y-62.943
N13090 X83.481 Y-62.855
N13095 G3 X83.433 Y-62.483 I-1.175 J0.038
N13100 X83.264 Y-62.131 I-1.171 J-0.345
N13105 G1 X83.205 Y-62.052
N13110 X83.139 Y-61.978
N13115 X83.068 Y-61.911
N13120 G3 X82.789 Y-61.734 I-0.694 J-0.788
N13125 X82.514 Y-61.666 I-0.355 J-0.841
N13130 G1 X82.444 Y-61.663
N13135 X82.374 Y-61.666
N13140 X82.358 Y-61.668
N13145 X82.238 Y-61.706
N13150 X82.139 Y-61.783
N13155 X82.074 Y-61.891
N13160 X82.051 Y-62.015
N13165 Y-62.175
N13170 X82.055 Y-62.206 Z-1.473
N13175 X82.066 Y-62.235 Z-1.447
N13180 X82.142 Y-62.39 Z-1.3
N13185 X82.351 Y-62.818
N13190 X82.483 Y-63.089
N13195 X82.693 Y-63.517
N13200 X82.725 Y-63.582 Z-1.362
N13205 X82.747 Y-63.616 Z-1.397
N13210 X82.778 Y-63.642 Z-1.431
N13215 X82.814 Y-63.66 Z-1.466
N13220 X82.854 Y-63.667 Z-1.5
N13225 X83.214
N13230 X83.242 Y-63.665
N13235 G3 X83.485 Y-63.576 I-0.059 J0.537
N13240 X83.672 Y-63.406 I-0.419 J0.647
N13245 X83.829 Y-63.125 I-0.786 J0.625
N13250 G1 X83.858 Y-63.037
N13255 X83.881 Y-62.942
N13260 X83.897 Y-62.84
N13265 X83.905 Y-62.736
N13270 X83.904 Y-62.627
N13275 X83.894 Y-62.514
N13280 X83.875 Y-62.399
N13285 X83.864 Y-62.355
N13290 X83.835 Y-62.278
N13295 X83.788 Y-62.21
N13300 X83.727 Y-62.155
N13305 X83.684 Y-62.136 Z-1.46
N13310 X83.638 Y-62.131 Z-1.42
N13315 X83.592 Y-62.14 Z-1.38
N13320 X83.551 Y-62.163 Z-1.34
N13325 X83.519 Y-62.198 Z-1.3
N13330 X83.503 Y-62.232
N13335 X83.36 Y-62.647
N13340 X83.218 Y-63.059
N13345 X83.078 Y-63.468
N13350 X83.07 Y-63.511
N13355 X83.075 Y-63.558 Z-1.34
N13360 X83.095 Y-63.601 Z-1.38
N13365 X83.127 Y-63.635 Z-1.42
N13370 X83.168 Y-63.658 Z-1.46
N13375 X83.214 Y-63.667 Z-1.5
N13380 X83.594
N13385 X83.678 Y-63.656
N13390 X83.758 Y-63.633
N13395 X83.834 Y-63.598
N13400 G3 X84.037 Y-63.44 I-0.374 J0.693
N13405 G1 X84.088 Y-63.382
N13410 X84.138 Y-63.314
N13415 X84.184 Y-63.241
N13420 X84.227 Y-63.157
N13425 X84.266 Y-63.063
N13430 X84.299 Y-62.964
N13435 X84.325 Y-62.856
N13440 X84.34 Y-62.757
N13445 Y-62.756
N13450 X84.325 Y-62.625
N13455 X84.262 Y-62.508
N13460 X84.16 Y-62.424
N13465 X84.116 Y-62.409 Z-1.46
N13470 X84.069 Z-1.42
N13475 X84.025 Y-62.424 Z-1.38
N13480 X83.987 Y-62.451 Z-1.34
N13485 X83.959 Y-62.489 Z-1.301
N13490 Z-1.3
N13495 X83.741 Y-62.913
N13500 X83.654 Y-63.083
N13505 X83.466 Y-63.448
N13510 X83.455 Y-63.479
N13515 X83.45 Y-63.511
N13520 X83.456 Y-63.558 Z-1.34
N13525 X83.475 Y-63.601 Z-1.38
N13530 X83.507 Y-63.635 Z-1.42
N13535 X83.548 Y-63.658 Z-1.46
N13540 X83.594 Y-63.667 Z-1.5
N13545 X83.979
N13550 G3 X84.25 Y-63.592 I-0.012 J0.575
N13555 X84.47 Y-63.421 I-0.405 J0.749
N13560 X84.68 Y-63.086 I-0.7 J0.671
N13565 G1 X84.702 Y-63.019
N13570 X84.709 Y-62.987
N13575 X84.717 Y-62.864
N13580 X84.681 Y-62.746
N13585 X84.607 Y-62.648
N13590 X84.503 Y-62.582
N13595 X84.462 Y-62.573 Z-1.464
N13600 X84.42 Y-62.575 Z-1.429
N13605 X84.381 Y-62.589 Z-1.393
N13610 X84.347 Y-62.614 Z-1.358
N13615 X84.321 Y-62.647 Z-1.322
N13620 X84.308 Y-62.669 Z-1.3
N13625 X84.067 Y-63.08
N13630 X84.059 Y-63.094
N13635 X83.855 Y-63.441
N13640 X83.84 Y-63.475
N13645 X83.835 Y-63.511
N13650 X83.84 Y-63.558 Z-1.34
N13655 X83.86 Y-63.601 Z-1.38
N13660 X83.892 Y-63.635 Z-1.42
N13665 X83.933 Y-63.658 Z-1.46
N13670 X83.979 Y-63.667 Z-1.5
N13675 X84.404
N13680 G3 X84.673 Y-63.592 I-0.015 J0.577
N13685 X85.05 Y-63.122 I-0.365 J0.679
N13690 G1 X85.053 Y-63.109
N13695 X85.059 Y-62.976
N13700 X85.015 Y-62.851
N13705 X84.927 Y-62.751
N13710 X84.809 Y-62.691
N13715 X84.77 Y-62.686 Z-1.466
N13720 X84.731 Y-62.692 Z-1.432
N13725 X84.694 Y-62.709 Z-1.399
N13730 X84.664 Y-62.734 Z-1.365
N13735 X84.64 Y-62.766 Z-1.331
N13740 X84.623 Y-62.798 Z-1.3
N13745 X84.47 Y-63.086
N13750 X84.277 Y-63.446
N13755 X84.265 Y-63.478
N13760 X84.26 Y-63.511
N13765 X84.266 Y-63.558 Z-1.34
N13770 X84.285 Y-63.601 Z-1.38
N13775 X84.317 Y-63.635 Z-1.42
N13780 X84.358 Y-63.658 Z-1.46
N13785 X84.404 Y-63.667 Z-1.5
N13790 X84.809
N13795 X84.823
N13800 X84.828
N13805 X84.849 Y-63.665
N13810 X84.852
N13815 X84.971 Y-63.627
N13820 X85.07 Y-63.549
N13825 X85.134 Y-63.441
N13830 X85.157 Y-63.318
N13835 X85.149 Y-63.26 Z-1.45
N13840 X85.131 Y-63.204 Z-1.4
N13845 X85.103 Y-63.152 Z-1.35
N13850 X85.066 Y-63.106 Z-1.3
N13855 G3 X84.736 Y-63.026 I-0.229 J-0.223
N13860 X84.615 Y-63.578 I0.103 J-0.312
N13865 G1 X84.662 Y-63.614 Z-1.35
N13870 X84.714 Y-63.642 Z-1.4
N13875 X84.77 Y-63.659 Z-1.45
N13880 X84.828 Y-63.667 Z-1.5
N13885 X84.989 Y-63.666
N13890 X85.011 Y-63.665
N13895 X85.033 Y-63.66
N13900 X85.034 Y-63.659
N13905 X85.057 Y-63.65
N13910 X85.068 Y-63.643
N13915 X85.079 Y-63.635
N13920 X85.105 Y-63.615
N13925 X85.116 Y-63.604
N13930 X85.124 Y-63.594
N13935 X85.133 Y-63.582
N13940 X85.14 Y-63.57
N13945 X85.149 Y-63.547
N13950 X85.155 Y-63.525
N13955 X85.157 Y-63.48
N13960 Y-62.94
N13965 X85.156 Y-62.895
N13970 X85.151 Y-62.872
N13975 X85.143 Y-62.85
N13980 X85.135 Y-62.834
N13985 X85.124 Y-62.819
N13990 X85.112 Y-62.805
N13995 X85.096 Y-62.791
N14000 X85.079 Y-62.779
N14005 X85.062 Y-62.768
N14010 X85.045 Y-62.76
N14015 G2 X84.674 Y-62.651 I7.699 J26.88
N14020 X84.286 Y-62.49 I3.043 J7.889
N14025 G1 X84.269 Y-62.482
N14030 X84.224 Y-62.459
N14035 X83.954 Y-62.31
N14040 X83.909 Y-62.282
N14045 X83.881 Y-62.265
N14050 G2 X83.567 Y-62.04 I8.561 J12.314
N14055 X83.234 Y-61.74 I5.838 J6.812
N14060 G1 X83.14 Y-61.635
N14065 X83.06 Y-61.545
N14070 G3 X82.411 Y-61.283 I-0.613 J-0.584
N14075 G1 X82.344 Y-61.289
N14080 X82.341 Y-61.29
N14085 X82.227 Y-61.331
N14090 X82.133 Y-61.409
N14095 X82.072 Y-61.515
N14100 X82.051 Y-61.635
N14105 X82.06 Y-61.679 Z-1.461
N14110 X82.081 Y-61.719 Z-1.423
N14115 X82.113 Y-61.751 Z-1.384
N14120 X82.154 Y-61.772 Z-1.345
N14125 X82.199 Y-61.779 Z-1.306
N14130 X82.206 Y-61.78 Z-1.3
N14135 X82.572 Y-61.785
N14140 X82.942 Y-61.791
N14145 X82.978 Y-61.787
N14150 X83.011 Y-61.775
N14155 X83.041 Y-61.756
N14160 X83.072 Y-61.721 Z-1.34
N14165 X83.09 Y-61.677 Z-1.38
N14170 X83.094 Y-61.631 Z-1.42
N14175 X83.084 Y-61.585 Z-1.46
N14180 X83.06 Y-61.545 Z-1.5
N14185 X83.02 Y-61.5
N14190 X82.981 Y-61.455
N14195 G2 X82.801 Y-61.205 I5.039 J3.819
N14200 G3 X82.527 Y-61.014 I-0.418 J-0.31
N14205 G1 X82.484 Y-61.003
N14210 X82.442 Y-60.995
N14215 X82.436 Y-60.994
N14220 X82.32 Y-61.002
N14225 X82.213 Y-61.048
N14230 X82.126 Y-61.126
N14235 X82.07 Y-61.228
N14240 X82.051 Y-61.343
N14245 X82.06 Y-61.389 Z-1.46
N14250 X82.083 Y-61.43 Z-1.42
N14255 X82.117 Y-61.462 Z-1.38
N14260 X82.16 Y-61.481 Z-1.34
N14265 X82.206 Y-61.487 Z-1.3
N14270 X82.217 Y-61.486
N14275 X82.289 Y-61.479
N14280 X82.691 Y-61.437
N14285 X82.726 Y-61.429
N14290 X82.758 Y-61.413
N14295 X82.793 Y-61.381 Z-1.34
N14300 X82.816 Y-61.34 Z-1.38
N14305 X82.826 Y-61.294 Z-1.42
N14310 X82.82 Y-61.248 Z-1.46
N14315 X82.801 Y-61.205 Z-1.5
N14320 X82.755 Y-61.14
N14325 X82.726 Y-61.095
N14330 X82.7 Y-61.05
N14335 X82.65 Y-60.96
N14340 X82.632 Y-60.931
N14345 X82.532 Y-60.842
N14350 X82.405 Y-60.802
N14355 X82.272 Y-60.816
N14360 X82.157 Y-60.883
N14365 X82.079 Y-60.992
N14370 X82.051 Y-61.122
N14375 X82.06 Y-61.168 Z-1.46
N14380 X82.083 Y-61.209 Z-1.42
N14385 X82.117 Y-61.241 Z-1.38
N14390 X82.16 Y-61.261 Z-1.34
N14395 X82.206 Y-61.267 Z-1.3
N14400 X82.242 Y-61.261
N14405 X82.557 Y-61.172
N14410 X82.584 Y-61.161
N14415 X82.622 Y-61.134 Z-1.34
N14420 X82.65 Y-61.096 Z-1.38
N14425 X82.664 Y-61.051 Z-1.42
N14430 Y-61.004 Z-1.46
N14435 X82.65 Y-60.96 Z-1.5
N14440 X82.6 Y-60.87
N14445 X82.575 Y-60.825
N14450 X82.544 Y-60.766
N14455 X82.535 Y-60.751
N14460 X82.433 Y-60.666
N14465 X82.303 Y-60.64
N14470 X82.176 Y-60.681
N14475 X82.084 Y-60.778
N14480 X82.051 Y-60.907
N14485 X82.06 Y-60.962 Z-1.452
N14490 X82.082 Y-61.013 Z-1.405
N14495 X82.119 Y-61.063 Z-1.352
N14500 X82.166 Y-61.102 Z-1.3
N14505 G3 X82.546 Y-60.994 I0.142 J0.22
N14510 G1 X82.565 Y-60.938 Z-1.35
N14515 X82.571 Y-60.88 Z-1.4
N14520 X82.564 Y-60.821 Z-1.45
N14525 X82.544 Y-60.766 Z-1.5
N14530 X82.527 Y-60.735
N14535 X82.515 Y-60.707
N14540 X82.478 Y-60.62
N14545 X82.471 Y-60.605
N14550 X82.464 Y-60.592
N14555 X82.455 Y-60.58
N14560 X82.446 Y-60.568
N14565 X82.354 Y-60.51
N14570 X82.247 Y-60.501
N14575 X82.147 Y-60.542
N14580 X82.076 Y-60.623
N14585 X82.051 Y-60.728
N14590 X82.056 Y-60.764 Z-1.469
N14595 X82.069 Y-60.798 Z-1.438
N14600 X82.075 Y-60.81 Z-1.427
N14605 X82.105 Y-60.85 Z-1.385
N14610 X82.142 Y-60.883 Z-1.342
N14615 X82.186 Y-60.906 Z-1.3
N14620 G3 X82.441 Y-60.842 I0.083 J0.208
N14625 G1 X82.472 Y-60.792 Z-1.35
N14630 X82.489 Y-60.736 Z-1.4
N14635 X82.491 Y-60.677 Z-1.45
N14640 X82.478 Y-60.62 Z-1.5
N14645 X82.419 Y-60.476
N14650 X82.412 Y-60.463
N14655 X82.405 Y-60.45
N14660 X82.396 Y-60.438
N14665 X82.386 Y-60.426
N14670 X82.374 Y-60.415
N14675 X82.273 Y-60.371
N14680 X82.164 Y-60.388
N14685 X82.082 Y-60.461
N14690 X82.051 Y-60.567
N14695 X82.055 Y-60.598
N14700 X82.066 Y-60.627
N14705 X82.096 Y-60.672
N14710 X82.137 Y-60.706
N14715 X82.186 Y-60.728
N14720 X82.239 Y-60.735
N14725 G3 X82.419 Y-60.476 I0. J0.192
N14730 G1 X82.395 Y-60.42
N14735 X82.373 Y-60.361
N14740 X82.371 Y-60.356
N14745 X82.37 Y-60.352
N14750 X82.364 Y-60.338
N14755 X82.279 Y-60.271
N14760 X82.172 Y-60.268
N14765 X82.085 Y-60.33
N14770 X82.051 Y-60.431
N14775 X82.055 Y-60.456
N14780 X82.063 Y-60.479
N14785 G3 X82.37 Y-60.352 I0.149 J0.074
N14790 G1 X82.361 Y-60.33
N14795 X82.352 Y-60.307
N14800 X82.339 Y-60.285
N14805 X82.335 Y-60.279
N14810 X82.324 Y-60.267
N14815 X82.312 Y-60.255
N14820 X82.301 Y-60.247
N14825 X82.289 Y-60.24
N14830 X82.267 Y-60.23
N14835 X82.245 Y-60.224
N14840 X82.222 Y-60.221
N14845 X82.2
N14850 X82.177 Y-60.223
N14855 X82.155 Y-60.229
N14860 X82.142 Y-60.233
N14865 X82.129 Y-60.24
N14870 X82.11 Y-60.252
N14875 X82.092 Y-60.269
N14880 X82.078 Y-60.285
N14885 X82.071 Y-60.297
N14890 X82.065 Y-60.309
N14895 X82.057 Y-60.33
N14900 X82.052 Y-60.352
N14905 X82.051 Y-60.375
N14910 Y-62.015
N14915 X82.06 Y-62.06
N14920 X82.081 Y-62.101
N14925 X82.114 Y-62.132
N14930 X82.155 Y-62.153
N14935 X82.201 Y-62.16
N14940 G3 X82.265 Y-61.874 I0. J0.15
N14945 G1 X82.237 Y-61.867 Z-1.497
N14950 X82.21 Y-61.86 Z-1.489
N14955 X82.201 Z-1.485
N14960 X82.168 Y-61.869 Z-1.461
N14965 X82.143 Y-61.877 Z-1.429
N14970 X82.127 Y-61.881 Z-1.391
N14975 X82.122 Y-61.883 Z-1.35
N14980 Z5.
N14985 X78.29 Y-63.302
N14990 Z1.15
N14995 Z1.
N15000 Z-2.
N15005 X78.302 Y-63.301
N15010 X78.303 Y-63.297
N15015 Y-63.294
N15020 X78.301 Y-63.286
N15025 X78.296 Y-63.281
N15030 X78.289 Y-63.278
N15035 X78.281
N15040 X78.274 Y-63.28
N15045 X78.268 Y-63.285
N15050 X78.258 Y-63.296
N15055 X78.255 Y-63.311
N15060 X78.259 Y-63.325
N15065 X78.268 Y-63.337
N15070 X78.281 Y-63.345
N15075 X78.296 Y-63.348
N15080 X78.311 Y-63.346
N15085 X78.325 Y-63.341
N15090 X78.337 Y-63.332
N15095 X78.346 Y-63.32
N15100 X78.352 Y-63.306
N15105 X78.354 Y-63.291
N15110 Y-63.276
N15115 X78.35 Y-63.262
N15120 X78.31 Y-63.232
N15125 X78.262 Y-63.244
N15130 X78.241 Y-63.289
N15135 Y-63.336
N15140 Y-63.35
N15145 X78.246 Y-63.365
N15150 X78.253 Y-63.378
N15155 X78.263 Y-63.389
N15160 X78.275 Y-63.398
N15165 X78.288 Y-63.405
N15170 X78.303 Y-63.41
N15175 X78.317 Y-63.413
N15180 X78.332
N15185 X78.347 Y-63.412
N15190 X78.362 Y-63.408
N15195 X78.376 Y-63.403
N15200 X78.389 Y-63.397
N15205 X78.402 Y-63.389
N15210 X78.414 Y-63.379
N15215 X78.424 Y-63.368
N15220 X78.433 Y-63.357
N15225 X78.441 Y-63.344
N15230 X78.448 Y-63.33
N15235 X78.453 Y-63.316
N15240 X78.456 Y-63.302
N15245 X78.458 Y-63.287
N15250 X78.459 Y-63.272
N15255 X78.458 Y-63.257
N15260 X78.419 Y-63.187
N15265 X78.342 Y-63.163
N15270 X78.27 Y-63.197
N15275 X78.241 Y-63.272
N15280 X78.252 Y-63.304 Z-1.993
N15285 X78.261 Y-63.331 Z-1.973
N15290 X78.267 Y-63.349 Z-1.944
N15295 X78.27 Y-63.355 Z-1.91
N15300 Z5.
N15305 X78.241 Y-63.336
N15310 Z1.15
N15315 Z1.
N15320 Z-2. F12.
N15325 Y-63.397 F48.
N15330 Y-63.412
N15335 X78.245 Y-63.427
N15340 X78.251 Y-63.44
N15345 X78.259 Y-63.453
N15350 X78.268 Y-63.465
N15355 X78.279 Y-63.475
N15360 X78.291 Y-63.484
N15365 X78.304 Y-63.492
N15370 X78.317 Y-63.499
N15375 X78.331 Y-63.504
N15380 G3 X78.581 Y-63.414 I0.063 J0.215
N15385 G1 X78.593 Y-63.396
N15390 X78.605 Y-63.375
N15395 X78.614 Y-63.353
N15400 X78.622 Y-63.331
N15405 X78.627 Y-63.31
N15410 X78.631 Y-63.289
N15415 X78.633 Y-63.268
N15420 Y-63.248
N15425 X78.632 Y-63.229
N15430 X78.581 Y-63.125
N15435 X78.481 Y-63.067
N15440 X78.365 Y-63.076
N15445 X78.275 Y-63.148
N15450 X78.241 Y-63.259
N15455 X78.249 Y-63.305 Z-1.96
N15460 X78.272 Y-63.346 Z-1.92
N15465 X78.306 Y-63.378 Z-1.88
N15470 X78.349 Y-63.397 Z-1.84
N15475 X78.396 Y-63.403 Z-1.8
N15480 G3 X78.433 Y-63.11 I-0.005 J0.15
N15485 G1 X78.46 Y-63.109
N15490 X78.414 Y-63.128
N15495 X78.371 Y-63.154
N15500 X78.333 Y-63.186
N15505 X78.295 Y-63.232 Z-1.85
N15510 X78.266 Y-63.283 Z-1.9
N15515 X78.248 Y-63.339 Z-1.95
N15520 X78.241 Y-63.397 Z-2.
N15525 Y-63.48
N15530 Y-63.487
N15535 Y-63.491
N15540 Y-63.494
N15545 X78.242 Y-63.509
N15550 X78.246 Y-63.523
N15555 X78.251 Y-63.537
N15560 X78.258 Y-63.551
N15565 X78.266 Y-63.563
N15570 X78.275 Y-63.576
N15575 X78.286 Y-63.589
N15580 X78.298 Y-63.601
N15585 X78.312 Y-63.613
N15590 X78.328 Y-63.625
N15595 X78.346 Y-63.635
N15600 X78.388 Y-63.653
N15605 X78.432 Y-63.663
N15610 X78.477 Y-63.667
N15615 X78.522 Y-63.659 Z-1.961
N15620 X78.564 Y-63.642 Z-1.923
N15625 X78.6 Y-63.615 Z-1.884
N15630 X78.629 Y-63.58 Z-1.846
N15635 X78.648 Y-63.539 Z-1.807
N15640 X78.651 Y-63.531 Z-1.8
N15645 X78.658 Y-63.49
N15650 X78.656 Y-63.448
N15655 X78.644 Y-63.408
N15660 X78.624 Y-63.372
N15665 X78.591 Y-63.334
N15670 X78.549 Y-63.306
N15675 X78.502 Y-63.288
N15680 X78.452 Y-63.282
N15685 X78.404 Y-63.287
N15690 X78.359 Y-63.304
N15695 X78.319 Y-63.329 Z-1.84
N15700 X78.286 Y-63.362 Z-1.88
N15705 X78.261 Y-63.402 Z-1.92
N15710 X78.246 Y-63.447 Z-1.96
N15715 X78.241 Y-63.494 Z-2.
N15720 X78.242 Y-63.525
N15725 X78.248 Y-63.547
N15730 X78.257 Y-63.57
N15735 X78.269 Y-63.589
N15740 X78.285 Y-63.608
N15745 X78.29 Y-63.615
N15750 X78.31 Y-63.634
N15755 X78.33 Y-63.647
N15760 X78.344 Y-63.654
N15765 X78.359 Y-63.66
N15770 X78.375 Y-63.664
N15775 X78.397 Y-63.666
N15780 X78.42 Y-63.667
N15785 X78.489
N15790 G3 X78.858 Y-63.396 I-0.008 J0.398
N15795 G1 X78.875 Y-63.266
N15800 X78.843 Y-63.139
N15805 X78.766 Y-63.033
N15810 X78.655 Y-62.963
N15815 X78.526 Y-62.938
N15820 X78.42
N15825 X78.381 Y-62.94
N15830 X78.375 Y-62.941
N15835 X78.352 Y-62.947
N15840 X78.33 Y-62.957
N15845 X78.312 Y-62.969
N15850 X78.294 Y-62.985
N15855 X78.285 Y-62.994
N15860 X78.269 Y-63.012
N15865 X78.258 Y-63.03
N15870 X78.248 Y-63.052
N15875 X78.243 Y-63.075
N15880 X78.241 Y-63.12
N15885 Y-63.259
N15890 X78.253 Y-63.382
N15895 X78.28 Y-63.504
N15900 G3 X78.489 Y-63.667 I0.217 J0.063
N15905 G1 X78.759
N15910 X78.789 Y-63.665
N15915 X78.813 Y-63.662
N15920 G3 X79.053 Y-63.496 I-0.077 J0.368
N15925 G1 X79.075 Y-63.461
N15930 X79.093 Y-63.426
N15935 X79.095 Y-63.423
N15940 X79.122 Y-63.289
N15945 X79.095 Y-63.155
N15950 X79.02 Y-63.041
N15955 X78.906 Y-62.965
N15960 X78.772 Y-62.938
N15965 X78.526
N15970 X78.48 Y-62.947 Z-1.96
N15975 X78.439 Y-62.97 Z-1.92
N15980 X78.407 Y-63.004 Z-1.88
N15985 X78.387 Y-63.046 Z-1.84
N15990 X78.381 Y-63.093 Z-1.8
N15995 X78.387 Y-63.127
N16000 X78.4 Y-63.16
N16005 X78.595 Y-63.518
N16010 X78.633 Y-63.588 Z-1.868
N16015 X78.656 Y-63.62 Z-1.901
N16020 X78.686 Y-63.644 Z-1.934
N16025 X78.721 Y-63.66 Z-1.967
N16030 X78.759 Y-63.667 Z-2.
N16035 X79.005
N16040 X79.036 Y-63.665
N16045 G3 X79.276 Y-63.526 I-0.047 J0.357
N16050 G1 X79.301 Y-63.493
N16055 X79.321 Y-63.46
N16060 X79.338 Y-63.427
N16065 X79.34 Y-63.423
N16070 X79.367 Y-63.289
N16075 X79.341 Y-63.155
N16080 X79.265 Y-63.041
N16085 X79.151 Y-62.965
N16090 X79.017 Y-62.938
N16095 X78.772
N16100 X78.726 Y-62.947 Z-1.96
N16105 X78.685 Y-62.97 Z-1.92
N16110 X78.653 Y-63.004 Z-1.88
N16115 X78.633 Y-63.046 Z-1.84
N16120 X78.627 Y-63.093 Z-1.8
N16125 X78.632 Y-63.127
N16130 X78.645 Y-63.159
N16135 X78.84 Y-63.518
N16140 X78.878 Y-63.588 Z-1.868
N16145 X78.901 Y-63.62 Z-1.901
N16150 X78.931 Y-63.644 Z-1.934
N16155 X78.966 Y-63.66 Z-1.967
N16160 X79.005 Y-63.667 Z-2.
N16165 X79.254
N16170 X79.281 Y-63.665
N16175 G3 X79.521 Y-63.526 I-0.047 J0.358
N16180 G1 X79.546 Y-63.493
N16185 X79.567 Y-63.46
N16190 X79.584 Y-63.427
N16195 X79.586 Y-63.423
N16200 X79.613 Y-63.289
N16205 X79.586 Y-63.155
N16210 X79.51 Y-63.041
N16215 X79.397 Y-62.965
N16220 X79.263 Y-62.938
N16225 X79.017
N16230 X78.971 Y-62.947 Z-1.96
N16235 X78.93 Y-62.97 Z-1.92
N16240 X78.898 Y-63.004 Z-1.88
N16245 X78.878 Y-63.046 Z-1.84
N16250 X78.872 Y-63.093 Z-1.8
N16255 X78.873 Y-63.096
N16260 X78.878 Y-63.129
N16265 X78.891 Y-63.16
N16270 X79.089 Y-63.518
N16275 X79.128 Y-63.589 Z-1.869
N16280 X79.151 Y-63.62 Z-1.902
N16285 X79.181 Y-63.644 Z-1.934
N16290 X79.216 Y-63.66 Z-1.967
N16295 X79.254 Y-63.667 Z-2.
N16300 X79.5
N16305 X79.527 Y-63.665
N16310 G3 X79.767 Y-63.526 I-0.047 J0.358
N16315 G1 X79.792 Y-63.493
N16320 X79.812 Y-63.46
N16325 X79.829 Y-63.427
N16330 X79.831 Y-63.423
N16335 X79.858 Y-63.289
N16340 X79.832 Y-63.155
N16345 X79.756 Y-63.041
N16350 X79.642 Y-62.965
N16355 X79.508 Y-62.938
N16360 X79.263
N16365 X79.217 Y-62.947 Z-1.96
N16370 X79.176 Y-62.97 Z-1.92
N16375 X79.144 Y-63.004 Z-1.88
N16380 X79.124 Y-63.046 Z-1.84
N16385 X79.118 Y-63.093 Z-1.8
N16390 Y-63.096
N16395 X79.124 Y-63.129
N16400 X79.137 Y-63.16
N16405 X79.334 Y-63.518
N16410 X79.374 Y-63.589 Z-1.869
N16415 X79.396 Y-63.62 Z-1.901
N16420 X79.426 Y-63.644 Z-1.934
N16425 X79.462 Y-63.66 Z-1.967
N16430 X79.5 Y-63.667 Z-2.
N16435 X79.749
N16440 X79.772 Y-63.665
N16445 G3 X80.013 Y-63.526 I-0.047 J0.358
N16450 G1 X80.037 Y-63.493
N16455 X80.058 Y-63.46
N16460 X80.075 Y-63.428
N16465 X80.077 Y-63.423
N16470 X80.104 Y-63.289
N16475 X80.077 Y-63.155
N16480 X80.002 Y-63.041
N16485 X79.888 Y-62.965
N16490 X79.754 Y-62.938
N16495 X79.508
N16500 X79.462 Y-62.947 Z-1.96
N16505 X79.421 Y-62.97 Z-1.92
N16510 X79.389 Y-63.004 Z-1.88
N16515 X79.369 Y-63.046 Z-1.84
N16520 X79.364 Y-63.093 Z-1.8
N16525 Y-63.098
N16530 X79.37 Y-63.131
N16535 X79.383 Y-63.161
N16540 X79.584 Y-63.519
N16545 X79.624 Y-63.59 Z-1.87
N16550 X79.647 Y-63.621 Z-1.902
N16555 X79.677 Y-63.645 Z-1.935
N16560 X79.712 Y-63.66 Z-1.967
N16565 X79.749 Y-63.667 Z-2.
N16570 X79.995
N16575 X80.018 Y-63.665
N16580 G3 X80.258 Y-63.526 I-0.047 J0.358
N16585 G1 X80.283 Y-63.493
N16590 X80.304 Y-63.46
N16595 X80.32 Y-63.428
N16600 X80.322 Y-63.423
N16605 X80.349 Y-63.289
N16610 X80.323 Y-63.155
N16615 X80.247 Y-63.041
N16620 X80.134 Y-62.965
N16625 X79.999 Y-62.938
N16630 X79.754
N16635 X79.708 Y-62.947 Z-1.96
N16640 X79.667 Y-62.97 Z-1.92
N16645 X79.635 Y-63.004 Z-1.88
N16650 X79.615 Y-63.046 Z-1.84
N16655 X79.609 Y-63.093 Z-1.8
N16660 Y-63.098
N16665 X79.615 Y-63.131
N16670 X79.628 Y-63.161
N16675 X79.829 Y-63.519
N16680 X79.869 Y-63.59 Z-1.87
N16685 X79.892 Y-63.621 Z-1.902
N16690 X79.922 Y-63.645 Z-1.935
N16695 X79.957 Y-63.66 Z-1.967
N16700 X79.995 Y-63.667 Z-2.
N16705 X80.244
N16710 X80.263 Y-63.666
N16715 G3 X80.504 Y-63.526 I-0.047 J0.358
N16720 G1 X80.529 Y-63.493
N16725 X80.549 Y-63.46
N16730 X80.566 Y-63.428
N16735 X80.568 Y-63.423
N16740 X80.595 Y-63.289
N16745 X80.569 Y-63.155
N16750 X80.493 Y-63.041
N16755 X80.379 Y-62.965
N16760 X80.245 Y-62.938
N16765 X79.999
N16770 X79.953 Y-62.947 Z-1.96
N16775 X79.912 Y-62.97 Z-1.92
N16780 X79.88 Y-63.004 Z-1.88
N16785 X79.861 Y-63.046 Z-1.84
N16790 X79.855 Y-63.093 Z-1.8
N16795 Y-63.1
N16800 X79.861 Y-63.132
N16805 X79.874 Y-63.162
N16810 X80.078 Y-63.519
N16815 X80.119 Y-63.591 Z-1.87
N16820 X80.142 Y-63.621 Z-1.903
N16825 X80.172 Y-63.645 Z-1.935
N16830 X80.207 Y-63.66 Z-1.968
N16835 X80.244 Y-63.667 Z-2.
N16840 X80.49
N16845 X80.509 Y-63.666
N16850 G3 X80.75 Y-63.526 I-0.047 J0.358
N16855 G1 X80.774 Y-63.493
N16860 X80.795 Y-63.46
N16865 X80.812 Y-63.428
N16870 X80.814 Y-63.423
N16875 X80.841 Y-63.289
N16880 X80.814 Y-63.155
N16885 X80.739 Y-63.041
N16890 X80.625 Y-62.965
N16895 X80.491 Y-62.938
N16900 X80.245
N16905 X80.199 Y-62.947 Z-1.96
N16910 X80.158 Y-62.97 Z-1.92
N16915 X80.126 Y-63.004 Z-1.88
N16920 X80.106 Y-63.046 Z-1.84
N16925 X80.1 Y-63.093 Z-1.8
N16930 X80.101 Y-63.1
N16935 X80.107 Y-63.132
N16940 X80.12 Y-63.162
N16945 X80.323 Y-63.519
N16950 X80.365 Y-63.591 Z-1.87
N16955 X80.387 Y-63.621 Z-1.903
N16960 X80.417 Y-63.645 Z-1.935
N16965 X80.452 Y-63.66 Z-1.968
N16970 X80.49 Y-63.667 Z-2.
N16975 X80.739
N16980 X80.755 Y-63.666
N16985 G3 X80.995 Y-63.526 I-0.047 J0.358
N16990 G1 X81.02 Y-63.494
N16995 X81.041 Y-63.46
N17000 X81.058 Y-63.428
N17005 X81.06 Y-63.423
N17010 X81.087 Y-63.289
N17015 X81.06 Y-63.155
N17020 X80.984 Y-63.041
N17025 X80.871 Y-62.965
N17030 X80.737 Y-62.938
N17035 X80.491
N17040 X80.445 Y-62.947 Z-1.96
N17045 X80.404 Y-62.97 Z-1.92
N17050 X80.372 Y-63.004 Z-1.88
N17055 X80.352 Y-63.046 Z-1.84
N17060 X80.346 Y-63.093 Z-1.8
N17065 X80.347 Y-63.102
N17070 X80.353 Y-63.133
N17075 X80.366 Y-63.163
N17080 X80.573 Y-63.519
N17085 X80.615 Y-63.592 Z-1.871
N17090 X80.638 Y-63.622 Z-1.903
N17095 X80.667 Y-63.645 Z-1.936
N17100 X80.702 Y-63.66 Z-1.968
N17105 X80.739 Y-63.667 Z-2.
N17110 X80.985
N17115 X81.001 Y-63.666
N17120 G3 X81.241 Y-63.526 I-0.047 J0.358
N17125 G1 X81.266 Y-63.494
N17130 X81.286 Y-63.46
N17135 X81.303 Y-63.428
N17140 X81.305 Y-63.423
N17145 X81.332 Y-63.289
N17150 X81.306 Y-63.155
N17155 X81.23 Y-63.041
N17160 X81.117 Y-62.965
N17165 X80.982 Y-62.938
N17170 X80.737
N17175 X80.691 Y-62.947 Z-1.96
N17180 X80.65 Y-62.97 Z-1.92
N17185 X80.618 Y-63.004 Z-1.88
N17190 X80.598 Y-63.046 Z-1.84
N17195 X80.592 Y-63.093 Z-1.8
N17200 X80.593 Y-63.102
N17205 X80.599 Y-63.133
N17210 X80.612 Y-63.163
N17215 X80.818 Y-63.519
N17220 X80.86 Y-63.592 Z-1.871
N17225 X80.883 Y-63.622 Z-1.903
N17230 X80.913 Y-63.645 Z-1.936
N17235 X80.947 Y-63.66 Z-1.968
N17240 X80.985 Y-63.667 Z-2.
N17245 X81.223
N17250 X81.247 Y-63.665
N17255 G3 X81.487 Y-63.526 I-0.047 J0.358
N17260 G1 X81.512 Y-63.493
N17265 X81.532 Y-63.46
N17270 X81.549 Y-63.428
N17275 X81.551 Y-63.423
N17280 X81.577 Y-63.312
N17285 X81.566 Y-63.198
N17290 X81.519 Y-63.094
N17295 X81.441 Y-63.01
N17300 X81.34 Y-62.956
N17305 X81.228 Y-62.938
N17310 X80.982
N17315 X80.936 Y-62.947 Z-1.96
N17320 X80.895 Y-62.97 Z-1.92
N17325 X80.863 Y-63.004 Z-1.88
N17330 X80.844 Y-63.046 Z-1.84
N17335 X80.838 Y-63.093 Z-1.8
N17340 Y-63.098
N17345 X80.844 Y-63.131
N17350 X80.857 Y-63.161
N17355 X81.058 Y-63.519
N17360 X81.098 Y-63.59 Z-1.87
N17365 X81.12 Y-63.621 Z-1.902
N17370 X81.15 Y-63.645 Z-1.935
N17375 X81.185 Y-63.66 Z-1.967
N17380 X81.223 Y-63.667 Z-2.
N17385 X81.459
N17390 G3 X81.712 Y-63.549 I-0.006 J0.343
N17395 G1 X81.737 Y-63.522
N17400 X81.758 Y-63.493
N17405 X81.776 Y-63.465
N17410 X81.793 Y-63.432
N17415 X81.81 Y-63.392
N17420 X81.814 Y-63.38
N17425 X81.831 Y-63.262
N17430 X81.807 Y-63.146
N17435 X81.746 Y-63.043
N17440 X81.655 Y-62.968
N17445 X81.543 Y-62.927
N17450 X81.424 Y-62.926
N17455 X81.384 Y-62.94 Z-1.964
N17460 X81.35 Y-62.964 Z-1.929
N17465 X81.324 Y-62.997 Z-1.893
N17470 X81.308 Y-63.035 Z-1.858
N17475 X81.303 Y-63.077 Z-1.822
N17480 X81.304 Y-63.103 Z-1.8
N17485 X81.314 Y-63.511
N17490 X81.315 Y-63.52 Z-1.808
N17495 X81.323 Y-63.565 Z-1.846
N17500 X81.343 Y-63.605 Z-1.885
N17505 X81.375 Y-63.637 Z-1.923
N17510 X81.415 Y-63.658 Z-1.962
N17515 X81.459 Y-63.667 Z-2.
N17520 X81.705
N17525 X81.738 Y-63.665
N17530 G3 X81.965 Y-63.548 I-0.043 J0.361
N17535 X82.096 Y-63.26 I-0.352 J0.333
N17540 G1 X82.099 Y-63.219
N17545 Y-63.178
N17550 X82.098 Y-63.161
N17555 X82.061 Y-63.032
N17560 X81.979 Y-62.927
N17565 X81.863 Y-62.86
N17570 X81.731 Y-62.841
N17575 X81.601 Y-62.874
N17580 X81.565 Y-62.899 Z-1.962
N17585 X81.538 Y-62.934 Z-1.925
N17590 X81.522 Y-62.975 Z-1.887
N17595 X81.52 Y-63.019 Z-1.85
N17600 X81.522 Y-63.046 Z-1.827
N17605 X81.524 Y-63.078 Z-1.8
N17610 X81.559 Y-63.512
N17615 X81.56 Y-63.529 Z-1.815
N17620 X81.57 Y-63.571 Z-1.852
N17625 X81.591 Y-63.609 Z-1.889
N17630 X81.623 Y-63.639 Z-1.926
N17635 X81.662 Y-63.659 Z-1.963
N17640 X81.705 Y-63.667 Z-2.
N17645 X81.975
N17650 X81.992 Y-63.666
N17655 X82.054 Y-63.653
N17660 X82.113 Y-63.631
N17665 X82.168 Y-63.599
N17670 X82.218 Y-63.559
N17675 G3 X82.393 Y-63.165 I-0.37 J0.401
N17680 X82.335 Y-62.883 I-0.586 J0.025
N17685 G1 X82.261 Y-62.775
N17690 X82.153 Y-62.701
N17695 X82.025 Y-62.672
N17700 X81.896 Y-62.693
N17705 X81.783 Y-62.76
N17710 X81.754 Y-62.798 Z-1.959
N17715 X81.738 Y-62.843 Z-1.918
N17720 X81.737 Y-62.891 Z-1.877
N17725 X81.75 Y-62.981 Z-1.8
N17730 X81.759 Y-63.04
N17735 X81.827 Y-63.512
N17740 X81.831 Y-63.538 Z-1.823
N17745 X81.843 Y-63.578 Z-1.858
N17750 X81.865 Y-63.613 Z-1.894
N17755 X81.896 Y-63.641 Z-1.929
N17760 X81.934 Y-63.659 Z-1.965
N17765 X81.975 Y-63.667 Z-2.
N17770 X82.245
N17775 G3 X82.48 Y-63.577 I-0.018 J0.401
N17780 X82.679 Y-63.3 I-0.369 J0.475
N17785 X82.598 Y-62.636 I-0.684 J0.254
N17790 G1 X82.561 Y-62.587
N17795 X82.52 Y-62.541
N17800 X82.479 Y-62.502
N17805 X82.462 Y-62.488
N17810 X82.358 Y-62.43
N17815 X82.24 Y-62.41
N17820 X82.122 Y-62.43
N17825 X82.018 Y-62.489
N17830 X81.94 Y-62.58
N17835 X81.926 Y-62.615 Z-1.968
N17840 X81.921 Y-62.652 Z-1.936
N17845 Y-62.653 Z-1.935
N17850 X81.924 Y-62.683 Z-1.909
N17855 X81.95 Y-62.809 Z-1.8
N17860 X81.999 Y-63.045
N17865 X82.096 Y-63.512
N17870 X82.103 Y-63.547 Z-1.83
N17875 X82.116 Y-63.585 Z-1.864
N17880 X82.139 Y-63.617 Z-1.898
N17885 X82.169 Y-63.643 Z-1.932
N17890 X82.205 Y-63.66 Z-1.966
N17895 X82.245 Y-63.667 Z-2.
N17900 X82.539
N17905 X82.564 Y-63.665
N17910 G3 X82.803 Y-63.565 I-0.053 J0.462
N17915 X83.007 Y-63.306 I-0.418 J0.539
N17920 X83.086 Y-62.896 I-0.787 J0.363
N17925 X82.917 Y-62.394 I-0.954 J-0.041
N17930 X82.625 Y-62.135 I-0.685 J-0.479
N17935 G1 X82.562 Y-62.105
N17940 X82.503 Y-62.083
N17945 X82.448 Y-62.067
N17950 X82.447
N17955 X82.335 Y-62.063
N17960 X82.228 Y-62.094
N17965 X82.136 Y-62.157
N17970 X82.068 Y-62.246
N17975 X82.032 Y-62.351
N17980 Y-62.384 Z-1.972
N17985 X82.038 Y-62.417 Z-1.944
N17990 X82.089 Y-62.578 Z-1.8
N17995 X82.233 Y-63.032
N18000 X82.242 Y-63.059
N18005 X82.386 Y-63.513
N18010 X82.402 Y-63.562 Z-1.843
N18015 X82.422 Y-63.603 Z-1.883
N18020 X82.454 Y-63.636 Z-1.922
N18025 X82.494 Y-63.658 Z-1.961
N18030 X82.539 Y-63.667 Z-2.
N18035 X82.854
N18040 G3 X83.113 Y-63.583 I-0.011 J0.477
N18045 X83.318 Y-63.379 I-0.385 J0.593
N18050 X83.442 Y-63.109 I-0.757 J0.512
N18055 G1 X83.461 Y-63.028
N18060 X83.475 Y-62.943
N18065 X83.481 Y-62.855
N18070 G3 X83.433 Y-62.483 I-1.175 J0.038
N18075 X83.264 Y-62.131 I-1.171 J-0.345
N18080 G1 X83.205 Y-62.052
N18085 X83.139 Y-61.978
N18090 X83.068 Y-61.911
N18095 G3 X82.789 Y-61.734 I-0.694 J-0.788
N18100 X82.514 Y-61.666 I-0.355 J-0.841
N18105 G1 X82.444 Y-61.663
N18110 X82.374 Y-61.666
N18115 X82.358 Y-61.668
N18120 X82.238 Y-61.706
N18125 X82.139 Y-61.783
N18130 X82.074 Y-61.891
N18135 X82.051 Y-62.015
N18140 Y-62.175
N18145 X82.055 Y-62.206 Z-1.973
N18150 X82.066 Y-62.235 Z-1.947
N18155 X82.142 Y-62.39 Z-1.8
N18160 X82.351 Y-62.818
N18165 X82.483 Y-63.089
N18170 X82.693 Y-63.517
N18175 X82.725 Y-63.582 Z-1.862
N18180 X82.747 Y-63.616 Z-1.897
N18185 X82.778 Y-63.642 Z-1.931
N18190 X82.814 Y-63.66 Z-1.966
N18195 X82.854 Y-63.667 Z-2.
N18200 X83.214
N18205 X83.242 Y-63.665
N18210 G3 X83.485 Y-63.576 I-0.059 J0.537
N18215 X83.672 Y-63.406 I-0.419 J0.647
N18220 X83.829 Y-63.125 I-0.786 J0.625
N18225 G1 X83.858 Y-63.037
N18230 X83.881 Y-62.942
N18235 X83.897 Y-62.84
N18240 X83.905 Y-62.736
N18245 X83.904 Y-62.627
N18250 X83.894 Y-62.514
N18255 X83.875 Y-62.399
N18260 X83.864 Y-62.355
N18265 X83.835 Y-62.278
N18270 X83.788 Y-62.21
N18275 X83.727 Y-62.155
N18280 X83.684 Y-62.136 Z-1.96
N18285 X83.638 Y-62.131 Z-1.92
N18290 X83.592 Y-62.14 Z-1.88
N18295 X83.551 Y-62.163 Z-1.84
N18300 X83.519 Y-62.198 Z-1.8
N18305 X83.503 Y-62.232
N18310 X83.36 Y-62.647
N18315 X83.218 Y-63.059
N18320 X83.078 Y-63.468
N18325 X83.07 Y-63.511
N18330 X83.075 Y-63.558 Z-1.84
N18335 X83.095 Y-63.601 Z-1.88
N18340 X83.127 Y-63.635 Z-1.92
N18345 X83.168 Y-63.658 Z-1.96
N18350 X83.214 Y-63.667 Z-2.
N18355 X83.594
N18360 X83.678 Y-63.656
N18365 X83.758 Y-63.633
N18370 X83.834 Y-63.598
N18375 G3 X84.037 Y-63.44 I-0.374 J0.693
N18380 G1 X84.088 Y-63.382
N18385 X84.138 Y-63.314
N18390 X84.184 Y-63.241
N18395 X84.227 Y-63.157
N18400 X84.266 Y-63.063
N18405 X84.299 Y-62.964
N18410 X84.325 Y-62.856
N18415 X84.34 Y-62.757
N18420 Y-62.756
N18425 X84.325 Y-62.625
N18430 X84.262 Y-62.508
N18435 X84.16 Y-62.424
N18440 X84.116 Y-62.409 Z-1.96
N18445 X84.069 Z-1.92
N18450 X84.025 Y-62.424 Z-1.88
N18455 X83.987 Y-62.451 Z-1.84
N18460 X83.959 Y-62.489 Z-1.801
N18465 Z-1.8
N18470 X83.741 Y-62.913
N18475 X83.654 Y-63.083
N18480 X83.466 Y-63.448
N18485 X83.455 Y-63.479
N18490 X83.45 Y-63.511
N18495 X83.456 Y-63.558 Z-1.84
N18500 X83.475 Y-63.601 Z-1.88
N18505 X83.507 Y-63.635 Z-1.92
N18510 X83.548 Y-63.658 Z-1.96
N18515 X83.594 Y-63.667 Z-2.
N18520 X83.979
N18525 G3 X84.25 Y-63.592 I-0.012 J0.575
N18530 X84.47 Y-63.421 I-0.405 J0.749
N18535 X84.68 Y-63.086 I-0.7 J0.671
N18540 G1 X84.702 Y-63.019
N18545 X84.709 Y-62.987
N18550 X84.717 Y-62.864
N18555 X84.681 Y-62.746
N18560 X84.607 Y-62.648
N18565 X84.503 Y-62.582
N18570 X84.462 Y-62.573 Z-1.964
N18575 X84.42 Y-62.575 Z-1.929
N18580 X84.381 Y-62.589 Z-1.893
N18585 X84.347 Y-62.614 Z-1.858
N18590 X84.321 Y-62.647 Z-1.822
N18595 X84.308 Y-62.669 Z-1.8
N18600 X84.067 Y-63.08
N18605 X84.059 Y-63.094
N18610 X83.855 Y-63.441
N18615 X83.84 Y-63.475
N18620 X83.835 Y-63.511
N18625 X83.84 Y-63.558 Z-1.84
N18630 X83.86 Y-63.601 Z-1.88
N18635 X83.892 Y-63.635 Z-1.92
N18640 X83.933 Y-63.658 Z-1.96
N18645 X83.979 Y-63.667 Z-2.
N18650 X84.404
