%
(BULK_CONTOURING)
(MACHINE)
(  VENDOR AUTODESK)
(  MODEL GENERIC 3-AXIS)
(  DESCRIPTION THIS MACHINE HAS XY AXIS ON THE TABLE AND Z AXIS ON THE HEAD)
(T0 D=1.5 CR=0. - ZMIN=-2.6 - FLAT END MILL)
N10 G90 G94 G17 G91.1
N15 G21
(WHEN USING FUSION 360 FOR PERSONAL USE, THE FEEDRATE OF)
(RAPID MOVES IS REDUCED TO MATCH THE FEEDRATE OF CUTTING)
(MOVES, WHICH CAN INCREASE MACHINING TIME. UNRESTRICTED RAPID)
(MOVES ARE AVAILABLE WITH A FUSION 360 SUBSCRIPTION.)
N20 G28 G91 Z0.
N25 G90
(BULK_CONTOURING)
N30 T0 M6
N35 S12000 M3
N40 G17 G90 G94
N45 G54
N50 M8
N55 G0 X78.29 Y-63.302
N60 G43 Z15. H0
N65 G1 Z5. F48.
N70 Z-0.5
N75 Z0.
N80 X78.293 Y-63.3
N85 Y-63.237
N90 Y-63.19 Z-0.007
N95 Y-63.149 Z-0.029
N100 Y-63.115 Z-0.062
N105 Y-63.094 Z-0.104
N110 Y-63.087 Z-0.15
N115 Z-0.35
N120 Y-63.08 Z-0.396
N125 Y-63.059 Z-0.437
N130 Y-63.026 Z-0.47
N135 Y-62.985 Z-0.492
N140 Y-62.94 Z-0.5
N145 X78.29 Y-62.938
N150 X64.301
N155 G2 X63.551 Y-62.188 I0. J0.75
N160 G1 Y-28.188
N165 G2 X64.301 Y-27.438 I0.75 J0.
N170 G1 X81.301
N175 G2 X82.051 Y-28.188 I0. J-0.75
N180 G1 Y-62.188
N185 G2 X81.301 Y-62.938 I-0.75 J0.
N190 G1 X78.29
N195 Z5.
N200 Y-63.302
N205 Z-1.
N210 Z-0.5
N215 X78.293 Y-63.3
N220 Y-63.237
N225 Y-63.19 Z-0.507
N230 Y-63.149 Z-0.529
N235 Y-63.115 Z-0.562
N240 Y-63.094 Z-0.604
N245 Y-63.087 Z-0.65
N250 Z-0.85
N255 Y-63.08 Z-0.896
N260 Y-63.059 Z-0.937
N265 Y-63.026 Z-0.97
N270 Y-62.985 Z-0.992
N275 Y-62.94 Z-1.
N280 X78.29 Y-62.938
N285 X64.301
N290 G2 X63.551 Y-62.188 I0. J0.75
N295 G1 Y-28.188
N300 G2 X64.301 Y-27.438 I0.75 J0.
N305 G1 X81.301
N310 G2 X82.051 Y-28.188 I0. J-0.75
N315 G1 Y-62.188
N320 G2 X81.301 Y-62.938 I-0.75 J0.
N325 G1 X78.29
N330 Z5.
N335 Y-63.302
N340 Z-1.5
N345 Z-1.
N350 X78.293 Y-63.3
N355 Y-63.237
N360 Y-63.19 Z-1.007
N365 Y-63.149 Z-1.029
N370 Y-63.115 Z-1.062
N375 Y-63.094 Z-1.104
N380 Y-63.087 Z-1.15
N385 Z-1.35
N390 Y-63.08 Z-1.396
N395 Y-63.059 Z-1.437
N400 Y-63.026 Z-1.47
N405 Y-62.985 Z-1.492
N410 Y-62.94 Z-1.5
N415 X78.29 Y-62.938
N420 X64.301
N425 G2 X63.551 Y-62.188 I0. J0.75
N430 G1 Y-28.188
N435 G2 X64.301 Y-27.438 I0.75 J0.
N440 G1 X81.301
N445 G2 X82.051 Y-28.188 I0. J-0.75
N450 G1 Y-62.188
N455 G2 X81.301 Y-62.938 I-0.75 J0.
N460 G1 X78.29
N465 Z5.
N470 Y-63.302
N475 Z-2.
N480 Z-1.5
N485 X78.293 Y-63.3
N490 Y-63.237
N495 Y-63.19 Z-1.507
N500 Y-63.149 Z-1.529
N505 Y-63.115 Z-1.562
N510 Y-63.094 Z-1.604
N515 Y-63.087 Z-1.65
N520 Z-1.85
N525 Y-63.08 Z-1.896
N530 Y-63.059 Z-1.937
N535 Y-63.026 Z-1.97
N540 Y-62.985 Z-1.992
N545 Y-62.94 Z-2.
N550 X78.29 Y-62.938
N555 X64.301
N560 G2 X63.551 Y-62.188 I0. J0.75
N565 G1 Y-28.188
N570 G2 X64.301 Y-27.438 I0.75 J0.
N575 G1 X81.301
N580 G2 X82.051 Y-28.188 I0. J-0.75
N585 G1 Y-62.188
N590 G2 X81.301 Y-62.938 I-0.75 J0.
N595 G1 X78.29
N600 Z5.
N605 Y-63.302
N610 Z-2.3
N615 Z-1.8
N620 X78.293 Y-63.3
N625 Y-63.237
N630 Y-63.19 Z-1.807
N635 Y-63.149 Z-1.829
N640 Y-63.115 Z-1.862
N645 Y-63.094 Z-1.904
N650 Y-63.087 Z-1.95
N655 Z-2.15
N660 Y-63.08 Z-2.196
N665 Y-63.059 Z-2.237
N670 Y-63.026 Z-2.27
N675 Y-62.985 Z-2.292
N680 Y-62.94 Z-2.3
N685 X78.29 Y-62.938
N690 X64.301
N695 G2 X63.551 Y-62.188 I0. J0.75
N700 G1 Y-28.188
N705 G2 X64.301 Y-27.438 I0.75 J0.
N710 G1 X81.301
N715 G2 X82.051 Y-28.188 I0. J-0.75
N720 G1 Y-62.188
N725 G2 X81.301 Y-62.938 I-0.75 J0.
N730 G1 X78.29
N735 Z5.
N740 Y-63.302
N745 Z-2.6
N750 Z-2.1
N755 X78.293 Y-63.3
N760 Y-63.237
N765 Y-63.19 Z-2.107
N770 Y-63.149 Z-2.129
N775 Y-63.115 Z-2.162
N780 Y-63.094 Z-2.204
N785 Y-63.087 Z-2.25
N790 Z-2.45
N795 Y-63.08 Z-2.496
N800 Y-63.059 Z-2.537
N805 Y-63.026 Z-2.57
N810 Y-62.985 Z-2.592
N815 Y-62.94 Z-2.6
N820 X78.29 Y-62.938
N825 X64.301
N830 G2 X63.551 Y-62.188 I0. J0.75
N835 G1 Y-28.188
N840 G2 X64.301 Y-27.438 I0.75 J0.
N845 G1 X81.301
N850 G2 X82.051 Y-28.188 I0. J-0.75
N855 G1 Y-62.188
N860 G2 X81.301 Y-62.938 I-0.75 J0.
N865 G1 X78.29
N870 Z5.
N875 X65.991 Y-84.216
N880 Z-0.5
N885 Z0.
N890 X65.993 Y-84.218
N895 X66.031 Z-0.007
N900 X66.065 Z-0.025
N905 X66.092 Z-0.053
N910 X66.11 Z-0.088
N915 X66.116 Z-0.126
N920 Z-0.374
N925 X66.121 Z-0.412
N930 X66.139 Z-0.447
N935 X66.166 Z-0.475
N940 X66.2 Z-0.493
N945 X66.239 Z-0.5
N950 X66.241 Y-84.216
N955 Y-64.416
N960 G2 X66.991 Y-63.667 I0.75 J0.
N965 G1 X83.991
N970 G2 X84.741 Y-64.416 I0. J-0.75
N975 G1 Y-98.416
N980 G2 X83.991 Y-99.166 I-0.75 J0.
N985 G1 X66.991
N990 G2 X66.241 Y-98.416 I0. J0.75
N995 G1 Y-84.216
N1000 Z5.
N1005 X46.991
N1010 Z-0.5
N1015 Z0.
N1020 X46.993 Y-84.218
N1025 X47.031 Z-0.007
N1030 X47.065 Z-0.025
N1035 X47.092 Z-0.053
N1040 X47.11 Z-0.088
N1045 X47.116 Z-0.126
N1050 Z-0.374
N1055 X47.121 Z-0.412
N1060 X47.139 Z-0.447
N1065 X47.166 Z-0.475
N1070 X47.2 Z-0.493
N1075 X47.238 Z-0.5
N1080 X47.241 Y-84.216
N1085 Y-64.416
N1090 G2 X47.991 Y-63.667 I0.75 J0.
N1095 G1 X64.991
N1100 G2 X65.741 Y-64.416 I0. J-0.75
N1105 G1 Y-98.416
N1110 G2 X64.991 Y-99.166 I-0.75 J0.
N1115 G1 X47.991
N1120 G2 X47.241 Y-98.416 I0. J0.75
N1125 G1 Y-84.216
N1130 Z5.
N1135 X46.991
N1140 Z-0.5
N1145 Z0.
N1150 X46.988 Y-84.215
N1155 X46.95 Z-0.007
N1160 X46.916 Z-0.025
N1165 X46.889 Z-0.053
N1170 X46.871 Z-0.088
N1175 X46.866 Z-0.126
N1180 Z-0.374
N1185 X46.86 Z-0.412
N1190 X46.842 Z-0.447
N1195 X46.815 Z-0.475
N1200 X46.781 Z-0.493
N1205 X46.743 Z-0.5
N1210 X46.741 Y-84.216
N1215 Y-98.416
N1220 G2 X45.991 Y-99.166 I-0.75 J0.
N1225 G1 X28.99
N1230 G2 X28.24 Y-98.416 I0. J0.75
N1235 G1 Y-64.416
N1240 G2 X28.99 Y-63.667 I0.75 J0.
N1245 G1 X45.991
N1250 G2 X46.741 Y-64.416 I0. J-0.75
N1255 G1 Y-84.216
N1260 Z5.
N1265 X46.991
N1270 Z-1.
N1275 Z-0.5
N1280 X46.988 Y-84.215
N1285 X46.95 Z-0.507
N1290 X46.916 Z-0.525
N1295 X46.889 Z-0.553
N1300 X46.871 Z-0.588
N1305 X46.866 Z-0.626
N1310 Z-0.874
N1315 X46.86 Z-0.912
N1320 X46.842 Z-0.947
N1325 X46.815 Z-0.975
N1330 X46.781 Z-0.993
N1335 X46.743 Z-1.
N1340 X46.741 Y-84.216
N1345 Y-98.416
N1350 G2 X45.991 Y-99.166 I-0.75 J0.
N1355 G1 X28.99
N1360 G2 X28.24 Y-98.416 I0. J0.75
N1365 G1 Y-64.416
N1370 G2 X28.99 Y-63.667 I0.75 J0.
N1375 G1 X45.991
N1380 G2 X46.741 Y-64.416 I0. J-0.75
N1385 G1 Y-84.216
N1390 Z5.
N1395 X46.991
N1400 Z-1.
N1405 Z-0.5
N1410 X46.993 Y-84.218
N1415 X47.031 Z-0.507
N1420 X47.065 Z-0.525
N1425 X47.092 Z-0.553
N1430 X47.11 Z-0.588
N1435 X47.116 Z-0.626
N1440 Z-0.874
N1445 X47.121 Z-0.912
N1450 X47.139 Z-0.947
N1455 X47.166 Z-0.975
N1460 X47.2 Z-0.993
N1465 X47.238 Z-1.
N1470 X47.241 Y-84.216
N1475 Y-64.416
N1480 G2 X47.991 Y-63.667 I0.75 J0.
N1485 G1 X64.991
N1490 G2 X65.741 Y-64.416 I0. J-0.75
N1495 G1 Y-98.416
N1500 G2 X64.991 Y-99.166 I-0.75 J0.
N1505 G1 X47.991
N1510 G2 X47.241 Y-98.416 I0. J0.75
N1515 G1 Y-84.216
N1520 Z5.
N1525 X46.991
N1530 Z-1.5
N1535 Z-1.
N1540 X46.993 Y-84.218
N1545 X47.031 Z-1.007
N1550 X47.065 Z-1.025
N1555 X47.092 Z-1.053
N1560 X47.11 Z-1.088
N1565 X47.116 Z-1.126
N1570 Z-1.374
N1575 X47.121 Z-1.412
N1580 X47.139 Z-1.447
N1585 X47.166 Z-1.475
N1590 X47.2 Z-1.493
N1595 X47.238 Z-1.5
N1600 X47.241 Y-84.216
N1605 Y-64.416
N1610 G2 X47.991 Y-63.667 I0.75 J0.
N1615 G1 X64.991
N1620 G2 X65.741 Y-64.416 I0. J-0.75
N1625 G1 Y-98.416
N1630 G2 X64.991 Y-99.166 I-0.75 J0.
N1635 G1 X47.991
N1640 G2 X47.241 Y-98.416 I0. J0.75
N1645 G1 Y-84.216
N1650 Z5.
N1655 X46.991
N1660 Z-1.5
N1665 Z-1.
N1670 X46.988 Y-84.215
N1675 X46.95 Z-1.007
N1680 X46.916 Z-1.025
N1685 X46.889 Z-1.053
N1690 X46.871 Z-1.088
N1695 X46.866 Z-1.126
N1700 Z-1.374
N1705 X46.86 Z-1.412
N1710 X46.842 Z-1.447
N1715 X46.815 Z-1.475
N1720 X46.781 Z-1.493
N1725 X46.743 Z-1.5
N1730 X46.741 Y-84.216
N1735 Y-98.416
N1740 G2 X45.991 Y-99.166 I-0.75 J0.
N1745 G1 X28.99
N1750 G2 X28.24 Y-98.416 I0. J0.75
N1755 G1 Y-64.416
N1760 G2 X28.99 Y-63.667 I0.75 J0.
N1765 G1 X45.991
N1770 G2 X46.741 Y-64.416 I0. J-0.75
N1775 G1 Y-84.216
N1780 Z5.
N1785 X46.991
N1790 Z-2.
N1795 Z-1.5
N1800 X46.988 Y-84.215
N1805 X46.95 Z-1.507
N1810 X46.916 Z-1.525
N1815 X46.889 Z-1.553
N1820 X46.871 Z-1.588
N1825 X46.866 Z-1.626
N1830 Z-1.874
N1835 X46.86 Z-1.912
N1840 X46.842 Z-1.947
N1845 X46.815 Z-1.975
N1850 X46.781 Z-1.993
N1855 X46.743 Z-2.
N1860 X46.741 Y-84.216
N1865 Y-98.416
N1870 G2 X45.991 Y-99.166 I-0.75 J0.
N1875 G1 X28.99
N1880 G2 X28.24 Y-98.416 I0. J0.75
N1885 G1 Y-64.416
N1890 G2 X28.99 Y-63.667 I0.75 J0.
N1895 G1 X45.991
N1900 G2 X46.741 Y-64.416 I0. J-0.75
N1905 G1 Y-84.216
N1910 Z5.
N1915 X46.991
N1920 Z-2.3
N1925 Z-1.8
N1930 X46.988 Y-84.215
N1935 X46.95 Z-1.807
N1940 X46.916 Z-1.825
N1945 X46.889 Z-1.853
N1950 X46.871 Z-1.888
N1955 X46.866 Z-1.926
N1960 Z-2.174
N1965 X46.86 Z-2.212
N1970 X46.842 Z-2.247
N1975 X46.815 Z-2.275
N1980 X46.781 Z-2.293
N1985 X46.743 Z-2.3
N1990 X46.741 Y-84.216
N1995 Y-98.416
N2000 G2 X45.991 Y-99.166 I-0.75 J0.
N2005 G1 X28.99
N2010 G2 X28.24 Y-98.416 I0. J0.75
N2015 G1 Y-64.416
N2020 G2 X28.99 Y-63.667 I0.75 J0.
N2025 G1 X45.991
N2030 G2 X46.741 Y-64.416 I0. J-0.75
N2035 G1 Y-84.216
N2040 Z5.
N2045 X46.991
N2050 Z-2.6
N2055 Z-2.1
N2060 X46.988 Y-84.215
N2065 X46.95 Z-2.107
N2070 X46.916 Z-2.125
N2075 X46.889 Z-2.153
N2080 X46.871 Z-2.188
N2085 X46.866 Z-2.226
N2090 Z-2.474
N2095 X46.86 Z-2.512
N2100 X46.842 Z-2.547
N2105 X46.815 Z-2.575
N2110 X46.781 Z-2.593
N2115 X46.743 Z-2.6
N2120 X46.741 Y-84.216
N2125 Y-98.416
N2130 G2 X45.991 Y-99.166 I-0.75 J0.
N2135 G1 X28.99
N2140 G2 X28.24 Y-98.416 I0. J0.75
N2145 G1 Y-64.416
N2150 G2 X28.99 Y-63.667 I0.75 J0.
N2155 G1 X45.991
N2160 G2 X46.741 Y-64.416 I0. J-0.75
N2165 G1 Y-84.216
N2170 Z5.
N2175 X46.991
N2180 Z-2.
N2185 Z-1.5
N2190 X46.993 Y-84.218
N2195 X47.031 Z-1.507
N2200 X47.065 Z-1.525
N2205 X47.092 Z-1.553
N2210 X47.11 Z-1.588
N2215 X47.116 Z-1.626
N2220 Z-1.874
N2225 X47.121 Z-1.912
N2230 X47.139 Z-1.947
N2235 X47.166 Z-1.975
N2240 X47.2 Z-1.993
N2245 X47.238 Z-2.
N2250 X47.241 Y-84.216
N2255 Y-64.416
N2260 G2 X47.991 Y-63.667 I0.75 J0.
N2265 G1 X64.991
N2270 G2 X65.741 Y-64.416 I0. J-0.75
N2275 G1 Y-98.416
N2280 G2 X64.991 Y-99.166 I-0.75 J0.
N2285 G1 X47.991
N2290 G2 X47.241 Y-98.416 I0. J0.75
N2295 G1 Y-84.216
N2300 Z5.
N2305 X46.991
N2310 Z-2.3
N2315 Z-1.8
N2320 X46.993 Y-84.218
N2325 X47.031 Z-1.807
N2330 X47.065 Z-1.825
N2335 X47.092 Z-1.853
N2340 X47.11 Z-1.888
N2345 X47.116 Z-1.926
N2350 Z-2.174
N2355 X47.121 Z-2.212
N2360 X47.139 Z-2.247
N2365 X47.166 Z-2.275
N2370 X47.2 Z-2.293
N2375 X47.238 Z-2.3
N2380 X47.241 Y-84.216
N2385 Y-64.416
N2390 G2 X47.991 Y-63.667 I0.75 J0.
N2395 G1 X64.991
N2400 G2 X65.741 Y-64.416 I0. J-0.75
N2405 G1 Y-98.416
N2410 G2 X64.991 Y-99.166 I-0.75 J0.
N2415 G1 X47.991
N2420 G2 X47.241 Y-98.416 I0. J0.75
N2425 G1 Y-84.216
N2430 Z5.
N2435 X46.991
N2440 Z-2.6
N2445 Z-2.1
N2450 X46.993 Y-84.218
N2455 X47.031 Z-2.107
N2460 X47.065 Z-2.125
N2465 X47.092 Z-2.153
N2470 X47.11 Z-2.188
N2475 X47.116 Z-2.226
N2480 Z-2.474
N2485 X47.121 Z-2.512
N2490 X47.139 Z-2.547
N2495 X47.166 Z-2.575
N2500 X47.2 Z-2.593
N2505 X47.238 Z-2.6
N2510 X47.241 Y-84.216
N2515 Y-64.416
N2520 G2 X47.991 Y-63.667 I0.75 J0.
N2525 G1 X64.991
N2530 G2 X65.741 Y-64.416 I0. J-0.75
N2535 G1 Y-98.416
N2540 G2 X64.991 Y-99.166 I-0.75 J0.
N2545 G1 X47.991
N2550 G2 X47.241 Y-98.416 I0. J0.75
N2555 G1 Y-84.216
N2560 Z5.
N2565 X5.294 Y-47.081
N2570 Z-0.5
N2575 Z0.
N2580 X5.292 Y-47.083
N2585 Y-47.099 Z-0.009
N2590 Y-47.106 Z-0.026
N2595 Z-0.474
N2600 Y-47.112 Z-0.491
N2605 Y-47.129 Z-0.5
N2610 X5.294 Y-47.131
N2615 X17.922
N2620 G2 X18.672 Y-47.881 I0. J-0.75
N2625 G1 Y-62.817
N2630 G2 X17.922 Y-63.567 I-0.75 J0.
N2635 G1 X9.14
N2640 Y-99.267
N2645 X122.84
N2650 Y-64.532
N2655 G2 X123.19 Y-63.897 I0.75 J0.
N2660 G3 X123.531 Y-63.383 I-0.4 J0.635
N2665 G2 X124.048 Y-62.786 I0.74 J-0.12
N2670 G3 X126.756 Y-59.109 I-1.142 J3.677
N2675 G1 Y-51.259
N2680 X122.57
N2685 G2 X121.82 Y-50.509 I0. J0.75
N2690 G1 Y-9.881
N2695 G3 X117.97 Y-6.031 I-3.85 J0.
N2700 G1 X80.97
N2705 G3 X77.12 Y-9.881 I0. J-3.85
N2710 G1 Y-18.179
N2715 X81.301
N2720 G2 X82.051 Y-18.929 I0. J-0.75
N2725 G1 Y-26.588
N2730 G2 X81.301 Y-27.338 I-0.75 J0.
N2735 G1 X64.301
N2740 G2 X63.551 Y-26.588 I0. J0.75
N2745 G1 Y-18.617
N2750 G2 X64.301 Y-17.867 I0.75 J0.
N2755 G1 X68.554
N2760 Y-9.583
N2765 G3 X64.704 Y-5.733 I-3.85 J0.
N2770 G1 X44.203
N2775 X27.703 Y-5.723
N2780 G3 X23.844 Y-9.583 I0. J-3.86
N2785 G1 Y-10.681
N2790 G2 X23.094 Y-11.431 I-0.75 J0.
N2795 G1 X5.244
N2800 Y-47.131
N2805 X5.294
N2810 Z5.
N2815 Y-26.481
N2820 Z-0.5
N2825 Z0.
N2830 X5.296 Y-26.483
N2835 X5.312 Z-0.009
N2840 X5.319 Z-0.026
N2845 Z-0.474
N2850 X5.325 Z-0.491
N2855 X5.342 Z-0.5
N2860 X5.344 Y-26.481
N2865 Y-12.281
N2870 G2 X6.094 Y-11.531 I0.75 J0.
N2875 G1 X23.094
N2880 G2 X23.844 Y-12.281 I0. J-0.75
N2885 G1 Y-46.281
N2890 G2 X23.094 Y-47.031 I-0.75 J0.
N2895 G1 X6.094
N2900 G2 X5.344 Y-46.281 I0. J0.75
N2905 G1 Y-26.481
N2910 Z5.
N2915 X5.294
N2920 Z-1.
N2925 Z-0.5
N2930 X5.296 Y-26.483
N2935 X5.312 Z-0.509
N2940 X5.319 Z-0.526
N2945 Z-0.974
N2950 X5.325 Z-0.991
N2955 X5.342 Z-1.
N2960 X5.344 Y-26.481
N2965 Y-12.281
N2970 G2 X6.094 Y-11.531 I0.75 J0.
N2975 G1 X23.094
N2980 G2 X23.844 Y-12.281 I0. J-0.75
N2985 G1 Y-46.281
N2990 G2 X23.094 Y-47.031 I-0.75 J0.
N2995 G1 X6.094
N3000 G2 X5.344 Y-46.281 I0. J0.75
N3005 G1 Y-26.481
N3010 Z5.
N3015 X5.294 Y-47.081
N3020 Z-1.
N3025 Z-0.5
N3030 X5.292 Y-47.083
N3035 Y-47.099 Z-0.509
N3040 Y-47.106 Z-0.526
N3045 Z-0.974
N3050 Y-47.112 Z-0.991
N3055 Y-47.129 Z-1.
N3060 X5.294 Y-47.131
N3065 X17.922
N3070 G2 X18.672 Y-47.881 I0. J-0.75
N3075 G1 Y-62.817
N3080 G2 X17.922 Y-63.567 I-0.75 J0.
N3085 G1 X9.14
N3090 Y-99.267
N3095 X122.84
N3100 Y-64.532
N3105 G2 X123.19 Y-63.897 I0.75 J0.
N3110 G3 X123.531 Y-63.383 I-0.4 J0.635
N3115 G2 X124.048 Y-62.786 I0.74 J-0.12
N3120 G3 X126.756 Y-59.109 I-1.142 J3.677
N3125 G1 Y-51.259
N3130 X122.57
N3135 G2 X121.82 Y-50.509 I0. J0.75
N3140 G1 Y-9.881
N3145 G3 X117.97 Y-6.031 I-3.85 J0.
N3150 G1 X80.97
N3155 G3 X77.12 Y-9.881 I0. J-3.85
N3160 G1 Y-18.179
N3165 X81.301
N3170 G2 X82.051 Y-18.929 I0. J-0.75
N3175 G1 Y-26.588
N3180 G2 X81.301 Y-27.338 I-0.75 J0.
N3185 G1 X64.301
N3190 G2 X63.551 Y-26.588 I0. J0.75
N3195 G1 Y-18.617
N3200 G2 X64.301 Y-17.867 I0.75 J0.
N3205 G1 X68.554
N3210 Y-9.583
N3215 G3 X64.704 Y-5.733 I-3.85 J0.
N3220 G1 X44.203
N3225 X27.703 Y-5.723
N3230 G3 X23.844 Y-9.583 I0. J-3.86
N3235 G1 Y-10.681
N3240 G2 X23.094 Y-11.431 I-0.75 J0.
N3245 G1 X5.244
N3250 Y-47.131
N3255 X5.294
N3260 Z5.
N3265 Y-47.081
N3270 Z-1.5
N3275 Z-1.
N3280 X5.292 Y-47.083
N3285 Y-47.099 Z-1.009
N3290 Y-47.106 Z-1.026
N3295 Z-1.474
N3300 Y-47.112 Z-1.491
N3305 Y-47.129 Z-1.5
N3310 X5.294 Y-47.131
N3315 X17.922
N3320 G2 X18.672 Y-47.881 I0. J-0.75
N3325 G1 Y-62.817
N3330 G2 X17.922 Y-63.567 I-0.75 J0.
N3335 G1 X9.14
N3340 Y-99.267
N3345 X122.84
N3350 Y-64.532
N3355 G2 X123.19 Y-63.897 I0.75 J0.
N3360 G3 X123.531 Y-63.383 I-0.4 J0.635
N3365 G2 X124.048 Y-62.786 I0.74 J-0.12
N3370 G3 X126.756 Y-59.109 I-1.142 J3.677
N3375 G1 Y-51.259
N3380 X122.57
N3385 G2 X121.82 Y-50.509 I0. J0.75
N3390 G1 Y-9.881
N3395 G3 X117.97 Y-6.031 I-3.85 J0.
N3400 G1 X80.97
N3405 G3 X77.12 Y-9.881 I0. J-3.85
N3410 G1 Y-18.179
N3415 X81.301
N3420 G2 X82.051 Y-18.929 I0. J-0.75
N3425 G1 Y-26.588
N3430 G2 X81.301 Y-27.338 I-0.75 J0.
N3435 G1 X64.301
N3440 G2 X63.551 Y-26.588 I0. J0.75
N3445 G1 Y-18.617
N3450 G2 X64.301 Y-17.867 I0.75 J0.
N3455 G1 X68.554
N3460 Y-9.583
N3465 G3 X64.704 Y-5.733 I-3.85 J0.
N3470 G1 X44.203
N3475 X27.703 Y-5.723
N3480 G3 X23.844 Y-9.583 I0. J-3.86
N3485 G1 Y-10.681
N3490 G2 X23.094 Y-11.431 I-0.75 J0.
N3495 G1 X5.244
N3500 Y-47.131
N3505 X5.294
N3510 Z5.
N3515 Y-26.481
N3520 Z-1.5
N3525 Z-1.
N3530 X5.296 Y-26.483
N3535 X5.312 Z-1.009
N3540 X5.319 Z-1.026
N3545 Z-1.474
N3550 X5.325 Z-1.491
N3555 X5.342 Z-1.5
N3560 X5.344 Y-26.481
N3565 Y-12.281
N3570 G2 X6.094 Y-11.531 I0.75 J0.
N3575 G1 X23.094
N3580 G2 X23.844 Y-12.281 I0. J-0.75
N3585 G1 Y-46.281
N3590 G2 X23.094 Y-47.031 I-0.75 J0.
N3595 G1 X6.094
N3600 G2 X5.344 Y-46.281 I0. J0.75
N3605 G1 Y-26.481
N3610 Z5.
N3615 X5.294
N3620 Z-2.
N3625 Z-1.5
N3630 X5.296 Y-26.483
N3635 X5.312 Z-1.509
N3640 X5.319 Z-1.526
N3645 Z-1.974
N3650 X5.325 Z-1.991
N3655 X5.342 Z-2.
N3660 X5.344 Y-26.481
N3665 Y-12.281
N3670 G2 X6.094 Y-11.531 I0.75 J0.
N3675 G1 X23.094
N3680 G2 X23.844 Y-12.281 I0. J-0.75
N3685 G1 Y-46.281
N3690 G2 X23.094 Y-47.031 I-0.75 J0.
N3695 G1 X6.094
N3700 G2 X5.344 Y-46.281 I0. J0.75
N3705 G1 Y-26.481
N3710 Z5.
N3715 X5.294 Y-47.081
N3720 Z-2.
N3725 Z-1.5
N3730 X5.292 Y-47.083
N3735 Y-47.099 Z-1.509
N3740 Y-47.106 Z-1.526
N3745 Z-1.974
N3750 Y-47.112 Z-1.991
N3755 Y-47.129 Z-2.
N3760 X5.294 Y-47.131
N3765 X17.922
N3770 G2 X18.672 Y-47.881 I0. J-0.75
N3775 G1 Y-62.817
N3780 G2 X17.922 Y-63.567 I-0.75 J0.
N3785 G1 X9.14
N3790 Y-99.267
N3795 X122.84
N3800 Y-64.532
N3805 G2 X123.19 Y-63.897 I0.75 J0.
N3810 G3 X123.531 Y-63.383 I-0.4 J0.635
N3815 G2 X124.048 Y-62.786 I0.74 J-0.12
N3820 G3 X126.756 Y-59.109 I-1.142 J3.677
N3825 G1 Y-51.259
N3830 X122.57
N3835 G2 X121.82 Y-50.509 I0. J0.75
N3840 G1 Y-9.881
N3845 G3 X117.97 Y-6.031 I-3.85 J0.
N3850 G1 X80.97
N3855 G3 X77.12 Y-9.881 I0. J-3.85
N3860 G1 Y-18.179
N3865 X81.301
N3870 G2 X82.051 Y-18.929 I0. J-0.75
N3875 G1 Y-26.588
N3880 G2 X81.301 Y-27.338 I-0.75 J0.
N3885 G1 X64.301
N3890 G2 X63.551 Y-26.588 I0. J0.75
N3895 G1 Y-18.617
N3900 G2 X64.301 Y-17.867 I0.75 J0.
N3905 G1 X68.554
N3910 Y-9.583
N3915 G3 X64.704 Y-5.733 I-3.85 J0.
N3920 G1 X44.203
N3925 X27.703 Y-5.723
N3930 G3 X23.844 Y-9.583 I0. J-3.86
N3935 G1 Y-10.681
N3940 G2 X23.094 Y-11.431 I-0.75 J0.
N3945 G1 X5.244
N3950 Y-47.131
N3955 X5.294
N3960 Z5.
N3965 Y-47.081
N3970 Z-2.3
N3975 Z-1.8
N3980 X5.292 Y-47.083
N3985 Y-47.099 Z-1.809
N3990 Y-47.106 Z-1.826
N3995 Z-2.274
N4000 Y-47.112 Z-2.291
N4005 Y-47.129 Z-2.3
N4010 X5.294 Y-47.131
N4015 X17.922
N4020 G2 X18.672 Y-47.881 I0. J-0.75
N4025 G1 Y-62.817
N4030 G2 X17.922 Y-63.567 I-0.75 J0.
N4035 G1 X9.14
N4040 Y-99.267
N4045 X122.84
N4050 Y-64.532
N4055 G2 X123.19 Y-63.897 I0.75 J0.
N4060 G3 X123.531 Y-63.383 I-0.4 J0.635
N4065 G2 X124.048 Y-62.786 I0.74 J-0.12
N4070 G3 X126.756 Y-59.109 I-1.142 J3.677
N4075 G1 Y-51.259
N4080 X122.57
N4085 G2 X121.82 Y-50.509 I0. J0.75
N4090 G1 Y-9.881
N4095 G3 X117.97 Y-6.031 I-3.85 J0.
N4100 G1 X80.97
N4105 G3 X77.12 Y-9.881 I0. J-3.85
N4110 G1 Y-18.179
N4115 X81.301
N4120 G2 X82.051 Y-18.929 I0. J-0.75
N4125 G1 Y-26.588
N4130 G2 X81.301 Y-27.338 I-0.75 J0.
N4135 G1 X64.301
N4140 G2 X63.551 Y-26.588 I0. J0.75
N4145 G1 Y-18.617
N4150 G2 X64.301 Y-17.867 I0.75 J0.
N4155 G1 X68.554
N4160 Y-9.583
N4165 G3 X64.704 Y-5.733 I-3.85 J0.
N4170 G1 X44.203
N4175 X27.703 Y-5.723
N4180 G3 X23.844 Y-9.583 I0. J-3.86
N4185 G1 Y-10.681
N4190 G2 X23.094 Y-11.431 I-0.75 J0.
N4195 G1 X5.244
N4200 Y-47.131
N4205 X5.294
N4210 Z5.
N4215 Y-47.081
N4220 Z-2.6
N4225 Z-2.1
N4230 X5.292 Y-47.083
N4235 Y-47.099 Z-2.109
N4240 Y-47.106 Z-2.126
N4245 Z-2.574
N4250 Y-47.112 Z-2.591
N4255 Y-47.129 Z-2.6
N4260 X5.294 Y-47.131
N4265 X17.922
N4270 G2 X18.672 Y-47.881 I0. J-0.75
N4275 G1 Y-62.817
N4280 G2 X17.922 Y-63.567 I-0.75 J0.
N4285 G1 X9.14
N4290 Y-99.267
N4295 X122.84
N4300 Y-64.532
N4305 G2 X123.19 Y-63.897 I0.75 J0.
N4310 G3 X123.531 Y-63.383 I-0.4 J0.635
N4315 G2 X124.048 Y-62.786 I0.74 J-0.12
N4320 G3 X126.756 Y-59.109 I-1.142 J3.677
N4325 G1 Y-51.259
N4330 X122.57
N4335 G2 X121.82 Y-50.509 I0. J0.75
N4340 G1 Y-9.881
N4345 G3 X117.97 Y-6.031 I-3.85 J0.
N4350 G1 X80.97
N4355 G3 X77.12 Y-9.881 I0. J-3.85
N4360 G1 Y-18.179
N4365 X81.301
N4370 G2 X82.051 Y-18.929 I0. J-0.75
N4375 G1 Y-26.588
N4380 G2 X81.301 Y-27.338 I-0.75 J0.
N4385 G1 X64.301
N4390 G2 X63.551 Y-26.588 I0. J0.75
N4395 G1 Y-18.617
N4400 G2 X64.301 Y-17.867 I0.75 J0.
N4405 G1 X68.554
N4410 Y-9.583
N4415 G3 X64.704 Y-5.733 I-3.85 J0.
N4420 G1 X44.203
N4425 X27.703 Y-5.723
N4430 G3 X23.844 Y-9.583 I0. J-3.86
N4435 G1 Y-10.681
N4440 G2 X23.094 Y-11.431 I-0.75 J0.
N4445 G1 X5.244
N4450 Y-47.131
N4455 X5.294
N4460 Z5.
N4465 Y-26.481
N4470 Z-2.3
N4475 Z-1.8
N4480 X5.296 Y-26.483
N4485 X5.312 Z-1.809
N4490 X5.319 Z-1.826
N4495 Z-2.274
N4500 X5.325 Z-2.291
N4505 X5.342 Z-2.3
N4510 X5.344 Y-26.481
N4515 Y-12.281
N4520 G2 X6.094 Y-11.531 I0.75 J0.
N4525 G1 X23.094
N4530 G2 X23.844 Y-12.281 I0. J-0.75
N4535 G1 Y-46.281
N4540 G2 X23.094 Y-47.031 I-0.75 J0.
N4545 G1 X6.094
N4550 G2 X5.344 Y-46.281 I0. J0.75
N4555 G1 Y-26.481
N4560 Z5.
N4565 X5.294
N4570 Z-2.6
N4575 Z-2.1
N4580 X5.296 Y-26.483
N4585 X5.312 Z-2.109
N4590 X5.319 Z-2.126
N4595 Z-2.574
N4600 X5.325 Z-2.591
N4605 X5.342 Z-2.6
N4610 X5.344 Y-26.481
N4615 Y-12.281
N4620 G2 X6.094 Y-11.531 I0.75 J0.
N4625 G1 X23.094
N4630 G2 X23.844 Y-12.281 I0. J-0.75
N4635 G1 Y-46.281
N4640 G2 X23.094 Y-47.031 I-0.75 J0.
N4645 G1 X6.094
N4650 G2 X5.344 Y-46.281 I0. J0.75
N4655 G1 Y-26.481
N4660 Z5.
N4665 X68.504 Y-11.783
N4670 Z-0.5
N4675 Z0.
N4680 X68.502 Y-11.781
N4685 X68.485 Z-0.009
N4690 X68.479 Z-0.026
N4695 Z-0.474
N4700 X68.472 Z-0.491
N4705 X68.456 Z-0.5
N4710 X68.454 Y-11.783
N4715 Y-16.583
N4720 G2 X67.704 Y-17.333 I-0.75 J0.
N4725 G1 X47.704
N4730 G3 X43.454 Y-21.583 I0. J-4.25
N4735 G1 Y-46.764
N4740 G2 X39.704 Y-50.514 I-3.75 J0.
N4745 G1 X27.704
N4750 G2 X23.954 Y-46.764 I0. J3.75
N4755 G1 Y-9.583
N4760 G2 X27.704 Y-5.833 I3.75 J0.
N4765 G1 X64.704
N4770 G2 X68.454 Y-9.583 I0. J-3.75
N4775 G1 Y-11.783
N4780 Z5.
N4785 X68.504
N4790 Z-1.
N4795 Z-0.5
N4800 X68.502 Y-11.781
N4805 X68.485 Z-0.509
N4810 X68.479 Z-0.526
N4815 Z-0.974
N4820 X68.472 Z-0.991
N4825 X68.456 Z-1.
N4830 X68.454 Y-11.783
N4835 Y-16.583
N4840 G2 X67.704 Y-17.333 I-0.75 J0.
N4845 G1 X47.704
N4850 G3 X43.454 Y-21.583 I0. J-4.25
N4855 G1 Y-46.764
N4860 G2 X39.704 Y-50.514 I-3.75 J0.
N4865 G1 X27.704
N4870 G2 X23.954 Y-46.764 I0. J3.75
N4875 G1 Y-9.583
N4880 G2 X27.704 Y-5.833 I3.75 J0.
N4885 G1 X64.704
N4890 G2 X68.454 Y-9.583 I0. J-3.75
N4895 G1 Y-11.783
N4900 Z5.
N4905 X68.504
N4910 Z-1.5
N4915 Z-1.
N4920 X68.502 Y-11.781
N4925 X68.485 Z-1.009
N4930 X68.479 Z-1.026
N4935 Z-1.474
N4940 X68.472 Z-1.491
N4945 X68.456 Z-1.5
N4950 X68.454 Y-11.783
N4955 Y-16.583
N4960 G2 X67.704 Y-17.333 I-0.75 J0.
N4965 G1 X47.704
N4970 G3 X43.454 Y-21.583 I0. J-4.25
N4975 G1 Y-46.764
N4980 G2 X39.704 Y-50.514 I-3.75 J0.
N4985 G1 X27.704
N4990 G2 X23.954 Y-46.764 I0. J3.75
N4995 G1 Y-9.583
N5000 G2 X27.704 Y-5.833 I3.75 J0.
N5005 G1 X64.704
N5010 G2 X68.454 Y-9.583 I0. J-3.75
N5015 G1 Y-11.783
N5020 Z5.
N5025 X68.504
N5030 Z-2.
N5035 Z-1.5
N5040 X68.502 Y-11.781
N5045 X68.485 Z-1.509
N5050 X68.479 Z-1.526
N5055 Z-1.974
N5060 X68.472 Z-1.991
N5065 X68.456 Z-2.
N5070 X68.454 Y-11.783
N5075 Y-16.583
N5080 G2 X67.704 Y-17.333 I-0.75 J0.
N5085 G1 X47.704
N5090 G3 X43.454 Y-21.583 I0. J-4.25
N5095 G1 Y-46.764
N5100 G2 X39.704 Y-50.514 I-3.75 J0.
N5105 G1 X27.704
N5110 G2 X23.954 Y-46.764 I0. J3.75
N5115 G1 Y-9.583
N5120 G2 X27.704 Y-5.833 I3.75 J0.
N5125 G1 X64.704
N5130 G2 X68.454 Y-9.583 I0. J-3.75
N5135 G1 Y-11.783
N5140 Z5.
N5145 X68.504
N5150 Z-2.3
N5155 Z-1.8
N5160 X68.502 Y-11.781
N5165 X68.485 Z-1.809
N5170 X68.479 Z-1.826
N5175 Z-2.274
N5180 X68.472 Z-2.291
N5185 X68.456 Z-2.3
N5190 X68.454 Y-11.783
N5195 Y-16.583
N5200 G2 X67.704 Y-17.333 I-0.75 J0.
N5205 G1 X47.704
N5210 G3 X43.454 Y-21.583 I0. J-4.25
N5215 G1 Y-46.764
N5220 G2 X39.704 Y-50.514 I-3.75 J0.
N5225 G1 X27.704
N5230 G2 X23.954 Y-46.764 I0. J3.75
N5235 G1 Y-9.583
N5240 G2 X27.704 Y-5.833 I3.75 J0.
N5245 G1 X64.704
N5250 G2 X68.454 Y-9.583 I0. J-3.75
N5255 G1 Y-11.783
N5260 Z5.
N5265 X68.504
N5270 Z-2.6
N5275 Z-2.1
N5280 X68.502 Y-11.781
N5285 X68.485 Z-2.109
N5290 X68.479 Z-2.126
N5295 Z-2.574
N5300 X68.472 Z-2.591
N5305 X68.456 Z-2.6
N5310 X68.454 Y-11.783
N5315 Y-16.583
N5320 G2 X67.704 Y-17.333 I-0.75 J0.
N5325 G1 X47.704
N5330 G3 X43.454 Y-21.583 I0. J-4.25
N5335 G1 Y-46.764
N5340 G2 X39.704 Y-50.514 I-3.75 J0.
N5345 G1 X27.704
N5350 G2 X23.954 Y-46.764 I0. J3.75
N5355 G1 Y-9.583
N5360 G2 X27.704 Y-5.833 I3.75 J0.
N5365 G1 X64.704
N5370 G2 X68.454 Y-9.583 I0. J-3.75
N5375 G1 Y-11.783
N5380 Z5.
N5385 X77.17 Y-12.081
N5390 Z-0.5
N5395 Z0.
N5400 X77.172 Y-12.083
N5405 X77.189 Z-0.009
N5410 X77.195 Z-0.026
N5415 Z-0.474
N5420 X77.202 Z-0.491
N5425 X77.218 Z-0.5
N5430 X77.22 Y-12.081
N5435 Y-9.881
N5440 G2 X80.97 Y-6.131 I3.75 J0.
N5445 G1 X117.97
N5450 G2 X121.72 Y-9.881 I0. J-3.75
N5455 G1 Y-47.061
N5460 G2 X117.97 Y-50.811 I-3.75 J0.
N5465 G1 X105.97
N5470 G2 X102.22 Y-47.061 I0. J3.75
N5475 G1 Y-21.881
N5480 G3 X97.97 Y-17.631 I-4.25 J0.
N5485 G1 X77.97
N5490 G2 X77.22 Y-16.881 I0. J0.75
N5495 G1 Y-12.081
N5500 Z5.
N5505 X77.17
N5510 Z-1.
N5515 Z-0.5
N5520 X77.172 Y-12.083
N5525 X77.189 Z-0.509
N5530 X77.195 Z-0.526
N5535 Z-0.974
N5540 X77.202 Z-0.991
N5545 X77.218 Z-1.
N5550 X77.22 Y-12.081
N5555 Y-9.881
N5560 G2 X80.97 Y-6.131 I3.75 J0.
N5565 G1 X117.97
N5570 G2 X121.72 Y-9.881 I0. J-3.75
N5575 G1 Y-47.061
N5580 G2 X117.97 Y-50.811 I-3.75 J0.
N5585 G1 X105.97
N5590 G2 X102.22 Y-47.061 I0. J3.75
N5595 G1 Y-21.881
N5600 G3 X97.97 Y-17.631 I-4.25 J0.
N5605 G1 X77.97
N5610 G2 X77.22 Y-16.881 I0. J0.75
N5615 G1 Y-12.081
N5620 Z5.
N5625 X77.17
N5630 Z-1.5
N5635 Z-1.
N5640 X77.172 Y-12.083
N5645 X77.189 Z-1.009
N5650 X77.195 Z-1.026
N5655 Z-1.474
N5660 X77.202 Z-1.491
N5665 X77.218 Z-1.5
N5670 X77.22 Y-12.081
N5675 Y-9.881
N5680 G2 X80.97 Y-6.131 I3.75 J0.
N5685 G1 X117.97
N5690 G2 X121.72 Y-9.881 I0. J-3.75
N5695 G1 Y-47.061
N5700 G2 X117.97 Y-50.811 I-3.75 J0.
N5705 G1 X105.97
N5710 G2 X102.22 Y-47.061 I0. J3.75
N5715 G1 Y-21.881
N5720 G3 X97.97 Y-17.631 I-4.25 J0.
N5725 G1 X77.97
N5730 G2 X77.22 Y-16.881 I0. J0.75
N5735 G1 Y-12.081
N5740 Z5.
N5745 X77.17
N5750 Z-2.
N5755 Z-1.5
N5760 X77.172 Y-12.083
N5765 X77.189 Z-1.509
N5770 X77.195 Z-1.526
N5775 Z-1.974
N5780 X77.202 Z-1.991
N5785 X77.218 Z-2.
N5790 X77.22 Y-12.081
N5795 Y-9.881
N5800 G2 X80.97 Y-6.131 I3.75 J0.
N5805 G1 X117.97
N5810 G2 X121.72 Y-9.881 I0. J-3.75
N5815 G1 Y-47.061
N5820 G2 X117.97 Y-50.811 I-3.75 J0.
N5825 G1 X105.97
N5830 G2 X102.22 Y-47.061 I0. J3.75
N5835 G1 Y-21.881
N5840 G3 X97.97 Y-17.631 I-4.25 J0.
N5845 G1 X77.97
N5850 G2 X77.22 Y-16.881 I0. J0.75
N5855 G1 Y-12.081
N5860 Z5.
N5865 X77.17
N5870 Z-2.3
N5875 Z-1.8
N5880 X77.172 Y-12.083
N5885 X77.189 Z-1.809
N5890 X77.195 Z-1.826
N5895 Z-2.274
N5900 X77.202 Z-2.291
N5905 X77.218 Z-2.3
N5910 X77.22 Y-12.081
N5915 Y-9.881
N5920 G2 X80.97 Y-6.131 I3.75 J0.
N5925 G1 X117.97
N5930 G2 X121.72 Y-9.881 I0. J-3.75
N5935 G1 Y-47.061
N5940 G2 X117.97 Y-50.811 I-3.75 J0.
N5945 G1 X105.97
N5950 G2 X102.22 Y-47.061 I0. J3.75
N5955 G1 Y-21.881
N5960 G3 X97.97 Y-17.631 I-4.25 J0.
N5965 G1 X77.97
N5970 G2 X77.22 Y-16.881 I0. J0.75
N5975 G1 Y-12.081
N5980 Z5.
N5985 X77.17
N5990 Z-2.6
N5995 Z-2.1
N6000 X77.172 Y-12.083
N6005 X77.189 Z-2.109
N6010 X77.195 Z-2.126
N6015 Z-2.574
N6020 X77.202 Z-2.591
N6025 X77.218 Z-2.6
N6030 X77.22 Y-12.081
N6035 Y-9.881
N6040 G2 X80.97 Y-6.131 I3.75 J0.
N6045 G1 X117.97
N6050 G2 X121.72 Y-9.881 I0. J-3.75
N6055 G1 Y-47.061
N6060 G2 X117.97 Y-50.811 I-3.75 J0.
N6065 G1 X105.97
N6070 G2 X102.22 Y-47.061 I0. J3.75
N6075 G1 Y-21.881
N6080 G3 X97.97 Y-17.631 I-4.25 J0.
N6085 G1 X77.97
N6090 G2 X77.22 Y-16.881 I0. J0.75
N6095 G1 Y-12.081
N6100 Z5.
N6105 X118.77 Y-51.085
N6110 Z-0.5
N6115 Z0.
N6120 X118.768 Y-51.087
N6125 Y-51.129 Z-0.008
N6130 Y-51.167 Z-0.028
N6135 Y-51.197 Z-0.058
N6140 Y-51.216 Z-0.096
N6145 Y-51.222 Z-0.138
N6150 Z-0.362
N6155 Y-51.229 Z-0.404
N6160 Y-51.248 Z-0.442
N6165 Y-51.278 Z-0.472
N6170 Y-51.315 Z-0.492
N6175 Y-51.357 Z-0.5
N6180 X118.77 Y-51.359
N6185 X125.906
N6190 G2 X126.656 Y-52.109 I0. J-0.75
N6195 G1 Y-59.109
N6200 G2 X122.906 Y-62.859 I-3.75 J0.
N6205 G1 X85.907
N6210 G2 X82.157 Y-59.109 I0. J3.75
N6215 G1 Y-21.929
N6220 G2 X85.907 Y-18.179 I3.75 J0.
N6225 G1 X97.907
N6230 G2 X101.656 Y-21.929 I0. J-3.75
N6235 G1 Y-47.109
N6240 G3 X105.906 Y-51.359 I4.25 J0.
N6245 G1 X118.77
N6250 Z5.
N6255 Y-51.085
N6260 Z-1.
N6265 Z-0.5
N6270 X118.768 Y-51.087
N6275 Y-51.129 Z-0.508
N6280 Y-51.167 Z-0.528
N6285 Y-51.197 Z-0.558
N6290 Y-51.216 Z-0.596
N6295 Y-51.222 Z-0.638
N6300 Z-0.862
N6305 Y-51.229 Z-0.904
N6310 Y-51.248 Z-0.942
N6315 Y-51.278 Z-0.972
N6320 Y-51.315 Z-0.992
N6325 Y-51.357 Z-1.
N6330 X118.77 Y-51.359
N6335 X125.906
N6340 G2 X126.656 Y-52.109 I0. J-0.75
N6345 G1 Y-59.109
N6350 G2 X122.906 Y-62.859 I-3.75 J0.
N6355 G1 X85.907
N6360 G2 X82.157 Y-59.109 I0. J3.75
N6365 G1 Y-21.929
N6370 G2 X85.907 Y-18.179 I3.75 J0.
N6375 G1 X97.907
N6380 G2 X101.656 Y-21.929 I0. J-3.75
N6385 G1 Y-47.109
N6390 G3 X105.906 Y-51.359 I4.25 J0.
N6395 G1 X118.77
N6400 Z5.
N6405 Y-51.085
N6410 Z-1.5
N6415 Z-1.
N6420 X118.768 Y-51.087
N6425 Y-51.129 Z-1.008
N6430 Y-51.167 Z-1.028
N6435 Y-51.197 Z-1.058
N6440 Y-51.216 Z-1.096
N6445 Y-51.222 Z-1.138
N6450 Z-1.362
N6455 Y-51.229 Z-1.404
N6460 Y-51.248 Z-1.442
N6465 Y-51.278 Z-1.472
N6470 Y-51.315 Z-1.492
N6475 Y-51.357 Z-1.5
N6480 X118.77 Y-51.359
N6485 X125.906
N6490 G2 X126.656 Y-52.109 I0. J-0.75
N6495 G1 Y-59.109
N6500 G2 X122.906 Y-62.859 I-3.75 J0.
N6505 G1 X85.907
N6510 G2 X82.157 Y-59.109 I0. J3.75
N6515 G1 Y-21.929
N6520 G2 X85.907 Y-18.179 I3.75 J0.
N6525 G1 X97.907
N6530 G2 X101.656 Y-21.929 I0. J-3.75
N6535 G1 Y-47.109
N6540 G3 X105.906 Y-51.359 I4.25 J0.
N6545 G1 X118.77
N6550 Z5.
N6555 Y-51.085
N6560 Z-2.
N6565 Z-1.5
N6570 X118.768 Y-51.087
N6575 Y-51.129 Z-1.508
N6580 Y-51.167 Z-1.528
N6585 Y-51.197 Z-1.558
N6590 Y-51.216 Z-1.596
N6595 Y-51.222 Z-1.638
N6600 Z-1.862
N6605 Y-51.229 Z-1.904
N6610 Y-51.248 Z-1.942
N6615 Y-51.278 Z-1.972
N6620 Y-51.315 Z-1.992
N6625 Y-51.357 Z-2.
N6630 X118.77 Y-51.359
N6635 X125.906
N6640 G2 X126.656 Y-52.109 I0. J-0.75
N6645 G1 Y-59.109
N6650 G2 X122.906 Y-62.859 I-3.75 J0.
N6655 G1 X85.907
N6660 G2 X82.157 Y-59.109 I0. J3.75
N6665 G1 Y-21.929
N6670 G2 X85.907 Y-18.179 I3.75 J0.
N6675 G1 X97.907
N6680 G2 X101.656 Y-21.929 I0. J-3.75
N6685 G1 Y-47.109
N6690 G3 X105.906 Y-51.359 I4.25 J0.
N6695 G1 X118.77
N6700 Z5.
N6705 Y-51.085
N6710 Z-2.3
N6715 Z-1.8
N6720 X118.768 Y-51.087
N6725 Y-51.129 Z-1.808
N6730 Y-51.167 Z-1.828
N6735 Y-51.197 Z-1.858
N6740 Y-51.216 Z-1.896
N6745 Y-51.222 Z-1.938
N6750 Z-2.162
N6755 Y-51.229 Z-2.204
N6760 Y-51.248 Z-2.242
N6765 Y-51.278 Z-2.272
N6770 Y-51.315 Z-2.292
N6775 Y-51.357 Z-2.3
N6780 X118.77 Y-51.359
N6785 X125.906
N6790 G2 X126.656 Y-52.109 I0. J-0.75
N6795 G1 Y-59.109
N6800 G2 X122.906 Y-62.859 I-3.75 J0.
N6805 G1 X85.907
N6810 G2 X82.157 Y-59.109 I0. J3.75
N6815 G1 Y-21.929
N6820 G2 X85.907 Y-18.179 I3.75 J0.
N6825 G1 X97.907
N6830 G2 X101.656 Y-21.929 I0. J-3.75
N6835 G1 Y-47.109
N6840 G3 X105.906 Y-51.359 I4.25 J0.
N6845 G1 X118.77
N6850 Z5.
N6855 Y-51.085
N6860 Z-2.6
N6865 Z-2.1
N6870 X118.768 Y-51.087
N6875 Y-51.129 Z-2.108
N6880 Y-51.167 Z-2.128
N6885 Y-51.197 Z-2.158
N6890 Y-51.216 Z-2.196
N6895 Y-51.222 Z-2.238
N6900 Z-2.462
N6905 Y-51.229 Z-2.504
N6910 Y-51.248 Z-2.542
N6915 Y-51.278 Z-2.572
N6920 Y-51.315 Z-2.592
N6925 Y-51.357 Z-2.6
N6930 X118.77 Y-51.359
N6935 X125.906
N6940 G2 X126.656 Y-52.109 I0. J-0.75
N6945 G1 Y-59.109
N6950 G2 X122.906 Y-62.859 I-3.75 J0.
N6955 G1 X85.907
N6960 G2 X82.157 Y-59.109 I0. J3.75
N6965 G1 Y-21.929
N6970 G2 X85.907 Y-18.179 I3.75 J0.
N6975 G1 X97.907
N6980 G2 X101.656 Y-21.929 I0. J-3.75
N6985 G1 Y-47.109
N6990 G3 X105.906 Y-51.359 I4.25 J0.
N6995 G1 X118.77
N7000 Z5.
N7005 X122.79 Y-84.216
N7010 Z-0.5
N7015 Z0.
N7020 X122.788 Y-84.215
N7025 X122.772 Z-0.009
N7030 X122.765 Z-0.026
N7035 Z-0.474
N7040 X122.758 Z-0.491
N7045 X122.742 Z-0.5
N7050 X122.74 Y-84.216
N7055 Y-98.416
N7060 G2 X121.99 Y-99.166 I-0.75 J0.
N7065 G1 X104.99
N7070 G2 X104.24 Y-98.416 I0. J0.75
N7075 G1 Y-64.416
N7080 G2 X104.99 Y-63.667 I0.75 J0.
N7085 G1 X121.99
N7090 G2 X122.74 Y-64.416 I0. J-0.75
N7095 G1 Y-84.216
N7100 Z5.
N7105 X122.79
N7110 Z-1.
N7115 Z-0.5
N7120 X122.788 Y-84.215
N7125 X122.772 Z-0.509
N7130 X122.765 Z-0.526
N7135 Z-0.974
N7140 X122.758 Z-0.991
N7145 X122.742 Z-1.
N7150 X122.74 Y-84.216
N7155 Y-98.416
N7160 G2 X121.99 Y-99.166 I-0.75 J0.
N7165 G1 X104.99
N7170 G2 X104.24 Y-98.416 I0. J0.75
N7175 G1 Y-64.416
N7180 G2 X104.99 Y-63.667 I0.75 J0.
N7185 G1 X121.99
N7190 G2 X122.74 Y-64.416 I0. J-0.75
N7195 G1 Y-84.216
N7200 Z5.
N7205 X122.79
N7210 Z-1.5
N7215 Z-1.
N7220 X122.788 Y-84.215
N7225 X122.772 Z-1.009
N7230 X122.765 Z-1.026
N7235 Z-1.474
N7240 X122.758 Z-1.491
N7245 X122.742 Z-1.5
N7250 X122.74 Y-84.216
N7255 Y-98.416
N7260 G2 X121.99 Y-99.166 I-0.75 J0.
N7265 G1 X104.99
N7270 G2 X104.24 Y-98.416 I0. J0.75
N7275 G1 Y-64.416
N7280 G2 X104.99 Y-63.667 I0.75 J0.
N7285 G1 X121.99
N7290 G2 X122.74 Y-64.416 I0. J-0.75
N7295 G1 Y-84.216
N7300 Z5.
N7305 X122.79
N7310 Z-2.
N7315 Z-1.5
N7320 X122.788 Y-84.215
N7325 X122.772 Z-1.509
N7330 X122.765 Z-1.526
N7335 Z-1.974
N7340 X122.758 Z-1.991
N7345 X122.742 Z-2.
N7350 X122.74 Y-84.216
N7355 Y-98.416
N7360 G2 X121.99 Y-99.166 I-0.75 J0.
N7365 G1 X104.99
N7370 G2 X104.24 Y-98.416 I0. J0.75
N7375 G1 Y-64.416
N7380 G2 X104.99 Y-63.667 I0.75 J0.
N7385 G1 X121.99
N7390 G2 X122.74 Y-64.416 I0. J-0.75
N7395 G1 Y-84.216
N7400 Z5.
N7405 X122.79
N7410 Z-2.3
N7415 Z-1.8
N7420 X122.788 Y-84.215
N7425 X122.772 Z-1.809
N7430 X122.765 Z-1.826
N7435 Z-2.274
N7440 X122.758 Z-2.291
N7445 X122.742 Z-2.3
N7450 X122.74 Y-84.216
N7455 Y-98.416
N7460 G2 X121.99 Y-99.166 I-0.75 J0.
N7465 G1 X104.99
N7470 G2 X104.24 Y-98.416 I0. J0.75
N7475 G1 Y-64.416
N7480 G2 X104.99 Y-63.667 I0.75 J0.
N7485 G1 X121.99
N7490 G2 X122.74 Y-64.416 I0. J-0.75
N7495 G1 Y-84.216
N7500 Z5.
N7505 X122.79
N7510 Z-2.6
N7515 Z-2.1
N7520 X122.788 Y-84.215
N7525 X122.772 Z-2.109
N7530 X122.765 Z-2.126
N7535 Z-2.574
N7540 X122.758 Z-2.591
N7545 X122.742 Z-2.6
N7550 X122.74 Y-84.216
N7555 Y-98.416
N7560 G2 X121.99 Y-99.166 I-0.75 J0.
N7565 G1 X104.99
N7570 G2 X104.24 Y-98.416 I0. J0.75
N7575 G1 Y-64.416
N7580 G2 X104.99 Y-63.667 I0.75 J0.
N7585 G1 X121.99
N7590 G2 X122.74 Y-64.416 I0. J-0.75
N7595 G1 Y-84.216
N7600 Z5.
N7605 X103.99
N7610 Z-0.5
N7615 Z0.
N7620 X103.988 Y-84.215
N7625 X103.95 Z-0.007
N7630 X103.915 Z-0.025
N7635 X103.888 Z-0.053
N7640 X103.871 Z-0.088
N7645 X103.865 Z-0.126
N7650 Z-0.374
N7655 X103.859 Z-0.412
N7660 X103.842 Z-0.447
N7665 X103.815 Z-0.475
N7670 X103.78 Z-0.493
N7675 X103.742 Z-0.5
N7680 X103.74 Y-84.216
N7685 Y-98.416
N7690 G2 X102.99 Y-99.166 I-0.75 J0.
N7695 G1 X85.991
N7700 G2 X85.241 Y-98.416 I0. J0.75
N7705 G1 Y-64.416
N7710 G2 X85.991 Y-63.667 I0.75 J0.
N7715 G1 X102.99
N7720 G2 X103.74 Y-64.416 I0. J-0.75
N7725 G1 Y-84.216
N7730 Z5.
N7735 X103.99
N7740 Z-1.
N7745 Z-0.5
N7750 X103.988 Y-84.215
N7755 X103.95 Z-0.507
N7760 X103.915 Z-0.525
N7765 X103.888 Z-0.553
N7770 X103.871 Z-0.588
N7775 X103.865 Z-0.626
N7780 Z-0.874
N7785 X103.859 Z-0.912
N7790 X103.842 Z-0.947
N7795 X103.815 Z-0.975
N7800 X103.78 Z-0.993
N7805 X103.742 Z-1.
N7810 X103.74 Y-84.216
N7815 Y-98.416
N7820 G2 X102.99 Y-99.166 I-0.75 J0.
N7825 G1 X85.991
N7830 G2 X85.241 Y-98.416 I0. J0.75
N7835 G1 Y-64.416
N7840 G2 X85.991 Y-63.667 I0.75 J0.
N7845 G1 X102.99
N7850 G2 X103.74 Y-64.416 I0. J-0.75
N7855 G1 Y-84.216
N7860 Z5.
N7865 X103.99
N7870 Z-1.5
N7875 Z-1.
N7880 X103.988 Y-84.215
N7885 X103.95 Z-1.007
N7890 X103.915 Z-1.025
N7895 X103.888 Z-1.053
N7900 X103.871 Z-1.088
N7905 X103.865 Z-1.126
N7910 Z-1.374
N7915 X103.859 Z-1.412
N7920 X103.842 Z-1.447
N7925 X103.815 Z-1.475
N7930 X103.78 Z-1.493
N7935 X103.742 Z-1.5
N7940 X103.74 Y-84.216
N7945 Y-98.416
N7950 G2 X102.99 Y-99.166 I-0.75 J0.
N7955 G1 X85.991
N7960 G2 X85.241 Y-98.416 I0. J0.75
N7965 G1 Y-64.416
N7970 G2 X85.991 Y-63.667 I0.75 J0.
N7975 G1 X102.99
N7980 G2 X103.74 Y-64.416 I0. J-0.75
N7985 G1 Y-84.216
N7990 Z5.
N7995 X103.99
N8000 Z-2.
N8005 Z-1.5
N8010 X103.988 Y-84.215
N8015 X103.95 Z-1.507
N8020 X103.915 Z-1.525
N8025 X103.888 Z-1.553
N8030 X103.871 Z-1.588
N8035 X103.865 Z-1.626
N8040 Z-1.874
N8045 X103.859 Z-1.912
N8050 X103.842 Z-1.947
N8055 X103.815 Z-1.975
N8060 X103.78 Z-1.993
N8065 X103.742 Z-2.
N8070 X103.74 Y-84.216
N8075 Y-98.416
N8080 G2 X102.99 Y-99.166 I-0.75 J0.
N8085 G1 X85.991
N8090 G2 X85.241 Y-98.416 I0. J0.75
N8095 G1 Y-64.416
N8100 G2 X85.991 Y-63.667 I0.75 J0.
N8105 G1 X102.99
N8110 G2 X103.74 Y-64.416 I0. J-0.75
N8115 G1 Y-84.216
N8120 Z5.
N8125 X103.99
N8130 Z-2.3
N8135 Z-1.8
N8140 X103.988 Y-84.215
N8145 X103.95 Z-1.807
N8150 X103.915 Z-1.825
N8155 X103.888 Z-1.853
N8160 X103.871 Z-1.888
N8165 X103.865 Z-1.926
N8170 Z-2.174
N8175 X103.859 Z-2.212
N8180 X103.842 Z-2.247
N8185 X103.815 Z-2.275
N8190 X103.78 Z-2.293
N8195 X103.742 Z-2.3
N8200 X103.74 Y-84.216
N8205 Y-98.416
N8210 G2 X102.99 Y-99.166 I-0.75 J0.
N8215 G1 X85.991
N8220 G2 X85.241 Y-98.416 I0. J0.75
N8225 G1 Y-64.416
N8230 G2 X85.991 Y-63.667 I0.75 J0.
N8235 G1 X102.99
N8240 G2 X103.74 Y-64.416 I0. J-0.75
N8245 G1 Y-84.216
N8250 Z5.
N8255 X103.99
N8260 Z-2.6
N8265 Z-2.1
N8270 X103.988 Y-84.215
N8275 X103.95 Z-2.107
N8280 X103.915 Z-2.125
N8285 X103.888 Z-2.153
N8290 X103.871 Z-2.188
N8295 X103.865 Z-2.226
N8300 Z-2.474
N8305 X103.859 Z-2.512
N8310 X103.842 Z-2.547
N8315 X103.815 Z-2.575
N8320 X103.78 Z-2.593
N8325 X103.742 Z-2.6
N8330 X103.74 Y-84.216
N8335 Y-98.416
N8340 G2 X102.99 Y-99.166 I-0.75 J0.
N8345 G1 X85.991
N8350 G2 X85.241 Y-98.416 I0. J0.75
N8355 G1 Y-64.416
N8360 G2 X85.991 Y-63.667 I0.75 J0.
N8365 G1 X102.99
N8370 G2 X103.74 Y-64.416 I0. J-0.75
N8375 G1 Y-84.216
N8380 Z5.
N8385 X65.991
N8390 Z-1.
N8395 Z-0.5
N8400 X65.993 Y-84.218
N8405 X66.031 Z-0.507
N8410 X66.065 Z-0.525
N8415 X66.092 Z-0.553
N8420 X66.11 Z-0.588
N8425 X66.116 Z-0.626
N8430 Z-0.874
N8435 X66.121 Z-0.912
N8440 X66.139 Z-0.947
N8445 X66.166 Z-0.975
N8450 X66.2 Z-0.993
N8455 X66.239 Z-1.
N8460 X66.241 Y-84.216
N8465 Y-64.416
N8470 G2 X66.991 Y-63.667 I0.75 J0.
N8475 G1 X83.991
N8480 G2 X84.741 Y-64.416 I0. J-0.75
N8485 G1 Y-98.416
N8490 G2 X83.991 Y-99.166 I-0.75 J0.
N8495 G1 X66.991
N8500 G2 X66.241 Y-98.416 I0. J0.75
N8505 G1 Y-84.216
N8510 Z5.
N8515 X65.991
N8520 Z-1.5
N8525 Z-1.
N8530 X65.993 Y-84.218
N8535 X66.031 Z-1.007
N8540 X66.065 Z-1.025
N8545 X66.092 Z-1.053
N8550 X66.11 Z-1.088
N8555 X66.116 Z-1.126
N8560 Z-1.374
N8565 X66.121 Z-1.412
N8570 X66.139 Z-1.447
N8575 X66.166 Z-1.475
N8580 X66.2 Z-1.493
N8585 X66.239 Z-1.5
N8590 X66.241 Y-84.216
N8595 Y-64.416
N8600 G2 X66.991 Y-63.667 I0.75 J0.
N8605 G1 X83.991
N8610 G2 X84.741 Y-64.416 I0. J-0.75
N8615 G1 Y-98.416
N8620 G2 X83.991 Y-99.166 I-0.75 J0.
N8625 G1 X66.991
N8630 G2 X66.241 Y-98.416 I0. J0.75
N8635 G1 Y-84.216
N8640 Z5.
N8645 X65.991
N8650 Z-2.
N8655 Z-1.5
N8660 X65.993 Y-84.218
N8665 X66.031 Z-1.507
N8670 X66.065 Z-1.525
N8675 X66.092 Z-1.553
N8680 X66.11 Z-1.588
N8685 X66.116 Z-1.626
N8690 Z-1.874
N8695 X66.121 Z-1.912
N8700 X66.139 Z-1.947
N8705 X66.166 Z-1.975
N8710 X66.2 Z-1.993
N8715 X66.239 Z-2.
N8720 X66.241 Y-84.216
N8725 Y-64.416
N8730 G2 X66.991 Y-63.667 I0.75 J0.
N8735 G1 X83.991
N8740 G2 X84.741 Y-64.416 I0. J-0.75
N8745 G1 Y-98.416
N8750 G2 X83.991 Y-99.166 I-0.75 J0.
N8755 G1 X66.991
N8760 G2 X66.241 Y-98.416 I0. J0.75
N8765 G1 Y-84.216
N8770 Z5.
N8775 X65.991
N8780 Z-2.3
N8785 Z-1.8
N8790 X65.993 Y-84.218
N8795 X66.031 Z-1.807
N8800 X66.065 Z-1.825
N8805 X66.092 Z-1.853
N8810 X66.11 Z-1.888
N8815 X66.116 Z-1.926
N8820 Z-2.174
N8825 X66.121 Z-2.212
N8830 X66.139 Z-2.247
N8835 X66.166 Z-2.275
N8840 X66.2 Z-2.293
N8845 X66.239 Z-2.3
N8850 X66.241 Y-84.216
N8855 Y-64.416
N8860 G2 X66.991 Y-63.667 I0.75 J0.
N8865 G1 X83.991
N8870 G2 X84.741 Y-64.416 I0. J-0.75
N8875 G1 Y-98.416
N8880 G2 X83.991 Y-99.166 I-0.75 J0.
N8885 G1 X66.991
N8890 G2 X66.241 Y-98.416 I0. J0.75
N8895 G1 Y-84.216
N8900 Z5.
N8905 X65.991
N8910 Z-2.6
N8915 Z-2.1
N8920 X65.993 Y-84.218
N8925 X66.031 Z-2.107
N8930 X66.065 Z-2.125
N8935 X66.092 Z-2.153
N8940 X66.11 Z-2.188
N8945 X66.116 Z-2.226
N8950 Z-2.474
N8955 X66.121 Z-2.512
N8960 X66.139 Z-2.547
N8965 X66.166 Z-2.575
N8970 X66.2 Z-2.593
N8975 X66.239 Z-2.6
N8980 X66.241 Y-84.216
N8985 Y-64.416
N8990 G2 X66.991 Y-63.667 I0.75 J0.
N8995 G1 X83.991
N9000 G2 X84.741 Y-64.416 I0. J-0.75
N9005 G1 Y-98.416
N9010 G2 X83.991 Y-99.166 I-0.75 J0.
N9015 G1 X66.991
N9020 G2 X66.241 Y-98.416 I0. J0.75
N9025 G1 Y-84.216
N9030 Z5.
N9035 X26.904 Y-50.78
N9040 Z-0.5
N9045 Z0.
N9050 X26.902 Y-50.782
N9055 Y-50.823 Z-0.007
N9060 Y-50.859 Z-0.027
N9065 Y-50.888 Z-0.056
N9070 Y-50.907 Z-0.093
N9075 Y-50.913 Z-0.134
N9080 Z-0.366
N9085 Y-50.92 Z-0.407
N9090 Y-50.938 Z-0.444
N9095 Y-50.967 Z-0.473
N9100 Y-51.004 Z-0.493
N9105 Y-51.044 Z-0.5
N9110 X26.904 Y-51.047
N9115 X39.522
N9120 G3 X43.772 Y-46.797 I0. J4.25
N9125 G1 Y-21.617
N9130 G2 X47.522 Y-17.867 I3.75 J0.
N9135 G1 X59.522
N9140 G2 X63.272 Y-21.617 I0. J-3.75
N9145 G1 Y-58.797
N9150 G2 X59.522 Y-62.547 I-3.75 J0.
N9155 G1 X22.522
N9160 G2 X18.772 Y-58.797 I0. J3.75
N9165 G1 Y-51.797
N9170 G2 X19.522 Y-51.047 I0.75 J0.
N9175 G1 X26.904
N9180 Z5.
N9185 Y-50.78
N9190 Z-1.
N9195 Z-0.5
N9200 X26.902 Y-50.782
N9205 Y-50.823 Z-0.507
N9210 Y-50.859 Z-0.527
N9215 Y-50.888 Z-0.556
N9220 Y-50.907 Z-0.593
N9225 Y-50.913 Z-0.634
N9230 Z-0.866
N9235 Y-50.92 Z-0.907
N9240 Y-50.938 Z-0.944
N9245 Y-50.967 Z-0.973
N9250 Y-51.004 Z-0.993
N9255 Y-51.044 Z-1.
N9260 X26.904 Y-51.047
N9265 X39.522
N9270 G3 X43.772 Y-46.797 I0. J4.25
N9275 G1 Y-21.617
N9280 G2 X47.522 Y-17.867 I3.75 J0.
N9285 G1 X59.522
N9290 G2 X63.272 Y-21.617 I0. J-3.75
N9295 G1 Y-58.797
N9300 G2 X59.522 Y-62.547 I-3.75 J0.
N9305 G1 X22.522
N9310 G2 X18.772 Y-58.797 I0. J3.75
N9315 G1 Y-51.797
N9320 G2 X19.522 Y-51.047 I0.75 J0.
N9325 G1 X26.904
N9330 Z5.
N9335 Y-50.78
N9340 Z-1.5
N9345 Z-1.
N9350 X26.902 Y-50.782
N9355 Y-50.823 Z-1.007
N9360 Y-50.859 Z-1.027
N9365 Y-50.888 Z-1.056
N9370 Y-50.907 Z-1.093
N9375 Y-50.913 Z-1.134
N9380 Z-1.366
N9385 Y-50.92 Z-1.407
N9390 Y-50.938 Z-1.444
N9395 Y-50.967 Z-1.473
N9400 Y-51.004 Z-1.493
N9405 Y-51.044 Z-1.5
N9410 X26.904 Y-51.047
N9415 X39.522
N9420 G3 X43.772 Y-46.797 I0. J4.25
N9425 G1 Y-21.617
N9430 G2 X47.522 Y-17.867 I3.75 J0.
N9435 G1 X59.522
N9440 G2 X63.272 Y-21.617 I0. J-3.75
N9445 G1 Y-58.797
N9450 G2 X59.522 Y-62.547 I-3.75 J0.
N9455 G1 X22.522
N9460 G2 X18.772 Y-58.797 I0. J3.75
N9465 G1 Y-51.797
N9470 G2 X19.522 Y-51.047 I0.75 J0.
N9475 G1 X26.904
N9480 Z5.
N9485 Y-50.78
N9490 Z-2.
N9495 Z-1.5
N9500 X26.902 Y-50.782
N9505 Y-50.823 Z-1.507
N9510 Y-50.859 Z-1.527
N9515 Y-50.888 Z-1.556
N9520 Y-50.907 Z-1.593
N9525 Y-50.913 Z-1.634
N9530 Z-1.866
N9535 Y-50.92 Z-1.907
N9540 Y-50.938 Z-1.944
N9545 Y-50.967 Z-1.973
N9550 Y-51.004 Z-1.993
N9555 Y-51.044 Z-2.
N9560 X26.904 Y-51.047
N9565 X39.522
N9570 G3 X43.772 Y-46.797 I0. J4.25
N9575 G1 Y-21.617
N9580 G2 X47.522 Y-17.867 I3.75 J0.
N9585 G1 X59.522
N9590 G2 X63.272 Y-21.617 I0. J-3.75
N9595 G1 Y-58.797
N9600 G2 X59.522 Y-62.547 I-3.75 J0.
N9605 G1 X22.522
N9610 G2 X18.772 Y-58.797 I0. J3.75
N9615 G1 Y-51.797
N9620 G2 X19.522 Y-51.047 I0.75 J0.
N9625 G1 X26.904
N9630 Z5.
N9635 Y-50.78
N9640 Z-2.3
N9645 Z-1.8
N9650 X26.902 Y-50.782
N9655 Y-50.823 Z-1.807
N9660 Y-50.859 Z-1.827
N9665 Y-50.888 Z-1.856
N9670 Y-50.907 Z-1.893
N9675 Y-50.913 Z-1.934
N9680 Z-2.166
N9685 Y-50.92 Z-2.207
N9690 Y-50.938 Z-2.244
N9695 Y-50.967 Z-2.273
N9700 Y-51.004 Z-2.293
N9705 Y-51.044 Z-2.3
N9710 X26.904 Y-51.047
N9715 X39.522
N9720 G3 X43.772 Y-46.797 I0. J4.25
N9725 G1 Y-21.617
N9730 G2 X47.522 Y-17.867 I3.75 J0.
N9735 G1 X59.522
N9740 G2 X63.272 Y-21.617 I0. J-3.75
N9745 G1 Y-58.797
N9750 G2 X59.522 Y-62.547 I-3.75 J0.
N9755 G1 X22.522
N9760 G2 X18.772 Y-58.797 I0. J3.75
N9765 G1 Y-51.797
N9770 G2 X19.522 Y-51.047 I0.75 J0.
N9775 G1 X26.904
N9780 Z5.
N9785 Y-50.78
N9790 Z-2.6
N9795 Z-2.1
N9800 X26.902 Y-50.782
N9805 Y-50.823 Z-2.107
N9810 Y-50.859 Z-2.127
N9815 Y-50.888 Z-2.156
N9820 Y-50.907 Z-2.193
N9825 Y-50.913 Z-2.234
N9830 Z-2.466
N9835 Y-50.92 Z-2.507
N9840 Y-50.938 Z-2.544
N9845 Y-50.967 Z-2.573
N9850 Y-51.004 Z-2.593
N9855 Y-51.044 Z-2.6
N9860 X26.904 Y-51.047
N9865 X39.522
N9870 G3 X43.772 Y-46.797 I0. J4.25
N9875 G1 Y-21.617
N9880 G2 X47.522 Y-17.867 I3.75 J0.
N9885 G1 X59.522
N9890 G2 X63.272 Y-21.617 I0. J-3.75
N9895 G1 Y-58.797
N9900 G2 X59.522 Y-62.547 I-3.75 J0.
N9905 G1 X22.522
N9910 G2 X18.772 Y-58.797 I0. J3.75
N9915 G1 Y-51.797
N9920 G2 X19.522 Y-51.047 I0.75 J0.
N9925 G1 X26.904
N9930 Z5.
N9935 X9.19 Y-84.216
N9940 Z-0.5
N9945 Z0.
N9950 X9.192 Y-84.218
N9955 X9.209 Z-0.009
N9960 X9.215 Z-0.026
N9965 Z-0.474
N9970 X9.222 Z-0.491
N9975 X9.238 Z-0.5
N9980 X9.24 Y-84.216
N9985 Y-64.416
N9990 G2 X9.99 Y-63.667 I0.75 J0.
N9995 G1 X26.99
N10000 G2 X27.74 Y-64.416 I0. J-0.75
N10005 G1 Y-98.416
N10010 G2 X26.99 Y-99.166 I-0.75 J0.
N10015 G1 X9.99
N10020 G2 X9.24 Y-98.416 I0. J0.75
N10025 G1 Y-84.216
N10030 Z5.
N10035 X9.19
N10040 Z-1.
N10045 Z-0.5
N10050 X9.192 Y-84.218
N10055 X9.209 Z-0.509
N10060 X9.215 Z-0.526
N10065 Z-0.974
N10070 X9.222 Z-0.991
N10075 X9.238 Z-1.
N10080 X9.24 Y-84.216
N10085 Y-64.416
N10090 G2 X9.99 Y-63.667 I0.75 J0.
N10095 G1 X26.99
N10100 G2 X27.74 Y-64.416 I0. J-0.75
N10105 G1 Y-98.416
N10110 G2 X26.99 Y-99.166 I-0.75 J0.
N10115 G1 X9.99
N10120 G2 X9.24 Y-98.416 I0. J0.75
N10125 G1 Y-84.216
N10130 Z5.
N10135 X9.19
N10140 Z-1.5
N10145 Z-1.
N10150 X9.192 Y-84.218
N10155 X9.209 Z-1.009
N10160 X9.215 Z-1.026
N10165 Z-1.474
N10170 X9.222 Z-1.491
N10175 X9.238 Z-1.5
N10180 X9.24 Y-84.216
N10185 Y-64.416
N10190 G2 X9.99 Y-63.667 I0.75 J0.
N10195 G1 X26.99
N10200 G2 X27.74 Y-64.416 I0. J-0.75
N10205 G1 Y-98.416
N10210 G2 X26.99 Y-99.166 I-0.75 J0.
N10215 G1 X9.99
N10220 G2 X9.24 Y-98.416 I0. J0.75
N10225 G1 Y-84.216
N10230 Z5.
N10235 X9.19
N10240 Z-2.
N10245 Z-1.5
N10250 X9.192 Y-84.218
N10255 X9.209 Z-1.509
N10260 X9.215 Z-1.526
N10265 Z-1.974
N10270 X9.222 Z-1.991
N10275 X9.238 Z-2.
N10280 X9.24 Y-84.216
N10285 Y-64.416
N10290 G2 X9.99 Y-63.667 I0.75 J0.
N10295 G1 X26.99
N10300 G2 X27.74 Y-64.416 I0. J-0.75
N10305 G1 Y-98.416
N10310 G2 X26.99 Y-99.166 I-0.75 J0.
N10315 G1 X9.99
N10320 G2 X9.24 Y-98.416 I0. J0.75
N10325 G1 Y-84.216
N10330 Z5.
N10335 X9.19
N10340 Z-2.3
N10345 Z-1.8
N10350 X9.192 Y-84.218
N10355 X9.209 Z-1.809
N10360 X9.215 Z-1.826
N10365 Z-2.274
N10370 X9.222 Z-2.291
N10375 X9.238 Z-2.3
N10380 X9.24 Y-84.216
N10385 Y-64.416
N10390 G2 X9.99 Y-63.667 I0.75 J0.
N10395 G1 X26.99
N10400 G2 X27.74 Y-64.416 I0. J-0.75
N10405 G1 Y-98.416
N10410 G2 X26.99 Y-99.166 I-0.75 J0.
N10415 G1 X9.99
N10420 G2 X9.24 Y-98.416 I0. J0.75
N10425 G1 Y-84.216
N10430 Z5.
N10435 X9.19
N10440 Z-2.6
N10445 Z-2.1
N10450 X9.192 Y-84.218
N10455 X9.209 Z-2.109
N10460 X9.215 Z-2.126
N10465 Z-2.574
N10470 X9.222 Z-2.591
N10475 X9.238 Z-2.6
N10480 X9.24 Y-84.216
N10485 Y-64.416
N10490 G2 X9.99 Y-63.667 I0.75 J0.
N10495 G1 X26.99
N10500 G2 X27.74 Y-64.416 I0. J-0.75
N10505 G1 Y-98.416
N10510 G2 X26.99 Y-99.166 I-0.75 J0.
N10515 G1 X9.99
N10520 G2 X9.24 Y-98.416 I0. J0.75
N10525 G1 Y-84.216
N10530 Z15.
N10535 M9
N10540 G28 G91 Z0.
N10545 G90
N10550 G28 G91 X0. Y0.
N10555 G90
N10560 M30
%
