%
(TABOUT_COUNTOURING)
(MACHINE)
(  VENDOR AUTODESK)
(  MODEL GENERIC 3-AXIS)
(  DESCRIPTION THIS MACHINE HAS XY AXIS ON THE TABLE AND Z AXIS ON THE HEAD)
(T0 D=1.5 CR=0. - ZMIN=-3.2 - FLAT END MILL)
N10 G90 G94 G17 G91.1
N15 G21
(WHEN USING FUSION 360 FOR PERSONAL USE, THE FEEDRATE OF)
(RAPID MOVES IS REDUCED TO MATCH THE FEEDRATE OF CUTTING)
(MOVES, WHICH CAN INCREASE MACHINING TIME. UNRESTRICTED RAPID)
(MOVES ARE AVAILABLE WITH A FUSION 360 SUBSCRIPTION.)
N20 G28 G91 Z0.
N25 G90
(TABOUT_CONTOURING)
N30 T0 M6
N35 S12000 M3
N40 G17 G90 G94
N45 G54
N50 M8
N55 G0 X59.291 Y-63.106
N60 G43 Z15. H0
N65 G1 Z2.4 F48.
N70 Z-2.9
N75 Z-2.4
N80 X59.289 Y-63.104
N85 X59.259
N90 X59.252 Z-2.403
N95 X59.249 Z-2.41
N100 Z-2.89
N105 X59.243 Z-2.899
N110 X59.241 Y-63.105 Z-2.9
N115 Y-63.106
N120 Y-63.667
N125 X64.991
N130 G2 X65.741 Y-64.416 I0. J-0.75
N135 G1 Y-78.666
N140 X66.241
N145 Y-64.416
N150 G2 X66.991 Y-63.667 I0.75 J0.
N155 G1 X72.741
N160 Y-62.938
N165 X64.301
N170 G2 X63.551 Y-62.188 I0. J0.75
N175 G1 Y-47.938
N180 X63.272
N185 Y-58.797
N190 G2 X59.522 Y-62.547 I-3.75 J0.
N195 G1 X59.241
N200 Y-63.106
N205 Z2.4
N210 X59.291
N215 Z-3.2
N220 Z-2.7
N225 X59.289 Y-63.104
N230 X59.259
N235 X59.252 Z-2.703
N240 X59.249 Z-2.71
N245 Z-3.19
N250 X59.243 Z-3.199
N255 X59.241 Y-63.105 Z-3.2
N260 Y-63.106
N265 Y-63.667
N270 X64.991
N275 G2 X65.741 Y-64.416 I0. J-0.75
N280 G1 Y-78.666
N285 X66.241
N290 Y-64.416
N295 G2 X66.991 Y-63.667 I0.75 J0.
N300 G1 X72.741
N305 Y-62.938
N310 X64.301
N315 G2 X63.551 Y-62.188 I0. J0.75
N320 G1 Y-47.938
N325 X63.272
N330 Y-58.797
N335 G2 X59.522 Y-62.547 I-3.75 J0.
N340 G1 X59.241
N345 Y-63.106
N350 Z5.
N355 X53.69
N360 Z2.4
N365 Z-2.9
N370 Z-2.4
N375 X53.693 Y-63.109
N380 X53.722
N385 X53.729 Z-2.403
N390 X53.732 Z-2.41
N395 Z-2.89
N400 X53.738 Z-2.899
N405 X53.74 Y-63.108 Z-2.9
N410 X53.741 Y-63.106
N415 Y-62.547
N420 X40.241
N425 Y-63.667
N430 X45.991
N435 G2 X46.741 Y-64.416 I0. J-0.75
N440 G1 Y-78.666
N445 X47.241
N450 Y-64.416
N455 G2 X47.991 Y-63.667 I0.75 J0.
N460 G1 X53.741
N465 Y-63.106
N470 Z2.4
N475 X53.69
N480 Z-3.2
N485 Z-2.7
N490 X53.693 Y-63.109
N495 X53.722
N500 X53.729 Z-2.703
N505 X53.732 Z-2.71
N510 Z-3.19
N515 X53.738 Z-3.199
N520 X53.74 Y-63.108 Z-3.2
N525 X53.741 Y-63.106
N530 Y-62.547
N535 X40.241
N540 Y-63.667
N545 X45.991
N550 G2 X46.741 Y-64.416 I0. J-0.75
N555 G1 Y-78.666
N560 X47.241
N565 Y-64.416
N570 G2 X47.991 Y-63.667 I0.75 J0.
N575 G1 X53.741
N580 Y-63.106
N585 Z5.
N590 X32.504 Y-50.78
N595 Z2.4
N600 Z-2.9
N605 Z-2.4
N610 X32.502 Y-50.778
N615 X32.473
N620 X32.465 Z-2.403
N625 X32.463 Z-2.41
N630 Z-2.89
N635 X32.456 Z-2.899
N640 X32.454 Y-50.779 Z-2.9
N645 Y-50.78
N650 Y-51.047
N655 X39.522
N660 G3 X43.772 Y-46.797 I0. J4.25
N665 G1 Y-21.617
N670 G2 X47.522 Y-17.867 I3.75 J0.
N675 G1 X54.772
N680 Y-17.333
N685 X47.704
N690 G3 X43.454 Y-21.583 I0. J-4.25
N695 G1 Y-46.764
N700 G2 X39.704 Y-50.514 I-3.75 J0.
N705 G1 X32.454
N710 Y-50.78
N715 Z2.4
N720 X32.504
N725 Z-3.2
N730 Z-2.7
N735 X32.502 Y-50.778
N740 X32.473
N745 X32.465 Z-2.703
N750 X32.463 Z-2.71
N755 Z-3.19
N760 X32.456 Z-3.199
N765 X32.454 Y-50.779 Z-3.2
N770 Y-50.78
N775 Y-51.047
N780 X39.522
N785 G3 X43.772 Y-46.797 I0. J4.25
N790 G1 Y-21.617
N795 G2 X47.522 Y-17.867 I3.75 J0.
N800 G1 X54.772
N805 Y-17.333
N810 X47.704
N815 G3 X43.454 Y-21.583 I0. J-4.25
N820 G1 Y-46.764
N825 G2 X39.704 Y-50.514 I-3.75 J0.
N830 G1 X32.454
N835 Y-50.78
N840 Z5.
N845 X26.904
N850 Z2.4
N855 Z-2.9
N860 Z-2.4
N865 X26.906 Y-50.782
N870 X26.935
N875 X26.942 Z-2.403
N880 X26.945 Z-2.41
N885 Z-2.89
N890 X26.952 Z-2.899
N895 X26.953 Y-50.781 Z-2.9
N900 X26.954 Y-50.78
N905 Y-50.438
N910 G2 X23.954 Y-46.764 I0.75 J3.674
N915 G1 Y-32.031
N920 X23.844
N925 Y-51.047
N930 X26.954
N935 Y-50.78
N940 Z2.4
N945 X26.904
N950 Z-3.2
N955 Z-2.7
N960 X26.906 Y-50.782
N965 X26.935
N970 X26.942 Z-2.703
N975 X26.945 Z-2.71
N980 Z-3.19
N985 X26.952 Z-3.199
N990 X26.953 Y-50.781 Z-3.2
N995 X26.954 Y-50.78
N1000 Y-50.438
N1005 G2 X23.954 Y-46.764 I0.75 J3.674
N1010 G1 Y-32.031
N1015 X23.844
N1020 Y-51.047
N1025 X26.954
N1030 Y-50.78
N1035 Z5.
N1040 X21.722 Y-63.106
N1045 Z2.4
N1050 Z-2.9
N1055 Z-2.4
N1060 X21.724 Y-63.109
N1065 X21.753
N1070 X21.761 Z-2.403
N1075 X21.763 Z-2.41
N1080 Z-2.89
N1085 X21.77 Z-2.899
N1090 X21.772 Y-63.108 Z-2.9
N1095 Y-63.106
N1100 Y-62.471
N1105 G2 X18.772 Y-58.797 I0.75 J3.674
N1110 G1 Y-52.547
N1115 X18.672
N1120 Y-62.817
N1125 G2 X17.922 Y-63.567 I-0.75 J0.
N1130 G1 X14.741
N1135 Y-63.667
N1140 X21.772
N1145 Y-63.106
N1150 Z2.4
N1155 X21.722
N1160 Z-3.2
N1165 Z-2.7
N1170 X21.724 Y-63.109
N1175 X21.753
N1180 X21.761 Z-2.703
N1185 X21.763 Z-2.71
N1190 Z-3.19
N1195 X21.77 Z-3.199
N1200 X21.772 Y-63.108 Z-3.2
N1205 Y-63.106
N1210 Y-62.471
N1215 G2 X18.772 Y-58.797 I0.75 J3.674
N1220 G1 Y-52.547
N1225 X18.672
N1230 Y-62.817
N1235 G2 X17.922 Y-63.567 I-0.75 J0.
N1240 G1 X14.741
N1245 Y-63.667
N1250 X21.772
N1255 Y-63.106
N1260 Z5.
N1265 X34.69
N1270 Z2.4
N1275 Z-2.9
N1280 Z-2.4
N1285 X34.693 Y-63.109
N1290 X34.722
N1295 X34.729 Z-2.403
N1300 X34.732 Z-2.41
N1305 Z-2.89
N1310 X34.738 Z-2.899
N1315 X34.74 Y-63.108 Z-2.9
N1320 X34.741 Y-63.106
N1325 Y-62.547
N1330 X27.74
N1335 Y-78.666
N1340 X28.24
N1345 Y-64.416
N1350 G2 X28.99 Y-63.667 I0.75 J0.
N1355 G1 X34.741
N1360 Y-63.106
N1365 Z2.4
N1370 X34.69
N1375 Z-3.2
N1380 Z-2.7
N1385 X34.693 Y-63.109
N1390 X34.722
N1395 X34.729 Z-2.703
N1400 X34.732 Z-2.71
N1405 Z-3.19
N1410 X34.738 Z-3.199
N1415 X34.74 Y-63.108 Z-3.2
N1420 X34.741 Y-63.106
N1425 Y-62.547
N1430 X27.74
N1435 Y-78.666
N1440 X28.24
N1445 Y-64.416
N1450 G2 X28.99 Y-63.667 I0.75 J0.
N1455 G1 X34.741
N1460 Y-63.106
N1465 Z5.
N1470 X27.99 Y-84.216
N1475 Z2.4
N1480 Z-2.9
N1485 Z-2.4
N1490 X27.993 Y-84.215
N1495 Y-84.185
N1500 Y-84.178 Z-2.403
N1505 Y-84.175 Z-2.41
N1510 Z-2.89
N1515 Y-84.169 Z-2.899
N1520 X27.992 Y-84.167 Z-2.9
N1525 X27.99 Y-84.166
N1530 X27.74
N1535 Y-98.416
N1540 G2 X26.99 Y-99.166 I-0.75 J0.
N1545 G1 X21.24
N1550 Y-99.267
N1555 X34.741
N1560 Y-99.166
N1565 X28.99
N1570 G2 X28.24 Y-98.416 I0. J0.75
N1575 G1 Y-84.166
N1580 X27.99
N1585 Z2.4
N1590 Y-84.216
N1595 Z-3.2
N1600 Z-2.7
N1605 X27.993 Y-84.215
N1610 Y-84.185
N1615 Y-84.178 Z-2.703
N1620 Y-84.175 Z-2.71
N1625 Z-3.19
N1630 Y-84.169 Z-3.199
N1635 X27.992 Y-84.167 Z-3.2
N1640 X27.99 Y-84.166
N1645 X27.74
N1650 Y-98.416
N1655 G2 X26.99 Y-99.166 I-0.75 J0.
N1660 G1 X21.24
N1665 Y-99.267
N1670 X34.741
N1675 Y-99.166
N1680 X28.99
N1685 G2 X28.24 Y-98.416 I0. J0.75
N1690 G1 Y-84.166
N1695 X27.99
N1700 Z5.
N1705 X46.991 Y-84.216
N1710 Z2.4
N1715 Z-2.9
N1720 Z-2.4
N1725 X46.993 Y-84.215
N1730 Y-84.185
N1735 Y-84.178 Z-2.403
N1740 Y-84.175 Z-2.41
N1745 Z-2.89
N1750 Y-84.169 Z-2.899
N1755 X46.992 Y-84.167 Z-2.9
N1760 X46.991 Y-84.166
N1765 X46.741
N1770 Y-98.416
N1775 G2 X45.991 Y-99.166 I-0.75 J0.
N1780 G1 X40.241
N1785 Y-99.267
N1790 X53.741
N1795 Y-99.166
N1800 X47.991
N1805 G2 X47.241 Y-98.416 I0. J0.75
N1810 G1 Y-84.166
N1815 X46.991
N1820 Z2.4
N1825 Y-84.216
N1830 Z-3.2
N1835 Z-2.7
N1840 X46.993 Y-84.215
N1845 Y-84.185
N1850 Y-84.178 Z-2.703
N1855 Y-84.175 Z-2.71
N1860 Z-3.19
N1865 Y-84.169 Z-3.199
N1870 X46.992 Y-84.167 Z-3.2
N1875 X46.991 Y-84.166
N1880 X46.741
N1885 Y-98.416
N1890 G2 X45.991 Y-99.166 I-0.75 J0.
N1895 G1 X40.241
N1900 Y-99.267
N1905 X53.741
N1910 Y-99.166
N1915 X47.991
N1920 G2 X47.241 Y-98.416 I0. J0.75
N1925 G1 Y-84.166
N1930 X46.991
N1935 Z5.
N1940 X65.991 Y-84.216
N1945 Z2.4
N1950 Z-2.9
N1955 Z-2.4
N1960 X65.993 Y-84.215
N1965 Y-84.185
N1970 Y-84.178 Z-2.403
N1975 Y-84.175 Z-2.41
N1980 Z-2.89
N1985 Y-84.169 Z-2.899
N1990 X65.992 Y-84.167 Z-2.9
N1995 X65.991 Y-84.166
N2000 X65.741
N2005 Y-98.416
N2010 G2 X64.991 Y-99.166 I-0.75 J0.
N2015 G1 X59.241
N2020 Y-99.267
N2025 X72.741
N2030 Y-99.166
N2035 X66.991
N2040 G2 X66.241 Y-98.416 I0. J0.75
N2045 G1 Y-84.166
N2050 X65.991
N2055 Z2.4
N2060 Y-84.216
N2065 Z-3.2
N2070 Z-2.7
N2075 X65.993 Y-84.215
N2080 Y-84.185
N2085 Y-84.178 Z-2.703
N2090 Y-84.175 Z-2.71
N2095 Z-3.19
N2100 Y-84.169 Z-3.199
N2105 X65.992 Y-84.167 Z-3.2
N2110 X65.991 Y-84.166
N2115 X65.741
N2120 Y-98.416
N2125 G2 X64.991 Y-99.166 I-0.75 J0.
N2130 G1 X59.241
N2135 Y-99.267
N2140 X72.741
N2145 Y-99.166
N2150 X66.991
N2155 G2 X66.241 Y-98.416 I0. J0.75
N2160 G1 Y-84.166
N2165 X65.991
N2170 Z5.
N2175 X84.991 Y-84.216
N2180 Z2.4
N2185 Z-2.9
N2190 Z-2.4
N2195 X84.993 Y-84.215
N2200 Y-84.185
N2205 Y-84.178 Z-2.403
N2210 Y-84.175 Z-2.41
N2215 Z-2.89
N2220 Y-84.169 Z-2.899
N2225 X84.992 Y-84.167 Z-2.9
N2230 X84.991 Y-84.166
N2235 X84.741
N2240 Y-98.416
N2245 G2 X83.991 Y-99.166 I-0.75 J0.
N2250 G1 X78.241
N2255 Y-99.267
N2260 X91.741
N2265 Y-99.166
N2270 X85.991
N2275 G2 X85.241 Y-98.416 I0. J0.75
N2280 G1 Y-84.166
N2285 X84.991
N2290 Z2.4
N2295 Y-84.216
N2300 Z-3.2
N2305 Z-2.7
N2310 X84.993 Y-84.215
N2315 Y-84.185
N2320 Y-84.178 Z-2.703
N2325 Y-84.175 Z-2.71
N2330 Z-3.19
N2335 Y-84.169 Z-3.199
N2340 X84.992 Y-84.167 Z-3.2
N2345 X84.991 Y-84.166
N2350 X84.741
N2355 Y-98.416
N2360 G2 X83.991 Y-99.166 I-0.75 J0.
N2365 G1 X78.241
N2370 Y-99.267
N2375 X91.741
N2380 Y-99.166
N2385 X85.991
N2390 G2 X85.241 Y-98.416 I0. J0.75
N2395 G1 Y-84.166
N2400 X84.991
N2405 Z5.
N2410 X78.29 Y-63.302
N2415 Z2.4
N2420 Z-2.9
N2425 Z-2.4
N2430 X78.288 Y-63.3
N2435 X78.259
N2440 X78.252 Z-2.403
N2445 X78.249 Z-2.41
N2450 Z-2.89
N2455 X78.243 Z-2.899
N2460 X78.241 Y-63.301 Z-2.9
N2465 Y-63.302
N2470 Y-63.667
N2475 X83.991
N2480 G2 X84.741 Y-64.416 I0. J-0.75
N2485 G1 Y-78.666
N2490 X85.241
N2495 Y-64.416
N2500 G2 X85.991 Y-63.667 I0.75 J0.
N2505 G1 X91.741
N2510 Y-62.859
N2515 X85.907
N2520 G2 X82.157 Y-59.109 I0. J3.75
N2525 G1 Y-47.938
N2530 X82.051
N2535 Y-62.188
N2540 G2 X81.301 Y-62.938 I-0.75 J0.
N2545 G1 X78.241
N2550 Y-63.302
N2555 Z2.4
N2560 X78.29
N2565 Z-3.2
N2570 Z-2.7
N2575 X78.288 Y-63.3
N2580 X78.259
N2585 X78.252 Z-2.703
N2590 X78.249 Z-2.71
N2595 Z-3.19
N2600 X78.243 Z-3.199
N2605 X78.241 Y-63.301 Z-3.2
N2610 Y-63.302
N2615 Y-63.667
N2620 X83.991
N2625 G2 X84.741 Y-64.416 I0. J-0.75
N2630 G1 Y-78.666
N2635 X85.241
N2640 Y-64.416
N2645 G2 X85.991 Y-63.667 I0.75 J0.
N2650 G1 X91.741
N2655 Y-62.859
N2660 X85.907
N2665 G2 X82.157 Y-59.109 I0. J3.75
N2670 G1 Y-47.938
N2675 X82.051
N2680 Y-62.188
N2685 G2 X81.301 Y-62.938 I-0.75 J0.
N2690 G1 X78.241
N2695 Y-63.302
N2700 Z5.
N2705 X110.69 Y-63.263
N2710 Z2.4
N2715 Z-2.9
N2720 Z-2.4
N2725 X110.692 Y-63.265
N2730 X110.721
N2735 X110.728 Z-2.403
N2740 X110.731 Z-2.41
N2745 Z-2.89
N2750 X110.738 Z-2.899
N2755 X110.739 Y-63.264 Z-2.9
N2760 X110.74 Y-63.263
N2765 Y-62.859
N2770 X97.241
N2775 Y-63.667
N2780 X102.99
N2785 G2 X103.74 Y-64.416 I0. J-0.75
N2790 G1 Y-78.666
N2795 X104.24
N2800 Y-64.416
N2805 G2 X104.99 Y-63.667 I0.75 J0.
N2810 G1 X110.74
N2815 Y-63.263
N2820 Z2.4
N2825 X110.69
N2830 Z-3.2
N2835 Z-2.7
N2840 X110.692 Y-63.265
N2845 X110.721
N2850 X110.728 Z-2.703
N2855 X110.731 Z-2.71
N2860 Z-3.19
N2865 X110.738 Z-3.199
N2870 X110.739 Y-63.264 Z-3.2
N2875 X110.74 Y-63.263
N2880 Y-62.859
N2885 X97.241
N2890 Y-63.667
N2895 X102.99
N2900 G2 X103.74 Y-64.416 I0. J-0.75
N2905 G1 Y-78.666
N2910 X104.24
N2915 Y-64.416
N2920 G2 X104.99 Y-63.667 I0.75 J0.
N2925 G1 X110.74
N2930 Y-63.263
N2935 Z5.
N2940 X113.17 Y-51.085
N2945 Z2.4
N2950 Z-2.9
N2955 Z-2.4
N2960 X113.172 Y-51.087
N2965 X113.201
N2970 X113.208 Z-2.403
N2975 X113.211 Z-2.41
N2980 Z-2.89
N2985 X113.218 Z-2.899
N2990 X113.219 Z-2.9
N2995 X113.22 Y-51.085
N3000 Y-50.811
N3005 X105.97
N3010 G2 X102.22 Y-47.061 I0. J3.75
N3015 G1 Y-21.881
N3020 G3 X97.97 Y-17.631 I-4.25 J0.
N3025 G1 X90.657
N3030 Y-18.179
N3035 X97.907
N3040 G2 X101.656 Y-21.929 I0. J-3.75
N3045 G1 Y-47.109
N3050 G3 X105.906 Y-51.359 I4.25 J0.
N3055 G1 X113.22
N3060 Y-51.085
N3065 Z2.4
N3070 X113.17
N3075 Z-3.2
N3080 Z-2.7
N3085 X113.172 Y-51.087
N3090 X113.201
N3095 X113.208 Z-2.703
N3100 X113.211 Z-2.71
N3105 Z-3.19
N3110 X113.218 Z-3.199
N3115 X113.219 Z-3.2
N3120 X113.22 Y-51.085
N3125 Y-50.811
N3130 X105.97
N3135 G2 X102.22 Y-47.061 I0. J3.75
N3140 G1 Y-21.881
N3145 G3 X97.97 Y-17.631 I-4.25 J0.
N3150 G1 X90.657
N3155 Y-18.179
N3160 X97.907
N3165 G2 X101.656 Y-21.929 I0. J-3.75
N3170 G1 Y-47.109
N3175 G3 X105.906 Y-51.359 I4.25 J0.
N3180 G1 X113.22
N3185 Y-51.085
N3190 Z5.
N3195 X118.77
N3200 Z2.4
N3205 Z-2.9
N3210 Z-2.4
N3215 X118.768 Y-51.083
N3220 X118.739
N3225 X118.732 Z-2.403
N3230 X118.729 Z-2.41
N3235 Z-2.89
N3240 X118.722 Z-2.899
N3245 X118.721 Y-51.084 Z-2.9
N3250 X118.72 Y-51.085
N3255 Y-51.359
N3260 X126.756
N3265 Y-51.259
N3270 X122.57
N3275 G2 X121.82 Y-50.509 I0. J0.75
N3280 G1 Y-31.221
N3285 X121.72
N3290 Y-47.061
N3295 G2 X118.72 Y-50.736 I-3.75 J0.
N3300 G1 Y-51.085
N3305 Z2.4
N3310 X118.77
N3315 Z-3.2
N3320 Z-2.7
N3325 X118.768 Y-51.083
N3330 X118.739
N3335 X118.732 Z-2.703
N3340 X118.729 Z-2.71
N3345 Z-3.19
N3350 X118.722 Z-3.199
N3355 X118.721 Y-51.084 Z-3.2
N3360 X118.72 Y-51.085
N3365 Y-51.359
N3370 X126.756
N3375 Y-51.259
N3380 X122.57
N3385 G2 X121.82 Y-50.509 I0. J0.75
N3390 G1 Y-31.221
N3395 X121.72
N3400 Y-47.061
N3405 G2 X118.72 Y-50.736 I-3.75 J0.
N3410 G1 Y-51.085
N3415 Z5.
N3420 X121.77 Y-25.671
N3425 Z2.4
N3430 Z-2.9
N3435 Z-2.4
N3440 X121.772 Y-25.673
N3445 X121.801
N3450 X121.808 Z-2.403
N3455 X121.811 Z-2.41
N3460 Z-2.89
N3465 X121.818 Z-2.899
N3470 X121.819 Z-2.9
N3475 X121.82 Y-25.671
N3480 Y-9.881
N3485 G3 X117.97 Y-6.031 I-3.85 J0.
N3490 G1 X102.22
N3495 Y-6.131
N3500 X117.97
N3505 G2 X121.72 Y-9.881 I0. J-3.75
N3510 G1 Y-25.721
N3515 X121.82
N3520 Y-25.671
N3525 Z2.4
N3530 X121.77
N3535 Z-3.2
N3540 Z-2.7
N3545 X121.772 Y-25.673
N3550 X121.801
N3555 X121.808 Z-2.703
N3560 X121.811 Z-2.71
N3565 Z-3.19
N3570 X121.818 Z-3.199
N3575 X121.819 Z-3.2
N3580 X121.82 Y-25.671
N3585 Y-9.881
N3590 G3 X117.97 Y-6.031 I-3.85 J0.
N3595 G1 X102.22
N3600 Y-6.131
N3605 X117.97
N3610 G2 X121.72 Y-9.881 I0. J-3.75
N3615 G1 Y-25.721
N3620 X121.82
N3625 Y-25.671
N3630 Z5.
N3635 X77.17 Y-12.081
N3640 Z2.4
N3645 Z-2.9
N3650 Z-2.4
N3655 X77.168 Y-12.083
N3660 Y-12.112
N3665 Y-12.12 Z-2.403
N3670 Y-12.122 Z-2.41
N3675 Z-2.89
N3680 Y-12.129 Z-2.899
N3685 X77.169 Y-12.131 Z-2.9
N3690 X77.17
N3695 X77.22
N3700 Y-9.881
N3705 G2 X80.97 Y-6.131 I3.75 J0.
N3710 G1 X96.72
N3715 Y-6.031
N3720 X80.97
N3725 G3 X77.12 Y-9.881 I0. J-3.85
N3730 G1 Y-12.131
N3735 X77.17
N3740 Z2.4
N3745 Y-12.081
N3750 Z-3.2
N3755 Z-2.7
N3760 X77.168 Y-12.083
N3765 Y-12.112
N3770 Y-12.12 Z-2.703
N3775 Y-12.122 Z-2.71
N3780 Z-3.19
N3785 Y-12.129 Z-3.199
N3790 X77.169 Y-12.131 Z-3.2
N3795 X77.17
N3800 X77.22
N3805 Y-9.881
N3810 G2 X80.97 Y-6.131 I3.75 J0.
N3815 G1 X96.72
N3820 Y-6.031
N3825 X80.97
N3830 G3 X77.12 Y-9.881 I0. J-3.85
N3835 G1 Y-12.131
N3840 X77.17
N3845 Z5.
N3850 X85.106 Y-17.905
N3855 Z2.4
N3860 Z-2.9
N3865 Z-2.4
N3870 X85.108 Y-17.907
N3875 X85.138
N3880 X85.145 Z-2.403
N3885 X85.148 Z-2.41
N3890 Z-2.89
N3895 X85.155 Z-2.899
N3900 X85.156 Z-2.9
N3905 X85.157 Y-17.905
N3910 Y-17.631
N3915 X77.12
N3920 Y-18.179
N3925 X81.301
N3930 G2 X82.051 Y-18.929 I0. J-0.75
N3935 G1 Y-26.588
N3940 G2 X81.301 Y-27.338 I-0.75 J0.
N3945 G1 X75.551
N3950 Y-27.438
N3955 X81.301
N3960 G2 X82.051 Y-28.188 I0. J-0.75
N3965 G1 Y-42.438
N3970 X82.157
N3975 Y-21.929
N3980 G2 X85.157 Y-18.255 I3.75 J0.
N3985 G1 Y-17.905
N3990 Z2.4
N3995 X85.106
N4000 Z-3.2
N4005 Z-2.7
N4010 X85.108 Y-17.907
N4015 X85.138
N4020 X85.145 Z-2.703
N4025 X85.148 Z-2.71
N4030 Z-3.19
N4035 X85.155 Z-3.199
N4040 X85.156 Z-3.2
N4045 X85.157 Y-17.905
N4050 Y-17.631
N4055 X77.12
N4060 Y-18.179
N4065 X81.301
N4070 G2 X82.051 Y-18.929 I0. J-0.75
N4075 G1 Y-26.588
N4080 G2 X81.301 Y-27.338 I-0.75 J0.
N4085 G1 X75.551
N4090 Y-27.438
N4095 X81.301
N4100 G2 X82.051 Y-28.188 I0. J-0.75
N4105 G1 Y-42.438
N4110 X82.157
N4115 Y-21.929
N4120 G2 X85.157 Y-18.255 I3.75 J0.
N4125 G1 Y-17.905
N4130 Z5.
N4135 X60.322 Y-17.6
N4140 Z2.4
N4145 Z-2.9
N4150 Z-2.4
N4155 X60.32 Y-17.598
N4160 X60.291
N4165 X60.284 Z-2.403
N4170 X60.281 Z-2.41
N4175 Z-2.89
N4180 X60.274 Z-2.899
N4185 X60.273 Y-17.599 Z-2.9
N4190 X60.272 Y-17.6
N4195 Y-17.942
N4200 G2 X63.272 Y-21.617 I-0.75 J-3.674
N4205 G1 Y-42.438
N4210 X63.551
N4215 Y-28.188
N4220 G2 X64.301 Y-27.438 I0.75 J0.
N4225 G1 X70.051
N4230 Y-27.338
N4235 X64.301
N4240 G2 X63.551 Y-26.588 I0. J0.75
N4245 G1 Y-18.617
N4250 G2 X64.301 Y-17.867 I0.75 J0.
N4255 G1 X68.554
N4260 Y-17.333
N4265 X60.272
N4270 Y-17.6
N4275 Z2.4
N4280 X60.322
N4285 Z-3.2
N4290 Z-2.7
N4295 X60.32 Y-17.598
N4300 X60.291
N4305 X60.284 Z-2.703
N4310 X60.281 Z-2.71
N4315 Z-3.19
N4320 X60.274 Z-3.199
N4325 X60.273 Y-17.599 Z-3.2
N4330 X60.272 Y-17.6
N4335 Y-17.942
N4340 G2 X63.272 Y-21.617 I-0.75 J-3.674
N4345 G1 Y-42.438
N4350 X63.551
N4355 Y-28.188
N4360 G2 X64.301 Y-27.438 I0.75 J0.
N4365 G1 X70.051
N4370 Y-27.338
N4375 X64.301
N4380 G2 X63.551 Y-26.588 I0. J0.75
N4385 G1 Y-18.617
N4390 G2 X64.301 Y-17.867 I0.75 J0.
N4395 G1 X68.554
N4400 Y-17.333
N4405 X60.272
N4410 Y-17.6
N4415 Z5.
N4420 X68.504 Y-11.783
N4425 Z2.4
N4430 Z-2.9
N4435 Z-2.4
N4440 X68.502 Y-11.781
N4445 X68.473
N4450 X68.465 Z-2.403
N4455 X68.463 Z-2.41
N4460 Z-2.89
N4465 X68.456 Z-2.899
N4470 X68.454 Y-11.782 Z-2.9
N4475 Y-11.783
N4480 Y-11.833
N4485 X68.554
N4490 Y-9.583
N4495 G3 X64.704 Y-5.733 I-3.85 J0.
N4500 G1 X48.954
N4505 Y-5.833
N4510 X64.704
N4515 G2 X68.454 Y-9.583 I0. J-3.75
N4520 G1 Y-11.783
N4525 Z2.4
N4530 X68.504
N4535 Z-3.2
N4540 Z-2.7
N4545 X68.502 Y-11.781
N4550 X68.473
N4555 X68.465 Z-2.703
N4560 X68.463 Z-2.71
N4565 Z-3.19
N4570 X68.456 Z-3.199
N4575 X68.454 Y-11.782 Z-3.2
N4580 Y-11.783
N4585 Y-11.833
N4590 X68.554
N4595 Y-9.583
N4600 G3 X64.704 Y-5.733 I-3.85 J0.
N4605 G1 X48.954
N4610 Y-5.833
N4615 X64.704
N4620 G2 X68.454 Y-9.583 I0. J-3.75
N4625 G1 Y-11.783
N4630 Z5.
N4635 X23.899 Y-26.481
N4640 Z2.4
N4645 Z-2.9
N4650 Z-2.4
N4655 X23.897 Y-26.483
N4660 Y-26.512
N4665 Y-26.519 Z-2.403
N4670 Y-26.522 Z-2.41
N4675 Z-2.89
N4680 Y-26.529 Z-2.899
N4685 Y-26.53 Z-2.9
N4690 X23.899 Y-26.531
N4695 X23.954
N4700 Y-9.583
N4705 G2 X27.704 Y-5.833 I3.75 J0.
N4710 G1 X43.454
N4715 Y-5.733
N4720 X27.703 Y-5.723
N4725 G3 X23.844 Y-9.583 I0. J-3.86
N4730 G1 Y-10.681
N4735 G2 X23.094 Y-11.431 I-0.75 J0.
N4740 G1 X17.344
N4745 Y-11.531
N4750 X23.094
N4755 G2 X23.844 Y-12.281 I0. J-0.75
N4760 G1 Y-26.531
N4765 X23.899
N4770 Z2.4
N4775 Y-26.481
N4780 Z-3.2
N4785 Z-2.7
N4790 X23.897 Y-26.483
N4795 Y-26.512
N4800 Y-26.519 Z-2.703
N4805 Y-26.522 Z-2.71
N4810 Z-3.19
N4815 Y-26.529 Z-3.199
N4820 Y-26.53 Z-3.2
N4825 X23.899 Y-26.531
N4830 X23.954
N4835 Y-9.583
N4840 G2 X27.704 Y-5.833 I3.75 J0.
N4845 G1 X43.454
N4850 Y-5.733
N4855 X27.703 Y-5.723
N4860 G3 X23.844 Y-9.583 I0. J-3.86
N4865 G1 Y-10.681
N4870 G2 X23.094 Y-11.431 I-0.75 J0.
N4875 G1 X17.344
N4880 Y-11.531
N4885 X23.094
N4890 G2 X23.844 Y-12.281 I0. J-0.75
N4895 G1 Y-26.531
N4900 X23.899
N4905 Z5.
N4910 X5.294 Y-26.481
N4915 Z2.4
N4920 Z-2.9
N4925 Z-2.4
N4930 X5.296 Y-26.483
N4935 X5.325
N4940 X5.332 Z-2.403
N4945 X5.335 Z-2.41
N4950 Z-2.89
N4955 X5.342 Z-2.899
N4960 X5.343 Y-26.482 Z-2.9
N4965 X5.344 Y-26.481
N4970 Y-12.281
N4975 G2 X6.094 Y-11.531 I0.75 J0.
N4980 G1 X11.844
N4985 Y-11.431
N4990 X5.244
N4995 Y-26.531
N5000 X5.344
N5005 Y-26.481
N5010 Z2.4
N5015 X5.294
N5020 Z-3.2
N5025 Z-2.7
N5030 X5.296 Y-26.483
N5035 X5.325
N5040 X5.332 Z-2.703
N5045 X5.335 Z-2.71
N5050 Z-3.19
N5055 X5.342 Z-3.199
N5060 X5.343 Y-26.482 Z-3.2
N5065 X5.344 Y-26.481
N5070 Y-12.281
N5075 G2 X6.094 Y-11.531 I0.75 J0.
N5080 G1 X11.844
N5085 Y-11.431
N5090 X5.244
N5095 Y-26.531
N5100 X5.344
N5105 Y-26.481
N5110 Z5.
N5115 X5.294 Y-47.081
N5120 Z2.4
N5125 Z-2.9
N5130 Z-2.4
N5135 X5.292 Y-47.083
N5140 Y-47.112
N5145 Y-47.119 Z-2.403
N5150 Y-47.122 Z-2.41
N5155 Z-2.89
N5160 Y-47.129 Z-2.899
N5165 Y-47.13 Z-2.9
N5170 X5.294 Y-47.131
N5175 X17.172
N5180 Y-47.031
N5185 X6.094
N5190 G2 X5.344 Y-46.281 I0. J0.75
N5195 G1 Y-32.031
N5200 X5.244
N5205 Y-47.131
N5210 X5.294
N5215 Z2.4
N5220 Y-47.081
N5225 Z-3.2
N5230 Z-2.7
N5235 X5.292 Y-47.083
N5240 Y-47.112
N5245 Y-47.119 Z-2.703
N5250 Y-47.122 Z-2.71
N5255 Z-3.19
N5260 Y-47.129 Z-3.199
N5265 Y-47.13 Z-3.2
N5270 X5.294 Y-47.131
N5275 X17.172
N5280 Y-47.031
N5285 X6.094
N5290 G2 X5.344 Y-46.281 I0. J0.75
N5295 G1 Y-32.031
N5300 X5.244
N5305 Y-47.131
N5310 X5.294
N5315 Z5.
N5320 X9.19 Y-63.617
N5325 Z2.4
N5330 Z-2.9
N5335 Z-2.4
N5340 X9.188 Y-63.614
N5345 X9.159
N5350 X9.152 Z-2.403
N5355 X9.149 Z-2.41
N5360 Z-2.89
N5365 X9.142 Z-2.899
N5370 X9.141 Y-63.615 Z-2.9
N5375 X9.14 Y-63.617
N5380 Y-78.666
N5385 X9.24
N5390 Y-63.567
N5395 X9.14
N5400 Y-63.617
N5405 Z2.4
N5410 X9.19
N5415 Z-3.2
N5420 Z-2.7
N5425 X9.188 Y-63.614
N5430 X9.159
N5435 X9.152 Z-2.703
N5440 X9.149 Z-2.71
N5445 Z-3.19
N5450 X9.142 Z-3.199
N5455 X9.141 Y-63.615 Z-3.2
N5460 X9.14 Y-63.617
N5465 Y-78.666
N5470 X9.24
N5475 Y-63.567
N5480 X9.14
N5485 Y-63.617
N5490 Z5.
N5495 X9.19 Y-84.216
N5500 Z2.4
N5505 Z-2.9
N5510 Z-2.4
N5515 X9.192 Y-84.215
N5520 Y-84.185
N5525 Y-84.178 Z-2.403
N5530 Y-84.175 Z-2.41
N5535 Z-2.89
N5540 Y-84.169 Z-2.899
N5545 Y-84.167 Z-2.9
N5550 X9.19 Y-84.166
N5555 X9.14
N5560 Y-99.267
N5565 X15.741
N5570 Y-99.166
N5575 X9.99
N5580 G2 X9.24 Y-98.416 I0. J0.75
N5585 G1 Y-84.166
N5590 X9.19
N5595 Z2.4
N5600 Y-84.216
N5605 Z-3.2
N5610 Z-2.7
N5615 X9.192 Y-84.215
N5620 Y-84.185
N5625 Y-84.178 Z-2.703
N5630 Y-84.175 Z-2.71
N5635 Z-3.19
N5640 Y-84.169 Z-3.199
N5645 Y-84.167 Z-3.2
N5650 X9.19 Y-84.166
N5655 X9.14
N5660 Y-99.267
N5665 X15.741
N5670 Y-99.166
N5675 X9.99
N5680 G2 X9.24 Y-98.416 I0. J0.75
N5685 G1 Y-84.166
N5690 X9.19
N5695 Z5.
N5700 X103.99 Y-84.216
N5705 Z2.4
N5710 Z-2.9
N5715 Z-2.4
N5720 X103.992 Y-84.215
N5725 Y-84.185
N5730 Y-84.178 Z-2.403
N5735 Y-84.175 Z-2.41
N5740 Z-2.89
N5745 Y-84.169 Z-2.899
N5750 X103.991 Y-84.167 Z-2.9
N5755 X103.99 Y-84.166
N5760 X103.74
N5765 Y-98.416
N5770 G2 X102.99 Y-99.166 I-0.75 J0.
N5775 G1 X97.241
N5780 Y-99.267
N5785 X110.74
N5790 Y-99.166
N5795 X104.99
N5800 G2 X104.24 Y-98.416 I0. J0.75
N5805 G1 Y-84.166
N5810 X103.99
N5815 Z2.4
N5820 Y-84.216
N5825 Z-3.2
N5830 Z-2.7
N5835 X103.992 Y-84.215
N5840 Y-84.185
N5845 Y-84.178 Z-2.703
N5850 Y-84.175 Z-2.71
N5855 Z-3.19
N5860 Y-84.169 Z-3.199
N5865 X103.991 Y-84.167 Z-3.2
N5870 X103.99 Y-84.166
N5875 X103.74
N5880 Y-98.416
N5885 G2 X102.99 Y-99.166 I-0.75 J0.
N5890 G1 X97.241
N5895 Y-99.267
N5900 X110.74
N5905 Y-99.166
N5910 X104.99
N5915 G2 X104.24 Y-98.416 I0. J0.75
N5920 G1 Y-84.166
N5925 X103.99
N5930 Z5.
N5935 X122.79 Y-84.216
N5940 Z2.4
N5945 Z-2.9
N5950 Z-2.4
N5955 X122.792 Y-84.218
N5960 X122.821
N5965 X122.828 Z-2.403
N5970 X122.831 Z-2.41
N5975 Z-2.89
N5980 X122.838 Z-2.899
N5985 X122.839 Z-2.9
N5990 X122.84 Y-84.216
N5995 Y-84.166
N6000 X122.74
N6005 Y-98.416
N6010 G2 X121.99 Y-99.166 I-0.75 J0.
N6015 G1 X116.24
N6020 Y-99.267
N6025 X122.84
N6030 Y-84.216
N6035 Z2.4
N6040 X122.79
N6045 Z-3.2
N6050 Z-2.7
N6055 X122.792 Y-84.218
N6060 X122.821
N6065 X122.828 Z-2.703
N6070 X122.831 Z-2.71
N6075 Z-3.19
N6080 X122.838 Z-3.199
N6085 X122.839 Z-3.2
N6090 X122.84 Y-84.216
N6095 Y-84.166
N6100 X122.74
N6105 Y-98.416
N6110 G2 X121.99 Y-99.166 I-0.75 J0.
N6115 G1 X116.24
N6120 Y-99.267
N6125 X122.84
N6130 Y-84.216
N6135 Z15.
N6140 M9
N6145 G28 G91 Z0.
N6150 G90
N6155 G28 G91 X0. Y0.
N6160 G90
N6165 M30
%
