%
(SIGMA_TABOUT_CONTOURING_ACTIVITY)
(MACHINE)
(  VENDOR AUTODESK)
(  MODEL GENERIC 3-AXIS)
(  DESCRIPTION THIS MACHINE HAS XY AXIS ON THE TABLE AND Z AXIS ON THE HEAD)
(T0 D=1.5 CR=0. - ZMIN=-3.2 - FLAT END MILL)
N10 G90 G94 G17 G91.1
N15 G21
(WHEN USING FUSION 360 FOR PERSONAL USE, THE FEEDRATE OF)
(RAPID MOVES IS REDUCED TO MATCH THE FEEDRATE OF CUTTING)
(MOVES, WHICH CAN INCREASE MACHINING TIME. UNRESTRICTED RAPID)
(MOVES ARE AVAILABLE WITH A FUSION 360 SUBSCRIPTION.)
N20 G28 G91 Z0.
N25 G90
(SIGMA_TABOUT_CONTOURING_ACTIVITY)
N30 T0 M6
N35 S12000 M3
N40 G17 G90 G94
N45 G54
N50 M8
N55 G0 X126.726 Y-56.849
N60 G43 Z15. H0
N65 G1 Z2.4 F48.
N70 Z-2.3 F12.
N75 Z-3.19
N80 X126.723 Z-3.197 F48.
N85 X126.716 Z-3.2
N90 X126.666
N95 X126.659 Y-56.852
N100 X126.656 Y-56.859
N105 Y-59.109
N110 G2 X122.906 Y-62.859 I-3.75 J0.
N115 G1 X116.24
N120 Y-63.667
N125 X121.99
N130 G2 X122.74 Y-64.416 I0. J-0.75
N135 G1 Y-78.666
N140 X122.84
N145 Y-64.532
N150 G2 X123.19 Y-63.897 I0.75 J0.
N155 G3 X123.531 Y-63.383 I-0.4 J0.635
N160 G2 X124.048 Y-62.786 I0.74 J-0.12
N165 G3 X126.756 Y-59.109 I-1.142 J3.677
N170 G1 Y-56.859
N175 X126.656
N180 Z15.
N185 M9
N190 G28 G91 Z0.
N195 G90
N200 G28 G91 X0. Y0.
N205 G90
N210 M30
%
