(G-CODE GENERATED BY FLATCAM v8.994 - www.flatcam.org - Version Date: 2020/11/7)

(Name: power_distribution_board-PTH.drl_edit_cnc)
(Type: G-code from Geometry)
(Units: MM)

(Created on Friday, 27 October 2023 at 11:55)

(This preprocessor is the default preprocessor used by FlatCAM.)
(It is made to work with MACH3 compatible motion controllers.)


(TOOLS DIAMETER: )
(Tool: 1 -> Dia: 0.8)
(Tool: 2 -> Dia: 2.7)

(FEEDRATE Z: )
(Tool: 1 -> Feedrate: 300)
(Tool: 2 -> Feedrate: 300)

(FEEDRATE RAPIDS: )
(Tool: 1 -> Feedrate Rapids: 1500)
(Tool: 2 -> Feedrate Rapids: 1500)

(Z_CUT: )
(Tool: 1 -> Z_Cut: -1.8157)
(Tool: 2 -> Z_Cut: -2.2092)

(Tools Offset: )
(Tool: 2 -> Offset Z: 0.0)

(Z_MOVE: )
(Tool: 1 -> Z_Move: 2)
(Tool: 2 -> Z_Move: 2)

(Z Toolchange: 40.0 mm)
(X,Y Toolchange: 0.0000, 0.0000 mm)
(Z Start: None mm)
(Z End: 40.0 mm)
(X,Y End: None mm)
(Steps per circle: 64)
(Preprocessor Excellon: default)

(X range:    3.6494 ...   90.4005  mm)
(Y range:  -29.2468 ...   -3.9485  mm)

(Spindle Speed: 0 RPM)
G21
G90
G94

G01 F300.00

M5
G00 Z40.0000
T2
G00 X0.0000 Y0.0000                
M6
(MSG, Change to Tool Dia = 2.7000 ||| Total drills for tool T2 = 16)
M0
G00 Z40.0000

G01 F300.00
M03
G00 X77.0008 Y-6.4999
G01 Z-2.2092
G01 Z0
G00 Z2.0000
G00 X84.1509 Y-5.4991
G01 Z-2.2092
G01 Z0
G00 Z2.0000
G00 X84.1509 Y-12.4993
G01 Z-2.2092
G01 Z0
G00 Z2.0000
G00 X77.0008 Y-11.5011
G01 Z-2.2092
G01 Z0
G00 Z2.0000
G00 X68.9998 Y-11.5011
G01 Z-2.2092
G01 Z0
G00 Z2.0000
G00 X60.9988 Y-11.5011
G01 Z-2.2092
G01 Z0
G00 Z2.0000
G00 X60.9988 Y-21.5011
G01 Z-2.2092
G01 Z0
G00 Z2.0000
G00 X60.9988 Y-26.4998
G01 Z-2.2092
G01 Z0
G00 Z2.0000
G00 X33.0004 Y-26.4998
G01 Z-2.2092
G01 Z0
G00 Z2.0000
G00 X33.0004 Y-21.5011
G01 Z-2.2092
G01 Z0
G00 Z2.0000
G00 X4.9994 Y-19.4996
G01 Z-2.2092
G01 Z0
G00 Z2.0000
G00 X4.9994 Y-14.5009
G01 Z-2.2092
G01 Z0
G00 Z2.0000
G00 X33.0004 Y-11.5011
G01 Z-2.2092
G01 Z0
G00 Z2.0000
G00 X33.0004 Y-6.4999
G01 Z-2.2092
G01 Z0
G00 Z2.0000
G00 X60.9988 Y-6.4999
G01 Z-2.2092
G01 Z0
G00 Z2.0000
G00 X68.9998 Y-6.4999
G01 Z-2.2092
G01 Z0
G00 Z2.0000
M05
G00 Z40.00


M30
