(G-CODE GENERATED BY FLATCAM v8.994 - www.flatcam.org - Version Date: 2020/11/7)

(Name: power_distribution_board-Edge_Cuts.gbr_edit_noncopper_copy_cnc)
(Type: G-code from Geometry)
(Units: MM)

(Created on Friday, 27 October 2023 at 11:47)

(This preprocessor is the default preprocessor used by FlatCAM.)
(It is made to work with MACH3 compatible motion controllers.)

(TOOL DIAMETER: 1.5 mm)
(Feedrate_XY: 200.0 mm/min)
(Feedrate_Z: 72.0 mm/min)
(Feedrate rapids 1500.0 mm/min)

(Z_Cut: -1.65 mm)
(Z_Move: 2.0 mm)
(Z Start: None mm)
(Z End: 40.0 mm)
(X,Y End: None mm)
(Steps per circle: 64)
(Preprocessor Geometry: default)

(X range:   -0.6250 ...   96.6250  mm)
(Y range:  -34.6250 ...    0.6250  mm)

(Spindle Speed: 7200.0 RPM)
G21
G90
G94

G01 F200.00

M5
G00 Z40.0000
G00 X0.0000 Y0.0000
T1
M6    
(MSG, Change to Tool Dia = 1.5000)
M0
G00 Z40.0000

M03 S7200.0
G01 F200.00
G00 X3.6075 Y-4.8628
G01 F72.00
G01 Z-1.6500
G01 F200.00
G01 X3.6007 Y-5.0000
G01 X3.6075 Y-5.1372
G01 X3.6276 Y-5.2730
G01 X3.6610 Y-5.4062
G01 X3.7073 Y-5.5355
G01 X3.7660 Y-5.6596
G01 X3.8366 Y-5.7774
G01 X3.9184 Y-5.8877
G01 X4.0106 Y-5.9894
G01 X4.1123 Y-6.0816
G01 X4.2226 Y-6.1634
G01 X4.3404 Y-6.2340
G01 X4.4645 Y-6.2927
G01 X4.5938 Y-6.3390
G01 X4.7270 Y-6.3724
G01 X4.8628 Y-6.3925
G01 X5.0000 Y-6.3993
G01 X5.1372 Y-6.3925
G01 X5.2730 Y-6.3724
G01 X5.4062 Y-6.3390
G01 X5.5355 Y-6.2927
G01 X5.6596 Y-6.2340
G01 X5.7774 Y-6.1634
G01 X5.8877 Y-6.0816
G01 X5.9894 Y-5.9894
G01 X6.0816 Y-5.8877
G01 X6.1634 Y-5.7774
G01 X6.2340 Y-5.6596
G01 X6.2927 Y-5.5355
G01 X6.3390 Y-5.4062
G01 X6.3724 Y-5.2730
G01 X6.3925 Y-5.1372
G01 X6.3993 Y-5.0000
G01 X6.3925 Y-4.8628
G01 X6.3724 Y-4.7270
G01 X6.3390 Y-4.5938
G01 X6.2927 Y-4.4645
G01 X6.2340 Y-4.3404
G01 X6.1634 Y-4.2226
G01 X6.0816 Y-4.1123
G01 X5.9894 Y-4.0106
G01 X5.8877 Y-3.9184
G01 X5.7774 Y-3.8366
G01 X5.6596 Y-3.7660
G01 X5.5355 Y-3.7073
G01 X5.4062 Y-3.6610
G01 X5.2730 Y-3.6276
G01 X5.1372 Y-3.6075
G01 X5.0000 Y-3.6007
G01 X4.8628 Y-3.6075
G01 X4.7270 Y-3.6276
G01 X4.5938 Y-3.6610
G01 X4.4645 Y-3.7073
G01 X4.3404 Y-3.7660
G01 X4.2226 Y-3.8366
G01 X4.1123 Y-3.9184
G01 X4.0106 Y-4.0106
G01 X3.9184 Y-4.1123
G01 X3.8366 Y-4.2226
G01 X3.7660 Y-4.3404
G01 X3.7073 Y-4.4645
G01 X3.6610 Y-4.5938
G01 X3.6276 Y-4.7270
G01 X3.6075 Y-4.8628
G00 Z2.0000
G00 X3.6075 Y-28.8628
G01 F72.00
G01 Z-1.6500
G01 F200.00
G01 X3.6007 Y-29.0000
G01 X3.6075 Y-29.1372
G01 X3.6276 Y-29.2730
G01 X3.6610 Y-29.4062
G01 X3.7073 Y-29.5355
G01 X3.7660 Y-29.6596
G01 X3.8366 Y-29.7774
G01 X3.9184 Y-29.8877
G01 X4.0106 Y-29.9894
G01 X4.1123 Y-30.0816
G01 X4.2226 Y-30.1634
G01 X4.3404 Y-30.2340
G01 X4.4645 Y-30.2927
G01 X4.5938 Y-30.3390
G01 X4.7270 Y-30.3724
G01 X4.8628 Y-30.3925
G01 X5.0000 Y-30.3993
G01 X5.1372 Y-30.3925
G01 X5.2730 Y-30.3724
G01 X5.4062 Y-30.3390
G01 X5.5355 Y-30.2927
G01 X5.6596 Y-30.2340
G01 X5.7774 Y-30.1634
G01 X5.8877 Y-30.0816
G01 X5.9894 Y-29.9894
G01 X6.0816 Y-29.8877
G01 X6.1634 Y-29.7774
G01 X6.2340 Y-29.6596
G01 X6.2927 Y-29.5355
G01 X6.3390 Y-29.4062
G01 X6.3724 Y-29.2730
G01 X6.3925 Y-29.1372
G01 X6.3993 Y-29.0000
G01 X6.3925 Y-28.8628
G01 X6.3724 Y-28.7270
G01 X6.3390 Y-28.5938
G01 X6.2927 Y-28.4645
G01 X6.2340 Y-28.3404
G01 X6.1634 Y-28.2226
G01 X6.0816 Y-28.1123
G01 X5.9894 Y-28.0106
G01 X5.8877 Y-27.9184
G01 X5.7774 Y-27.8366
G01 X5.6596 Y-27.7660
G01 X5.5355 Y-27.7073
G01 X5.4062 Y-27.6610
G01 X5.2730 Y-27.6276
G01 X5.1372 Y-27.6075
G01 X5.0000 Y-27.6007
G01 X4.8628 Y-27.6075
G01 X4.7270 Y-27.6276
G01 X4.5938 Y-27.6610
G01 X4.4645 Y-27.7073
G01 X4.3404 Y-27.7660
G01 X4.2226 Y-27.8366
G01 X4.1123 Y-27.9184
G01 X4.0106 Y-28.0106
G01 X3.9184 Y-28.1123
G01 X3.8366 Y-28.2226
G01 X3.7660 Y-28.3404
G01 X3.7073 Y-28.4645
G01 X3.6610 Y-28.5938
G01 X3.6276 Y-28.7270
G01 X3.6075 Y-28.8628
G00 Z2.0000
G00 X89.6075 Y-28.8628
G01 F72.00
G01 Z-1.6500
G01 F200.00
G01 X89.6007 Y-29.0000
G01 X89.6075 Y-29.1372
G01 X89.6276 Y-29.2730
G01 X89.6610 Y-29.4062
G01 X89.7073 Y-29.5355
G01 X89.7660 Y-29.6596
G01 X89.8366 Y-29.7774
G01 X89.9184 Y-29.8877
G01 X90.0106 Y-29.9894
G01 X90.1123 Y-30.0816
G01 X90.2226 Y-30.1634
G01 X90.3404 Y-30.2340
G01 X90.4645 Y-30.2927
G01 X90.5938 Y-30.3390
G01 X90.7270 Y-30.3724
G01 X90.8628 Y-30.3925
G01 X91.0000 Y-30.3993
G01 X91.1372 Y-30.3925
G01 X91.2730 Y-30.3724
G01 X91.4062 Y-30.3390
G01 X91.5355 Y-30.2927
G01 X91.6596 Y-30.2340
G01 X91.7774 Y-30.1634
G01 X91.8877 Y-30.0816
G01 X91.9894 Y-29.9894
G01 X92.0816 Y-29.8877
G01 X92.1634 Y-29.7774
G01 X92.2340 Y-29.6596
G01 X92.2927 Y-29.5355
G01 X92.3390 Y-29.4062
G01 X92.3724 Y-29.2730
G01 X92.3925 Y-29.1372
G01 X92.3993 Y-29.0000
G01 X92.3925 Y-28.8628
G01 X92.3724 Y-28.7270
G01 X92.3390 Y-28.5938
G01 X92.2927 Y-28.4645
G01 X92.2340 Y-28.3404
G01 X92.1634 Y-28.2226
G01 X92.0816 Y-28.1123
G01 X91.9894 Y-28.0106
G01 X91.8877 Y-27.9184
G01 X91.7774 Y-27.8366
G01 X91.6596 Y-27.7660
G01 X91.5355 Y-27.7073
G01 X91.4062 Y-27.6610
G01 X91.2730 Y-27.6276
G01 X91.1372 Y-27.6075
G01 X91.0000 Y-27.6007
G01 X90.8628 Y-27.6075
G01 X90.7270 Y-27.6276
G01 X90.5938 Y-27.6610
G01 X90.4645 Y-27.7073
G01 X90.3404 Y-27.7660
G01 X90.2226 Y-27.8366
G01 X90.1123 Y-27.9184
G01 X90.0106 Y-28.0106
G01 X89.9184 Y-28.1123
G01 X89.8366 Y-28.2226
G01 X89.7660 Y-28.3404
G01 X89.7073 Y-28.4645
G01 X89.6610 Y-28.5938
G01 X89.6276 Y-28.7270
G01 X89.6075 Y-28.8628
G00 Z2.0000
G00 X89.6075 Y-4.8628
G01 F72.00
G01 Z-1.6500
G01 F200.00
G01 X89.6007 Y-5.0000
G01 X89.6075 Y-5.1372
G01 X89.6276 Y-5.2730
G01 X89.6610 Y-5.4062
G01 X89.7073 Y-5.5355
G01 X89.7660 Y-5.6596
G01 X89.8366 Y-5.7774
G01 X89.9184 Y-5.8877
G01 X90.0106 Y-5.9894
G01 X90.1123 Y-6.0816
G01 X90.2226 Y-6.1634
G01 X90.3404 Y-6.2340
G01 X90.4645 Y-6.2927
G01 X90.5938 Y-6.3390
G01 X90.7270 Y-6.3724
G01 X90.8628 Y-6.3925
G01 X91.0000 Y-6.3993
G01 X91.1372 Y-6.3925
G01 X91.2730 Y-6.3724
G01 X91.4062 Y-6.3390
G01 X91.5355 Y-6.2927
G01 X91.6596 Y-6.2340
G01 X91.7774 Y-6.1634
G01 X91.8877 Y-6.0816
G01 X91.9894 Y-5.9894
G01 X92.0816 Y-5.8877
G01 X92.1634 Y-5.7774
G01 X92.2340 Y-5.6596
G01 X92.2927 Y-5.5355
G01 X92.3390 Y-5.4062
G01 X92.3724 Y-5.2730
G01 X92.3925 Y-5.1372
G01 X92.3993 Y-5.0000
G01 X92.3925 Y-4.8628
G01 X92.3724 Y-4.7270
G01 X92.3390 Y-4.5938
G01 X92.2927 Y-4.4645
G01 X92.2340 Y-4.3404
G01 X92.1634 Y-4.2226
G01 X92.0816 Y-4.1123
G01 X91.9894 Y-4.0106
G01 X91.8877 Y-3.9184
G01 X91.7774 Y-3.8366
G01 X91.6596 Y-3.7660
G01 X91.5355 Y-3.7073
G01 X91.4062 Y-3.6610
G01 X91.2730 Y-3.6276
G01 X91.1372 Y-3.6075
G01 X91.0000 Y-3.6007
G01 X90.8628 Y-3.6075
G01 X90.7270 Y-3.6276
G01 X90.5938 Y-3.6610
G01 X90.4645 Y-3.7073
G01 X90.3404 Y-3.7660
G01 X90.2226 Y-3.8366
G01 X90.1123 Y-3.9184
G01 X90.0106 Y-4.0106
G01 X89.9184 Y-4.1123
G01 X89.8366 Y-4.2226
G01 X89.7660 Y-4.3404
G01 X89.7073 Y-4.4645
G01 X89.6610 Y-4.5938
G01 X89.6276 Y-4.7270
G01 X89.6075 Y-4.8628
G00 Z2.0000
G00 X96.6247 Y0.0221
G01 F72.00
G01 Z-1.6500
G01 F200.00
G01 X96.6250 Y-34.0147
G01 X96.6227 Y-34.0613
G01 X96.6137 Y-34.1221
G01 X96.5988 Y-34.1816
G01 X96.5781 Y-34.2395
G01 X96.5518 Y-34.2950
G01 X96.5203 Y-34.3476
G01 X96.4837 Y-34.3970
G01 X96.4425 Y-34.4425
G01 X96.3970 Y-34.4837
G01 X96.3476 Y-34.5203
G01 X96.2950 Y-34.5518
G01 X96.2395 Y-34.5781
G01 X96.1816 Y-34.5988
G01 X96.1221 Y-34.6137
G01 X96.0613 Y-34.6227
G01 X96.0147 Y-34.6250
G01 X-0.0147 Y-34.6250
G01 X-0.0613 Y-34.6227
G01 X-0.1221 Y-34.6137
G01 X-0.1816 Y-34.5988
G01 X-0.2395 Y-34.5781
G01 X-0.2950 Y-34.5518
G01 X-0.3476 Y-34.5203
G01 X-0.3970 Y-34.4837
G01 X-0.4425 Y-34.4425
G01 X-0.4837 Y-34.3970
G01 X-0.5203 Y-34.3476
G01 X-0.5518 Y-34.2950
G01 X-0.5781 Y-34.2395
G01 X-0.5988 Y-34.1816
G01 X-0.6137 Y-34.1221
G01 X-0.6227 Y-34.0613
G01 X-0.6250 Y-34.0147
G01 X-0.6250 Y0.0147
G01 X-0.6227 Y0.0613
G01 X-0.6137 Y0.1221
G01 X-0.5988 Y0.1816
G01 X-0.5781 Y0.2395
G01 X-0.5518 Y0.2950
G01 X-0.5203 Y0.3476
G01 X-0.4837 Y0.3970
G01 X-0.4425 Y0.4425
G01 X-0.3970 Y0.4837
G01 X-0.3476 Y0.5203
G01 X-0.2950 Y0.5518
G01 X-0.2395 Y0.5781
G01 X-0.1816 Y0.5988
G01 X-0.1221 Y0.6137
G01 X-0.0613 Y0.6227
G01 X-0.0147 Y0.6250
G01 X96.0147 Y0.6250
G01 X96.0613 Y0.6227
G01 X96.1221 Y0.6137
G01 X96.1816 Y0.5988
G01 X96.2395 Y0.5781
G01 X96.2950 Y0.5518
G01 X96.3476 Y0.5203
G01 X96.3970 Y0.4837
G01 X96.4425 Y0.4425
G01 X96.4837 Y0.3970
G01 X96.5203 Y0.3476
G01 X96.5518 Y0.2950
G01 X96.5781 Y0.2395
G01 X96.5988 Y0.1816
G01 X96.6137 Y0.1221
G01 X96.6227 Y0.0613
G01 X96.6247 Y0.0221
G00 Z2.0000
M05
G00 Z2.0000
G00 Z40.00


M30
