(G-CODE GENERATED BY FLATCAM v8.994 - www.flatcam.org - Version Date: 2020/11/7)

(Name: power_distribution_board-B_Cu.gbr_iso_combined_cnc)
(Type: G-code from Geometry)
(Units: MM)

(Created on Friday, 27 October 2023 at 11:49)

(This preprocessor is the default preprocessor used by FlatCAM.)
(It is made to work with MACH3 compatible motion controllers.)

(TOOL DIAMETER: 0.1529 mm)
(Feedrate_XY: 240.0 mm/min)
(Feedrate_Z: 60.0 mm/min)
(Feedrate rapids 1500.0 mm/min)

(Z_Cut: -0.15 mm)
(Z_Move: 2.0 mm)
(Z Start: None mm)
(Z End: 40.0 mm)
(X,Y End: None mm)
(Steps per circle: 64)
(Preprocessor Geometry: default)

(X range:   -0.8099 ...   96.8099  mm)
(Y range:  -34.8099 ...    0.8099  mm)

(Spindle Speed: 12000.0 RPM)
G21
G90
G94

G01 F240.00

M5
G00 Z40.0000
G00 X0.0000 Y0.0000
T2
M6    
(MSG, Change to Tool Dia = 0.1529)
M0
G00 Z40.0000

M03 S12000.0
G01 F240.00
G00 X3.0798 Y-4.8571
G01 F60.00
G01 Z-0.1500
G01 F240.00
G01 X3.0780 Y-4.9026
G01 X3.0710 Y-5.0000
G01 X3.0780 Y-5.0974
G01 X3.0798 Y-5.1429
G01 X3.0831 Y-5.1681
G01 X3.0907 Y-5.2745
G01 X3.1134 Y-5.3788
G01 X3.1181 Y-5.4094
G01 X3.1265 Y-5.4392
G01 X3.1492 Y-5.5435
G01 X3.1865 Y-5.6434
G01 X3.1955 Y-5.6730
G01 X3.2081 Y-5.7013
G01 X3.2454 Y-5.8013
G01 X3.2965 Y-5.8950
G01 X3.3097 Y-5.9230
G01 X3.3261 Y-5.9492
G01 X3.3773 Y-6.0429
G01 X3.4412 Y-6.1283
G01 X3.4582 Y-6.1542
G01 X3.4782 Y-6.1778
G01 X3.5422 Y-6.2632
G01 X3.6176 Y-6.3387
G01 X3.6382 Y-6.3618
G01 X3.6613 Y-6.3824
G01 X3.7368 Y-6.4578
G01 X3.8222 Y-6.5218
G01 X3.8458 Y-6.5418
G01 X3.8717 Y-6.5588
G01 X3.9571 Y-6.6227
G01 X4.0508 Y-6.6739
G01 X4.0770 Y-6.6903
G01 X4.1050 Y-6.7035
G01 X4.1987 Y-6.7546
G01 X4.2987 Y-6.7919
G01 X4.3270 Y-6.8045
G01 X4.3566 Y-6.8135
G01 X4.4565 Y-6.8508
G01 X4.5608 Y-6.8735
G01 X4.5906 Y-6.8819
G01 X4.6212 Y-6.8866
G01 X4.7255 Y-6.9093
G01 X4.8319 Y-6.9169
G01 X4.8626 Y-6.9210
G01 X4.8936 Y-6.9214
G01 X5.0000 Y-6.9290
G01 X5.1064 Y-6.9214
G01 X5.1374 Y-6.9210
G01 X5.1681 Y-6.9169
G01 X5.2745 Y-6.9093
G01 X5.3788 Y-6.8867
G01 X5.4094 Y-6.8819
G01 X5.4392 Y-6.8735
G01 X5.5435 Y-6.8508
G01 X5.6434 Y-6.8135
G01 X5.6730 Y-6.8045
G01 X5.7013 Y-6.7919
G01 X5.8013 Y-6.7546
G01 X5.8950 Y-6.7035
G01 X5.9230 Y-6.6903
G01 X5.9493 Y-6.6739
G01 X6.0429 Y-6.6227
G01 X6.1283 Y-6.5588
G01 X6.1542 Y-6.5418
G01 X6.1778 Y-6.5217
G01 X6.2632 Y-6.4578
G01 X6.3386 Y-6.3824
G01 X6.3618 Y-6.3618
G01 X6.3824 Y-6.3386
G01 X6.4578 Y-6.2632
G01 X6.5217 Y-6.1778
G01 X6.5418 Y-6.1542
G01 X6.5588 Y-6.1283
G01 X6.6228 Y-6.0429
G01 X6.6739 Y-5.9493
G01 X6.6903 Y-5.9230
G01 X6.7035 Y-5.8950
G01 X6.7546 Y-5.8013
G01 X6.7919 Y-5.7014
G01 X6.8045 Y-5.6730
G01 X6.8136 Y-5.6434
G01 X6.8508 Y-5.5434
G01 X6.8735 Y-5.4392
G01 X6.8819 Y-5.4094
G01 X6.8867 Y-5.3788
G01 X6.9093 Y-5.2745
G01 X6.9169 Y-5.1681
G01 X6.9210 Y-5.1374
G01 X6.9214 Y-5.1064
G01 X6.9290 Y-5.0000
G01 X6.9214 Y-4.8936
G01 X6.9210 Y-4.8626
G01 X6.9169 Y-4.8319
G01 X6.9093 Y-4.7255
G01 X6.8867 Y-4.6212
G01 X6.8819 Y-4.5906
G01 X6.8735 Y-4.5608
G01 X6.8508 Y-4.4565
G01 X6.8136 Y-4.3566
G01 X6.8045 Y-4.3270
G01 X6.7919 Y-4.2986
G01 X6.7546 Y-4.1987
G01 X6.7035 Y-4.1050
G01 X6.6903 Y-4.0770
G01 X6.6739 Y-4.0507
G01 X6.6227 Y-3.9571
G01 X6.5588 Y-3.8717
G01 X6.5418 Y-3.8458
G01 X6.5217 Y-3.8222
G01 X6.4578 Y-3.7368
G01 X6.3824 Y-3.6614
G01 X6.3618 Y-3.6382
G01 X6.3386 Y-3.6176
G01 X6.2632 Y-3.5422
G01 X6.1778 Y-3.4783
G01 X6.1542 Y-3.4582
G01 X6.1283 Y-3.4412
G01 X6.0429 Y-3.3773
G01 X5.9493 Y-3.3261
G01 X5.9230 Y-3.3097
G01 X5.8950 Y-3.2965
G01 X5.8013 Y-3.2454
G01 X5.7014 Y-3.2081
G01 X5.6730 Y-3.1955
G01 X5.6434 Y-3.1864
G01 X5.5435 Y-3.1492
G01 X5.4392 Y-3.1265
G01 X5.4094 Y-3.1181
G01 X5.3788 Y-3.1133
G01 X5.2745 Y-3.0907
G01 X5.1681 Y-3.0831
G01 X5.1374 Y-3.0790
G01 X5.1064 Y-3.0786
G01 X5.0000 Y-3.0710
G01 X4.8936 Y-3.0786
G01 X4.8626 Y-3.0790
G01 X4.8319 Y-3.0831
G01 X4.7255 Y-3.0907
G01 X4.6212 Y-3.1133
G01 X4.5906 Y-3.1181
G01 X4.5608 Y-3.1265
G01 X4.4566 Y-3.1492
G01 X4.3566 Y-3.1864
G01 X4.3270 Y-3.1955
G01 X4.2986 Y-3.2081
G01 X4.1987 Y-3.2454
G01 X4.1050 Y-3.2965
G01 X4.0770 Y-3.3097
G01 X4.0507 Y-3.3261
G01 X3.9571 Y-3.3773
G01 X3.8717 Y-3.4412
G01 X3.8458 Y-3.4582
G01 X3.8222 Y-3.4783
G01 X3.7368 Y-3.5422
G01 X3.6614 Y-3.6176
G01 X3.6382 Y-3.6382
G01 X3.6176 Y-3.6614
G01 X3.5422 Y-3.7368
G01 X3.4783 Y-3.8222
G01 X3.4582 Y-3.8458
G01 X3.4412 Y-3.8717
G01 X3.3773 Y-3.9571
G01 X3.3261 Y-4.0507
G01 X3.3097 Y-4.0770
G01 X3.2965 Y-4.1050
G01 X3.2454 Y-4.1987
G01 X3.2081 Y-4.2987
G01 X3.1955 Y-4.3270
G01 X3.1865 Y-4.3566
G01 X3.1492 Y-4.4566
G01 X3.1265 Y-4.5608
G01 X3.1181 Y-4.5906
G01 X3.1133 Y-4.6212
G01 X3.0907 Y-4.7255
G01 X3.0831 Y-4.8319
G01 X3.0798 Y-4.8571
G00 Z2.0000
G00 X3.2020 Y-4.8663
G01 F60.00
G01 Z-0.1500
G01 F240.00
G01 X3.2000 Y-4.9113
G01 X3.1937 Y-5.0000
G01 X3.2000 Y-5.0887
G01 X3.2020 Y-5.1337
G01 X3.2051 Y-5.1594
G01 X3.2121 Y-5.2571
G01 X3.2329 Y-5.3528
G01 X3.2350 Y-5.3641
G01 X3.2379 Y-5.3833
G01 X3.2433 Y-5.4020
G01 X3.2460 Y-5.4132
G01 X3.2668 Y-5.5089
G01 X3.3011 Y-5.6007
G01 X3.3048 Y-5.6116
G01 X3.3104 Y-5.6302
G01 X3.3184 Y-5.6479
G01 X3.3227 Y-5.6586
G01 X3.3569 Y-5.7504
G01 X3.4038 Y-5.8363
G01 X3.4091 Y-5.8466
G01 X3.4173 Y-5.8642
G01 X3.4277 Y-5.8806
G01 X3.4335 Y-5.8906
G01 X3.4804 Y-5.9766
G01 X3.5391 Y-6.0550
G01 X3.5458 Y-6.0644
G01 X3.5564 Y-6.0807
G01 X3.5690 Y-6.0954
G01 X3.5762 Y-6.1045
G01 X3.6349 Y-6.1829
G01 X3.7041 Y-6.2522
G01 X3.7121 Y-6.2605
G01 X3.7249 Y-6.2751
G01 X3.7395 Y-6.2879
G01 X3.7478 Y-6.2959
G01 X3.8171 Y-6.3651
G01 X3.8955 Y-6.4238
G01 X3.9046 Y-6.4310
G01 X3.9193 Y-6.4436
G01 X3.9356 Y-6.4542
G01 X3.9450 Y-6.4609
G01 X4.0234 Y-6.5196
G01 X4.1094 Y-6.5665
G01 X4.1194 Y-6.5723
G01 X4.1358 Y-6.5827
G01 X4.1534 Y-6.5909
G01 X4.1637 Y-6.5962
G01 X4.2496 Y-6.6431
G01 X4.3414 Y-6.6773
G01 X4.3521 Y-6.6816
G01 X4.3698 Y-6.6896
G01 X4.3884 Y-6.6952
G01 X4.3993 Y-6.6989
G01 X4.4911 Y-6.7332
G01 X4.5868 Y-6.7540
G01 X4.5980 Y-6.7567
G01 X4.6167 Y-6.7621
G01 X4.6359 Y-6.7650
G01 X4.6472 Y-6.7671
G01 X4.7429 Y-6.7879
G01 X4.8406 Y-6.7949
G01 X4.8521 Y-6.7960
G01 X4.8714 Y-6.7987
G01 X4.8908 Y-6.7988
G01 X4.9023 Y-6.7993
G01 X5.0000 Y-6.8063
G01 X5.0977 Y-6.7993
G01 X5.1092 Y-6.7988
G01 X5.1286 Y-6.7987
G01 X5.1479 Y-6.7960
G01 X5.1594 Y-6.7949
G01 X5.2571 Y-6.7879
G01 X5.3528 Y-6.7671
G01 X5.3641 Y-6.7650
G01 X5.3833 Y-6.7621
G01 X5.4020 Y-6.7567
G01 X5.4132 Y-6.7540
G01 X5.5089 Y-6.7332
G01 X5.6007 Y-6.6989
G01 X5.6115 Y-6.6952
G01 X5.6302 Y-6.6896
G01 X5.6479 Y-6.6816
G01 X5.6586 Y-6.6773
G01 X5.7504 Y-6.6431
G01 X5.8364 Y-6.5962
G01 X5.8466 Y-6.5909
G01 X5.8642 Y-6.5827
G01 X5.8807 Y-6.5723
G01 X5.8906 Y-6.5665
G01 X5.9766 Y-6.5196
G01 X6.0550 Y-6.4609
G01 X6.0644 Y-6.4542
G01 X6.0807 Y-6.4436
G01 X6.0955 Y-6.4309
G01 X6.1045 Y-6.4238
G01 X6.1829 Y-6.3651
G01 X6.2521 Y-6.2959
G01 X6.2605 Y-6.2880
G01 X6.2751 Y-6.2751
G01 X6.2879 Y-6.2605
G01 X6.2959 Y-6.2521
G01 X6.3651 Y-6.1829
G01 X6.4238 Y-6.1045
G01 X6.4310 Y-6.0954
G01 X6.4436 Y-6.0807
G01 X6.4542 Y-6.0644
G01 X6.4609 Y-6.0550
G01 X6.5196 Y-5.9766
G01 X6.5665 Y-5.8906
G01 X6.5723 Y-5.8807
G01 X6.5827 Y-5.8642
G01 X6.5909 Y-5.8466
G01 X6.5962 Y-5.8363
G01 X6.6431 Y-5.7504
G01 X6.6773 Y-5.6586
G01 X6.6816 Y-5.6480
G01 X6.6896 Y-5.6302
G01 X6.6952 Y-5.6116
G01 X6.6989 Y-5.6007
G01 X6.7332 Y-5.5089
G01 X6.7540 Y-5.4132
G01 X6.7567 Y-5.4020
G01 X6.7621 Y-5.3833
G01 X6.7650 Y-5.3641
G01 X6.7671 Y-5.3528
G01 X6.7879 Y-5.2571
G01 X6.7949 Y-5.1594
G01 X6.7960 Y-5.1479
G01 X6.7987 Y-5.1286
G01 X6.7988 Y-5.1092
G01 X6.7993 Y-5.0977
G01 X6.8063 Y-5.0000
G01 X6.7993 Y-4.9023
G01 X6.7988 Y-4.8908
G01 X6.7987 Y-4.8714
G01 X6.7960 Y-4.8521
G01 X6.7949 Y-4.8406
G01 X6.7879 Y-4.7429
G01 X6.7671 Y-4.6472
G01 X6.7650 Y-4.6359
G01 X6.7621 Y-4.6167
G01 X6.7567 Y-4.5980
G01 X6.7540 Y-4.5868
G01 X6.7332 Y-4.4911
G01 X6.6989 Y-4.3994
G01 X6.6952 Y-4.3884
G01 X6.6896 Y-4.3698
G01 X6.6816 Y-4.3521
G01 X6.6773 Y-4.3414
G01 X6.6431 Y-4.2496
G01 X6.5962 Y-4.1637
G01 X6.5909 Y-4.1534
G01 X6.5827 Y-4.1358
G01 X6.5723 Y-4.1193
G01 X6.5665 Y-4.1094
G01 X6.5196 Y-4.0234
G01 X6.4609 Y-3.9450
G01 X6.4542 Y-3.9356
G01 X6.4436 Y-3.9193
G01 X6.4309 Y-3.9045
G01 X6.4238 Y-3.8955
G01 X6.3651 Y-3.8171
G01 X6.2959 Y-3.7479
G01 X6.2880 Y-3.7395
G01 X6.2751 Y-3.7249
G01 X6.2605 Y-3.7120
G01 X6.2521 Y-3.7041
G01 X6.1829 Y-3.6349
G01 X6.1045 Y-3.5762
G01 X6.0955 Y-3.5691
G01 X6.0807 Y-3.5564
G01 X6.0644 Y-3.5458
G01 X6.0550 Y-3.5391
G01 X5.9766 Y-3.4804
G01 X5.8906 Y-3.4335
G01 X5.8807 Y-3.4277
G01 X5.8642 Y-3.4173
G01 X5.8466 Y-3.4091
G01 X5.8363 Y-3.4038
G01 X5.7504 Y-3.3569
G01 X5.6586 Y-3.3227
G01 X5.6479 Y-3.3184
G01 X5.6302 Y-3.3104
G01 X5.6116 Y-3.3048
G01 X5.6006 Y-3.3011
G01 X5.5089 Y-3.2668
G01 X5.4132 Y-3.2460
G01 X5.4020 Y-3.2433
G01 X5.3833 Y-3.2379
G01 X5.3641 Y-3.2350
G01 X5.3528 Y-3.2329
G01 X5.2571 Y-3.2121
G01 X5.1594 Y-3.2051
G01 X5.1479 Y-3.2040
G01 X5.1287 Y-3.2013
G01 X5.1092 Y-3.2012
G01 X5.0977 Y-3.2007
G01 X5.0000 Y-3.1937
G01 X4.9023 Y-3.2007
G01 X4.8908 Y-3.2012
G01 X4.8713 Y-3.2013
G01 X4.8521 Y-3.2040
G01 X4.8406 Y-3.2051
G01 X4.7429 Y-3.2121
G01 X4.6472 Y-3.2329
G01 X4.6359 Y-3.2350
G01 X4.6167 Y-3.2379
G01 X4.5980 Y-3.2433
G01 X4.5868 Y-3.2460
G01 X4.4911 Y-3.2668
G01 X4.3993 Y-3.3011
G01 X4.3884 Y-3.3048
G01 X4.3698 Y-3.3104
G01 X4.3520 Y-3.3184
G01 X4.3414 Y-3.3227
G01 X4.2496 Y-3.3569
G01 X4.1637 Y-3.4038
G01 X4.1534 Y-3.4091
G01 X4.1358 Y-3.4173
G01 X4.1193 Y-3.4277
G01 X4.1094 Y-3.4335
G01 X4.0234 Y-3.4804
G01 X3.9450 Y-3.5391
G01 X3.9356 Y-3.5458
G01 X3.9193 Y-3.5564
G01 X3.9046 Y-3.5690
G01 X3.8955 Y-3.5762
G01 X3.8171 Y-3.6349
G01 X3.7479 Y-3.7041
G01 X3.7395 Y-3.7121
G01 X3.7249 Y-3.7249
G01 X3.7120 Y-3.7395
G01 X3.7041 Y-3.7479
G01 X3.6349 Y-3.8171
G01 X3.5762 Y-3.8955
G01 X3.5691 Y-3.9045
G01 X3.5564 Y-3.9193
G01 X3.5458 Y-3.9356
G01 X3.5391 Y-3.9450
G01 X3.4804 Y-4.0234
G01 X3.4335 Y-4.1094
G01 X3.4277 Y-4.1193
G01 X3.4173 Y-4.1358
G01 X3.4091 Y-4.1534
G01 X3.4038 Y-4.1636
G01 X3.3569 Y-4.2496
G01 X3.3227 Y-4.3414
G01 X3.3184 Y-4.3521
G01 X3.3104 Y-4.3698
G01 X3.3048 Y-4.3885
G01 X3.3011 Y-4.3993
G01 X3.2668 Y-4.4911
G01 X3.2460 Y-4.5868
G01 X3.2433 Y-4.5980
G01 X3.2379 Y-4.6167
G01 X3.2350 Y-4.6359
G01 X3.2329 Y-4.6472
G01 X3.2121 Y-4.7429
G01 X3.2051 Y-4.8406
G01 X3.2020 Y-4.8663
G00 Z2.0000
G00 X3.3240 Y-5.1224
G01 F60.00
G01 Z-0.1500
G01 F240.00
G01 X3.3271 Y-5.1506
G01 X3.3334 Y-5.2396
G01 X3.3524 Y-5.3268
G01 X3.3554 Y-5.3424
G01 X3.3578 Y-5.3572
G01 X3.3618 Y-5.3717
G01 X3.3655 Y-5.3872
G01 X3.3845 Y-5.4744
G01 X3.4157 Y-5.5579
G01 X3.4209 Y-5.5730
G01 X3.4253 Y-5.5873
G01 X3.4314 Y-5.6011
G01 X3.4373 Y-5.6158
G01 X3.4685 Y-5.6994
G01 X3.5112 Y-5.7777
G01 X3.5185 Y-5.7918
G01 X3.5249 Y-5.8055
G01 X3.5329 Y-5.8182
G01 X3.5408 Y-5.8320
G01 X3.5836 Y-5.9103
G01 X3.6371 Y-5.9817
G01 X3.6463 Y-5.9947
G01 X3.6546 Y-6.0072
G01 X3.6643 Y-6.0187
G01 X3.6741 Y-6.0312
G01 X3.7275 Y-6.1026
G01 X3.7906 Y-6.1657
G01 X3.8016 Y-6.1772
G01 X3.8116 Y-6.1884
G01 X3.8228 Y-6.1984
G01 X3.8343 Y-6.2094
G01 X3.8974 Y-6.2725
G01 X3.9688 Y-6.3259
G01 X3.9813 Y-6.3357
G01 X3.9928 Y-6.3454
G01 X4.0053 Y-6.3537
G01 X4.0183 Y-6.3629
G01 X4.0897 Y-6.4164
G01 X4.1680 Y-6.4592
G01 X4.1818 Y-6.4671
G01 X4.1945 Y-6.4751
G01 X4.2082 Y-6.4815
G01 X4.2223 Y-6.4888
G01 X4.3006 Y-6.5315
G01 X4.3842 Y-6.5627
G01 X4.3989 Y-6.5686
G01 X4.4127 Y-6.5747
G01 X4.4270 Y-6.5791
G01 X4.4421 Y-6.5843
G01 X4.5256 Y-6.6155
G01 X4.6128 Y-6.6345
G01 X4.6283 Y-6.6382
G01 X4.6427 Y-6.6422
G01 X4.6576 Y-6.6446
G01 X4.6732 Y-6.6476
G01 X4.7604 Y-6.6666
G01 X4.8494 Y-6.6729
G01 X4.8652 Y-6.6744
G01 X4.8801 Y-6.6764
G01 X4.8951 Y-6.6766
G01 X4.9110 Y-6.6773
G01 X5.0000 Y-6.6837
G01 X5.0889 Y-6.6773
G01 X5.1049 Y-6.6766
G01 X5.1199 Y-6.6764
G01 X5.1348 Y-6.6744
G01 X5.1507 Y-6.6729
G01 X5.2396 Y-6.6666
G01 X5.3268 Y-6.6476
G01 X5.3424 Y-6.6446
G01 X5.3573 Y-6.6422
G01 X5.3717 Y-6.6382
G01 X5.3872 Y-6.6345
G01 X5.4744 Y-6.6155
G01 X5.5579 Y-6.5843
G01 X5.5729 Y-6.5791
G01 X5.5873 Y-6.5747
G01 X5.6011 Y-6.5686
G01 X5.6158 Y-6.5627
G01 X5.6994 Y-6.5315
G01 X5.7777 Y-6.4888
G01 X5.7918 Y-6.4815
G01 X5.8055 Y-6.4751
G01 X5.8183 Y-6.4671
G01 X5.8320 Y-6.4592
G01 X5.9103 Y-6.4164
G01 X5.9817 Y-6.3630
G01 X5.9946 Y-6.3538
G01 X6.0072 Y-6.3454
G01 X6.0187 Y-6.3357
G01 X6.0312 Y-6.3259
G01 X6.1026 Y-6.2724
G01 X6.1656 Y-6.2094
G01 X6.1771 Y-6.1984
G01 X6.1884 Y-6.1884
G01 X6.1984 Y-6.1772
G01 X6.2094 Y-6.1656
G01 X6.2725 Y-6.1026
G01 X6.3259 Y-6.0312
G01 X6.3357 Y-6.0187
G01 X6.3454 Y-6.0072
G01 X6.3537 Y-5.9946
G01 X6.3630 Y-5.9817
G01 X6.4164 Y-5.9103
G01 X6.4591 Y-5.8320
G01 X6.4671 Y-5.8183
G01 X6.4751 Y-5.8055
G01 X6.4815 Y-5.7918
G01 X6.4888 Y-5.7777
G01 X6.5315 Y-5.6994
G01 X6.5627 Y-5.6159
G01 X6.5686 Y-5.6012
G01 X6.5747 Y-5.5873
G01 X6.5791 Y-5.5729
G01 X6.5843 Y-5.5579
G01 X6.6155 Y-5.4743
G01 X6.6345 Y-5.3872
G01 X6.6382 Y-5.3717
G01 X6.6422 Y-5.3572
G01 X6.6446 Y-5.3424
G01 X6.6476 Y-5.3268
G01 X6.6666 Y-5.2396
G01 X6.6729 Y-5.1507
G01 X6.6744 Y-5.1349
G01 X6.6764 Y-5.1199
G01 X6.6766 Y-5.1048
G01 X6.6773 Y-5.0890
G01 X6.6837 Y-5.0000
G01 X6.6773 Y-4.9110
G01 X6.6766 Y-4.8952
G01 X6.6764 Y-4.8801
G01 X6.6744 Y-4.8651
G01 X6.6729 Y-4.8493
G01 X6.6666 Y-4.7604
G01 X6.6476 Y-4.6732
G01 X6.6446 Y-4.6577
G01 X6.6422 Y-4.6428
G01 X6.6382 Y-4.6283
G01 X6.6345 Y-4.6128
G01 X6.6155 Y-4.5256
G01 X6.5843 Y-4.4421
G01 X6.5791 Y-4.4271
G01 X6.5747 Y-4.4127
G01 X6.5686 Y-4.3989
G01 X6.5627 Y-4.3841
G01 X6.5315 Y-4.3006
G01 X6.4888 Y-4.2223
G01 X6.4815 Y-4.2082
G01 X6.4751 Y-4.1945
G01 X6.4671 Y-4.1817
G01 X6.4592 Y-4.1680
G01 X6.4164 Y-4.0897
G01 X6.3630 Y-4.0183
G01 X6.3537 Y-4.0054
G01 X6.3454 Y-3.9928
G01 X6.3357 Y-3.9813
G01 X6.3259 Y-3.9688
G01 X6.2725 Y-3.8974
G01 X6.2094 Y-3.8344
G01 X6.1984 Y-3.8229
G01 X6.1884 Y-3.8116
G01 X6.1771 Y-3.8016
G01 X6.1657 Y-3.7906
G01 X6.1026 Y-3.7275
G01 X6.0312 Y-3.6741
G01 X6.0187 Y-3.6643
G01 X6.0072 Y-3.6546
G01 X5.9946 Y-3.6463
G01 X5.9817 Y-3.6370
G01 X5.9103 Y-3.5836
G01 X5.8320 Y-3.5409
G01 X5.8183 Y-3.5329
G01 X5.8055 Y-3.5249
G01 X5.7918 Y-3.5185
G01 X5.7777 Y-3.5112
G01 X5.6994 Y-3.4685
G01 X5.6159 Y-3.4373
G01 X5.6011 Y-3.4314
G01 X5.5873 Y-3.4253
G01 X5.5729 Y-3.4209
G01 X5.5579 Y-3.4157
G01 X5.4744 Y-3.3845
G01 X5.3872 Y-3.3655
G01 X5.3717 Y-3.3618
G01 X5.3572 Y-3.3578
G01 X5.3423 Y-3.3554
G01 X5.3268 Y-3.3524
G01 X5.2396 Y-3.3334
G01 X5.1507 Y-3.3271
G01 X5.1349 Y-3.3256
G01 X5.1199 Y-3.3236
G01 X5.1048 Y-3.3234
G01 X5.0890 Y-3.3227
G01 X5.0000 Y-3.3163
G01 X4.9110 Y-3.3227
G01 X4.8952 Y-3.3234
G01 X4.8801 Y-3.3236
G01 X4.8651 Y-3.3256
G01 X4.8493 Y-3.3271
G01 X4.7604 Y-3.3334
G01 X4.6732 Y-3.3524
G01 X4.6576 Y-3.3554
G01 X4.6428 Y-3.3578
G01 X4.6283 Y-3.3618
G01 X4.6128 Y-3.3655
G01 X4.5257 Y-3.3845
G01 X4.4421 Y-3.4157
G01 X4.4271 Y-3.4209
G01 X4.4127 Y-3.4253
G01 X4.3988 Y-3.4314
G01 X4.3841 Y-3.4373
G01 X4.3006 Y-3.4685
G01 X4.2223 Y-3.5112
G01 X4.2082 Y-3.5185
G01 X4.1945 Y-3.5249
G01 X4.1817 Y-3.5329
G01 X4.1680 Y-3.5409
G01 X4.0897 Y-3.5836
G01 X4.0183 Y-3.6370
G01 X4.0054 Y-3.6463
G01 X3.9928 Y-3.6546
G01 X3.9813 Y-3.6643
G01 X3.9688 Y-3.6741
G01 X3.8974 Y-3.7276
G01 X3.8344 Y-3.7906
G01 X3.8228 Y-3.8016
G01 X3.8116 Y-3.8116
G01 X3.8016 Y-3.8229
G01 X3.7906 Y-3.8344
G01 X3.7275 Y-3.8974
G01 X3.6741 Y-3.9688
G01 X3.6643 Y-3.9813
G01 X3.6546 Y-3.9928
G01 X3.6462 Y-4.0054
G01 X3.6370 Y-4.0183
G01 X3.5836 Y-4.0897
G01 X3.5408 Y-4.1680
G01 X3.5329 Y-4.1817
G01 X3.5249 Y-4.1945
G01 X3.5185 Y-4.2082
G01 X3.5112 Y-4.2223
G01 X3.4685 Y-4.3006
G01 X3.4373 Y-4.3842
G01 X3.4314 Y-4.3989
G01 X3.4253 Y-4.4127
G01 X3.4209 Y-4.4271
G01 X3.4157 Y-4.4421
G01 X3.3845 Y-4.5257
G01 X3.3655 Y-4.6128
G01 X3.3618 Y-4.6282
G01 X3.3578 Y-4.6428
G01 X3.3554 Y-4.6576
G01 X3.3524 Y-4.6732
G01 X3.3334 Y-4.7604
G01 X3.3271 Y-4.8493
G01 X3.3240 Y-4.8776
G01 X3.3220 Y-4.9200
G01 X3.3163 Y-5.0000
G01 X3.3220 Y-5.0800
G01 X3.3240 Y-5.1224
G00 Z2.0000
G00 X3.4459 Y-5.1118
G01 F60.00
G01 Z-0.1500
G01 F240.00
G01 X3.4491 Y-5.1419
G01 X3.4548 Y-5.2222
G01 X3.4719 Y-5.3008
G01 X3.4775 Y-5.3312
G01 X3.4851 Y-5.3612
G01 X3.5022 Y-5.4398
G01 X3.5303 Y-5.5152
G01 X3.5401 Y-5.5445
G01 X3.5519 Y-5.5731
G01 X3.5800 Y-5.6485
G01 X3.6186 Y-5.7191
G01 X3.6325 Y-5.7467
G01 X3.6482 Y-5.7734
G01 X3.6867 Y-5.8440
G01 X3.7350 Y-5.9084
G01 X3.7527 Y-5.9337
G01 X3.7720 Y-5.9579
G01 X3.8202 Y-6.0223
G01 X3.8771 Y-6.0792
G01 X3.8983 Y-6.1017
G01 X3.9208 Y-6.1229
G01 X3.9777 Y-6.1798
G01 X4.0421 Y-6.2280
G01 X4.0663 Y-6.2473
G01 X4.0916 Y-6.2650
G01 X4.1560 Y-6.3133
G01 X4.2266 Y-6.3518
G01 X4.2533 Y-6.3675
G01 X4.2809 Y-6.3814
G01 X4.3515 Y-6.4200
G01 X4.4269 Y-6.4481
G01 X4.4555 Y-6.4599
G01 X4.4848 Y-6.4697
G01 X4.5602 Y-6.4978
G01 X4.6388 Y-6.5149
G01 X4.6688 Y-6.5225
G01 X4.6992 Y-6.5281
G01 X4.7778 Y-6.5452
G01 X4.8581 Y-6.5509
G01 X4.8889 Y-6.5541
G01 X4.9198 Y-6.5553
G01 X5.0000 Y-6.5611
G01 X5.0802 Y-6.5553
G01 X5.1111 Y-6.5541
G01 X5.1419 Y-6.5509
G01 X5.2222 Y-6.5452
G01 X5.3008 Y-6.5281
G01 X5.3312 Y-6.5225
G01 X5.3612 Y-6.5149
G01 X5.4398 Y-6.4978
G01 X5.5152 Y-6.4697
G01 X5.5445 Y-6.4599
G01 X5.5731 Y-6.4481
G01 X5.6485 Y-6.4200
G01 X5.7191 Y-6.3814
G01 X5.7467 Y-6.3675
G01 X5.7734 Y-6.3518
G01 X5.8440 Y-6.3133
G01 X5.9084 Y-6.2650
G01 X5.9337 Y-6.2473
G01 X5.9579 Y-6.2280
G01 X6.0223 Y-6.1798
G01 X6.0792 Y-6.1229
G01 X6.1017 Y-6.1017
G01 X6.1229 Y-6.0792
G01 X6.1798 Y-6.0223
G01 X6.2280 Y-5.9579
G01 X6.2473 Y-5.9337
G01 X6.2650 Y-5.9084
G01 X6.3133 Y-5.8440
G01 X6.3518 Y-5.7734
G01 X6.3675 Y-5.7467
G01 X6.3814 Y-5.7191
G01 X6.4200 Y-5.6485
G01 X6.4481 Y-5.5731
G01 X6.4599 Y-5.5445
G01 X6.4697 Y-5.5152
G01 X6.4978 Y-5.4398
G01 X6.5149 Y-5.3612
G01 X6.5225 Y-5.3312
G01 X6.5281 Y-5.3008
G01 X6.5452 Y-5.2222
G01 X6.5509 Y-5.1419
G01 X6.5541 Y-5.1112
G01 X6.5553 Y-5.0802
G01 X6.5611 Y-5.0000
G01 X6.5553 Y-4.9198
G01 X6.5541 Y-4.8888
G01 X6.5509 Y-4.8581
G01 X6.5452 Y-4.7778
G01 X6.5281 Y-4.6992
G01 X6.5225 Y-4.6688
G01 X6.5149 Y-4.6388
G01 X6.4978 Y-4.5602
G01 X6.4697 Y-4.4848
G01 X6.4599 Y-4.4555
G01 X6.4481 Y-4.4269
G01 X6.4200 Y-4.3515
G01 X6.3815 Y-4.2809
G01 X6.3675 Y-4.2533
G01 X6.3518 Y-4.2266
G01 X6.3133 Y-4.1560
G01 X6.2650 Y-4.0916
G01 X6.2473 Y-4.0663
G01 X6.2280 Y-4.0421
G01 X6.1798 Y-3.9777
G01 X6.1229 Y-3.9208
G01 X6.1017 Y-3.8983
G01 X6.0792 Y-3.8771
G01 X6.0223 Y-3.8202
G01 X5.9579 Y-3.7720
G01 X5.9337 Y-3.7527
G01 X5.9084 Y-3.7350
G01 X5.8440 Y-3.6867
G01 X5.7734 Y-3.6482
G01 X5.7467 Y-3.6325
G01 X5.7191 Y-3.6186
G01 X5.6485 Y-3.5800
G01 X5.5731 Y-3.5519
G01 X5.5445 Y-3.5401
G01 X5.5152 Y-3.5303
G01 X5.4398 Y-3.5022
G01 X5.3612 Y-3.4851
G01 X5.3312 Y-3.4775
G01 X5.3008 Y-3.4719
G01 X5.2222 Y-3.4548
G01 X5.1420 Y-3.4491
G01 X5.1112 Y-3.4459
G01 X5.0802 Y-3.4447
G01 X5.0000 Y-3.4389
G01 X4.9198 Y-3.4447
G01 X4.8888 Y-3.4459
G01 X4.8581 Y-3.4491
G01 X4.7778 Y-3.4548
G01 X4.6992 Y-3.4719
G01 X4.6688 Y-3.4775
G01 X4.6388 Y-3.4851
G01 X4.5602 Y-3.5022
G01 X4.4848 Y-3.5303
G01 X4.4555 Y-3.5401
G01 X4.4269 Y-3.5519
G01 X4.3515 Y-3.5800
G01 X4.2809 Y-3.6186
G01 X4.2533 Y-3.6325
G01 X4.2266 Y-3.6482
G01 X4.1560 Y-3.6867
G01 X4.0916 Y-3.7350
G01 X4.0663 Y-3.7527
G01 X4.0421 Y-3.7720
G01 X3.9777 Y-3.8202
G01 X3.9209 Y-3.8771
G01 X3.8983 Y-3.8983
G01 X3.8771 Y-3.9208
G01 X3.8202 Y-3.9777
G01 X3.7720 Y-4.0421
G01 X3.7527 Y-4.0663
G01 X3.7350 Y-4.0916
G01 X3.6867 Y-4.1560
G01 X3.6482 Y-4.2266
G01 X3.6325 Y-4.2533
G01 X3.6186 Y-4.2809
G01 X3.5800 Y-4.3515
G01 X3.5519 Y-4.4269
G01 X3.5401 Y-4.4555
G01 X3.5303 Y-4.4848
G01 X3.5022 Y-4.5602
G01 X3.4851 Y-4.6388
G01 X3.4775 Y-4.6688
G01 X3.4719 Y-4.6992
G01 X3.4548 Y-4.7778
G01 X3.4491 Y-4.8580
G01 X3.4457 Y-4.8931
G01 X3.4440 Y-4.9288
G01 X3.4389 Y-5.0000
G01 X3.4440 Y-5.0712
G01 X3.4459 Y-5.1118
G00 Z2.0000
G00 X3.5679 Y-5.1014
G01 F60.00
G01 Z-0.1500
G01 F240.00
G01 X3.5711 Y-5.1332
G01 X3.5762 Y-5.2047
G01 X3.5915 Y-5.2748
G01 X3.5972 Y-5.3052
G01 X3.6046 Y-5.3352
G01 X3.6198 Y-5.4053
G01 X3.6449 Y-5.4724
G01 X3.6549 Y-5.5017
G01 X3.6665 Y-5.5304
G01 X3.6916 Y-5.5975
G01 X3.7259 Y-5.6605
G01 X3.7400 Y-5.6880
G01 X3.7555 Y-5.7147
G01 X3.7899 Y-5.7777
G01 X3.8329 Y-5.8351
G01 X3.8507 Y-5.8604
G01 X3.8699 Y-5.8846
G01 X3.9129 Y-5.9420
G01 X3.9636 Y-5.9927
G01 X3.9849 Y-6.0151
G01 X4.0073 Y-6.0364
G01 X4.0580 Y-6.0871
G01 X4.1154 Y-6.1301
G01 X4.1396 Y-6.1493
G01 X4.1649 Y-6.1671
G01 X4.2223 Y-6.2101
G01 X4.2853 Y-6.2445
G01 X4.3120 Y-6.2600
G01 X4.3395 Y-6.2741
G01 X4.4025 Y-6.3084
G01 X4.4696 Y-6.3335
G01 X4.4983 Y-6.3451
G01 X4.5276 Y-6.3551
G01 X4.5947 Y-6.3802
G01 X4.6648 Y-6.3954
G01 X4.6948 Y-6.4028
G01 X4.7252 Y-6.4085
G01 X4.7953 Y-6.4238
G01 X4.8668 Y-6.4289
G01 X4.8976 Y-6.4320
G01 X4.9285 Y-6.4333
G01 X5.0000 Y-6.4384
G01 X5.0715 Y-6.4333
G01 X5.1024 Y-6.4320
G01 X5.1332 Y-6.4289
G01 X5.2047 Y-6.4238
G01 X5.2748 Y-6.4086
G01 X5.3052 Y-6.4028
G01 X5.3352 Y-6.3954
G01 X5.4053 Y-6.3802
G01 X5.4724 Y-6.3551
G01 X5.5017 Y-6.3451
G01 X5.5304 Y-6.3335
G01 X5.5975 Y-6.3084
G01 X5.6605 Y-6.2741
G01 X5.6880 Y-6.2600
G01 X5.7148 Y-6.2444
G01 X5.7777 Y-6.2101
G01 X5.8351 Y-6.1671
G01 X5.8603 Y-6.1493
G01 X5.8846 Y-6.1300
G01 X5.9420 Y-6.0871
G01 X5.9927 Y-6.0364
G01 X6.0151 Y-6.0151
G01 X6.0364 Y-5.9927
G01 X6.0871 Y-5.9420
G01 X6.1301 Y-5.8846
G01 X6.1493 Y-5.8603
G01 X6.1671 Y-5.8351
G01 X6.2101 Y-5.7777
G01 X6.2444 Y-5.7148
G01 X6.2600 Y-5.6880
G01 X6.2741 Y-5.6605
G01 X6.3084 Y-5.5975
G01 X6.3335 Y-5.5304
G01 X6.3451 Y-5.5017
G01 X6.3551 Y-5.4724
G01 X6.3802 Y-5.4053
G01 X6.3954 Y-5.3352
G01 X6.4028 Y-5.3052
G01 X6.4086 Y-5.2748
G01 X6.4238 Y-5.2047
G01 X6.4289 Y-5.1332
G01 X6.4320 Y-5.1024
G01 X6.4333 Y-5.0715
G01 X6.4384 Y-5.0000
G01 X6.4333 Y-4.9285
G01 X6.4320 Y-4.8976
G01 X6.4289 Y-4.8668
G01 X6.4238 Y-4.7953
G01 X6.4086 Y-4.7252
G01 X6.4028 Y-4.6948
G01 X6.3954 Y-4.6648
G01 X6.3802 Y-4.5947
G01 X6.3551 Y-4.5276
G01 X6.3451 Y-4.4983
G01 X6.3335 Y-4.4696
G01 X6.3084 Y-4.4024
G01 X6.2741 Y-4.3395
G01 X6.2600 Y-4.3120
G01 X6.2444 Y-4.2852
G01 X6.2101 Y-4.2223
G01 X6.1671 Y-4.1649
G01 X6.1493 Y-4.1396
G01 X6.1301 Y-4.1154
G01 X6.0871 Y-4.0580
G01 X6.0364 Y-4.0073
G01 X6.0151 Y-3.9849
G01 X5.9927 Y-3.9636
G01 X5.9420 Y-3.9129
G01 X5.8846 Y-3.8699
G01 X5.8604 Y-3.8507
G01 X5.8351 Y-3.8329
G01 X5.7777 Y-3.7899
G01 X5.7148 Y-3.7556
G01 X5.6880 Y-3.7400
G01 X5.6605 Y-3.7259
G01 X5.5976 Y-3.6916
G01 X5.5304 Y-3.6665
G01 X5.5017 Y-3.6549
G01 X5.4724 Y-3.6449
G01 X5.4053 Y-3.6198
G01 X5.3352 Y-3.6046
G01 X5.3052 Y-3.5972
G01 X5.2748 Y-3.5914
G01 X5.2047 Y-3.5762
G01 X5.1332 Y-3.5711
G01 X5.1024 Y-3.5680
G01 X5.0715 Y-3.5667
G01 X5.0000 Y-3.5616
G01 X4.9285 Y-3.5667
G01 X4.8976 Y-3.5680
G01 X4.8668 Y-3.5711
G01 X4.7953 Y-3.5762
G01 X4.7252 Y-3.5914
G01 X4.6948 Y-3.5972
G01 X4.6648 Y-3.6046
G01 X4.5947 Y-3.6198
G01 X4.5276 Y-3.6449
G01 X4.4983 Y-3.6549
G01 X4.4696 Y-3.6665
G01 X4.4024 Y-3.6916
G01 X4.3395 Y-3.7259
G01 X4.3120 Y-3.7400
G01 X4.2852 Y-3.7556
G01 X4.2223 Y-3.7899
G01 X4.1649 Y-3.8329
G01 X4.1397 Y-3.8507
G01 X4.1154 Y-3.8699
G01 X4.0580 Y-3.9129
G01 X4.0073 Y-3.9636
G01 X3.9849 Y-3.9849
G01 X3.9636 Y-4.0073
G01 X3.9129 Y-4.0580
G01 X3.8700 Y-4.1154
G01 X3.8507 Y-4.1397
G01 X3.8329 Y-4.1649
G01 X3.7899 Y-4.2223
G01 X3.7556 Y-4.2852
G01 X3.7400 Y-4.3120
G01 X3.7259 Y-4.3395
G01 X3.6916 Y-4.4025
G01 X3.6665 Y-4.4696
G01 X3.6549 Y-4.4983
G01 X3.6449 Y-4.5276
G01 X3.6198 Y-4.5948
G01 X3.6046 Y-4.6648
G01 X3.5972 Y-4.6948
G01 X3.5914 Y-4.7252
G01 X3.5762 Y-4.7953
G01 X3.5711 Y-4.8668
G01 X3.5679 Y-4.9009
G01 X3.5660 Y-4.9375
G01 X3.5616 Y-5.0000
G01 X3.5660 Y-5.0625
G01 X3.5679 Y-5.1014
G00 Z2.0000
G00 X3.6899 Y-5.0910
G01 F60.00
G01 Z-0.1500
G01 F240.00
G01 X3.6931 Y-5.1245
G01 X3.6976 Y-5.1873
G01 X3.7110 Y-5.2488
G01 X3.7169 Y-5.2791
G01 X3.7241 Y-5.3092
G01 X3.7375 Y-5.3707
G01 X3.7595 Y-5.4297
G01 X3.7696 Y-5.4589
G01 X3.7811 Y-5.4876
G01 X3.8031 Y-5.5466
G01 X3.8333 Y-5.6019
G01 X3.8475 Y-5.6293
G01 X3.8629 Y-5.6561
G01 X3.8931 Y-5.7114
G01 X3.9308 Y-5.7618
G01 X3.9488 Y-5.7870
G01 X3.9679 Y-5.8113
G01 X4.0056 Y-5.8617
G01 X4.0501 Y-5.9062
G01 X4.0715 Y-5.9285
G01 X4.0938 Y-5.9499
G01 X4.1383 Y-5.9944
G01 X4.1887 Y-6.0321
G01 X4.2130 Y-6.0512
G01 X4.2382 Y-6.0692
G01 X4.2886 Y-6.1069
G01 X4.3439 Y-6.1371
G01 X4.3707 Y-6.1525
G01 X4.3982 Y-6.1667
G01 X4.4534 Y-6.1969
G01 X4.5124 Y-6.2189
G01 X4.5411 Y-6.2304
G01 X4.5703 Y-6.2405
G01 X4.6293 Y-6.2625
G01 X4.6908 Y-6.2759
G01 X4.7209 Y-6.2831
G01 X4.7512 Y-6.2890
G01 X4.8127 Y-6.3024
G01 X4.8755 Y-6.3069
G01 X4.9063 Y-6.3098
G01 X4.9372 Y-6.3113
G01 X5.0000 Y-6.3158
G01 X5.0628 Y-6.3113
G01 X5.0937 Y-6.3098
G01 X5.1245 Y-6.3069
G01 X5.1873 Y-6.3024
G01 X5.2488 Y-6.2890
G01 X5.2791 Y-6.2831
G01 X5.3092 Y-6.2759
G01 X5.3707 Y-6.2625
G01 X5.4297 Y-6.2405
G01 X5.4589 Y-6.2304
G01 X5.4876 Y-6.2189
G01 X5.5466 Y-6.1969
G01 X5.6019 Y-6.1667
G01 X5.6294 Y-6.1525
G01 X5.6561 Y-6.1371
G01 X5.7114 Y-6.1069
G01 X5.7618 Y-6.0692
G01 X5.7869 Y-6.0512
G01 X5.8113 Y-6.0321
G01 X5.8617 Y-5.9944
G01 X5.9062 Y-5.9499
G01 X5.9285 Y-5.9286
G01 X5.9499 Y-5.9062
G01 X5.9944 Y-5.8617
G01 X6.0321 Y-5.8113
G01 X6.0512 Y-5.7869
G01 X6.0692 Y-5.7618
G01 X6.1069 Y-5.7114
G01 X6.1371 Y-5.6562
G01 X6.1525 Y-5.6293
G01 X6.1667 Y-5.6019
G01 X6.1969 Y-5.5466
G01 X6.2189 Y-5.4876
G01 X6.2304 Y-5.4589
G01 X6.2405 Y-5.4297
G01 X6.2625 Y-5.3707
G01 X6.2759 Y-5.3092
G01 X6.2831 Y-5.2791
G01 X6.2890 Y-5.2488
G01 X6.3024 Y-5.1873
G01 X6.3069 Y-5.1245
G01 X6.3098 Y-5.0937
G01 X6.3113 Y-5.0628
G01 X6.3158 Y-5.0000
G01 X6.3113 Y-4.9372
G01 X6.3098 Y-4.9063
G01 X6.3069 Y-4.8755
G01 X6.3024 Y-4.8127
G01 X6.2890 Y-4.7512
G01 X6.2831 Y-4.7209
G01 X6.2759 Y-4.6908
G01 X6.2625 Y-4.6293
G01 X6.2405 Y-4.5703
G01 X6.2304 Y-4.5411
G01 X6.2189 Y-4.5124
G01 X6.1969 Y-4.4534
G01 X6.1667 Y-4.3982
G01 X6.1525 Y-4.3707
G01 X6.1371 Y-4.3438
G01 X6.1069 Y-4.2886
G01 X6.0692 Y-4.2382
G01 X6.0512 Y-4.2130
G01 X6.0321 Y-4.1887
G01 X5.9944 Y-4.1383
G01 X5.9499 Y-4.0938
G01 X5.9285 Y-4.0715
G01 X5.9062 Y-4.0501
G01 X5.8617 Y-4.0056
G01 X5.8113 Y-3.9679
G01 X5.7870 Y-3.9488
G01 X5.7618 Y-3.9308
G01 X5.7114 Y-3.8931
G01 X5.6562 Y-3.8629
G01 X5.6293 Y-3.8475
G01 X5.6019 Y-3.8333
G01 X5.5466 Y-3.8031
G01 X5.4876 Y-3.7811
G01 X5.4589 Y-3.7696
G01 X5.4297 Y-3.7595
G01 X5.3707 Y-3.7375
G01 X5.3092 Y-3.7241
G01 X5.2791 Y-3.7169
G01 X5.2488 Y-3.7110
G01 X5.1873 Y-3.6976
G01 X5.1245 Y-3.6931
G01 X5.0937 Y-3.6902
G01 X5.0628 Y-3.6887
G01 X5.0000 Y-3.6842
G01 X4.9372 Y-3.6887
G01 X4.9063 Y-3.6902
G01 X4.8755 Y-3.6931
G01 X4.8127 Y-3.6976
G01 X4.7512 Y-3.7110
G01 X4.7209 Y-3.7169
G01 X4.6908 Y-3.7241
G01 X4.6293 Y-3.7375
G01 X4.5703 Y-3.7595
G01 X4.5411 Y-3.7696
G01 X4.5124 Y-3.7811
G01 X4.4534 Y-3.8031
G01 X4.3982 Y-3.8333
G01 X4.3707 Y-3.8475
G01 X4.3438 Y-3.8629
G01 X4.2886 Y-3.8931
G01 X4.2382 Y-3.9308
G01 X4.2131 Y-3.9488
G01 X4.1887 Y-3.9679
G01 X4.1383 Y-4.0056
G01 X4.0938 Y-4.0501
G01 X4.0714 Y-4.0715
G01 X4.0501 Y-4.0938
G01 X4.0056 Y-4.1383
G01 X3.9679 Y-4.1887
G01 X3.9488 Y-4.2131
G01 X3.9308 Y-4.2382
G01 X3.8931 Y-4.2886
G01 X3.8629 Y-4.3439
G01 X3.8475 Y-4.3707
G01 X3.8333 Y-4.3981
G01 X3.8031 Y-4.4534
G01 X3.7811 Y-4.5124
G01 X3.7696 Y-4.5411
G01 X3.7595 Y-4.5703
G01 X3.7375 Y-4.6293
G01 X3.7241 Y-4.6908
G01 X3.7169 Y-4.7209
G01 X3.7110 Y-4.7512
G01 X3.6976 Y-4.8127
G01 X3.6931 Y-4.8755
G01 X3.6899 Y-4.9097
G01 X3.6880 Y-4.9462
G01 X3.6842 Y-5.0000
G01 X3.6880 Y-5.0538
G01 X3.6899 Y-5.0910
G00 Z2.0000
G00 X3.8118 Y-5.0806
G01 F60.00
G01 Z-0.1500
G01 F240.00
G01 X3.8151 Y-5.1157
G01 X3.8190 Y-5.1698
G01 X3.8305 Y-5.2228
G01 X3.8365 Y-5.2531
G01 X3.8436 Y-5.2832
G01 X3.8552 Y-5.3362
G01 X3.8741 Y-5.3869
G01 X3.8844 Y-5.4161
G01 X3.8957 Y-5.4449
G01 X3.9147 Y-5.4957
G01 X3.9406 Y-5.5432
G01 X3.9549 Y-5.5706
G01 X3.9703 Y-5.5975
G01 X3.9962 Y-5.6451
G01 X4.0287 Y-5.6885
G01 X4.0468 Y-5.7136
G01 X4.0658 Y-5.7380
G01 X4.0983 Y-5.7814
G01 X4.1366 Y-5.8197
G01 X4.1580 Y-5.8420
G01 X4.1803 Y-5.8634
G01 X4.2186 Y-5.9017
G01 X4.2620 Y-5.9342
G01 X4.2864 Y-5.9532
G01 X4.3115 Y-5.9713
G01 X4.3549 Y-6.0038
G01 X4.4025 Y-6.0297
G01 X4.4293 Y-6.0451
G01 X4.4568 Y-6.0594
G01 X4.5043 Y-6.0853
G01 X4.5551 Y-6.1043
G01 X4.5839 Y-6.1156
G01 X4.6131 Y-6.1259
G01 X4.6638 Y-6.1448
G01 X4.7168 Y-6.1564
G01 X4.7469 Y-6.1635
G01 X4.7772 Y-6.1695
G01 X4.8302 Y-6.1810
G01 X4.8843 Y-6.1849
G01 X4.9151 Y-6.1877
G01 X4.9460 Y-6.1893
G01 X5.0000 Y-6.1932
G01 X5.0540 Y-6.1893
G01 X5.0849 Y-6.1877
G01 X5.1158 Y-6.1849
G01 X5.1698 Y-6.1810
G01 X5.2228 Y-6.1695
G01 X5.2531 Y-6.1635
G01 X5.2832 Y-6.1564
G01 X5.3362 Y-6.1448
G01 X5.3869 Y-6.1259
G01 X5.4161 Y-6.1156
G01 X5.4449 Y-6.1043
G01 X5.4957 Y-6.0853
G01 X5.5432 Y-6.0594
G01 X5.5707 Y-6.0451
G01 X5.5975 Y-6.0297
G01 X5.6451 Y-6.0038
G01 X5.6885 Y-5.9713
G01 X5.7136 Y-5.9532
G01 X5.7380 Y-5.9342
G01 X5.7814 Y-5.9017
G01 X5.8197 Y-5.8634
G01 X5.8420 Y-5.8420
G01 X5.8634 Y-5.8197
G01 X5.9017 Y-5.7814
G01 X5.9342 Y-5.7380
G01 X5.9532 Y-5.7136
G01 X5.9713 Y-5.6885
G01 X6.0038 Y-5.6451
G01 X6.0297 Y-5.5975
G01 X6.0451 Y-5.5707
G01 X6.0594 Y-5.5432
G01 X6.0853 Y-5.4957
G01 X6.1043 Y-5.4449
G01 X6.1156 Y-5.4161
G01 X6.1259 Y-5.3869
G01 X6.1448 Y-5.3362
G01 X6.1564 Y-5.2832
G01 X6.1635 Y-5.2531
G01 X6.1695 Y-5.2228
G01 X6.1810 Y-5.1698
G01 X6.1849 Y-5.1158
G01 X6.1877 Y-5.0849
G01 X6.1893 Y-5.0541
G01 X6.1932 Y-5.0000
G01 X6.1893 Y-4.9459
G01 X6.1877 Y-4.9151
G01 X6.1849 Y-4.8842
G01 X6.1810 Y-4.8302
G01 X6.1695 Y-4.7772
G01 X6.1635 Y-4.7469
G01 X6.1564 Y-4.7168
G01 X6.1448 Y-4.6638
G01 X6.1259 Y-4.6131
G01 X6.1156 Y-4.5839
G01 X6.1043 Y-4.5551
G01 X6.0853 Y-4.5043
G01 X6.0594 Y-4.4568
G01 X6.0451 Y-4.4293
G01 X6.0297 Y-4.4025
G01 X6.0038 Y-4.3549
G01 X5.9713 Y-4.3115
G01 X5.9532 Y-4.2864
G01 X5.9342 Y-4.2620
G01 X5.9017 Y-4.2186
G01 X5.8634 Y-4.1803
G01 X5.8420 Y-4.1580
G01 X5.8197 Y-4.1366
G01 X5.7814 Y-4.0983
G01 X5.7380 Y-4.0658
G01 X5.7136 Y-4.0468
G01 X5.6885 Y-4.0287
G01 X5.6451 Y-3.9962
G01 X5.5975 Y-3.9703
G01 X5.5707 Y-3.9549
G01 X5.5432 Y-3.9406
G01 X5.4957 Y-3.9147
G01 X5.4449 Y-3.8957
G01 X5.4161 Y-3.8844
G01 X5.3869 Y-3.8741
G01 X5.3362 Y-3.8552
G01 X5.2832 Y-3.8436
G01 X5.2531 Y-3.8365
G01 X5.2228 Y-3.8305
G01 X5.1698 Y-3.8190
G01 X5.1158 Y-3.8151
G01 X5.0850 Y-3.8123
G01 X5.0541 Y-3.8107
G01 X5.0000 Y-3.8068
G01 X4.9459 Y-3.8107
G01 X4.9151 Y-3.8123
G01 X4.8842 Y-3.8151
G01 X4.8302 Y-3.8190
G01 X4.7773 Y-3.8305
G01 X4.7469 Y-3.8365
G01 X4.7168 Y-3.8436
G01 X4.6638 Y-3.8552
G01 X4.6131 Y-3.8741
G01 X4.5839 Y-3.8844
G01 X4.5551 Y-3.8957
G01 X4.5043 Y-3.9147
G01 X4.4568 Y-3.9406
G01 X4.4293 Y-3.9549
G01 X4.4025 Y-3.9703
G01 X4.3549 Y-3.9962
G01 X4.3115 Y-4.0287
G01 X4.2864 Y-4.0468
G01 X4.2620 Y-4.0658
G01 X4.2186 Y-4.0983
G01 X4.1803 Y-4.1366
G01 X4.1580 Y-4.1580
G01 X4.1366 Y-4.1803
G01 X4.0983 Y-4.2186
G01 X4.0658 Y-4.2620
G01 X4.0468 Y-4.2864
G01 X4.0287 Y-4.3115
G01 X3.9962 Y-4.3549
G01 X3.9703 Y-4.4025
G01 X3.9549 Y-4.4293
G01 X3.9406 Y-4.4568
G01 X3.9147 Y-4.5043
G01 X3.8957 Y-4.5551
G01 X3.8844 Y-4.5839
G01 X3.8741 Y-4.6131
G01 X3.8552 Y-4.6638
G01 X3.8436 Y-4.7168
G01 X3.8365 Y-4.7469
G01 X3.8305 Y-4.7772
G01 X3.8190 Y-4.8302
G01 X3.8151 Y-4.8842
G01 X3.8120 Y-4.9186
G01 X3.8101 Y-4.9550
G01 X3.8068 Y-5.0000
G01 X3.8101 Y-5.0451
G01 X3.8118 Y-5.0806
G00 Z2.0000
G00 X3.1000 Y-12.4012
G01 F60.00
G01 Z-0.1500
G01 F240.00
G01 X4.3012 Y-12.4012
G01 X4.3012 Y-12.2988
G01 X3.0628 Y-12.2988
G01 X3.0387 Y-12.3014
G01 X2.9541 Y-12.3329
G01 X2.8848 Y-12.3848
G01 X2.8329 Y-12.4542
G01 X2.8014 Y-12.5387
G01 X2.7988 Y-12.5628
G01 X2.7988 Y-13.8012
G01 X2.9012 Y-13.8012
G01 X2.9012 Y-12.6000
G01 X2.9022 Y-12.5805
G01 X2.9042 Y-12.5660
G01 X2.9061 Y-12.5564
G01 X2.9098 Y-12.5423
G01 X2.9164 Y-12.5239
G01 X2.9225 Y-12.5106
G01 X2.9321 Y-12.4937
G01 X2.9403 Y-12.4816
G01 X2.9527 Y-12.4665
G01 X2.9665 Y-12.4527
G01 X2.9777 Y-12.4433
G01 X2.9896 Y-12.4347
G01 X3.0063 Y-12.4247
G01 X3.0195 Y-12.4183
G01 X3.0376 Y-12.4113
G01 X3.0517 Y-12.4072
G01 X3.0660 Y-12.4042
G01 X3.0805 Y-12.4022
G01 X3.1000 Y-12.4012
G00 Z2.0000
G00 X3.1000 Y-12.5236
G01 F60.00
G01 Z-0.1500
G01 F240.00
G01 X4.4236 Y-12.5235
G01 X4.4236 Y-12.1764
G01 X3.0563 Y-12.1764
G01 X3.0103 Y-12.1814
G01 X2.8949 Y-12.2244
G01 X2.7974 Y-12.2974
G01 X2.7244 Y-12.3949
G01 X2.6814 Y-12.5103
G01 X2.6764 Y-12.5563
G01 X2.6765 Y-13.9236
G01 X3.0236 Y-13.9236
G01 X3.0236 Y-12.5962
G01 X3.0244 Y-12.5888
G01 X3.0258 Y-12.5814
G01 X3.0274 Y-12.5760
G01 X3.0301 Y-12.5690
G01 X3.0335 Y-12.5623
G01 X3.0375 Y-12.5560
G01 X3.0421 Y-12.5501
G01 X3.0473 Y-12.5446
G01 X3.0530 Y-12.5397
G01 X3.0591 Y-12.5354
G01 X3.0656 Y-12.5317
G01 X3.0725 Y-12.5287
G01 X3.0796 Y-12.5263
G01 X3.0869 Y-12.5247
G01 X3.0944 Y-12.5238
G01 X3.1000 Y-12.5236
G00 Z2.0000
G00 X4.5472 Y-16.9758
G01 F60.00
G01 Z-0.1500
G01 F240.00
G01 X4.6151 Y-16.9657
G01 X4.5445 Y-16.9657
G01 X4.5472 Y-16.9758
G00 Z2.0000
G00 X4.4421 Y-17.1233
G01 F60.00
G01 Z-0.1500
G01 F240.00
G01 X4.5127 Y-17.1058
G01 X4.5340 Y-17.1015
G01 X4.7497 Y-17.0696
G01 X4.7605 Y-17.0684
G01 X4.7822 Y-17.0668
G01 X4.9782 Y-17.0571
G01 X5.0000 Y-17.0566
G01 X5.0218 Y-17.0571
G01 X5.2178 Y-17.0668
G01 X5.2395 Y-17.0684
G01 X5.2503 Y-17.0696
G01 X5.4660 Y-17.1015
G01 X5.4873 Y-17.1058
G01 X5.5591 Y-17.1236
G01 X5.5597 Y-17.1114
G01 X5.5618 Y-17.0895
G01 X5.5731 Y-17.0094
G01 X5.5768 Y-16.9877
G01 X5.5816 Y-16.9662
G01 X5.5843 Y-16.9555
G01 X5.5907 Y-16.9344
G01 X5.5942 Y-16.9240
G01 X5.5981 Y-16.9137
G01 X5.6064 Y-16.8933
G01 X5.6158 Y-16.8734
G01 X5.6209 Y-16.8636
G01 X5.6324 Y-16.8434
G01 X4.3669 Y-16.8434
G01 X4.3765 Y-16.8628
G01 X4.3810 Y-16.8729
G01 X4.3892 Y-16.8933
G01 X4.4176 Y-16.9690
G01 X4.4243 Y-16.9900
G01 X4.4273 Y-17.0006
G01 X4.4324 Y-17.0220
G01 X4.4346 Y-17.0328
G01 X4.4381 Y-17.0545
G01 X4.4395 Y-17.0655
G01 X4.4414 Y-17.0874
G01 X4.4419 Y-17.0984
G01 X4.4421 Y-17.1233
G00 Z2.0000
G00 X4.2859 Y-17.2929
G01 F60.00
G01 Z-0.1500
G01 F240.00
G01 X4.3187 Y-17.2812
G01 X4.3414 Y-17.2747
G01 X4.5318 Y-17.2270
G01 X4.5472 Y-17.2235
G01 X4.5627 Y-17.2208
G01 X4.7569 Y-17.1920
G01 X4.7725 Y-17.1901
G01 X4.7882 Y-17.1889
G01 X4.9842 Y-17.1793
G01 X5.0000 Y-17.1789
G01 X5.0158 Y-17.1793
G01 X5.2118 Y-17.1889
G01 X5.2275 Y-17.1901
G01 X5.2431 Y-17.1920
G01 X5.4451 Y-17.2221
G01 X5.4682 Y-17.2270
G01 X5.6662 Y-17.2767
G01 X5.6813 Y-17.2812
G01 X5.7190 Y-17.2946
G01 X5.7068 Y-17.2677
G01 X5.7009 Y-17.2529
G01 X5.6958 Y-17.2378
G01 X5.6914 Y-17.2225
G01 X5.6877 Y-17.2070
G01 X5.6837 Y-17.1834
G01 X5.6821 Y-17.1675
G01 X5.6812 Y-17.1516
G01 X5.6813 Y-17.1277
G01 X5.6832 Y-17.1039
G01 X5.6955 Y-17.0189
G01 X5.6985 Y-17.0033
G01 X5.7023 Y-16.9878
G01 X5.7069 Y-16.9725
G01 X5.7123 Y-16.9575
G01 X5.7217 Y-16.9355
G01 X5.7288 Y-16.9212
G01 X5.7409 Y-16.9006
G01 X5.7497 Y-16.8873
G01 X5.7592 Y-16.8745
G01 X5.7694 Y-16.8622
G01 X5.8151 Y-16.8094
G01 X5.8259 Y-16.7976
G01 X5.8372 Y-16.7864
G01 X5.8490 Y-16.7757
G01 X5.8678 Y-16.7609
G01 X5.8809 Y-16.7517
G01 X5.8944 Y-16.7433
G01 X5.9083 Y-16.7355
G01 X5.9226 Y-16.7284
G01 X5.9398 Y-16.7211
G01 X4.0629 Y-16.7211
G01 X4.0839 Y-16.7327
G01 X4.0971 Y-16.7411
G01 X4.1098 Y-16.7501
G01 X4.1722 Y-16.7967
G01 X4.1905 Y-16.8121
G01 X4.2020 Y-16.8231
G01 X4.2130 Y-16.8347
G01 X4.2233 Y-16.8468
G01 X4.2331 Y-16.8595
G01 X4.2422 Y-16.8725
G01 X4.2507 Y-16.8861
G01 X4.2620 Y-16.9071
G01 X4.2688 Y-16.9216
G01 X4.2747 Y-16.9363
G01 X4.3021 Y-17.0092
G01 X4.3091 Y-17.0321
G01 X4.3128 Y-17.0476
G01 X4.3169 Y-17.0712
G01 X4.3187 Y-17.0870
G01 X4.3197 Y-17.1029
G01 X4.3199 Y-17.1189
G01 X4.3187 Y-17.1428
G01 X4.3169 Y-17.1586
G01 X4.3143 Y-17.1743
G01 X4.2963 Y-17.2582
G01 X4.2922 Y-17.2737
G01 X4.2859 Y-17.2929
G00 Z2.0000
G00 X3.9432 Y-17.4549
G01 F60.00
G01 Z-0.1500
G01 F240.00
G01 X4.0348 Y-17.4045
G01 X4.0468 Y-17.3970
G01 X4.0545 Y-17.3914
G01 X4.0619 Y-17.3856
G01 X4.0725 Y-17.3761
G01 X4.1251 Y-17.3233
G01 X4.1352 Y-17.3124
G01 X4.1444 Y-17.3008
G01 X4.1527 Y-17.2885
G01 X4.1623 Y-17.2713
G01 X4.1702 Y-17.2532
G01 X4.1762 Y-17.2344
G01 X4.1950 Y-17.1468
G01 X4.1968 Y-17.1321
G01 X4.1974 Y-17.1223
G01 X4.1972 Y-17.1025
G01 X4.1964 Y-17.0927
G01 X4.1942 Y-17.0780
G01 X4.1921 Y-17.0684
G01 X4.1881 Y-17.0541
G01 X4.1566 Y-16.9703
G01 X4.1502 Y-16.9569
G01 X4.1401 Y-16.9399
G01 X4.1284 Y-16.9240
G01 X4.1152 Y-16.9093
G01 X4.1081 Y-16.9025
G01 X4.0968 Y-16.8929
G01 X4.0368 Y-16.8482
G01 X4.0249 Y-16.8400
G01 X4.0081 Y-16.8304
G01 X3.9993 Y-16.8262
G01 X3.9859 Y-16.8208
G01 X3.9674 Y-16.8151
G01 X3.9532 Y-16.8120
G01 X3.9002 Y-16.8028
G01 X3.8852 Y-16.8015
G01 X3.8752 Y-16.8012
G01 X0.1150 Y-16.8015
G01 X0.0962 Y-16.8033
G01 X0.0776 Y-16.8068
G01 X0.0015 Y-16.8290
G01 X-0.0126 Y-16.8337
G01 X-0.0217 Y-16.8374
G01 X-0.0351 Y-16.8438
G01 X-0.0437 Y-16.8486
G01 X-0.0521 Y-16.8538
G01 X-0.0641 Y-16.8624
G01 X-0.0755 Y-16.8719
G01 X-0.0861 Y-16.8822
G01 X-0.1385 Y-16.9423
G01 X-0.1508 Y-16.9580
G01 X-0.1589 Y-16.9705
G01 X-0.1682 Y-16.9880
G01 X-0.1740 Y-17.0017
G01 X-0.1788 Y-17.0158
G01 X-0.1825 Y-17.0302
G01 X-0.1955 Y-17.0910
G01 X-0.1978 Y-17.1098
G01 X-0.1983 Y-17.1240
G01 X-0.1982 Y-22.8807
G01 X-0.1978 Y-22.8902
G01 X-0.1962 Y-22.9043
G01 X-0.1937 Y-22.9183
G01 X-0.1902 Y-22.9320
G01 X-0.1675 Y-23.0084
G01 X-0.1601 Y-23.0267
G01 X-0.1509 Y-23.0442
G01 X-0.1429 Y-23.0567
G01 X-0.1340 Y-23.0685
G01 X-0.1242 Y-23.0796
G01 X-0.1173 Y-23.0866
G01 X-0.0572 Y-23.1390
G01 X-0.0415 Y-23.1513
G01 X-0.0290 Y-23.1594
G01 X-0.0115 Y-23.1687
G01 X0.0022 Y-23.1745
G01 X0.0163 Y-23.1793
G01 X0.0307 Y-23.1830
G01 X0.0915 Y-23.1960
G01 X0.1103 Y-23.1983
G01 X0.1245 Y-23.1988
G01 X10.6896 Y-23.1988
G01 X10.7042 Y-23.1982
G01 X10.7188 Y-23.1966
G01 X10.7379 Y-23.1928
G01 X10.7520 Y-23.1887
G01 X10.7657 Y-23.1836
G01 X10.7833 Y-23.1753
G01 X10.7959 Y-23.1679
G01 X10.8080 Y-23.1597
G01 X10.8194 Y-23.1505
G01 X10.8302 Y-23.1406
G01 X11.1811 Y-22.7896
G01 X11.2369 Y-22.7869
G01 X11.2515 Y-22.7856
G01 X11.3303 Y-22.7740
G01 X11.3447 Y-22.7713
G01 X11.4314 Y-22.7494
G01 X11.5202 Y-22.7176
G01 X11.6054 Y-22.6773
G01 X11.6863 Y-22.6289
G01 X11.7620 Y-22.5727
G01 X11.8284 Y-22.5128
G01 X11.8386 Y-22.5023
G01 X11.8952 Y-22.4395
G01 X11.9457 Y-22.3718
G01 X11.9566 Y-22.3555
G01 X11.9950 Y-22.2914
G01 X12.0021 Y-22.2786
G01 X12.0401 Y-22.1977
G01 X12.0688 Y-22.1182
G01 X12.0745 Y-22.0995
G01 X12.0927 Y-22.0270
G01 X12.0965 Y-22.0078
G01 X12.1086 Y-21.9242
G01 X12.1121 Y-21.8586
G01 X12.2134 Y-21.7573
G01 X12.2198 Y-21.8300
G01 X12.2036 Y-22.0153
G01 X12.1554 Y-22.1950
G01 X12.1140 Y-22.2841
G01 X12.1087 Y-22.2973
G01 X12.1045 Y-22.3108
G01 X12.1003 Y-22.3293
G01 X12.0884 Y-22.4079
G01 X12.0869 Y-22.4276
G01 X12.0868 Y-22.4375
G01 X12.0877 Y-22.4523
G01 X12.0897 Y-22.4669
G01 X12.0928 Y-22.4814
G01 X12.0969 Y-22.4956
G01 X12.1021 Y-22.5095
G01 X12.1369 Y-22.5867
G01 X12.1416 Y-22.5954
G01 X12.1494 Y-22.6080
G01 X12.1612 Y-22.6238
G01 X12.1711 Y-22.6348
G01 X12.1818 Y-22.6450
G01 X12.1932 Y-22.6545
G01 X12.2053 Y-22.6630
G01 X12.2722 Y-22.7065
G01 X12.2897 Y-22.7156
G01 X12.2987 Y-22.7195
G01 X12.3127 Y-22.7244
G01 X12.3270 Y-22.7284
G01 X12.3415 Y-22.7312
G01 X12.3562 Y-22.7330
G01 X12.3660 Y-22.7336
G01 X12.4506 Y-22.7341
G01 X12.4700 Y-22.7323
G01 X12.4844 Y-22.7297
G01 X12.4986 Y-22.7261
G01 X12.5124 Y-22.7215
G01 X12.5259 Y-22.7158
G01 X12.5346 Y-22.7115
G01 X12.6012 Y-22.6726
G01 X12.6096 Y-22.6671
G01 X12.6177 Y-22.6611
G01 X12.6293 Y-22.6514
G01 X12.6367 Y-22.6444
G01 X13.1075 Y-22.1735
G01 X13.1199 Y-22.1592
G01 X13.1283 Y-22.1477
G01 X13.1334 Y-22.1398
G01 X13.1739 Y-22.0659
G01 X13.1801 Y-22.0527
G01 X13.1853 Y-22.0390
G01 X13.1895 Y-22.0250
G01 X13.1918 Y-22.0155
G01 X13.1942 Y-22.0011
G01 X13.1976 Y-21.9699
G01 X13.1985 Y-21.9593
G01 X13.1988 Y-21.9486
G01 X13.1987 Y-17.1193
G01 X13.1983 Y-17.1098
G01 X13.1967 Y-17.0957
G01 X13.1932 Y-17.0771
G01 X13.1710 Y-17.0010
G01 X13.1663 Y-16.9869
G01 X13.1606 Y-16.9733
G01 X13.1562 Y-16.9644
G01 X13.1489 Y-16.9516
G01 X13.1405 Y-16.9393
G01 X13.1345 Y-16.9315
G01 X13.1247 Y-16.9204
G01 X13.1142 Y-16.9100
G01 X13.0500 Y-16.8547
G01 X13.0338 Y-16.8432
G01 X13.0165 Y-16.8335
G01 X13.0029 Y-16.8273
G01 X12.9936 Y-16.8238
G01 X12.9842 Y-16.8207
G01 X12.9698 Y-16.8170
G01 X12.9090 Y-16.8040
G01 X12.8902 Y-16.8017
G01 X12.8760 Y-16.8012
G01 X6.1248 Y-16.8012
G01 X6.1107 Y-16.8017
G01 X6.0919 Y-16.8040
G01 X6.0734 Y-16.8080
G01 X5.9924 Y-16.8320
G01 X5.9786 Y-16.8374
G01 X5.9609 Y-16.8461
G01 X5.9442 Y-16.8566
G01 X5.9324 Y-16.8655
G01 X5.9177 Y-16.8787
G01 X5.9076 Y-16.8895
G01 X5.8586 Y-16.9461
G01 X5.8469 Y-16.9619
G01 X5.8367 Y-16.9789
G01 X5.8283 Y-16.9967
G01 X5.8217 Y-17.0153
G01 X5.8180 Y-17.0296
G01 X5.8161 Y-17.0393
G01 X5.8054 Y-17.1134
G01 X5.8038 Y-17.1281
G01 X5.8034 Y-17.1478
G01 X5.8040 Y-17.1577
G01 X5.8057 Y-17.1724
G01 X5.8097 Y-17.1917
G01 X5.8125 Y-17.2012
G01 X5.8174 Y-17.2151
G01 X5.8503 Y-17.2878
G01 X5.8592 Y-17.3050
G01 X5.8643 Y-17.3132
G01 X5.8726 Y-17.3251
G01 X5.8818 Y-17.3364
G01 X5.8917 Y-17.3469
G01 X5.9025 Y-17.3567
G01 X5.9441 Y-17.3904
G01 X5.9564 Y-17.3991
G01 X5.9650 Y-17.4044
G01 X6.0568 Y-17.4549
G01 X5.9786 Y-17.5332
G01 X5.8414 Y-17.4686
G01 X5.6475 Y-17.3990
G01 X5.6289 Y-17.3933
G01 X5.4385 Y-17.3456
G01 X5.4193 Y-17.3418
G01 X5.2155 Y-17.3118
G01 X5.0098 Y-17.3015
G01 X4.9902 Y-17.3015
G01 X4.7845 Y-17.3118
G01 X4.5807 Y-17.3418
G01 X4.5663 Y-17.3445
G01 X4.3711 Y-17.3933
G01 X4.3525 Y-17.3990
G01 X4.1586 Y-17.4686
G01 X4.0214 Y-17.5332
G01 X3.9432 Y-17.4549
G00 Z2.0000
G00 X3.7415 Y-17.4262
G01 F60.00
G01 Z-0.1500
G01 F240.00
G01 X3.9717 Y-17.2997
G01 X3.9779 Y-17.2959
G01 X3.9823 Y-17.2926
G01 X3.9878 Y-17.2878
G01 X4.0397 Y-17.2357
G01 X4.0435 Y-17.2314
G01 X4.0479 Y-17.2253
G01 X4.0518 Y-17.2187
G01 X4.0543 Y-17.2136
G01 X4.0570 Y-17.2065
G01 X4.0585 Y-17.2010
G01 X4.0736 Y-17.1308
G01 X4.0750 Y-17.1215
G01 X4.0752 Y-17.1120
G01 X4.0740 Y-17.1007
G01 X4.0716 Y-17.0915
G01 X4.0458 Y-17.0225
G01 X4.0419 Y-17.0138
G01 X4.0370 Y-17.0057
G01 X4.0311 Y-16.9983
G01 X4.0243 Y-16.9916
G01 X3.9623 Y-16.9453
G01 X3.9560 Y-16.9413
G01 X3.9477 Y-16.9372
G01 X3.9389 Y-16.9341
G01 X3.9316 Y-16.9324
G01 X3.8867 Y-16.9244
G01 X3.8752 Y-16.9236
G01 X0.1227 Y-16.9236
G01 X0.1136 Y-16.9243
G01 X0.1047 Y-16.9262
G01 X0.0359 Y-16.9463
G01 X0.0253 Y-16.9503
G01 X0.0169 Y-16.9549
G01 X0.0078 Y-16.9616
G01 X0.0009 Y-16.9682
G01 X-0.0461 Y-17.0224
G01 X-0.0519 Y-17.0300
G01 X-0.0558 Y-17.0366
G01 X-0.0583 Y-17.0417
G01 X-0.0610 Y-17.0489
G01 X-0.0626 Y-17.0544
G01 X-0.0746 Y-17.1095
G01 X-0.0756 Y-17.1167
G01 X-0.0759 Y-17.1240
G01 X-0.0759 Y-22.8778
G01 X-0.0752 Y-22.8869
G01 X-0.0733 Y-22.8958
G01 X-0.0532 Y-22.9646
G01 X-0.0499 Y-22.9735
G01 X-0.0446 Y-22.9836
G01 X-0.0379 Y-22.9927
G01 X-0.0313 Y-22.9996
G01 X0.0229 Y-23.0466
G01 X0.0305 Y-23.0524
G01 X0.0354 Y-23.0554
G01 X0.0422 Y-23.0588
G01 X0.0494 Y-23.0615
G01 X0.0549 Y-23.0631
G01 X0.1100 Y-23.0751
G01 X0.1172 Y-23.0761
G01 X0.1245 Y-23.0764
G01 X10.6952 Y-23.0762
G01 X10.7008 Y-23.0756
G01 X10.7082 Y-23.0742
G01 X10.7154 Y-23.0720
G01 X10.7206 Y-23.0699
G01 X10.7256 Y-23.0674
G01 X10.7321 Y-23.0636
G01 X10.7366 Y-23.0603
G01 X10.7423 Y-23.0554
G01 X11.1303 Y-22.6675
G01 X11.1544 Y-22.6684
G01 X11.2328 Y-22.6646
G01 X11.3142 Y-22.6527
G01 X11.3959 Y-22.6323
G01 X11.4716 Y-22.6053
G01 X11.5477 Y-22.5694
G01 X11.6183 Y-22.5271
G01 X11.6844 Y-22.4781
G01 X11.7454 Y-22.4229
G01 X11.8006 Y-22.3619
G01 X11.8496 Y-22.2958
G01 X11.8919 Y-22.2252
G01 X11.9278 Y-22.1491
G01 X11.9548 Y-22.0734
G01 X11.9752 Y-21.9917
G01 X11.9871 Y-21.9103
G01 X11.9909 Y-21.8319
G01 X11.9900 Y-21.8078
G01 X12.2928 Y-21.5049
G01 X12.3245 Y-21.6233
G01 X12.3426 Y-21.8300
G01 X12.3245 Y-22.0367
G01 X12.2708 Y-22.2370
G01 X12.2268 Y-22.3315
G01 X12.2229 Y-22.3417
G01 X12.2205 Y-22.3523
G01 X12.2100 Y-22.4214
G01 X12.2092 Y-22.4290
G01 X12.2091 Y-22.4346
G01 X12.2097 Y-22.4422
G01 X12.2110 Y-22.4497
G01 X12.2130 Y-22.4570
G01 X12.2150 Y-22.4623
G01 X12.2451 Y-22.5296
G01 X12.2487 Y-22.5363
G01 X12.2529 Y-22.5426
G01 X12.2604 Y-22.5511
G01 X12.2691 Y-22.5585
G01 X12.3307 Y-22.5989
G01 X12.3390 Y-22.6036
G01 X12.3477 Y-22.6072
G01 X12.3569 Y-22.6097
G01 X12.3644 Y-22.6109
G01 X12.3719 Y-22.6114
G01 X12.4418 Y-22.6119
G01 X12.4493 Y-22.6116
G01 X12.4549 Y-22.6109
G01 X12.4622 Y-22.6093
G01 X12.4676 Y-22.6077
G01 X12.4779 Y-22.6032
G01 X12.5349 Y-22.5698
G01 X12.5444 Y-22.5632
G01 X12.5502 Y-22.5579
G01 X13.0190 Y-22.0891
G01 X13.0249 Y-22.0821
G01 X13.0299 Y-22.0745
G01 X13.0660 Y-22.0083
G01 X13.0701 Y-21.9978
G01 X13.0724 Y-21.9887
G01 X13.0760 Y-21.9568
G01 X13.0764 Y-21.9486
G01 X13.0764 Y-17.1222
G01 X13.0757 Y-17.1131
G01 X13.0738 Y-17.1042
G01 X13.0537 Y-17.0354
G01 X13.0497 Y-17.0248
G01 X13.0451 Y-17.0164
G01 X13.0384 Y-17.0073
G01 X13.0304 Y-16.9992
G01 X12.9761 Y-16.9522
G01 X12.9684 Y-16.9466
G01 X12.9617 Y-16.9428
G01 X12.9529 Y-16.9391
G01 X12.9438 Y-16.9365
G01 X12.8905 Y-16.9249
G01 X12.8833 Y-16.9239
G01 X12.8760 Y-16.9236
G01 X6.1212 Y-16.9236
G01 X6.1140 Y-16.9243
G01 X6.1051 Y-16.9262
G01 X6.0363 Y-16.9463
G01 X6.0273 Y-16.9496
G01 X6.0189 Y-16.9539
G01 X6.0110 Y-16.9592
G01 X6.0026 Y-16.9668
G01 X5.9530 Y-17.0239
G01 X5.9475 Y-17.0316
G01 X5.9429 Y-17.0399
G01 X5.9394 Y-17.0487
G01 X5.9367 Y-17.0597
G01 X5.9260 Y-17.1345
G01 X5.9257 Y-17.1421
G01 X5.9259 Y-17.1478
G01 X5.9266 Y-17.1535
G01 X5.9281 Y-17.1609
G01 X5.9298 Y-17.1664
G01 X5.9326 Y-17.1734
G01 X5.9624 Y-17.2386
G01 X5.9680 Y-17.2483
G01 X5.9737 Y-17.2556
G01 X5.9802 Y-17.2623
G01 X6.0170 Y-17.2921
G01 X6.0233 Y-17.2967
G01 X6.0283 Y-17.2997
G01 X6.2585 Y-17.4262
G01 X6.0022 Y-17.6826
G01 X5.9821 Y-17.6706
G01 X5.9755 Y-17.6670
G01 X5.7946 Y-17.5816
G01 X5.6063 Y-17.5141
G01 X5.5991 Y-17.5120
G01 X5.4051 Y-17.4634
G01 X5.2073 Y-17.4340
G01 X5.1998 Y-17.4333
G01 X5.0000 Y-17.4236
G01 X4.8002 Y-17.4333
G01 X4.7927 Y-17.4340
G01 X4.5949 Y-17.4634
G01 X4.4009 Y-17.5120
G01 X4.3937 Y-17.5141
G01 X4.2054 Y-17.5816
G01 X4.0245 Y-17.6670
G01 X4.0179 Y-17.6706
G01 X3.9978 Y-17.6826
G01 X3.7415 Y-17.4262
G00 Z2.0000
G00 X3.1826 Y-18.4978
G01 F60.00
G01 Z-0.1500
G01 F240.00
G01 X2.9275 Y-18.2427
G01 X2.8720 Y-18.3301
G01 X2.7422 Y-18.6061
G01 X2.6480 Y-18.8961
G01 X2.5908 Y-19.1957
G01 X2.5717 Y-19.5000
G01 X2.5908 Y-19.8043
G01 X2.6480 Y-20.1039
G01 X2.7422 Y-20.3939
G01 X2.8720 Y-20.6699
G01 X2.9275 Y-20.7573
G01 X3.1826 Y-20.5022
G01 X3.1706 Y-20.4821
G01 X3.1670 Y-20.4755
G01 X3.0816 Y-20.2946
G01 X3.0141 Y-20.1063
G01 X3.0120 Y-20.0991
G01 X2.9634 Y-19.9051
G01 X2.9340 Y-19.7073
G01 X2.9333 Y-19.6998
G01 X2.9236 Y-19.5000
G01 X2.9333 Y-19.3002
G01 X2.9340 Y-19.2927
G01 X2.9634 Y-19.0949
G01 X3.0120 Y-18.9009
G01 X3.0141 Y-18.8937
G01 X3.0816 Y-18.7054
G01 X3.1670 Y-18.5245
G01 X3.1706 Y-18.5179
G01 X3.1826 Y-18.4978
G00 Z2.0000
G00 X2.9543 Y-18.4425
G01 F60.00
G01 Z-0.1500
G01 F240.00
G01 X2.8561 Y-18.6512
G01 X2.7667 Y-18.9266
G01 X2.7124 Y-19.2110
G01 X2.6942 Y-19.5000
G01 X2.7124 Y-19.7890
G01 X2.7667 Y-20.0734
G01 X2.8561 Y-20.3488
G01 X2.9543 Y-20.5575
G01 X3.0332 Y-20.4786
G01 X2.9686 Y-20.3414
G01 X2.8990 Y-20.1475
G01 X2.8933 Y-20.1289
G01 X2.8445 Y-19.9337
G01 X2.8418 Y-19.9193
G01 X2.8118 Y-19.7155
G01 X2.8012 Y-19.5000
G01 X2.8118 Y-19.2845
G01 X2.8418 Y-19.0807
G01 X2.8445 Y-19.0663
G01 X2.8933 Y-18.8711
G01 X2.8990 Y-18.8525
G01 X2.9686 Y-18.6586
G01 X3.0332 Y-18.5214
G01 X2.9543 Y-18.4425
G00 Z2.0000
G00 X5.3849 Y-16.9657
G01 F60.00
G01 Z-0.1500
G01 F240.00
G01 X5.4546 Y-16.9761
G01 X5.4565 Y-16.9657
G01 X5.3849 Y-16.9657
G00 Z2.0000
G00 X6.9668 Y-18.5214
G01 F60.00
G01 Z-0.1500
G01 F240.00
G01 X7.0314 Y-18.6586
G01 X7.1041 Y-18.8617
G01 X7.1565 Y-19.0710
G01 X7.1882 Y-19.2845
G01 X7.1988 Y-19.5000
G01 X7.1889 Y-19.7058
G01 X7.1876 Y-19.7204
G01 X7.1582 Y-19.9193
G01 X7.1555 Y-19.9337
G01 X7.1055 Y-20.1336
G01 X7.1010 Y-20.1475
G01 X7.0717 Y-20.2294
G01 X7.1554 Y-20.3132
G01 X7.2333 Y-20.0734
G01 X7.2876 Y-19.7890
G01 X7.3058 Y-19.5000
G01 X7.2876 Y-19.2110
G01 X7.2333 Y-18.9266
G01 X7.1439 Y-18.6512
G01 X7.0457 Y-18.4425
G01 X6.9668 Y-18.5214
G00 Z2.0000
G00 X6.9305 Y-20.2612
G01 F60.00
G01 Z-0.1500
G01 F240.00
G01 X7.1956 Y-20.5262
G01 X7.2578 Y-20.3939
G01 X7.3521 Y-20.1039
G01 X7.4092 Y-19.8043
G01 X7.4283 Y-19.5000
G01 X7.4092 Y-19.1957
G01 X7.3521 Y-18.8961
G01 X7.2578 Y-18.6061
G01 X7.1280 Y-18.3301
G01 X7.0725 Y-18.2427
G01 X6.8174 Y-18.4978
G01 X6.8294 Y-18.5179
G01 X6.8330 Y-18.5245
G01 X6.9184 Y-18.7054
G01 X6.9870 Y-18.8972
G01 X7.0366 Y-19.0949
G01 X7.0666 Y-19.2983
G01 X7.0764 Y-19.5000
G01 X7.0667 Y-19.6998
G01 X7.0660 Y-19.7073
G01 X7.0372 Y-19.9014
G01 X7.0357 Y-19.9088
G01 X6.9870 Y-20.1028
G01 X6.9305 Y-20.2612
G00 Z2.0000
G00 X3.9432 Y-21.5451
G01 F60.00
G01 Z-0.1500
G01 F240.00
G01 X4.0183 Y-21.5863
G01 X4.2875 Y-21.6929
G01 X4.5679 Y-21.7649
G01 X4.8552 Y-21.8012
G01 X5.1448 Y-21.8012
G01 X5.4321 Y-21.7649
G01 X5.7125 Y-21.6929
G01 X5.8115 Y-21.6538
G01 X5.7294 Y-21.5717
G01 X5.6475 Y-21.6010
G01 X5.6336 Y-21.6055
G01 X5.4337 Y-21.6555
G01 X5.4193 Y-21.6582
G01 X5.2204 Y-21.6876
G01 X5.2058 Y-21.6889
G01 X5.0000 Y-21.6988
G01 X4.7942 Y-21.6889
G01 X4.7748 Y-21.6870
G01 X4.5710 Y-21.6565
G01 X4.3664 Y-21.6055
G01 X4.3525 Y-21.6010
G01 X4.1586 Y-21.5314
G01 X4.0214 Y-21.4668
G01 X3.9432 Y-21.5451
G00 Z2.0000
G00 X3.7415 Y-21.5738
G01 F60.00
G01 Z-0.1500
G01 F240.00
G01 X3.9661 Y-21.6972
G01 X4.2496 Y-21.8095
G01 X4.5450 Y-21.8853
G01 X4.8475 Y-21.9236
G01 X5.1525 Y-21.9235
G01 X5.4550 Y-21.8853
G01 X5.7504 Y-21.8095
G01 X6.0296 Y-21.6989
G01 X5.7612 Y-21.4305
G01 X5.6028 Y-21.4870
G01 X5.4088 Y-21.5357
G01 X5.4014 Y-21.5372
G01 X5.2073 Y-21.5660
G01 X5.1998 Y-21.5667
G01 X5.0000 Y-21.5764
G01 X4.7983 Y-21.5666
G01 X4.5949 Y-21.5366
G01 X4.3972 Y-21.4870
G01 X4.2054 Y-21.4184
G01 X4.0245 Y-21.3330
G01 X4.0179 Y-21.3294
G01 X3.9978 Y-21.3174
G01 X3.7415 Y-21.5738
G00 Z2.0000
G00 X10.8274 Y-20.6897
G01 F60.00
G01 Z-0.1500
G01 F240.00
G01 X11.1303 Y-20.9925
G01 X11.1525 Y-20.9916
G01 X11.1747 Y-20.9925
G01 X11.4776 Y-20.6897
G01 X11.3592 Y-20.6580
G01 X11.1525 Y-20.6399
G01 X10.9458 Y-20.6580
G01 X10.8274 Y-20.6897
G00 Z2.0000
G00 X11.0798 Y-20.7691
G01 F60.00
G01 Z-0.1500
G01 F240.00
G01 X11.1525 Y-20.8418
G01 X11.2252 Y-20.7691
G01 X11.1525 Y-20.7627
G01 X11.0798 Y-20.7691
G00 Z2.0000
G00 X11.9685 Y-22.5411
G01 F60.00
G01 Z-0.1500
G01 F240.00
G01 X11.9839 Y-22.5428
G01 X11.9793 Y-22.5292
G01 X11.9685 Y-22.5411
G00 Z2.0000
G00 X10.7754 Y-23.2923
G01 F60.00
G01 Z-0.1500
G01 F240.00
G01 X10.6754 Y-23.3067
G01 X0.1245 Y-23.3067
G01 X0.1103 Y-23.3072
G01 X0.1009 Y-23.3081
G01 X0.0915 Y-23.3095
G01 X0.0776 Y-23.3123
G01 X0.0015 Y-23.3345
G01 X-0.0126 Y-23.3392
G01 X-0.0217 Y-23.3429
G01 X-0.0351 Y-23.3493
G01 X-0.0521 Y-23.3593
G01 X-0.0680 Y-23.3710
G01 X-0.0827 Y-23.3842
G01 X-0.0928 Y-23.3950
G01 X-0.1448 Y-23.4555
G01 X-0.1536 Y-23.4676
G01 X-0.1589 Y-23.4760
G01 X-0.1682 Y-23.4935
G01 X-0.1757 Y-23.5119
G01 X-0.1802 Y-23.5261
G01 X-0.1825 Y-23.5357
G01 X-0.1955 Y-23.5965
G01 X-0.1974 Y-23.6106
G01 X-0.1983 Y-23.6295
G01 X-0.1983 Y-33.4997
G01 X-0.1978 Y-33.5127
G01 X-0.1966 Y-33.5295
G01 X-0.1814 Y-33.6443
G01 X-0.1784 Y-33.6596
G01 X-0.1687 Y-33.6959
G01 X-0.1641 Y-33.7108
G01 X-0.1604 Y-33.7206
G01 X-0.1187 Y-33.8205
G01 X-0.1114 Y-33.8343
G01 X-0.0926 Y-33.8668
G01 X-0.0869 Y-33.8755
G01 X-0.0808 Y-33.8840
G01 X-0.0212 Y-33.9616
G01 X-0.0146 Y-33.9697
G01 X-0.0040 Y-33.9812
G01 X0.0226 Y-34.0077
G01 X0.0343 Y-34.0180
G01 X0.1202 Y-34.0839
G01 X0.1332 Y-34.0926
G01 X0.1657 Y-34.1114
G01 X0.1748 Y-34.1164
G01 X0.1842 Y-34.1208
G01 X0.2794 Y-34.1604
G01 X0.2892 Y-34.1641
G01 X0.3041 Y-34.1687
G01 X0.3404 Y-34.1784
G01 X0.3506 Y-34.1805
G01 X0.3608 Y-34.1822
G01 X0.4662 Y-34.1960
G01 X0.4873 Y-34.1978
G01 X0.5003 Y-34.1983
G01 X95.4997 Y-34.1983
G01 X95.5127 Y-34.1978
G01 X95.5295 Y-34.1966
G01 X95.6443 Y-34.1814
G01 X95.6546 Y-34.1795
G01 X95.6647 Y-34.1771
G01 X95.6959 Y-34.1687
G01 X95.7108 Y-34.1641
G01 X95.8110 Y-34.1229
G01 X95.8205 Y-34.1187
G01 X95.8343 Y-34.1114
G01 X95.8668 Y-34.0926
G01 X95.8798 Y-34.0839
G01 X95.9657 Y-34.0180
G01 X95.9774 Y-34.0077
G01 X96.0040 Y-33.9812
G01 X96.0112 Y-33.9736
G01 X96.0180 Y-33.9657
G01 X96.0839 Y-33.8798
G01 X96.0926 Y-33.8668
G01 X96.1114 Y-33.8343
G01 X96.1164 Y-33.8252
G01 X96.1229 Y-33.8110
G01 X96.1623 Y-33.7157
G01 X96.1658 Y-33.7059
G01 X96.1687 Y-33.6959
G01 X96.1784 Y-33.6596
G01 X96.1814 Y-33.6443
G01 X96.1966 Y-33.5295
G01 X96.1982 Y-33.5041
G01 X96.1983 Y-11.0003
G01 X96.1978 Y-10.9873
G01 X96.1966 Y-10.9705
G01 X96.1814 Y-10.8557
G01 X96.1795 Y-10.8455
G01 X96.1771 Y-10.8353
G01 X96.1687 Y-10.8041
G01 X96.1641 Y-10.7892
G01 X96.1229 Y-10.6890
G01 X96.1164 Y-10.6748
G01 X96.1114 Y-10.6657
G01 X96.0926 Y-10.6332
G01 X96.0839 Y-10.6202
G01 X96.0212 Y-10.5384
G01 X96.0146 Y-10.5303
G01 X96.0077 Y-10.5226
G01 X95.9812 Y-10.4960
G01 X95.9697 Y-10.4854
G01 X95.8840 Y-10.4192
G01 X95.8755 Y-10.4131
G01 X95.8623 Y-10.4048
G01 X95.8298 Y-10.3861
G01 X95.8158 Y-10.3792
G01 X95.7206 Y-10.3396
G01 X95.7108 Y-10.3359
G01 X95.7009 Y-10.3327
G01 X95.6647 Y-10.3229
G01 X95.6494 Y-10.3195
G01 X95.5300 Y-10.3035
G01 X95.5170 Y-10.3022
G01 X95.4959 Y-10.3012
G01 X88.0823 Y-10.3012
G01 X86.7899 Y-9.0088
G01 X86.7710 Y-8.9917
G01 X86.6768 Y-8.9192
G01 X86.6684 Y-8.9131
G01 X86.6552 Y-8.9048
G01 X86.6227 Y-8.8861
G01 X86.6087 Y-8.8792
G01 X86.5134 Y-8.8396
G01 X86.5037 Y-8.8359
G01 X86.4938 Y-8.8327
G01 X86.4576 Y-8.8229
G01 X86.4423 Y-8.8195
G01 X86.3229 Y-8.8035
G01 X86.3142 Y-8.8025
G01 X86.2975 Y-8.8014
G01 X78.1248 Y-8.8012
G01 X78.1059 Y-8.8021
G01 X78.0919 Y-8.8040
G01 X78.0734 Y-8.8080
G01 X78.0018 Y-8.8290
G01 X77.9878 Y-8.8337
G01 X77.9697 Y-8.8415
G01 X77.9566 Y-8.8486
G01 X77.9442 Y-8.8566
G01 X77.9324 Y-8.8655
G01 X77.9177 Y-8.8787
G01 X77.9076 Y-8.8895
G01 X77.8586 Y-8.9461
G01 X77.8469 Y-8.9619
G01 X77.8367 Y-8.9789
G01 X77.8323 Y-8.9877
G01 X77.8265 Y-9.0013
G01 X77.8203 Y-9.0200
G01 X77.8161 Y-9.0393
G01 X77.8054 Y-9.1134
G01 X77.8038 Y-9.1281
G01 X77.8034 Y-9.1478
G01 X77.8040 Y-9.1577
G01 X77.8057 Y-9.1724
G01 X77.8086 Y-9.1869
G01 X77.8110 Y-9.1965
G01 X77.8174 Y-9.2151
G01 X77.8503 Y-9.2878
G01 X77.8592 Y-9.3050
G01 X77.8669 Y-9.3172
G01 X77.8726 Y-9.3251
G01 X77.8818 Y-9.3364
G01 X77.8917 Y-9.3469
G01 X77.9025 Y-9.3567
G01 X77.9441 Y-9.3904
G01 X77.9564 Y-9.3991
G01 X77.9650 Y-9.4044
G01 X78.0568 Y-9.4549
G01 X77.9786 Y-9.5332
G01 X77.8414 Y-9.4686
G01 X77.6475 Y-9.3990
G01 X77.6289 Y-9.3933
G01 X77.4337 Y-9.3445
G01 X77.4193 Y-9.3418
G01 X77.2155 Y-9.3118
G01 X77.0000 Y-9.3012
G01 X76.7845 Y-9.3118
G01 X76.5807 Y-9.3418
G01 X76.5663 Y-9.3445
G01 X76.3711 Y-9.3933
G01 X76.3525 Y-9.3990
G01 X76.1586 Y-9.4686
G01 X76.0214 Y-9.5332
G01 X75.9432 Y-9.4549
G01 X76.0348 Y-9.4045
G01 X76.0468 Y-9.3970
G01 X76.0582 Y-9.3886
G01 X76.0725 Y-9.3761
G01 X76.1286 Y-9.3197
G01 X76.1383 Y-9.3086
G01 X76.1500 Y-9.2927
G01 X76.1552 Y-9.2843
G01 X76.1623 Y-9.2713
G01 X76.1684 Y-9.2578
G01 X76.1734 Y-9.2439
G01 X76.1785 Y-9.2248
G01 X76.1932 Y-9.1565
G01 X76.1963 Y-9.1370
G01 X76.1976 Y-9.1173
G01 X76.1968 Y-9.0976
G01 X76.1942 Y-9.0780
G01 X76.1909 Y-9.0636
G01 X76.1865 Y-9.0495
G01 X76.1603 Y-8.9794
G01 X76.1524 Y-8.9613
G01 X76.1428 Y-8.9441
G01 X76.1315 Y-8.9279
G01 X76.1187 Y-8.9129
G01 X76.1044 Y-8.8992
G01 X76.0929 Y-8.8899
G01 X76.0329 Y-8.8454
G01 X76.0166 Y-8.8350
G01 X75.9993 Y-8.8262
G01 X75.9859 Y-8.8208
G01 X75.9767 Y-8.8177
G01 X75.9579 Y-8.8129
G01 X75.9052 Y-8.8035
G01 X75.8902 Y-8.8018
G01 X75.8802 Y-8.8013
G01 X70.1248 Y-8.8012
G01 X70.1107 Y-8.8017
G01 X70.1012 Y-8.8026
G01 X70.0872 Y-8.8048
G01 X70.0734 Y-8.8080
G01 X70.0018 Y-8.8290
G01 X69.9878 Y-8.8337
G01 X69.9697 Y-8.8415
G01 X69.9566 Y-8.8486
G01 X69.9442 Y-8.8566
G01 X69.9324 Y-8.8655
G01 X69.9177 Y-8.8787
G01 X69.9076 Y-8.8895
G01 X69.8586 Y-8.9461
G01 X69.8469 Y-8.9619
G01 X69.8367 Y-8.9789
G01 X69.8323 Y-8.9877
G01 X69.8265 Y-9.0013
G01 X69.8203 Y-9.0200
G01 X69.8161 Y-9.0393
G01 X69.8054 Y-9.1134
G01 X69.8038 Y-9.1281
G01 X69.8034 Y-9.1478
G01 X69.8040 Y-9.1577
G01 X69.8057 Y-9.1724
G01 X69.8086 Y-9.1869
G01 X69.8110 Y-9.1965
G01 X69.8174 Y-9.2151
G01 X69.8503 Y-9.2878
G01 X69.8592 Y-9.3050
G01 X69.8669 Y-9.3172
G01 X69.8726 Y-9.3251
G01 X69.8818 Y-9.3364
G01 X69.8917 Y-9.3469
G01 X69.9025 Y-9.3567
G01 X69.9441 Y-9.3904
G01 X69.9564 Y-9.3991
G01 X69.9650 Y-9.4044
G01 X70.0568 Y-9.4549
G01 X69.9786 Y-9.5332
G01 X69.8414 Y-9.4686
G01 X69.6475 Y-9.3990
G01 X69.6289 Y-9.3933
G01 X69.4337 Y-9.3445
G01 X69.4193 Y-9.3418
G01 X69.2155 Y-9.3118
G01 X69.0000 Y-9.3012
G01 X68.7845 Y-9.3118
G01 X68.5807 Y-9.3418
G01 X68.5663 Y-9.3445
G01 X68.3711 Y-9.3933
G01 X68.3525 Y-9.3990
G01 X68.1586 Y-9.4686
G01 X68.0214 Y-9.5332
G01 X67.9432 Y-9.4549
G01 X68.0348 Y-9.4045
G01 X68.0468 Y-9.3970
G01 X68.0582 Y-9.3886
G01 X68.0725 Y-9.3761
G01 X68.1286 Y-9.3197
G01 X68.1383 Y-9.3086
G01 X68.1500 Y-9.2927
G01 X68.1552 Y-9.2843
G01 X68.1623 Y-9.2713
G01 X68.1684 Y-9.2578
G01 X68.1734 Y-9.2439
G01 X68.1785 Y-9.2248
G01 X68.1932 Y-9.1565
G01 X68.1963 Y-9.1370
G01 X68.1976 Y-9.1173
G01 X68.1968 Y-9.0976
G01 X68.1942 Y-9.0780
G01 X68.1909 Y-9.0636
G01 X68.1865 Y-9.0495
G01 X68.1603 Y-8.9794
G01 X68.1524 Y-8.9613
G01 X68.1428 Y-8.9441
G01 X68.1315 Y-8.9279
G01 X68.1187 Y-8.9129
G01 X68.1044 Y-8.8992
G01 X68.0929 Y-8.8899
G01 X68.0329 Y-8.8454
G01 X68.0166 Y-8.8350
G01 X67.9993 Y-8.8262
G01 X67.9859 Y-8.8208
G01 X67.9767 Y-8.8177
G01 X67.9579 Y-8.8129
G01 X67.9052 Y-8.8035
G01 X67.8902 Y-8.8018
G01 X67.8802 Y-8.8013
G01 X62.1248 Y-8.8012
G01 X62.1107 Y-8.8017
G01 X62.1012 Y-8.8026
G01 X62.0872 Y-8.8048
G01 X62.0734 Y-8.8080
G01 X62.0018 Y-8.8290
G01 X61.9878 Y-8.8337
G01 X61.9697 Y-8.8415
G01 X61.9566 Y-8.8486
G01 X61.9442 Y-8.8566
G01 X61.9324 Y-8.8655
G01 X61.9177 Y-8.8787
G01 X61.9076 Y-8.8895
G01 X61.8586 Y-8.9461
G01 X61.8469 Y-8.9619
G01 X61.8367 Y-8.9789
G01 X61.8283 Y-8.9967
G01 X61.8217 Y-9.0153
G01 X61.8191 Y-9.0248
G01 X61.8161 Y-9.0393
G01 X61.8054 Y-9.1134
G01 X61.8038 Y-9.1281
G01 X61.8034 Y-9.1379
G01 X61.8036 Y-9.1527
G01 X61.8057 Y-9.1724
G01 X61.8097 Y-9.1917
G01 X61.8140 Y-9.2059
G01 X61.8174 Y-9.2151
G01 X61.8503 Y-9.2878
G01 X61.8592 Y-9.3050
G01 X61.8669 Y-9.3172
G01 X61.8756 Y-9.3289
G01 X61.8850 Y-9.3400
G01 X61.8917 Y-9.3469
G01 X61.9025 Y-9.3567
G01 X61.9441 Y-9.3904
G01 X61.9564 Y-9.3991
G01 X61.9650 Y-9.4044
G01 X62.0568 Y-9.4549
G01 X61.9786 Y-9.5332
G01 X61.8414 Y-9.4686
G01 X61.6475 Y-9.3990
G01 X61.6289 Y-9.3933
G01 X61.4337 Y-9.3445
G01 X61.4193 Y-9.3418
G01 X61.2155 Y-9.3118
G01 X61.0000 Y-9.3012
G01 X60.7845 Y-9.3118
G01 X60.5807 Y-9.3418
G01 X60.5663 Y-9.3445
G01 X60.3711 Y-9.3933
G01 X60.3525 Y-9.3990
G01 X60.1586 Y-9.4686
G01 X60.0214 Y-9.5332
G01 X59.9432 Y-9.4549
G01 X60.0348 Y-9.4045
G01 X60.0468 Y-9.3970
G01 X60.0582 Y-9.3886
G01 X60.0725 Y-9.3761
G01 X60.1286 Y-9.3197
G01 X60.1383 Y-9.3086
G01 X60.1500 Y-9.2927
G01 X60.1577 Y-9.2800
G01 X60.1644 Y-9.2669
G01 X60.1684 Y-9.2578
G01 X60.1734 Y-9.2439
G01 X60.1785 Y-9.2248
G01 X60.1932 Y-9.1565
G01 X60.1963 Y-9.1370
G01 X60.1976 Y-9.1173
G01 X60.1968 Y-9.0976
G01 X60.1942 Y-9.0780
G01 X60.1909 Y-9.0636
G01 X60.1865 Y-9.0495
G01 X60.1603 Y-8.9794
G01 X60.1524 Y-8.9613
G01 X60.1428 Y-8.9441
G01 X60.1315 Y-8.9279
G01 X60.1187 Y-8.9129
G01 X60.1044 Y-8.8992
G01 X60.0929 Y-8.8899
G01 X60.0329 Y-8.8454
G01 X60.0166 Y-8.8350
G01 X59.9993 Y-8.8262
G01 X59.9859 Y-8.8208
G01 X59.9767 Y-8.8177
G01 X59.9579 Y-8.8129
G01 X59.9052 Y-8.8035
G01 X59.8952 Y-8.8022
G01 X59.8802 Y-8.8013
G01 X42.4997 Y-8.8013
G01 X42.4830 Y-8.8022
G01 X42.4700 Y-8.8035
G01 X42.3608 Y-8.8178
G01 X42.3506 Y-8.8195
G01 X42.3404 Y-8.8216
G01 X42.3041 Y-8.8313
G01 X42.2892 Y-8.8359
G01 X42.2794 Y-8.8396
G01 X42.1842 Y-8.8792
G01 X42.1702 Y-8.8861
G01 X42.1377 Y-8.9048
G01 X42.1288 Y-8.9102
G01 X42.1160 Y-8.9192
G01 X42.0303 Y-8.9854
G01 X42.0188 Y-8.9960
G01 X41.9960 Y-9.0188
G01 X41.9854 Y-9.0303
G01 X41.9192 Y-9.1160
G01 X41.9131 Y-9.1245
G01 X41.9048 Y-9.1377
G01 X41.8861 Y-9.1702
G01 X41.8792 Y-9.1842
G01 X41.8377 Y-9.2843
G01 X41.8342 Y-9.2941
G01 X41.8313 Y-9.3041
G01 X41.8229 Y-9.3353
G01 X41.8195 Y-9.3506
G01 X41.8035 Y-9.4700
G01 X41.8014 Y-9.4954
G01 X41.8012 Y-14.4959
G01 X41.8017 Y-14.5089
G01 X41.8035 Y-14.5300
G01 X41.8195 Y-14.6494
G01 X41.8229 Y-14.6647
G01 X41.8313 Y-14.6959
G01 X41.8342 Y-14.7059
G01 X41.8377 Y-14.7157
G01 X41.8771 Y-14.8110
G01 X41.8813 Y-14.8205
G01 X41.8886 Y-14.8343
G01 X41.9074 Y-14.8668
G01 X41.9161 Y-14.8798
G01 X41.9820 Y-14.9657
G01 X41.9923 Y-14.9774
G01 X42.0188 Y-15.0040
G01 X42.0264 Y-15.0112
G01 X42.0343 Y-15.0180
G01 X42.1202 Y-15.0839
G01 X42.1332 Y-15.0926
G01 X42.1657 Y-15.1114
G01 X42.1748 Y-15.1164
G01 X42.1890 Y-15.1229
G01 X42.2892 Y-15.1641
G01 X42.3041 Y-15.1687
G01 X42.3353 Y-15.1771
G01 X42.3454 Y-15.1795
G01 X42.3557 Y-15.1814
G01 X42.4743 Y-15.1971
G01 X42.4911 Y-15.1983
G01 X42.5041 Y-15.1988
G01 X54.2120 Y-15.1987
G01 X54.2314 Y-15.1973
G01 X54.2459 Y-15.1950
G01 X54.2648 Y-15.1902
G01 X54.2786 Y-15.1855
G01 X54.2965 Y-15.1775
G01 X54.3093 Y-15.1705
G01 X54.3216 Y-15.1625
G01 X54.3332 Y-15.1537
G01 X54.3477 Y-15.1406
G01 X54.6525 Y-14.8357
G01 X54.9573 Y-15.1406
G01 X54.9718 Y-15.1537
G01 X54.9834 Y-15.1625
G01 X54.9999 Y-15.1729
G01 X55.0173 Y-15.1817
G01 X55.0309 Y-15.1872
G01 X55.0496 Y-15.1928
G01 X55.0639 Y-15.1958
G01 X55.0784 Y-15.1978
G01 X55.0930 Y-15.1987
G01 X81.8994 Y-15.1985
G01 X81.9183 Y-15.1967
G01 X81.9322 Y-15.1942
G01 X81.9414 Y-15.1920
G01 X82.0130 Y-15.1710
G01 X82.0317 Y-15.1645
G01 X82.0496 Y-15.1562
G01 X82.0665 Y-15.1462
G01 X82.0825 Y-15.1345
G01 X82.0900 Y-15.1281
G01 X82.1006 Y-15.1178
G01 X82.1593 Y-15.0501
G01 X82.1680 Y-15.0381
G01 X82.1732 Y-15.0297
G01 X82.1781 Y-15.0211
G01 X82.1846 Y-15.0078
G01 X82.1917 Y-14.9894
G01 X82.1945 Y-14.9800
G01 X82.1979 Y-14.9655
G01 X82.2095 Y-14.8866
G01 X82.2113 Y-14.8670
G01 X82.2114 Y-14.8522
G01 X82.2098 Y-14.8325
G01 X82.2073 Y-14.8179
G01 X82.2024 Y-14.7988
G01 X82.1992 Y-14.7895
G01 X82.1935 Y-14.7758
G01 X82.1645 Y-14.7122
G01 X82.1579 Y-14.6991
G01 X82.1529 Y-14.6906
G01 X82.1448 Y-14.6783
G01 X82.1357 Y-14.6667
G01 X82.1292 Y-14.6593
G01 X82.1182 Y-14.6478
G01 X82.0147 Y-14.5442
G01 X81.9470 Y-14.4345
G01 X81.9060 Y-14.3108
G01 X81.8988 Y-14.2399
G01 X81.8988 Y-13.1995
G01 X82.0012 Y-13.1995
G01 X82.0012 Y-14.2000
G01 X82.0034 Y-14.2440
G01 X82.0099 Y-14.2875
G01 X82.0206 Y-14.3303
G01 X82.0336 Y-14.3672
G01 X82.0393 Y-14.3807
G01 X82.0542 Y-14.4115
G01 X82.0716 Y-14.4411
G01 X82.0796 Y-14.4533
G01 X82.1031 Y-14.4847
G01 X82.1293 Y-14.5138
G01 X82.1397 Y-14.5241
G01 X82.1653 Y-14.5469
G01 X82.1927 Y-14.5675
G01 X82.2048 Y-14.5758
G01 X82.2385 Y-14.5958
G01 X82.2693 Y-14.6107
G01 X82.2828 Y-14.6164
G01 X82.3197 Y-14.6294
G01 X82.3625 Y-14.6401
G01 X82.4060 Y-14.6466
G01 X82.4500 Y-14.6488
G01 X85.8500 Y-14.6488
G01 X85.8940 Y-14.6466
G01 X85.9328 Y-14.6410
G01 X85.9471 Y-14.6380
G01 X85.9803 Y-14.6294
G01 X86.0217 Y-14.6146
G01 X86.0615 Y-14.5958
G01 X86.0911 Y-14.5784
G01 X86.1073 Y-14.5675
G01 X86.1309 Y-14.5500
G01 X86.1384 Y-14.5438
G01 X86.1603 Y-14.5241
G01 X86.1707 Y-14.5138
G01 X86.1938 Y-14.4884
G01 X86.2029 Y-14.4770
G01 X86.2204 Y-14.4533
G01 X86.2284 Y-14.4411
G01 X86.2458 Y-14.4115
G01 X86.2607 Y-14.3807
G01 X86.2664 Y-14.3672
G01 X86.2794 Y-14.3303
G01 X86.2901 Y-14.2875
G01 X86.2966 Y-14.2440
G01 X86.2985 Y-14.2098
G01 X86.2988 Y-14.1995
G01 X86.4012 Y-14.1995
G01 X86.4012 Y-14.2399
G01 X86.3940 Y-14.3108
G01 X86.3530 Y-14.4345
G01 X86.2853 Y-14.5442
G01 X86.1785 Y-14.6512
G01 X86.1661 Y-14.6654
G01 X86.1577 Y-14.6769
G01 X86.1479 Y-14.6931
G01 X86.1099 Y-14.7632
G01 X86.1039 Y-14.7767
G01 X86.1006 Y-14.7860
G01 X86.0963 Y-14.8002
G01 X86.0941 Y-14.8098
G01 X86.0924 Y-14.8195
G01 X86.0907 Y-14.8342
G01 X86.0901 Y-14.8540
G01 X86.0956 Y-14.9335
G01 X86.0972 Y-14.9482
G01 X86.0999 Y-14.9628
G01 X86.1037 Y-14.9771
G01 X86.1085 Y-14.9911
G01 X86.1143 Y-15.0047
G01 X86.1188 Y-15.0135
G01 X86.1290 Y-15.0304
G01 X86.1766 Y-15.0944
G01 X86.1859 Y-15.1059
G01 X86.1960 Y-15.1167
G01 X86.2070 Y-15.1267
G01 X86.2186 Y-15.1359
G01 X86.2351 Y-15.1467
G01 X86.2437 Y-15.1515
G01 X86.2571 Y-15.1578
G01 X86.3363 Y-15.1876
G01 X86.3504 Y-15.1919
G01 X86.3648 Y-15.1951
G01 X86.3794 Y-15.1973
G01 X86.3941 Y-15.1983
G01 X86.4100 Y-15.1988
G01 X87.9177 Y-15.1988
G01 X88.5188 Y-15.7999
G01 X88.5256 Y-15.8064
G01 X88.5365 Y-15.8156
G01 X88.5479 Y-15.8240
G01 X88.5600 Y-15.8315
G01 X88.6254 Y-15.8673
G01 X88.6432 Y-15.8759
G01 X88.6617 Y-15.8827
G01 X88.6712 Y-15.8854
G01 X88.6857 Y-15.8885
G01 X88.6954 Y-15.8900
G01 X88.7102 Y-15.8913
G01 X88.7299 Y-15.8914
G01 X88.7762 Y-15.8881
G01 X88.7763 Y-15.9799
G01 X88.7777 Y-15.9993
G01 X88.7811 Y-16.0185
G01 X88.7863 Y-16.0373
G01 X88.7933 Y-16.0555
G01 X88.8000 Y-16.0692
G01 X88.7769 Y-16.1007
G01 X88.7566 Y-16.1342
G01 X88.7520 Y-16.1428
G01 X88.7393 Y-16.1693
G01 X88.7319 Y-16.1874
G01 X88.7206 Y-16.2197
G01 X88.7099 Y-16.2624
G01 X88.7034 Y-16.3060
G01 X88.7015 Y-16.3402
G01 X88.7012 Y-17.6500
G01 X88.7034 Y-17.6940
G01 X88.7082 Y-17.7279
G01 X88.7120 Y-17.7471
G01 X88.7192 Y-17.7756
G01 X88.7236 Y-17.7895
G01 X88.7354 Y-17.8217
G01 X88.7542 Y-17.8615
G01 X88.7769 Y-17.8993
G01 X88.8012 Y-17.9324
G01 X88.8012 Y-18.5783
G01 X88.8017 Y-18.5925
G01 X88.8040 Y-18.6113
G01 X88.8068 Y-18.6252
G01 X88.8093 Y-18.6343
G01 X88.8320 Y-18.7108
G01 X88.8374 Y-18.7245
G01 X88.8415 Y-18.7335
G01 X88.8486 Y-18.7465
G01 X88.8538 Y-18.7549
G01 X88.8595 Y-18.7630
G01 X88.8687 Y-18.7746
G01 X88.8787 Y-18.7855
G01 X88.8858 Y-18.7923
G01 X88.9460 Y-18.8444
G01 X88.9574 Y-18.8531
G01 X88.9735 Y-18.8635
G01 X88.9861 Y-18.8701
G01 X88.9949 Y-18.8741
G01 X89.0083 Y-18.8792
G01 X89.0220 Y-18.8834
G01 X89.0407 Y-18.8873
G01 X89.1150 Y-18.8991
G01 X89.1295 Y-18.9002
G01 X89.1392 Y-18.9004
G01 X89.1489 Y-18.9000
G01 X89.1628 Y-18.8988
G01 X89.3012 Y-18.8988
G01 X89.3012 Y-19.0012
G01 X89.2000 Y-19.0012
G01 X89.1902 Y-19.0015
G01 X89.1757 Y-19.0027
G01 X89.1564 Y-19.0061
G01 X89.1376 Y-19.0113
G01 X89.1195 Y-19.0183
G01 X89.1020 Y-19.0271
G01 X89.0937 Y-19.0321
G01 X89.0816 Y-19.0403
G01 X89.0665 Y-19.0527
G01 X89.0594 Y-19.0594
G01 X89.0495 Y-19.0702
G01 X89.0375 Y-19.0855
G01 X89.0271 Y-19.1020
G01 X89.0203 Y-19.1150
G01 X89.0164 Y-19.1239
G01 X89.0113 Y-19.1376
G01 X89.0084 Y-19.1470
G01 X89.0050 Y-19.1612
G01 X89.0034 Y-19.1708
G01 X89.0018 Y-19.1854
G01 X89.0012 Y-19.2000
G01 X89.0012 Y-20.8000
G01 X89.0022 Y-20.8195
G01 X89.0034 Y-20.8292
G01 X89.0061 Y-20.8436
G01 X89.0113 Y-20.8624
G01 X89.0145 Y-20.8715
G01 X89.0203 Y-20.8850
G01 X89.0247 Y-20.8937
G01 X89.0321 Y-20.9063
G01 X89.0375 Y-20.9145
G01 X89.0463 Y-20.9261
G01 X89.0527 Y-20.9335
G01 X89.0629 Y-20.9440
G01 X89.0777 Y-20.9567
G01 X89.0855 Y-20.9625
G01 X89.0978 Y-20.9705
G01 X89.1150 Y-20.9797
G01 X89.1330 Y-20.9872
G01 X89.1517 Y-20.9928
G01 X89.1708 Y-20.9966
G01 X89.1854 Y-20.9982
G01 X89.1951 Y-20.9987
G01 X89.3012 Y-20.9988
G01 X89.3012 Y-21.1012
G01 X89.1628 Y-21.1012
G01 X89.1387 Y-21.0986
G01 X89.0542 Y-21.0671
G01 X89.0441 Y-21.0597
G01 X89.0323 Y-21.0519
G01 X89.0241 Y-21.0471
G01 X89.0114 Y-21.0408
G01 X88.9983 Y-21.0353
G01 X88.9328 Y-21.0109
G01 X88.9188 Y-21.0063
G01 X88.9044 Y-21.0027
G01 X88.8898 Y-21.0002
G01 X88.8702 Y-20.9985
G01 X88.8554 Y-20.9986
G01 X88.8455 Y-20.9992
G01 X88.8260 Y-21.0019
G01 X88.7480 Y-21.0189
G01 X88.7383 Y-21.0215
G01 X88.7288 Y-21.0246
G01 X88.7194 Y-21.0282
G01 X88.7103 Y-21.0323
G01 X88.7013 Y-21.0368
G01 X88.6926 Y-21.0417
G01 X88.6800 Y-21.0499
G01 X88.6440 Y-21.0769
G01 X88.6367 Y-21.0829
G01 X88.6263 Y-21.0926
G01 X85.9177 Y-23.8012
G01 X69.6295 Y-23.8012
G01 X69.6153 Y-23.8017
G01 X69.6059 Y-23.8026
G01 X69.5965 Y-23.8040
G01 X69.5826 Y-23.8068
G01 X69.4971 Y-23.8320
G01 X69.4788 Y-23.8394
G01 X69.4613 Y-23.8486
G01 X69.4448 Y-23.8595
G01 X69.4295 Y-23.8719
G01 X69.4155 Y-23.8858
G01 X69.3665 Y-23.9423
G01 X69.3602 Y-23.9500
G01 X69.3514 Y-23.9621
G01 X69.3436 Y-23.9747
G01 X69.3368 Y-23.9880
G01 X69.3310 Y-24.0017
G01 X69.3262 Y-24.0158
G01 X69.3225 Y-24.0302
G01 X69.3103 Y-24.0864
G01 X69.3081 Y-24.1004
G01 X69.3070 Y-24.1145
G01 X69.3067 Y-28.9569
G01 X69.3059 Y-28.9733
G01 X69.3027 Y-29.0025
G01 X69.2980 Y-29.0313
G01 X69.2596 Y-29.1345
G01 X69.2397 Y-29.1708
G01 X69.1705 Y-29.2633
G01 X68.7372 Y-29.6966
G01 X68.6560 Y-29.7594
G01 X68.6241 Y-29.7782
G01 X68.5428 Y-29.8130
G01 X68.4411 Y-29.8268
G01 X68.3996 Y-29.8264
G01 X68.2997 Y-29.8113
G01 X68.2081 Y-29.7686
G01 X68.1734 Y-29.7459
G01 X68.1576 Y-29.7323
G01 X68.1462 Y-29.7238
G01 X68.1342 Y-29.7162
G01 X68.1260 Y-29.7116
G01 X68.0497 Y-29.6758
G01 X68.0359 Y-29.6704
G01 X68.0218 Y-29.6660
G01 X68.0073 Y-29.6627
G01 X67.9878 Y-29.6600
G01 X67.9730 Y-29.6593
G01 X67.9582 Y-29.6596
G01 X67.9434 Y-29.6610
G01 X67.8695 Y-29.6711
G01 X67.8556 Y-29.6739
G01 X67.8465 Y-29.6762
G01 X67.8330 Y-29.6806
G01 X67.8155 Y-29.6879
G01 X67.8029 Y-29.6945
G01 X67.7783 Y-29.7085
G01 X67.7664 Y-29.7162
G01 X67.6864 Y-29.7722
G01 X67.5177 Y-29.8509
G01 X67.3347 Y-29.8999
G01 X67.3216 Y-29.9025
G01 X67.3080 Y-29.9063
G01 X67.2946 Y-29.9109
G01 X67.2249 Y-29.9383
G01 X67.2159 Y-29.9423
G01 X67.2027 Y-29.9493
G01 X67.1901 Y-29.9571
G01 X67.1781 Y-29.9660
G01 X67.1525 Y-29.9884
G01 X66.9550 Y-30.1859
G01 X66.9428 Y-30.1969
G01 X66.9199 Y-30.2153
G01 X66.8962 Y-30.2324
G01 X66.7961 Y-30.2781
G01 X66.7563 Y-30.2898
G01 X66.6820 Y-30.3005
G01 X58.9863 Y-30.3005
G01 X58.9682 Y-30.2975
G01 X58.8650 Y-30.2591
G01 X58.8287 Y-30.2392
G01 X58.7362 Y-30.1700
G01 X57.8136 Y-29.2474
G01 X57.8026 Y-29.2352
G01 X57.7842 Y-29.2123
G01 X57.7671 Y-29.1886
G01 X57.7214 Y-29.0885
G01 X57.7097 Y-29.0487
G01 X57.6933 Y-28.9344
G01 X57.6930 Y-24.1145
G01 X57.6912 Y-24.0957
G01 X57.6877 Y-24.0771
G01 X57.6641 Y-23.9962
G01 X57.6590 Y-23.9823
G01 X57.6530 Y-23.9688
G01 X57.6459 Y-23.9558
G01 X57.6350 Y-23.9393
G01 X57.6226 Y-23.9240
G01 X57.6087 Y-23.9100
G01 X57.5522 Y-23.8610
G01 X57.5406 Y-23.8517
G01 X57.5240 Y-23.8406
G01 X57.5110 Y-23.8335
G01 X57.4928 Y-23.8255
G01 X57.4739 Y-23.8193
G01 X57.4035 Y-23.8040
G01 X57.3847 Y-23.8017
G01 X57.3705 Y-23.8012
G01 X41.6295 Y-23.8012
G01 X41.6200 Y-23.8015
G01 X41.6059 Y-23.8026
G01 X41.5919 Y-23.8048
G01 X41.5826 Y-23.8068
G01 X41.5065 Y-23.8290
G01 X41.4924 Y-23.8337
G01 X41.4743 Y-23.8415
G01 X41.4571 Y-23.8511
G01 X41.4409 Y-23.8624
G01 X41.4259 Y-23.8753
G01 X41.4122 Y-23.8895
G01 X41.3633 Y-23.9461
G01 X41.3514 Y-23.9621
G01 X41.3461 Y-23.9705
G01 X41.3390 Y-23.9835
G01 X41.3347 Y-23.9925
G01 X41.3293 Y-24.0064
G01 X41.3236 Y-24.0254
G01 X41.3103 Y-24.0864
G01 X41.3088 Y-24.0957
G01 X41.3072 Y-24.1098
G01 X41.3067 Y-24.1240
G01 X41.3067 Y-28.9568
G01 X41.3059 Y-28.9733
G01 X41.3027 Y-29.0025
G01 X41.2980 Y-29.0313
G01 X41.2596 Y-29.1345
G01 X41.2397 Y-29.1708
G01 X41.1705 Y-29.2633
G01 X40.7372 Y-29.6966
G01 X40.6560 Y-29.7594
G01 X40.6241 Y-29.7782
G01 X40.5428 Y-29.8130
G01 X40.4411 Y-29.8268
G01 X40.3996 Y-29.8264
G01 X40.2997 Y-29.8113
G01 X40.2081 Y-29.7686
G01 X40.1734 Y-29.7459
G01 X40.1576 Y-29.7323
G01 X40.1462 Y-29.7238
G01 X40.1342 Y-29.7162
G01 X40.1260 Y-29.7116
G01 X40.0497 Y-29.6758
G01 X40.0359 Y-29.6704
G01 X40.0218 Y-29.6660
G01 X40.0073 Y-29.6627
G01 X39.9927 Y-29.6605
G01 X39.9779 Y-29.6594
G01 X39.9582 Y-29.6596
G01 X39.9434 Y-29.6610
G01 X39.8695 Y-29.6711
G01 X39.8602 Y-29.6728
G01 X39.8465 Y-29.6762
G01 X39.8330 Y-29.6806
G01 X39.8155 Y-29.6879
G01 X39.8029 Y-29.6945
G01 X39.7783 Y-29.7085
G01 X39.7664 Y-29.7162
G01 X39.6864 Y-29.7722
G01 X39.5177 Y-29.8509
G01 X39.3347 Y-29.8999
G01 X39.3216 Y-29.9025
G01 X39.3080 Y-29.9063
G01 X39.2946 Y-29.9109
G01 X39.2295 Y-29.9364
G01 X39.2159 Y-29.9423
G01 X39.2070 Y-29.9468
G01 X39.1942 Y-29.9544
G01 X39.1821 Y-29.9629
G01 X39.1743 Y-29.9691
G01 X39.1556 Y-29.9855
G01 X38.9550 Y-30.1859
G01 X38.9428 Y-30.1969
G01 X38.9199 Y-30.2153
G01 X38.8962 Y-30.2324
G01 X38.7961 Y-30.2781
G01 X38.7563 Y-30.2898
G01 X38.6820 Y-30.3005
G01 X30.9863 Y-30.3005
G01 X30.9682 Y-30.2975
G01 X30.8650 Y-30.2591
G01 X30.8287 Y-30.2392
G01 X30.7362 Y-30.1700
G01 X29.8136 Y-29.2474
G01 X29.8026 Y-29.2352
G01 X29.7842 Y-29.2123
G01 X29.7671 Y-29.1886
G01 X29.7214 Y-29.0885
G01 X29.7097 Y-29.0487
G01 X29.6933 Y-28.9344
G01 X29.6933 Y-24.1347
G01 X29.7025 Y-24.0484
G01 X29.7092 Y-24.0177
G01 X29.7321 Y-23.9490
G01 X29.7888 Y-23.8606
G01 X29.7958 Y-23.8482
G01 X29.7999 Y-23.8397
G01 X29.8053 Y-23.8266
G01 X29.8098 Y-23.8132
G01 X29.8308 Y-23.7414
G01 X29.8350 Y-23.7221
G01 X29.8372 Y-23.7025
G01 X29.8374 Y-23.6827
G01 X29.8363 Y-23.6680
G01 X29.8331 Y-23.6485
G01 X29.8295 Y-23.6341
G01 X29.8068 Y-23.5578
G01 X29.7995 Y-23.5397
G01 X29.7905 Y-23.5224
G01 X29.7826 Y-23.5101
G01 X29.7769 Y-23.5022
G01 X29.7538 Y-23.4736
G01 X29.7430 Y-23.4619
G01 X28.2242 Y-21.9431
G01 X28.2173 Y-21.9365
G01 X28.2065 Y-21.9274
G01 X28.1950 Y-21.9190
G01 X28.1789 Y-21.9092
G01 X28.1132 Y-21.8734
G01 X28.0952 Y-21.8652
G01 X28.0765 Y-21.8589
G01 X28.0573 Y-21.8545
G01 X28.0475 Y-21.8530
G01 X28.0328 Y-21.8516
G01 X28.0130 Y-21.8516
G01 X27.9384 Y-21.8569
G01 X27.9237 Y-21.8585
G01 X27.9043 Y-21.8623
G01 X27.8948 Y-21.8649
G01 X27.8808 Y-21.8698
G01 X27.8628 Y-21.8778
G01 X27.8541 Y-21.8825
G01 X27.8415 Y-21.8903
G01 X27.7776 Y-21.9379
G01 X27.7697 Y-21.9440
G01 X27.7618 Y-21.9510
G01 X27.6121 Y-21.8014
G01 X27.6094 Y-21.7456
G01 X27.6081 Y-21.7310
G01 X27.5965 Y-21.6522
G01 X27.5938 Y-21.6378
G01 X27.5719 Y-21.5511
G01 X27.5436 Y-21.4714
G01 X27.5382 Y-21.4578
G01 X27.4998 Y-21.3771
G01 X27.4514 Y-21.2962
G01 X27.3952 Y-21.2205
G01 X27.3319 Y-21.1506
G01 X27.2620 Y-21.0873
G01 X27.1863 Y-21.0311
G01 X27.1054 Y-20.9827
G01 X27.0247 Y-20.9443
G01 X27.0111 Y-20.9389
G01 X26.9314 Y-20.9106
G01 X26.8447 Y-20.8887
G01 X26.8303 Y-20.8860
G01 X26.7515 Y-20.8744
G01 X26.7369 Y-20.8731
G01 X26.6811 Y-20.8704
G01 X26.5319 Y-20.7212
G01 X26.5450 Y-20.7091
G01 X26.5549 Y-20.6981
G01 X26.5640 Y-20.6864
G01 X26.5722 Y-20.6741
G01 X26.5817 Y-20.6568
G01 X26.6123 Y-20.5940
G01 X26.6200 Y-20.5758
G01 X26.6259 Y-20.5570
G01 X26.6281 Y-20.5474
G01 X26.6306 Y-20.5328
G01 X26.6322 Y-20.5131
G01 X26.6321 Y-20.4983
G01 X26.6314 Y-20.4884
G01 X26.6219 Y-20.4092
G01 X26.6181 Y-20.3897
G01 X26.6123 Y-20.3706
G01 X26.6087 Y-20.3613
G01 X26.6024 Y-20.3478
G01 X26.5925 Y-20.3305
G01 X26.5608 Y-20.2836
G01 X26.5522 Y-20.2723
G01 X26.5427 Y-20.2617
G01 X23.2836 Y-17.0028
G01 X23.2642 Y-16.9863
G01 X23.1684 Y-16.9131
G01 X23.1552 Y-16.9048
G01 X23.1272 Y-16.8886
G01 X23.1180 Y-16.8836
G01 X23.1087 Y-16.8792
G01 X23.0086 Y-16.8377
G01 X22.9938 Y-16.8327
G01 X22.9576 Y-16.8229
G01 X22.9474 Y-16.8205
G01 X22.9321 Y-16.8178
G01 X22.8229 Y-16.8035
G01 X22.8099 Y-16.8022
G01 X22.7888 Y-16.8012
G01 X13.6295 Y-16.8012
G01 X13.6153 Y-16.8017
G01 X13.6012 Y-16.8033
G01 X13.5919 Y-16.8048
G01 X13.5781 Y-16.8080
G01 X13.5017 Y-16.8304
G01 X13.4878 Y-16.8355
G01 X13.4699 Y-16.8438
G01 X13.4571 Y-16.8511
G01 X13.4409 Y-16.8624
G01 X13.4295 Y-16.8719
G01 X13.4189 Y-16.8822
G01 X13.3633 Y-16.9461
G01 X13.3542 Y-16.9580
G01 X13.3461 Y-16.9705
G01 X13.3390 Y-16.9835
G01 X13.3347 Y-16.9925
G01 X13.3293 Y-17.0064
G01 X13.3248 Y-17.0206
G01 X13.3103 Y-17.0864
G01 X13.3081 Y-17.1004
G01 X13.3070 Y-17.1145
G01 X13.3067 Y-21.9569
G01 X13.3059 Y-21.9733
G01 X13.3027 Y-22.0025
G01 X13.2980 Y-22.0313
G01 X13.2596 Y-22.1345
G01 X13.2397 Y-22.1708
G01 X13.1705 Y-22.2633
G01 X12.7219 Y-22.7118
G01 X12.6407 Y-22.7747
G01 X12.6088 Y-22.7935
G01 X12.5275 Y-22.8283
G01 X12.4258 Y-22.8421
G01 X12.3843 Y-22.8417
G01 X12.2844 Y-22.8266
G01 X12.1928 Y-22.7838
G01 X12.1581 Y-22.7612
G01 X12.1356 Y-22.7413
G01 X12.1246 Y-22.7324
G01 X12.1130 Y-22.7242
G01 X12.1009 Y-22.7168
G01 X12.0882 Y-22.7104
G01 X12.0204 Y-22.6788
G01 X12.0066 Y-22.6734
G01 X11.9972 Y-22.6704
G01 X11.9781 Y-22.6657
G01 X11.9634 Y-22.6635
G01 X11.9487 Y-22.6624
G01 X11.9339 Y-22.6624
G01 X11.9142 Y-22.6640
G01 X11.8450 Y-22.6734
G01 X11.8310 Y-22.6758
G01 X11.8218 Y-22.6780
G01 X11.8082 Y-22.6820
G01 X11.7906 Y-22.6889
G01 X11.7778 Y-22.6952
G01 X11.7532 Y-22.7091
G01 X11.7372 Y-22.7192
G01 X11.6864 Y-22.7547
G01 X11.5177 Y-22.8334
G01 X11.3347 Y-22.8824
G01 X11.3216 Y-22.8850
G01 X11.3080 Y-22.8887
G01 X11.2946 Y-22.8934
G01 X11.2249 Y-22.9208
G01 X11.2159 Y-22.9248
G01 X11.2027 Y-22.9317
G01 X11.1901 Y-22.9396
G01 X11.1781 Y-22.9485
G01 X11.1525 Y-22.9709
G01 X10.9140 Y-23.2094
G01 X10.8576 Y-23.2548
G01 X10.7754 Y-23.2923
G00 Z2.0000
G00 X10.8103 Y-23.4109
G01 F60.00
G01 Z-0.1500
G01 F240.00
G01 X10.6841 Y-23.4291
G01 X0.1245 Y-23.4291
G01 X0.1136 Y-23.4298
G01 X0.1047 Y-23.4317
G01 X0.0323 Y-23.4530
G01 X0.0253 Y-23.4558
G01 X0.0169 Y-23.4604
G01 X0.0107 Y-23.4647
G01 X0.0036 Y-23.4710
G01 X-0.0473 Y-23.5294
G01 X-0.0519 Y-23.5355
G01 X-0.0567 Y-23.5438
G01 X-0.0604 Y-23.5526
G01 X-0.0630 Y-23.5617
G01 X-0.0746 Y-23.6150
G01 X-0.0756 Y-23.6222
G01 X-0.0759 Y-23.6295
G01 X-0.0759 Y-33.4997
G01 X-0.0748 Y-33.5178
G01 X-0.0606 Y-33.6252
G01 X-0.0589 Y-33.6330
G01 X-0.0506 Y-33.6643
G01 X-0.0473 Y-33.6737
G01 X-0.0091 Y-33.7660
G01 X-0.0055 Y-33.7731
G01 X0.0107 Y-33.8012
G01 X0.0163 Y-33.8095
G01 X0.0759 Y-33.8871
G01 X0.0825 Y-33.8947
G01 X0.1053 Y-33.9175
G01 X0.1113 Y-33.9229
G01 X0.1905 Y-33.9837
G01 X0.1988 Y-33.9893
G01 X0.2269 Y-34.0055
G01 X0.2340 Y-34.0091
G01 X0.3281 Y-34.0481
G01 X0.3357 Y-34.0506
G01 X0.3689 Y-34.0594
G01 X0.3768 Y-34.0609
G01 X0.4822 Y-34.0748
G01 X0.5003 Y-34.0759
G01 X95.4997 Y-34.0759
G01 X95.5178 Y-34.0748
G01 X95.6252 Y-34.0606
G01 X95.6330 Y-34.0589
G01 X95.6643 Y-34.0506
G01 X95.6719 Y-34.0481
G01 X95.7642 Y-34.0099
G01 X95.7731 Y-34.0055
G01 X95.8012 Y-33.9893
G01 X95.8079 Y-33.9849
G01 X95.8871 Y-33.9241
G01 X95.8947 Y-33.9175
G01 X95.9176 Y-33.8947
G01 X95.9229 Y-33.8887
G01 X95.9849 Y-33.8079
G01 X95.9893 Y-33.8012
G01 X96.0055 Y-33.7731
G01 X96.0099 Y-33.7642
G01 X96.0481 Y-33.6719
G01 X96.0506 Y-33.6643
G01 X96.0589 Y-33.6330
G01 X96.0606 Y-33.6252
G01 X96.0748 Y-33.5178
G01 X96.0759 Y-33.5014
G01 X96.0759 Y-11.0003
G01 X96.0748 Y-10.9822
G01 X96.0606 Y-10.8748
G01 X96.0589 Y-10.8670
G01 X96.0506 Y-10.8357
G01 X96.0473 Y-10.8263
G01 X96.0091 Y-10.7340
G01 X96.0055 Y-10.7269
G01 X95.9893 Y-10.6988
G01 X95.9837 Y-10.6905
G01 X95.9229 Y-10.6113
G01 X95.9175 Y-10.6053
G01 X95.8947 Y-10.5825
G01 X95.8887 Y-10.5771
G01 X95.8079 Y-10.5151
G01 X95.8012 Y-10.5107
G01 X95.7731 Y-10.4945
G01 X95.7642 Y-10.4901
G01 X95.6719 Y-10.4519
G01 X95.6643 Y-10.4494
G01 X95.6330 Y-10.4411
G01 X95.6252 Y-10.4394
G01 X95.5140 Y-10.4247
G01 X95.5009 Y-10.4237
G01 X88.0317 Y-10.4236
G01 X86.7034 Y-9.0953
G01 X86.6936 Y-9.0865
G01 X86.6024 Y-9.0163
G01 X86.5941 Y-9.0107
G01 X86.5660 Y-8.9945
G01 X86.5589 Y-8.9909
G01 X86.4666 Y-8.9527
G01 X86.4572 Y-8.9494
G01 X86.4259 Y-8.9411
G01 X86.4181 Y-8.9394
G01 X86.3069 Y-8.9247
G01 X86.2922 Y-8.9236
G01 X78.1248 Y-8.9236
G01 X78.1176 Y-8.9239
G01 X78.1122 Y-8.9246
G01 X78.1051 Y-8.9262
G01 X78.0344 Y-8.9469
G01 X78.0256 Y-8.9503
G01 X78.0173 Y-8.9549
G01 X78.0081 Y-8.9616
G01 X78.0013 Y-8.9682
G01 X77.9519 Y-9.0254
G01 X77.9465 Y-9.0332
G01 X77.9421 Y-9.0416
G01 X77.9388 Y-9.0505
G01 X77.9367 Y-9.0597
G01 X77.9258 Y-9.1364
G01 X77.9257 Y-9.1440
G01 X77.9261 Y-9.1497
G01 X77.9273 Y-9.1572
G01 X77.9286 Y-9.1627
G01 X77.9326 Y-9.1734
G01 X77.9616 Y-9.2370
G01 X77.9650 Y-9.2436
G01 X77.9680 Y-9.2483
G01 X77.9737 Y-9.2556
G01 X77.9802 Y-9.2623
G01 X78.0170 Y-9.2921
G01 X78.0233 Y-9.2967
G01 X78.0283 Y-9.2997
G01 X78.2585 Y-9.4262
G01 X78.0022 Y-9.6826
G01 X77.9821 Y-9.6706
G01 X77.9755 Y-9.6670
G01 X77.7946 Y-9.5816
G01 X77.6063 Y-9.5141
G01 X77.5991 Y-9.5120
G01 X77.4051 Y-9.4634
G01 X77.2073 Y-9.4340
G01 X77.1998 Y-9.4333
G01 X77.0000 Y-9.4236
G01 X76.8002 Y-9.4333
G01 X76.7927 Y-9.4340
G01 X76.5949 Y-9.4634
G01 X76.4009 Y-9.5120
G01 X76.3937 Y-9.5141
G01 X76.2054 Y-9.5816
G01 X76.0245 Y-9.6670
G01 X76.0179 Y-9.6706
G01 X75.9978 Y-9.6826
G01 X75.7415 Y-9.4262
G01 X75.9717 Y-9.2997
G01 X75.9794 Y-9.2948
G01 X75.9837 Y-9.2915
G01 X75.9891 Y-9.2866
G01 X76.0422 Y-9.2328
G01 X76.0469 Y-9.2268
G01 X76.0518 Y-9.2187
G01 X76.0550 Y-9.2118
G01 X76.0580 Y-9.2028
G01 X76.0743 Y-9.1271
G01 X76.0753 Y-9.1158
G01 X76.0748 Y-9.1063
G01 X76.0732 Y-9.0970
G01 X76.0704 Y-9.0879
G01 X76.0451 Y-9.0207
G01 X76.0419 Y-9.0138
G01 X76.0380 Y-9.0073
G01 X76.0311 Y-8.9983
G01 X76.0271 Y-8.9942
G01 X76.0214 Y-8.9892
G01 X75.9623 Y-8.9453
G01 X75.9527 Y-8.9395
G01 X75.9442 Y-8.9358
G01 X75.9335 Y-8.9328
G01 X75.8867 Y-8.9244
G01 X75.8771 Y-8.9236
G01 X70.1248 Y-8.9236
G01 X70.1158 Y-8.9241
G01 X70.1051 Y-8.9262
G01 X70.0344 Y-8.9469
G01 X70.0256 Y-8.9503
G01 X70.0173 Y-8.9549
G01 X70.0081 Y-8.9616
G01 X70.0013 Y-8.9682
G01 X69.9519 Y-9.0254
G01 X69.9465 Y-9.0332
G01 X69.9421 Y-9.0416
G01 X69.9388 Y-9.0505
G01 X69.9367 Y-9.0597
G01 X69.9258 Y-9.1364
G01 X69.9257 Y-9.1440
G01 X69.9261 Y-9.1497
G01 X69.9273 Y-9.1572
G01 X69.9286 Y-9.1627
G01 X69.9326 Y-9.1734
G01 X69.9616 Y-9.2370
G01 X69.9650 Y-9.2436
G01 X69.9680 Y-9.2483
G01 X69.9737 Y-9.2556
G01 X69.9802 Y-9.2623
G01 X70.0170 Y-9.2921
G01 X70.0233 Y-9.2967
G01 X70.0283 Y-9.2997
G01 X70.2585 Y-9.4262
G01 X70.0022 Y-9.6826
G01 X69.9821 Y-9.6706
G01 X69.9755 Y-9.6670
G01 X69.7946 Y-9.5816
G01 X69.6063 Y-9.5141
G01 X69.5991 Y-9.5120
G01 X69.4051 Y-9.4634
G01 X69.2073 Y-9.4340
G01 X69.1998 Y-9.4333
G01 X69.0000 Y-9.4236
G01 X68.8002 Y-9.4333
G01 X68.7927 Y-9.4340
G01 X68.5949 Y-9.4634
G01 X68.4009 Y-9.5120
G01 X68.3937 Y-9.5141
G01 X68.2054 Y-9.5816
G01 X68.0245 Y-9.6670
G01 X68.0179 Y-9.6706
G01 X67.9978 Y-9.6826
G01 X67.7415 Y-9.4262
G01 X67.9717 Y-9.2997
G01 X67.9794 Y-9.2948
G01 X67.9837 Y-9.2915
G01 X67.9891 Y-9.2866
G01 X68.0422 Y-9.2328
G01 X68.0469 Y-9.2268
G01 X68.0518 Y-9.2187
G01 X68.0550 Y-9.2118
G01 X68.0580 Y-9.2028
G01 X68.0743 Y-9.1271
G01 X68.0753 Y-9.1158
G01 X68.0748 Y-9.1063
G01 X68.0732 Y-9.0970
G01 X68.0704 Y-9.0879
G01 X68.0451 Y-9.0207
G01 X68.0419 Y-9.0138
G01 X68.0380 Y-9.0073
G01 X68.0311 Y-8.9983
G01 X68.0271 Y-8.9942
G01 X68.0214 Y-8.9892
G01 X67.9623 Y-8.9453
G01 X67.9527 Y-8.9395
G01 X67.9442 Y-8.9358
G01 X67.9335 Y-8.9328
G01 X67.8867 Y-8.9244
G01 X67.8771 Y-8.9236
G01 X62.1248 Y-8.9236
G01 X62.1158 Y-8.9241
G01 X62.1051 Y-8.9262
G01 X62.0344 Y-8.9469
G01 X62.0256 Y-8.9503
G01 X62.0173 Y-8.9549
G01 X62.0081 Y-8.9616
G01 X62.0013 Y-8.9682
G01 X61.9519 Y-9.0254
G01 X61.9465 Y-9.0332
G01 X61.9421 Y-9.0416
G01 X61.9388 Y-9.0505
G01 X61.9367 Y-9.0597
G01 X61.9258 Y-9.1364
G01 X61.9257 Y-9.1421
G01 X61.9261 Y-9.1497
G01 X61.9269 Y-9.1553
G01 X61.9286 Y-9.1627
G01 X61.9326 Y-9.1734
G01 X61.9616 Y-9.2370
G01 X61.9641 Y-9.2420
G01 X61.9680 Y-9.2483
G01 X61.9737 Y-9.2556
G01 X61.9802 Y-9.2623
G01 X62.0170 Y-9.2921
G01 X62.0217 Y-9.2956
G01 X62.0283 Y-9.2997
G01 X62.2585 Y-9.4262
G01 X62.0022 Y-9.6826
G01 X61.9821 Y-9.6706
G01 X61.9755 Y-9.6670
G01 X61.7946 Y-9.5816
G01 X61.6063 Y-9.5141
G01 X61.5991 Y-9.5120
G01 X61.4051 Y-9.4634
G01 X61.2073 Y-9.4340
G01 X61.1998 Y-9.4333
G01 X61.0000 Y-9.4236
G01 X60.8002 Y-9.4333
G01 X60.7927 Y-9.4340
G01 X60.5949 Y-9.4634
G01 X60.4009 Y-9.5120
G01 X60.3937 Y-9.5141
G01 X60.2054 Y-9.5816
G01 X60.0245 Y-9.6670
G01 X60.0179 Y-9.6706
G01 X59.9978 Y-9.6826
G01 X59.7415 Y-9.4262
G01 X59.9717 Y-9.2997
G01 X59.9794 Y-9.2948
G01 X59.9837 Y-9.2915
G01 X59.9891 Y-9.2866
G01 X60.0422 Y-9.2328
G01 X60.0469 Y-9.2268
G01 X60.0518 Y-9.2187
G01 X60.0550 Y-9.2118
G01 X60.0580 Y-9.2028
G01 X60.0743 Y-9.1271
G01 X60.0753 Y-9.1158
G01 X60.0748 Y-9.1063
G01 X60.0732 Y-9.0970
G01 X60.0704 Y-9.0879
G01 X60.0451 Y-9.0207
G01 X60.0419 Y-9.0138
G01 X60.0380 Y-9.0073
G01 X60.0311 Y-8.9983
G01 X60.0257 Y-8.9929
G01 X60.0214 Y-8.9892
G01 X59.9623 Y-8.9453
G01 X59.9527 Y-8.9395
G01 X59.9442 Y-8.9358
G01 X59.9335 Y-8.9328
G01 X59.8867 Y-8.9244
G01 X59.8771 Y-8.9236
G01 X42.5041 Y-8.9236
G01 X42.4860 Y-8.9247
G01 X42.3768 Y-8.9391
G01 X42.3689 Y-8.9406
G01 X42.3357 Y-8.9494
G01 X42.3281 Y-8.9519
G01 X42.2340 Y-8.9909
G01 X42.2269 Y-8.9945
G01 X42.1988 Y-9.0107
G01 X42.1905 Y-9.0163
G01 X42.1097 Y-9.0784
G01 X42.0784 Y-9.1097
G01 X42.0163 Y-9.1905
G01 X42.0107 Y-9.1988
G01 X41.9945 Y-9.2269
G01 X41.9909 Y-9.2340
G01 X41.9519 Y-9.3281
G01 X41.9494 Y-9.3357
G01 X41.9411 Y-9.3670
G01 X41.9394 Y-9.3748
G01 X41.9247 Y-9.4860
G01 X41.9236 Y-9.5024
G01 X41.9236 Y-14.4993
G01 X41.9247 Y-14.5140
G01 X41.9394 Y-14.6252
G01 X41.9411 Y-14.6330
G01 X41.9494 Y-14.6643
G01 X41.9519 Y-14.6719
G01 X41.9901 Y-14.7642
G01 X41.9945 Y-14.7731
G01 X42.0107 Y-14.8012
G01 X42.0151 Y-14.8079
G01 X42.0771 Y-14.8887
G01 X42.0825 Y-14.8947
G01 X42.1053 Y-14.9175
G01 X42.1129 Y-14.9241
G01 X42.1921 Y-14.9849
G01 X42.1988 Y-14.9893
G01 X42.2269 Y-15.0055
G01 X42.2358 Y-15.0099
G01 X42.3281 Y-15.0481
G01 X42.3357 Y-15.0506
G01 X42.3670 Y-15.0589
G01 X42.3768 Y-15.0609
G01 X42.4860 Y-15.0753
G01 X42.5041 Y-15.0764
G01 X54.2090 Y-15.0764
G01 X54.2165 Y-15.0759
G01 X54.2239 Y-15.0746
G01 X54.2293 Y-15.0732
G01 X54.2364 Y-15.0706
G01 X54.2415 Y-15.0683
G01 X54.2480 Y-15.0646
G01 X54.2541 Y-15.0603
G01 X54.2598 Y-15.0554
G01 X54.6303 Y-14.6850
G01 X54.6525 Y-14.6859
G01 X54.6747 Y-14.6850
G01 X55.0452 Y-15.0554
G01 X55.0509 Y-15.0603
G01 X55.0554 Y-15.0636
G01 X55.0619 Y-15.0674
G01 X55.0686 Y-15.0706
G01 X55.0757 Y-15.0732
G01 X55.0830 Y-15.0750
G01 X55.0885 Y-15.0759
G01 X55.0960 Y-15.0764
G01 X81.8936 Y-15.0764
G01 X81.9027 Y-15.0754
G01 X81.9098 Y-15.0738
G01 X81.9840 Y-15.0519
G01 X81.9926 Y-15.0480
G01 X82.0007 Y-15.0430
G01 X82.0081 Y-15.0371
G01 X82.0148 Y-15.0304
G01 X82.0630 Y-14.9746
G01 X82.0693 Y-14.9652
G01 X82.0734 Y-14.9567
G01 X82.0765 Y-14.9477
G01 X82.0784 Y-14.9384
G01 X82.0886 Y-14.8674
G01 X82.0892 Y-14.8598
G01 X82.0890 Y-14.8541
G01 X82.0882 Y-14.8465
G01 X82.0872 Y-14.8409
G01 X82.0857 Y-14.8355
G01 X82.0830 Y-14.8283
G01 X82.0524 Y-14.7613
G01 X82.0467 Y-14.7515
G01 X82.0409 Y-14.7441
G01 X82.0317 Y-14.7343
G01 X81.9181 Y-14.6206
G01 X81.8354 Y-14.4866
G01 X81.7857 Y-14.3366
G01 X81.7765 Y-14.2461
G01 X81.7764 Y-13.0772
G01 X82.1236 Y-13.0772
G01 X82.1236 Y-14.2000
G01 X82.1248 Y-14.2283
G01 X82.1256 Y-14.2357
G01 X82.1298 Y-14.2637
G01 X82.1366 Y-14.2911
G01 X82.1388 Y-14.2983
G01 X82.1484 Y-14.3249
G01 X82.1604 Y-14.3505
G01 X82.1639 Y-14.3572
G01 X82.1786 Y-14.3814
G01 X82.1953 Y-14.4041
G01 X82.2001 Y-14.4099
G01 X82.2192 Y-14.4308
G01 X82.2401 Y-14.4499
G01 X82.2459 Y-14.4547
G01 X82.2686 Y-14.4714
G01 X82.2928 Y-14.4861
G01 X82.2995 Y-14.4896
G01 X82.3268 Y-14.5023
G01 X82.3552 Y-14.5124
G01 X82.3863 Y-14.5202
G01 X82.4180 Y-14.5249
G01 X82.4500 Y-14.5264
G01 X85.8500 Y-14.5264
G01 X85.8820 Y-14.5249
G01 X85.9137 Y-14.5202
G01 X85.9411 Y-14.5134
G01 X85.9483 Y-14.5112
G01 X85.9714 Y-14.5030
G01 X85.9784 Y-14.5001
G01 X86.0039 Y-14.4879
G01 X86.0282 Y-14.4734
G01 X86.0344 Y-14.4693
G01 X86.0571 Y-14.4523
G01 X86.0808 Y-14.4308
G01 X86.1023 Y-14.4071
G01 X86.1214 Y-14.3814
G01 X86.1379 Y-14.3539
G01 X86.1516 Y-14.3249
G01 X86.1624 Y-14.2948
G01 X86.1705 Y-14.2618
G01 X86.1749 Y-14.2320
G01 X86.1764 Y-14.2019
G01 X86.1764 Y-14.0772
G01 X86.5235 Y-14.0772
G01 X86.5235 Y-14.2461
G01 X86.5143 Y-14.3366
G01 X86.4646 Y-14.4866
G01 X86.3819 Y-14.6206
G01 X86.2683 Y-14.7343
G01 X86.2634 Y-14.7396
G01 X86.2601 Y-14.7440
G01 X86.2552 Y-14.7517
G01 X86.2209 Y-14.8147
G01 X86.2171 Y-14.8234
G01 X86.2144 Y-14.8325
G01 X86.2128 Y-14.8418
G01 X86.2125 Y-14.8532
G01 X86.2176 Y-14.9248
G01 X86.2192 Y-14.9360
G01 X86.2225 Y-14.9469
G01 X86.2265 Y-14.9556
G01 X86.2315 Y-14.9636
G01 X86.2745 Y-15.0211
G01 X86.2820 Y-15.0297
G01 X86.2862 Y-15.0335
G01 X86.2922 Y-15.0381
G01 X86.2987 Y-15.0421
G01 X86.3072 Y-15.0462
G01 X86.3762 Y-15.0720
G01 X86.3835 Y-15.0741
G01 X86.3909 Y-15.0754
G01 X86.4073 Y-15.0764
G01 X87.9683 Y-15.0764
G01 X88.6053 Y-15.7134
G01 X88.6107 Y-15.7183
G01 X88.6150 Y-15.7216
G01 X88.6227 Y-15.7264
G01 X88.6891 Y-15.7625
G01 X88.6962 Y-15.7653
G01 X88.7035 Y-15.7673
G01 X88.7129 Y-15.7689
G01 X88.7204 Y-15.7693
G01 X88.7958 Y-15.7641
G01 X88.8031 Y-15.7632
G01 X88.8085 Y-15.7621
G01 X88.8172 Y-15.7594
G01 X88.8240 Y-15.7565
G01 X88.8490 Y-15.7442
G01 X88.8634 Y-15.7354
G01 X88.8986 Y-15.7238
G01 X88.8988 Y-15.9806
G01 X88.8994 Y-15.9862
G01 X88.9008 Y-15.9936
G01 X88.9030 Y-16.0008
G01 X88.9059 Y-16.0077
G01 X88.9094 Y-16.0143
G01 X88.9136 Y-16.0205
G01 X88.9184 Y-16.0263
G01 X88.9236 Y-16.0317
G01 X88.9236 Y-16.1151
G01 X88.9179 Y-16.1205
G01 X88.8989 Y-16.1415
G01 X88.8796 Y-16.1671
G01 X88.8621 Y-16.1961
G01 X88.8491 Y-16.2233
G01 X88.8376 Y-16.2552
G01 X88.8298 Y-16.2863
G01 X88.8251 Y-16.3180
G01 X88.8236 Y-16.3462
G01 X88.8236 Y-17.6500
G01 X88.8251 Y-17.6820
G01 X88.8298 Y-17.7137
G01 X88.8376 Y-17.7448
G01 X88.8484 Y-17.7749
G01 X88.8604 Y-17.8005
G01 X88.8639 Y-17.8072
G01 X88.8786 Y-17.8314
G01 X88.8953 Y-17.8541
G01 X88.9001 Y-17.8599
G01 X88.9166 Y-17.8781
G01 X88.9236 Y-17.8849
G01 X88.9236 Y-18.5820
G01 X88.9246 Y-18.5910
G01 X88.9266 Y-18.5999
G01 X88.9469 Y-18.6687
G01 X88.9496 Y-18.6758
G01 X88.9529 Y-18.6826
G01 X88.9592 Y-18.6921
G01 X88.9668 Y-18.7006
G01 X89.0253 Y-18.7512
G01 X89.0328 Y-18.7565
G01 X89.0393 Y-18.7600
G01 X89.0478 Y-18.7635
G01 X89.0566 Y-18.7659
G01 X89.1250 Y-18.7771
G01 X89.1343 Y-18.7780
G01 X89.1417 Y-18.7779
G01 X89.1563 Y-18.7764
G01 X89.4236 Y-18.7764
G01 X89.4236 Y-19.1236
G01 X89.2000 Y-19.1236
G01 X89.1906 Y-19.1241
G01 X89.1832 Y-19.1254
G01 X89.1725 Y-19.1287
G01 X89.1623 Y-19.1335
G01 X89.1560 Y-19.1375
G01 X89.1515 Y-19.1409
G01 X89.1434 Y-19.1487
G01 X89.1364 Y-19.1575
G01 X89.1309 Y-19.1673
G01 X89.1268 Y-19.1778
G01 X89.1244 Y-19.1888
G01 X89.1236 Y-19.2000
G01 X89.1236 Y-20.8000
G01 X89.1238 Y-20.8056
G01 X89.1247 Y-20.8131
G01 X89.1263 Y-20.8204
G01 X89.1280 Y-20.8258
G01 X89.1326 Y-20.8360
G01 X89.1354 Y-20.8409
G01 X89.1397 Y-20.8470
G01 X89.1434 Y-20.8513
G01 X89.1487 Y-20.8566
G01 X89.1575 Y-20.8636
G01 X89.1640 Y-20.8674
G01 X89.1690 Y-20.8699
G01 X89.1742 Y-20.8720
G01 X89.1814 Y-20.8742
G01 X89.1906 Y-20.8759
G01 X89.2000 Y-20.8764
G01 X89.4236 Y-20.8764
G01 X89.4236 Y-21.2236
G01 X89.1563 Y-21.2236
G01 X89.1103 Y-21.2186
G01 X88.9949 Y-21.1756
G01 X88.9717 Y-21.1583
G01 X88.9639 Y-21.1536
G01 X88.9572 Y-21.1506
G01 X88.8883 Y-21.1249
G01 X88.8792 Y-21.1224
G01 X88.8698 Y-21.1210
G01 X88.8584 Y-21.1209
G01 X88.8490 Y-21.1221
G01 X88.7788 Y-21.1373
G01 X88.7696 Y-21.1399
G01 X88.7607 Y-21.1437
G01 X88.7524 Y-21.1486
G01 X88.7196 Y-21.1731
G01 X88.7128 Y-21.1791
G01 X85.9683 Y-23.9236
G01 X69.6295 Y-23.9236
G01 X69.6204 Y-23.9241
G01 X69.6097 Y-23.9262
G01 X69.5373 Y-23.9475
G01 X69.5303 Y-23.9503
G01 X69.5219 Y-23.9549
G01 X69.5142 Y-23.9604
G01 X69.5086 Y-23.9655
G01 X69.4589 Y-24.0224
G01 X69.4521 Y-24.0316
G01 X69.4467 Y-24.0417
G01 X69.4440 Y-24.0489
G01 X69.4424 Y-24.0544
G01 X69.4304 Y-24.1095
G01 X69.4294 Y-24.1167
G01 X69.4291 Y-24.1222
G01 X69.4291 Y-28.9601
G01 X69.4278 Y-28.9831
G01 X69.4240 Y-29.0188
G01 X69.4169 Y-29.0628
G01 X69.3711 Y-29.1854
G01 X69.3429 Y-29.2371
G01 X69.2632 Y-29.3436
G01 X68.8182 Y-29.7885
G01 X68.7247 Y-29.8609
G01 X68.6794 Y-29.8876
G01 X68.5757 Y-29.9319
G01 X68.4488 Y-29.9492
G01 X68.3899 Y-29.9487
G01 X68.2639 Y-29.9296
G01 X68.1485 Y-29.8757
G01 X68.0991 Y-29.8435
G01 X68.0812 Y-29.8278
G01 X68.0722 Y-29.8216
G01 X68.0658 Y-29.8183
G01 X68.0025 Y-29.7887
G01 X67.9918 Y-29.7847
G01 X67.9845 Y-29.7829
G01 X67.9769 Y-29.7819
G01 X67.9713 Y-29.7816
G01 X67.9637 Y-29.7818
G01 X67.8907 Y-29.7916
G01 X67.8800 Y-29.7939
G01 X67.8731 Y-29.7962
G01 X67.8664 Y-29.7992
G01 X67.8396 Y-29.8144
G01 X67.7478 Y-29.8786
G01 X67.5597 Y-29.9663
G01 X67.3592 Y-30.0200
G01 X67.3513 Y-30.0212
G01 X67.3443 Y-30.0231
G01 X67.2740 Y-30.0503
G01 X67.2637 Y-30.0553
G01 X67.2543 Y-30.0617
G01 X67.2372 Y-30.0767
G01 X67.0392 Y-30.2747
G01 X67.0221 Y-30.2900
G01 X66.9941 Y-30.3126
G01 X66.9580 Y-30.3387
G01 X66.8389 Y-30.3930
G01 X66.7824 Y-30.4096
G01 X66.6908 Y-30.4228
G01 X58.9765 Y-30.4228
G01 X58.9367 Y-30.4164
G01 X58.8141 Y-30.3706
G01 X58.7624 Y-30.3424
G01 X58.6559 Y-30.2627
G01 X57.7248 Y-29.3316
G01 X57.7095 Y-29.3145
G01 X57.6869 Y-29.2865
G01 X57.6608 Y-29.2504
G01 X57.6065 Y-29.1313
G01 X57.5899 Y-29.0748
G01 X57.5709 Y-28.9432
G01 X57.5709 Y-24.1222
G01 X57.5702 Y-24.1131
G01 X57.5683 Y-24.1042
G01 X57.5482 Y-24.0354
G01 X57.5464 Y-24.0300
G01 X57.5433 Y-24.0231
G01 X57.5375 Y-24.0133
G01 X57.5316 Y-24.0058
G01 X57.5263 Y-24.0004
G01 X57.4691 Y-23.9510
G01 X57.4629 Y-23.9466
G01 X57.4562 Y-23.9428
G01 X57.4492 Y-23.9398
G01 X57.4420 Y-23.9374
G01 X57.3850 Y-23.9249
G01 X57.3778 Y-23.9239
G01 X57.3705 Y-23.9236
G01 X41.6295 Y-23.9236
G01 X41.6204 Y-23.9241
G01 X41.6097 Y-23.9262
G01 X41.5373 Y-23.9475
G01 X41.5303 Y-23.9503
G01 X41.5219 Y-23.9549
G01 X41.5157 Y-23.9592
G01 X41.5086 Y-23.9655
G01 X41.4577 Y-24.0239
G01 X41.4531 Y-24.0300
G01 X41.4483 Y-24.0383
G01 X41.4453 Y-24.0453
G01 X41.4424 Y-24.0544
G01 X41.4304 Y-24.1095
G01 X41.4291 Y-24.1204
G01 X41.4291 Y-28.9601
G01 X41.4278 Y-28.9831
G01 X41.4240 Y-29.0188
G01 X41.4169 Y-29.0628
G01 X41.3711 Y-29.1854
G01 X41.3429 Y-29.2371
G01 X41.2632 Y-29.3436
G01 X40.8182 Y-29.7885
G01 X40.7247 Y-29.8609
G01 X40.6794 Y-29.8876
G01 X40.5757 Y-29.9319
G01 X40.4488 Y-29.9492
G01 X40.3899 Y-29.9487
G01 X40.2639 Y-29.9296
G01 X40.1485 Y-29.8757
G01 X40.0991 Y-29.8435
G01 X40.0812 Y-29.8278
G01 X40.0722 Y-29.8216
G01 X40.0658 Y-29.8183
G01 X40.0025 Y-29.7887
G01 X39.9918 Y-29.7847
G01 X39.9845 Y-29.7829
G01 X39.9788 Y-29.7820
G01 X39.9713 Y-29.7816
G01 X39.9637 Y-29.7818
G01 X39.8907 Y-29.7916
G01 X39.8800 Y-29.7939
G01 X39.8731 Y-29.7962
G01 X39.8664 Y-29.7992
G01 X39.8396 Y-29.8144
G01 X39.7478 Y-29.8786
G01 X39.5597 Y-29.9663
G01 X39.3592 Y-30.0200
G01 X39.3513 Y-30.0212
G01 X39.3443 Y-30.0231
G01 X39.2740 Y-30.0503
G01 X39.2654 Y-30.0543
G01 X39.2589 Y-30.0583
G01 X39.2543 Y-30.0617
G01 X39.2372 Y-30.0767
G01 X39.0392 Y-30.2747
G01 X39.0221 Y-30.2900
G01 X38.9941 Y-30.3126
G01 X38.9580 Y-30.3387
G01 X38.8389 Y-30.3930
G01 X38.7824 Y-30.4096
G01 X38.6908 Y-30.4228
G01 X30.9765 Y-30.4228
G01 X30.9367 Y-30.4164
G01 X30.8141 Y-30.3706
G01 X30.7624 Y-30.3424
G01 X30.6559 Y-30.2627
G01 X29.7248 Y-29.3316
G01 X29.7095 Y-29.3145
G01 X29.6869 Y-29.2865
G01 X29.6608 Y-29.2504
G01 X29.6065 Y-29.1313
G01 X29.5899 Y-29.0748
G01 X29.5709 Y-28.9432
G01 X29.5709 Y-24.1281
G01 X29.5816 Y-24.0288
G01 X29.5911 Y-23.9853
G01 X29.6209 Y-23.8958
G01 X29.6834 Y-23.7985
G01 X29.6878 Y-23.7906
G01 X29.6901 Y-23.7856
G01 X29.6924 Y-23.7787
G01 X29.7135 Y-23.7061
G01 X29.7147 Y-23.6987
G01 X29.7152 Y-23.6892
G01 X29.7147 Y-23.6816
G01 X29.7131 Y-23.6723
G01 X29.6919 Y-23.5998
G01 X29.6885 Y-23.5910
G01 X29.6850 Y-23.5844
G01 X29.6786 Y-23.5751
G01 X29.6620 Y-23.5545
G01 X29.6565 Y-23.5484
G01 X28.1377 Y-22.0296
G01 X28.1294 Y-22.0224
G01 X28.1203 Y-22.0165
G01 X28.0573 Y-21.9821
G01 X28.0468 Y-21.9777
G01 X28.0358 Y-21.9749
G01 X28.0263 Y-21.9738
G01 X28.0187 Y-21.9738
G01 X27.9472 Y-21.9789
G01 X27.9359 Y-21.9805
G01 X27.9250 Y-21.9838
G01 X27.9164 Y-21.9878
G01 X27.9083 Y-21.9928
G01 X27.8509 Y-22.0358
G01 X27.8422 Y-22.0433
G01 X27.8359 Y-22.0506
G01 X27.8326 Y-22.0553
G01 X27.8288 Y-22.0619
G01 X27.8052 Y-22.1108
G01 X27.8023 Y-22.1194
G01 X27.7928 Y-22.1551
G01 X27.4900 Y-21.8522
G01 X27.4909 Y-21.8281
G01 X27.4871 Y-21.7497
G01 X27.4752 Y-21.6683
G01 X27.4548 Y-21.5866
G01 X27.4278 Y-21.5109
G01 X27.3919 Y-21.4348
G01 X27.3496 Y-21.3642
G01 X27.3006 Y-21.2981
G01 X27.2454 Y-21.2371
G01 X27.1844 Y-21.1819
G01 X27.1183 Y-21.1329
G01 X27.0477 Y-21.0906
G01 X26.9716 Y-21.0547
G01 X26.8959 Y-21.0277
G01 X26.8142 Y-21.0073
G01 X26.7328 Y-20.9954
G01 X26.6544 Y-20.9916
G01 X26.6303 Y-20.9925
G01 X26.3274 Y-20.6897
G01 X26.3648 Y-20.6797
G01 X26.3717 Y-20.6773
G01 X26.3767 Y-20.6751
G01 X26.3831 Y-20.6716
G01 X26.4427 Y-20.6352
G01 X26.4490 Y-20.6310
G01 X26.4534 Y-20.6274
G01 X26.4576 Y-20.6235
G01 X26.4626 Y-20.6178
G01 X26.4660 Y-20.6132
G01 X26.4700 Y-20.6067
G01 X26.5022 Y-20.5405
G01 X26.5052 Y-20.5335
G01 X26.5075 Y-20.5263
G01 X26.5090 Y-20.5189
G01 X26.5098 Y-20.5113
G01 X26.5099 Y-20.5037
G01 X26.5011 Y-20.4287
G01 X26.4989 Y-20.4174
G01 X26.4950 Y-20.4066
G01 X26.4896 Y-20.3965
G01 X26.4612 Y-20.3545
G01 X26.4542 Y-20.3461
G01 X23.2022 Y-17.0941
G01 X23.1898 Y-17.0833
G01 X23.1008 Y-17.0151
G01 X23.0941 Y-17.0107
G01 X23.0660 Y-16.9945
G01 X23.0571 Y-16.9901
G01 X22.9648 Y-16.9519
G01 X22.9572 Y-16.9494
G01 X22.9259 Y-16.9411
G01 X22.9161 Y-16.9391
G01 X22.8069 Y-16.9247
G01 X22.7888 Y-16.9236
G01 X13.6295 Y-16.9236
G01 X13.6204 Y-16.9241
G01 X13.6097 Y-16.9262
G01 X13.5391 Y-16.9469
G01 X13.5320 Y-16.9496
G01 X13.5269 Y-16.9520
G01 X13.5203 Y-16.9559
G01 X13.5157 Y-16.9592
G01 X13.5099 Y-16.9641
G01 X13.5059 Y-16.9682
G01 X13.4577 Y-17.0239
G01 X13.4531 Y-17.0300
G01 X13.4501 Y-17.0349
