(G-CODE GENERATED BY FLATCAM v8.994 - www.flatcam.org - Version Date: 2020/11/7)

(Name: laser_crosshair_pwm_gen_board-PTH.drl_edit_cnc)
(Type: G-code from Geometry)
(Units: MM)

(Created on Saturday, 16 December 2023 at 20:06)

(This preprocessor is the default preprocessor used by FlatCAM.)
(It is made to work with MACH3 compatible motion controllers.)


(TOOLS DIAMETER: )
(Tool: 1 -> Dia: 1.0008)

(FEEDRATE Z: )
(Tool: 1 -> Feedrate: 200.0)

(FEEDRATE RAPIDS: )
(Tool: 1 -> Feedrate Rapids: 1500)

(Z_CUT: )
(Tool: 1 -> Z_Cut: -1.86)

(Tools Offset: )
(Tool: 1 -> Offset Z: 0.0)

(Z_MOVE: )
(Tool: 1 -> Z_Move: 1.0)

(Z Toolchange: 15 mm)
(X,Y Toolchange: 0.0000, 0.0000 mm)
(Z Start: None mm)
(Z End: 0.5 mm)
(X,Y End: None mm)
(Steps per circle: 64)
(Preprocessor Excellon: default)

(X range:    2.6746 ...    9.3904  mm)
(Y range:   -9.3904 ...   -3.3096  mm)

(Spindle Speed: 7200 RPM)
G21
G90
G94

G01 F200.00

M5
G00 Z15.0000
T1
G00 X0.0000 Y0.0000                
M6
(MSG, Change to Tool Dia = 1.0008 ||| Total drills for tool T1 = 6)
M0
G00 Z15.0000

G01 F200.00
M03 S7200
G00 X3.8100 Y-8.8900
G01 Z-1.8600
G01 Z0
G00 Z1.0000
G00 X6.3500 Y-8.8900
G01 Z-1.8600
G01 Z0
G00 Z1.0000
G00 X8.8900 Y-8.8900
G01 Z-1.8600
G01 Z0
G00 Z1.0000
G00 X8.2550 Y-3.8100
G01 Z-1.8600
G01 Z0
G00 Z1.0000
G00 X5.7150 Y-3.8100
G01 Z-1.8600
G01 Z0
G00 Z1.0000
G00 X3.1750 Y-3.8100
G01 Z-1.8600
G01 Z0
G00 Z1.0000
M05
G00 Z0.50


M30
