(G-CODE GENERATED BY FLATCAM v8.994 - www.flatcam.org - Version Date: 2020/11/7)

(Name: laser_crosshair_pwm_gen_board-F_Cu.gbr_iso_combined_cnc)
(Type: G-code from Geometry)
(Units: MM)

(Created on Saturday, 16 December 2023 at 20:02)

(This preprocessor is the default preprocessor used by FlatCAM.)
(It is made to work with MACH3 compatible motion controllers.)

(TOOL DIAMETER: 0.1969 mm)
(Feedrate_XY: 240.0 mm/min)
(Feedrate_Z: 60.0 mm/min)
(Feedrate rapids 1500.0 mm/min)

(Z_Cut: -0.15 mm)
(Z_Move: 2.0 mm)
(Z Start: None mm)
(Z End: 15.0 mm)
(X,Y End: None mm)
(Steps per circle: 64)
(Preprocessor Geometry: default)

(X range:   -0.7280 ...   15.9680  mm)
(Y range:  -14.6980 ...    0.7280  mm)

(Spindle Speed: 12000.0 RPM)
G21
G90
G94

G01 F240.00

M5
G00 Z15.0000
G00 X0.0000 Y0.0000
T2
M6    
(MSG, Change to Tool Dia = 0.1969)
M0
G00 Z15.0000

M03 S12000.0
G01 F240.00
G00 X-0.0979 Y-0.1245
G01 F60.00
G01 Z-0.1500
G01 F240.00
G01 X-0.0979 Y-13.8455
G01 X-0.0975 Y-13.8549
G01 X-0.0962 Y-13.8641
G01 X-0.0833 Y-13.9227
G01 X-0.0803 Y-13.9321
G01 X-0.0763 Y-13.9411
G01 X-0.0715 Y-13.9496
G01 X-0.0658 Y-13.9577
G01 X-0.0153 Y-14.0161
G01 X-0.0065 Y-14.0246
G01 X0.0012 Y-14.0306
G01 X0.0074 Y-14.0346
G01 X0.0138 Y-14.0381
G01 X0.0205 Y-14.0411
G01 X0.0274 Y-14.0436
G01 X0.0990 Y-14.0646
G01 X0.1105 Y-14.0669
G01 X0.1222 Y-14.0679
G01 X3.6885 Y-14.0679
G01 X3.6979 Y-14.0675
G01 X3.7071 Y-14.0662
G01 X3.7657 Y-14.0533
G01 X3.7751 Y-14.0503
G01 X3.7841 Y-14.0463
G01 X3.7926 Y-14.0415
G01 X3.8007 Y-14.0358
G01 X3.8591 Y-13.9853
G01 X3.8660 Y-13.9784
G01 X3.8722 Y-13.9708
G01 X3.8763 Y-13.9647
G01 X3.8799 Y-13.9584
G01 X3.8831 Y-13.9518
G01 X3.8858 Y-13.9449
G01 X3.9076 Y-13.8710
G01 X3.9092 Y-13.8641
G01 X3.9103 Y-13.8572
G01 X3.9109 Y-13.8455
G01 X3.9109 Y-12.7603
G01 X3.9107 Y-12.7538
G01 X3.9086 Y-12.7297
G01 X3.9077 Y-12.7224
G01 X3.9056 Y-12.7128
G01 X3.9026 Y-12.7035
G01 X3.8997 Y-12.6967
G01 X3.8663 Y-12.6298
G01 X3.8613 Y-12.6214
G01 X3.8555 Y-12.6135
G01 X3.8507 Y-12.6080
G01 X3.8454 Y-12.6029
G01 X3.8398 Y-12.5982
G01 X3.8338 Y-12.5939
G01 X3.7675 Y-12.5544
G01 X3.7565 Y-12.5490
G01 X3.7450 Y-12.5451
G01 X3.7330 Y-12.5427
G01 X3.7208 Y-12.5417
G01 X3.6414 Y-12.5445
G01 X3.6321 Y-12.5457
G01 X3.6237 Y-12.5476
G01 X3.5894 Y-12.5511
G01 X3.5894 Y-12.2392
G01 X3.6198 Y-12.2287
G01 X3.6288 Y-12.2250
G01 X3.6553 Y-12.2123
G01 X3.6805 Y-12.1973
G01 X3.6885 Y-12.1919
G01 X3.7121 Y-12.1744
G01 X3.7339 Y-12.1547
G01 X3.7407 Y-12.1479
G01 X3.7604 Y-12.1261
G01 X3.7779 Y-12.1025
G01 X3.7833 Y-12.0945
G01 X3.7983 Y-12.0693
G01 X3.8129 Y-12.0383
G01 X3.8229 Y-12.0107
G01 X3.8257 Y-12.0015
G01 X3.8328 Y-11.9730
G01 X3.8378 Y-11.9392
G01 X3.8394 Y-11.9050
G01 X3.8393 Y-10.9502
G01 X3.8378 Y-10.9208
G01 X3.8332 Y-10.8894
G01 X3.8257 Y-10.8585
G01 X3.8229 Y-10.8493
G01 X3.8129 Y-10.8217
G01 X3.7983 Y-10.7907
G01 X3.7807 Y-10.7614
G01 X3.7633 Y-10.7378
G01 X3.7588 Y-10.7321
G01 X3.7407 Y-10.7121
G01 X3.7339 Y-10.7053
G01 X3.7121 Y-10.6856
G01 X3.6846 Y-10.6653
G01 X3.6553 Y-10.6477
G01 X3.6288 Y-10.6350
G01 X3.6198 Y-10.6313
G01 X3.5896 Y-10.6208
G01 X3.5896 Y-9.8115
G01 X3.6273 Y-9.8207
G01 X3.7146 Y-9.8336
G01 X3.8076 Y-9.8384
G01 X3.8148 Y-9.8383
G01 X3.9030 Y-9.8339
G01 X3.9903 Y-9.8211
G01 X3.9974 Y-9.8197
G01 X4.0853 Y-9.7976
G01 X4.1684 Y-9.7680
G01 X4.1774 Y-9.7643
G01 X4.2571 Y-9.7265
G01 X4.3328 Y-9.6812
G01 X4.3409 Y-9.6758
G01 X4.4098 Y-9.6247
G01 X4.4153 Y-9.6200
G01 X4.4807 Y-9.5607
G01 X4.5432 Y-9.4917
G01 X4.5986 Y-9.4169
G01 X4.6441 Y-9.3413
G01 X4.6486 Y-9.3328
G01 X4.6863 Y-9.2530
G01 X4.7161 Y-9.1699
G01 X4.7189 Y-9.1607
G01 X4.7392 Y-9.0797
G01 X4.7411 Y-9.0703
G01 X4.7539 Y-8.9830
G01 X4.7583 Y-8.8948
G01 X4.7584 Y-8.8876
G01 X4.7539 Y-8.7970
G01 X4.7411 Y-8.7097
G01 X4.7392 Y-8.7003
G01 X4.7176 Y-8.6147
G01 X4.6880 Y-8.5316
G01 X4.6843 Y-8.5226
G01 X4.6465 Y-8.4429
G01 X4.5986 Y-8.3631
G01 X4.5432 Y-8.2883
G01 X4.4840 Y-8.2228
G01 X4.4772 Y-8.2160
G01 X4.4117 Y-8.1568
G01 X4.3369 Y-8.1014
G01 X4.2613 Y-8.0559
G01 X4.2528 Y-8.0514
G01 X4.1774 Y-8.0157
G01 X4.1707 Y-8.0128
G01 X4.1584 Y-8.0084
G01 X4.1584 Y-7.6698
G01 X4.1577 Y-7.6561
G01 X4.1565 Y-7.6490
G01 X4.1548 Y-7.6421
G01 X4.1323 Y-7.5685
G01 X4.1297 Y-7.5620
G01 X4.1255 Y-7.5536
G01 X4.1102 Y-7.5298
G01 X4.1068 Y-7.5229
G01 X4.0845 Y-7.4555
G01 X4.0592 Y-7.3860
G01 X4.0576 Y-7.3785
G01 X4.0514 Y-7.3077
G01 X4.0479 Y-7.2780
G01 X4.0475 Y-7.2636
G01 X4.0438 Y-7.2209
G01 X4.0462 Y-7.2038
G01 X4.0479 Y-7.1787
G01 X4.0479 Y-7.1005
G01 X4.0472 Y-7.0908
G01 X4.0460 Y-7.0836
G01 X4.0258 Y-7.0101
G01 X4.0234 Y-7.0032
G01 X4.0205 Y-6.9965
G01 X4.0159 Y-6.9879
G01 X3.9470 Y-6.8739
G01 X3.9030 Y-6.7329
G01 X3.8979 Y-6.6771
G01 X3.8979 Y-6.0228
G01 X3.9030 Y-5.9671
G01 X3.9470 Y-5.8261
G01 X4.0159 Y-5.7121
G01 X4.0205 Y-5.7035
G01 X4.0234 Y-5.6968
G01 X4.0258 Y-5.6899
G01 X4.0460 Y-5.6164
G01 X4.0472 Y-5.6092
G01 X4.0479 Y-5.5995
G01 X4.0479 Y-5.4709
G01 X4.0458 Y-5.3970
G01 X4.0466 Y-5.3894
G01 X4.0593 Y-5.3357
G01 X4.0607 Y-5.3262
G01 X4.0613 Y-5.3166
G01 X4.0561 Y-5.2372
G01 X4.0542 Y-5.2252
G01 X4.0517 Y-5.2157
G01 X4.0482 Y-5.2066
G01 X4.0450 Y-5.2000
G01 X4.0413 Y-5.1937
G01 X4.0371 Y-5.1876
G01 X3.9924 Y-5.1277
G01 X3.9859 Y-5.1204
G01 X3.9767 Y-5.1124
G01 X3.9707 Y-5.1081
G01 X3.9645 Y-5.1043
G01 X3.9579 Y-5.1010
G01 X3.9512 Y-5.0981
G01 X3.8812 Y-5.0718
G01 X3.8717 Y-5.0693
G01 X3.8597 Y-5.0675
G01 X3.8474 Y-5.0672
G01 X3.8401 Y-5.0677
G01 X3.8329 Y-5.0688
G01 X3.7622 Y-5.0839
G01 X3.7531 Y-5.0863
G01 X3.7465 Y-5.0886
G01 X3.7400 Y-5.0915
G01 X3.7208 Y-5.1018
G01 X3.5236 Y-5.1695
G01 X3.5236 Y-4.8478
G01 X3.5794 Y-4.8275
G01 X3.6661 Y-4.7865
G01 X3.6725 Y-4.7832
G01 X3.7589 Y-4.7313
G01 X3.8379 Y-4.6729
G01 X3.8436 Y-4.6683
G01 X3.9181 Y-4.6006
G01 X3.9874 Y-4.5242
G01 X4.0488 Y-4.4414
G01 X4.0995 Y-4.3571
G01 X4.1030 Y-4.3508
G01 X4.1460 Y-4.2597
G01 X4.1792 Y-4.1672
G01 X4.1820 Y-4.1579
G01 X4.2058 Y-4.0625
G01 X4.2203 Y-3.9653
G01 X4.2211 Y-3.9581
G01 X4.2259 Y-3.8599
G01 X4.2259 Y-3.7625
G01 X4.2212 Y-3.6643
G01 X4.2203 Y-3.6547
G01 X4.2058 Y-3.5575
G01 X4.1807 Y-3.4574
G01 X4.1460 Y-3.3603
G01 X4.1040 Y-3.2714
G01 X4.0995 Y-3.2629
G01 X4.0475 Y-3.1766
G01 X3.9874 Y-3.0958
G01 X3.9215 Y-3.0229
G01 X3.9146 Y-3.0160
G01 X3.8398 Y-2.9486
G01 X3.7589 Y-2.8887
G01 X3.6725 Y-2.8368
G01 X3.6661 Y-2.8335
G01 X3.5794 Y-2.7925
G01 X3.5234 Y-2.7722
G01 X3.5234 Y-2.4505
G01 X3.7208 Y-2.5183
G01 X3.9181 Y-2.6250
G01 X4.0574 Y-2.7334
G01 X4.0669 Y-2.7400
G01 X4.0772 Y-2.7454
G01 X4.1378 Y-2.7712
G01 X4.1447 Y-2.7738
G01 X4.1540 Y-2.7765
G01 X4.1636 Y-2.7782
G01 X4.1709 Y-2.7789
G01 X4.1807 Y-2.7790
G01 X4.1904 Y-2.7781
G01 X4.2643 Y-2.7673
G01 X4.2715 Y-2.7656
G01 X4.2785 Y-2.7634
G01 X4.2897 Y-2.7586
G01 X4.3003 Y-2.7525
G01 X4.3081 Y-2.7467
G01 X4.3628 Y-2.6993
G01 X4.3681 Y-2.6943
G01 X4.3747 Y-2.6870
G01 X4.3818 Y-2.6771
G01 X4.3866 Y-2.6686
G01 X4.3905 Y-2.6596
G01 X4.3928 Y-2.6527
G01 X4.4131 Y-2.5834
G01 X4.4154 Y-2.5719
G01 X4.4162 Y-2.5649
G01 X4.4164 Y-2.5579
G01 X4.4164 Y-0.1245
G01 X4.4160 Y-0.1151
G01 X4.4147 Y-0.1059
G01 X4.4018 Y-0.0473
G01 X4.3988 Y-0.0379
G01 X4.3948 Y-0.0289
G01 X4.3900 Y-0.0204
G01 X4.3843 Y-0.0123
G01 X4.3338 Y0.0461
G01 X4.3269 Y0.0530
G01 X4.3173 Y0.0606
G01 X4.3111 Y0.0646
G01 X4.3047 Y0.0681
G01 X4.2980 Y0.0711
G01 X4.2911 Y0.0736
G01 X4.2195 Y0.0946
G01 X4.2080 Y0.0969
G01 X4.1963 Y0.0979
G01 X0.1222 Y0.0979
G01 X0.1151 Y0.0975
G01 X0.1059 Y0.0962
G01 X0.0497 Y0.0839
G01 X0.0379 Y0.0803
G01 X0.0289 Y0.0763
G01 X0.0204 Y0.0715
G01 X0.0104 Y0.0643
G01 X-0.0443 Y0.0169
G01 X-0.0496 Y0.0119
G01 X-0.0577 Y0.0028
G01 X-0.0633 Y-0.0053
G01 X-0.0691 Y-0.0160
G01 X-0.0728 Y-0.0251
G01 X-0.0952 Y-0.1013
G01 X-0.0973 Y-0.1128
G01 X-0.0979 Y-0.1245
G00 Z2.0000
G00 X1.8544 Y-3.4616
G01 F60.00
G01 Z-0.1500
G01 F240.00
G01 X2.1682 Y-3.4616
G01 X2.1708 Y-3.4528
G01 X2.2040 Y-3.3603
G01 X2.2460 Y-3.2714
G01 X2.2505 Y-3.2629
G01 X2.3012 Y-3.1786
G01 X2.3596 Y-3.0996
G01 X2.3658 Y-3.0921
G01 X2.4302 Y-3.0211
G01 X2.4354 Y-3.0160
G01 X2.5083 Y-2.9501
G01 X2.5872 Y-2.8914
G01 X2.5931 Y-2.8873
G01 X2.6754 Y-2.8380
G01 X2.6817 Y-2.8345
G01 X2.7706 Y-2.7925
G01 X2.8266 Y-2.7722
G01 X2.8266 Y-2.4505
G01 X2.6292 Y-2.5182
G01 X2.4319 Y-2.6250
G01 X2.2548 Y-2.7629
G01 X2.1028 Y-2.9280
G01 X1.9801 Y-3.1158
G01 X1.8899 Y-3.3213
G01 X1.8544 Y-3.4616
G00 Z2.0000
G00 X1.8544 Y-4.1584
G01 F60.00
G01 Z-0.1500
G01 F240.00
G01 X1.8899 Y-4.2987
G01 X1.9801 Y-4.5042
G01 X2.1028 Y-4.6920
G01 X2.2548 Y-4.8571
G01 X2.4319 Y-4.9949
G01 X2.6292 Y-5.1017
G01 X2.8264 Y-5.1695
G01 X2.8264 Y-4.8478
G01 X2.7706 Y-4.8275
G01 X2.6817 Y-4.7855
G01 X2.6754 Y-4.7820
G01 X2.5931 Y-4.7327
G01 X2.5872 Y-4.7286
G01 X2.5083 Y-4.6699
G01 X2.4354 Y-4.6040
G01 X2.4302 Y-4.5989
G01 X2.3658 Y-4.5279
G01 X2.3596 Y-4.5204
G01 X2.3012 Y-4.4414
G01 X2.2505 Y-4.3571
G01 X2.2460 Y-4.3486
G01 X2.2040 Y-4.2597
G01 X2.1708 Y-4.1672
G01 X2.1682 Y-4.1584
G01 X1.8544 Y-4.1584
G00 Z2.0000
G00 X4.2167 Y-4.7405
G01 F60.00
G01 Z-0.1500
G01 F240.00
G01 X4.1480 Y-4.8161
G01 X4.1285 Y-4.8353
G01 X4.1461 Y-4.8464
G01 X4.2167 Y-4.7405
G00 Z2.0000
G00 X4.4450 Y-4.3594
G01 F60.00
G01 Z-0.1500
G01 F240.00
G01 X4.4370 Y-4.3802
G01 X4.4288 Y-4.3988
G01 X4.3888 Y-4.4833
G01 X4.3748 Y-4.5103
G01 X4.3216 Y-4.5993
G01 X4.3108 Y-4.6164
G01 X4.2991 Y-4.6330
G01 X4.2596 Y-4.6863
G01 X4.2740 Y-4.6716
G01 X4.2885 Y-4.6583
G01 X4.3495 Y-4.6070
G01 X4.3574 Y-4.6005
G01 X4.3738 Y-4.5881
G01 X4.3908 Y-4.5766
G01 X4.3995 Y-4.5711
G01 X4.4173 Y-4.5609
G01 X4.4356 Y-4.5515
G01 X4.4543 Y-4.5430
G01 X4.4734 Y-4.5355
G01 X4.4831 Y-4.5321
G01 X4.5027 Y-4.5261
G01 X4.5216 Y-4.5212
G01 X4.5103 Y-4.5014
G01 X4.5012 Y-4.4833
G01 X4.4570 Y-4.3896
G01 X4.4492 Y-4.3708
G01 X4.4450 Y-4.3594
G00 Z2.0000
G00 X4.1939 Y-5.6735
G01 F60.00
G01 Z-0.1500
G01 F240.00
G01 X4.1764 Y-5.7360
G01 X4.1702 Y-5.7539
G01 X4.1653 Y-5.7657
G01 X4.1776 Y-5.7526
G01 X4.1939 Y-5.7374
G01 X4.1939 Y-5.6735
G00 Z2.0000
G00 X4.2016 Y-6.0750
G01 F60.00
G01 Z-0.1500
G01 F240.00
G01 X4.2016 Y-6.6250
G01 X4.2030 Y-6.6543
G01 X4.2065 Y-6.6785
G01 X4.2083 Y-6.6879
G01 X4.2144 Y-6.7116
G01 X4.2243 Y-6.7392
G01 X4.2368 Y-6.7657
G01 X4.2532 Y-6.7928
G01 X4.2709 Y-6.8162
G01 X4.2873 Y-6.8343
G01 X4.2925 Y-6.8394
G01 X4.3088 Y-6.8541
G01 X4.3145 Y-6.8587
G01 X4.3342 Y-6.8732
G01 X4.3514 Y-6.8836
G01 X4.3514 Y-7.2400
G01 X4.3534 Y-7.2766
G01 X4.3581 Y-7.3080
G01 X4.3651 Y-7.3365
G01 X4.3680 Y-7.3458
G01 X4.3789 Y-7.3756
G01 X4.3927 Y-7.4045
G01 X4.3957 Y-7.4130
G01 X4.4008 Y-7.4253
G01 X4.4180 Y-7.4618
G01 X4.4230 Y-7.4701
G01 X4.4490 Y-7.5071
G01 X4.4534 Y-7.5129
G01 X4.4582 Y-7.5184
G01 X5.0497 Y-8.1099
G01 X5.0610 Y-8.1202
G01 X5.0712 Y-8.1273
G01 X5.1186 Y-8.1516
G01 X5.4802 Y-8.5131
G01 X5.4728 Y-8.5293
G01 X5.4424 Y-8.6147
G01 X5.4198 Y-8.7050
G01 X5.4061 Y-8.7970
G01 X5.4017 Y-8.8852
G01 X5.4017 Y-8.8948
G01 X5.4061 Y-8.9830
G01 X5.4189 Y-9.0703
G01 X5.4208 Y-9.0797
G01 X5.4411 Y-9.1607
G01 X5.4439 Y-9.1699
G01 X5.4737 Y-9.2530
G01 X5.5135 Y-9.3371
G01 X5.5614 Y-9.4169
G01 X5.6168 Y-9.4917
G01 X5.6793 Y-9.5607
G01 X5.7447 Y-9.6200
G01 X5.7521 Y-9.6261
G01 X5.8231 Y-9.6786
G01 X5.8987 Y-9.7241
G01 X5.9072 Y-9.7286
G01 X5.9826 Y-9.7643
G01 X5.9893 Y-9.7672
G01 X6.0014 Y-9.7715
G01 X6.0015 Y-9.9084
G01 X6.0031 Y-9.9402
G01 X6.0077 Y-9.9716
G01 X6.0164 Y-10.0072
G01 X6.0280 Y-10.0394
G01 X6.0426 Y-10.0703
G01 X6.0602 Y-10.0997
G01 X6.0805 Y-10.1271
G01 X6.1035 Y-10.1525
G01 X6.5913 Y-10.6402
G01 X6.5736 Y-10.6489
G01 X6.5484 Y-10.6640
G01 X6.5425 Y-10.6681
G01 X6.5171 Y-10.6872
G01 X6.4936 Y-10.7086
G01 X6.4738 Y-10.7303
G01 X6.4677 Y-10.7378
G01 X6.4516 Y-10.7594
G01 X6.4327 Y-10.7907
G01 X6.4200 Y-10.8172
G01 X6.4163 Y-10.8262
G01 X6.4066 Y-10.8539
G01 X6.3993 Y-10.8823
G01 X6.3974 Y-10.8918
G01 X6.3935 Y-10.9184
G01 X6.3916 Y-10.9550
G01 X6.3916 Y-11.9074
G01 X6.3929 Y-11.9343
G01 X6.3938 Y-11.9439
G01 X6.3982 Y-11.9730
G01 X6.4053 Y-12.0015
G01 X6.4081 Y-12.0107
G01 X6.4181 Y-12.0383
G01 X6.4327 Y-12.0693
G01 X6.4477 Y-12.0945
G01 X6.4531 Y-12.1025
G01 X6.4706 Y-12.1261
G01 X6.4903 Y-12.1479
G01 X6.4971 Y-12.1547
G01 X6.5189 Y-12.1744
G01 X6.5464 Y-12.1947
G01 X6.5757 Y-12.2123
G01 X6.6022 Y-12.2250
G01 X6.6112 Y-12.2287
G01 X6.6365 Y-12.2377
G01 X6.6435 Y-12.2397
G01 X6.6720 Y-12.2468
G01 X6.7011 Y-12.2512
G01 X6.7107 Y-12.2521
G01 X6.7400 Y-12.2534
G01 X7.2400 Y-12.2534
G01 X7.2693 Y-12.2521
G01 X7.2789 Y-12.2512
G01 X7.3080 Y-12.2468
G01 X7.3411 Y-12.2384
G01 X7.3733 Y-12.2269
G01 X7.4043 Y-12.2123
G01 X7.4295 Y-12.1973
G01 X7.4375 Y-12.1919
G01 X7.4611 Y-12.1744
G01 X7.4829 Y-12.1547
G01 X7.4897 Y-12.1479
G01 X7.5094 Y-12.1261
G01 X7.5297 Y-12.0986
G01 X7.5473 Y-12.0693
G01 X7.5600 Y-12.0428
G01 X7.5637 Y-12.0338
G01 X7.5734 Y-12.0061
G01 X7.5807 Y-11.9777
G01 X7.5826 Y-11.9682
G01 X7.5865 Y-11.9416
G01 X7.5884 Y-11.9050
G01 X7.5884 Y-10.9550
G01 X7.5871 Y-10.9257
G01 X7.5862 Y-10.9161
G01 X7.5818 Y-10.8870
G01 X7.5741 Y-10.8562
G01 X7.5619 Y-10.8217
G01 X7.5495 Y-10.7951
G01 X7.5449 Y-10.7865
G01 X7.5297 Y-10.7614
G01 X7.5123 Y-10.7378
G01 X7.5062 Y-10.7303
G01 X7.4864 Y-10.7086
G01 X7.4647 Y-10.6888
G01 X7.4572 Y-10.6827
G01 X7.4336 Y-10.6653
G01 X7.4085 Y-10.6501
G01 X7.3999 Y-10.6455
G01 X7.3733 Y-10.6331
G01 X7.3457 Y-10.6231
G01 X7.3386 Y-10.6208
G01 X7.3385 Y-10.5436
G01 X7.3371 Y-10.5142
G01 X7.3319 Y-10.4780
G01 X7.3242 Y-10.4471
G01 X7.3120 Y-10.4126
G01 X7.2974 Y-10.3817
G01 X7.2798 Y-10.3523
G01 X7.2610 Y-10.3268
G01 X7.2365 Y-10.2995
G01 X6.7059 Y-9.7689
G01 X6.7174 Y-9.7643
G01 X6.7971 Y-9.7265
G01 X6.8769 Y-9.6786
G01 X6.9517 Y-9.6232
G01 X7.0207 Y-9.5607
G01 X7.0832 Y-9.4917
G01 X7.1386 Y-9.4169
G01 X7.1865 Y-9.3371
G01 X7.2263 Y-9.2530
G01 X7.2576 Y-9.1653
G01 X7.2802 Y-9.0750
G01 X7.2939 Y-8.9830
G01 X7.2984 Y-8.8900
G01 X7.2939 Y-8.7970
G01 X7.2802 Y-8.7050
G01 X7.2576 Y-8.6147
G01 X7.2280 Y-8.5316
G01 X7.2243 Y-8.5226
G01 X7.1865 Y-8.4429
G01 X7.1386 Y-8.3631
G01 X7.0832 Y-8.2883
G01 X7.0240 Y-8.2228
G01 X7.0172 Y-8.2160
G01 X6.9553 Y-8.1600
G01 X6.9479 Y-8.1539
G01 X6.8769 Y-8.1014
G01 X6.8013 Y-8.0559
G01 X6.7950 Y-8.0524
G01 X6.7130 Y-8.0137
G01 X6.6299 Y-7.9839
G01 X6.6207 Y-7.9811
G01 X6.5350 Y-7.9598
G01 X6.4478 Y-7.9467
G01 X6.4381 Y-7.9458
G01 X6.3548 Y-7.9417
G01 X6.3452 Y-7.9417
G01 X6.2570 Y-7.9461
G01 X6.1650 Y-7.9598
G01 X6.0747 Y-7.9824
G01 X5.9893 Y-8.0128
G01 X5.9731 Y-8.0202
G01 X5.7444 Y-7.7915
G01 X5.9203 Y-7.7094
G01 X6.0719 Y-7.6687
G01 X6.0828 Y-7.6645
G01 X6.1293 Y-7.6419
G01 X6.1358 Y-7.6382
G01 X6.1439 Y-7.6326
G01 X6.1514 Y-7.6263
G01 X6.1583 Y-7.6192
G01 X6.1629 Y-7.6134
G01 X6.2048 Y-7.5575
G01 X6.2115 Y-7.5473
G01 X6.2169 Y-7.5363
G01 X6.2209 Y-7.5248
G01 X6.2234 Y-7.5128
G01 X6.2242 Y-7.5055
G01 X6.2294 Y-7.4309
G01 X6.2289 Y-7.4187
G01 X6.2269 Y-7.4067
G01 X6.2234 Y-7.3950
G01 X6.2185 Y-7.3838
G01 X6.1839 Y-7.3203
G01 X6.1790 Y-7.3123
G01 X6.1749 Y-7.3066
G01 X6.1703 Y-7.3013
G01 X6.1512 Y-7.2820
G01 X6.1424 Y-7.2740
G01 X6.1346 Y-7.2683
G01 X6.1262 Y-7.2634
G01 X6.0925 Y-7.2458
G01 X6.0864 Y-7.2410
G01 X6.0803 Y-7.2370
G01 X6.0718 Y-7.2324
G01 X6.0652 Y-7.2295
G01 X6.0584 Y-7.2270
G01 X5.9011 Y-7.1780
G01 X5.7760 Y-7.1024
G01 X5.6819 Y-7.0084
G01 X5.6750 Y-7.0021
G01 X5.6694 Y-6.9978
G01 X5.6212 Y-6.9667
G01 X5.6127 Y-6.9618
G01 X5.6060 Y-6.9587
G01 X5.5991 Y-6.9561
G01 X5.5896 Y-6.9534
G01 X5.5823 Y-6.9521
G01 X5.5750 Y-6.9513
G01 X5.5053 Y-6.9463
G01 X5.4955 Y-6.9461
G01 X5.4834 Y-6.9472
G01 X5.4738 Y-6.9491
G01 X5.4645 Y-6.9520
G01 X5.4533 Y-6.9569
G01 X5.3877 Y-6.9927
G01 X5.3818 Y-6.9965
G01 X5.3743 Y-7.0021
G01 X5.3673 Y-7.0084
G01 X5.2737 Y-7.1020
G01 X5.1487 Y-7.1776
G01 X5.1349 Y-7.1819
G01 X5.0486 Y-7.0956
G01 X5.0486 Y-6.8836
G01 X5.0658 Y-6.8732
G01 X5.0874 Y-6.8572
G01 X5.1110 Y-6.8360
G01 X5.1275 Y-6.8180
G01 X5.1337 Y-6.8105
G01 X5.1482 Y-6.7908
G01 X5.1620 Y-6.7678
G01 X5.1757 Y-6.7392
G01 X5.1841 Y-6.7162
G01 X5.1869 Y-6.7070
G01 X5.1927 Y-6.6832
G01 X5.1964 Y-6.6590
G01 X5.1974 Y-6.6494
G01 X5.1984 Y-6.6250
G01 X5.1984 Y-6.0750
G01 X5.1974 Y-6.0506
G01 X5.1964 Y-6.0410
G01 X5.1927 Y-6.0168
G01 X5.1869 Y-5.9930
G01 X5.1849 Y-5.9861
G01 X5.1775 Y-5.9653
G01 X5.1738 Y-5.9564
G01 X5.1632 Y-5.9343
G01 X5.1482 Y-5.9092
G01 X5.1307 Y-5.8857
G01 X5.1093 Y-5.8623
G01 X5.0912 Y-5.8459
G01 X5.0855 Y-5.8413
G01 X5.0658 Y-5.8268
G01 X5.0486 Y-5.8164
G01 X5.0486 Y-5.6044
G01 X5.1694 Y-5.4836
G01 X5.1722 Y-5.4913
G01 X5.1764 Y-5.5002
G01 X5.1801 Y-5.5065
G01 X5.1858 Y-5.5145
G01 X5.1905 Y-5.5201
G01 X5.2393 Y-5.5733
G01 X5.2461 Y-5.5797
G01 X5.2535 Y-5.5855
G01 X5.2737 Y-5.5980
G01 X5.3674 Y-5.6916
G01 X5.3743 Y-5.6979
G01 X5.3818 Y-5.7035
G01 X5.4323 Y-5.7359
G01 X5.4433 Y-5.7413
G01 X5.4549 Y-5.7454
G01 X5.4645 Y-5.7475
G01 X5.4743 Y-5.7487
G01 X5.5464 Y-5.7538
G01 X5.5538 Y-5.7539
G01 X5.5635 Y-5.7532
G01 X5.5707 Y-5.7520
G01 X5.5802 Y-5.7495
G01 X5.5871 Y-5.7471
G01 X5.5938 Y-5.7441
G01 X5.6595 Y-5.7084
G01 X5.6675 Y-5.7035
G01 X5.6750 Y-5.6979
G01 X5.6819 Y-5.6916
G01 X5.7760 Y-5.5976
G01 X5.9198 Y-5.5106
G01 X5.9258 Y-5.5065
G01 X5.9311 Y-5.5022
G01 X5.9546 Y-5.4859
G01 X5.9625 Y-5.4795
G01 X6.0019 Y-5.4401
G01 X6.0235 Y-5.4135
G01 X6.0277 Y-5.4076
G01 X6.0314 Y-5.4014
G01 X6.0357 Y-5.3928
G01 X6.0391 Y-5.3837
G01 X6.0595 Y-5.3144
G01 X6.0621 Y-5.3030
G01 X6.0630 Y-5.2960
G01 X6.0634 Y-5.2866
G01 X6.0634 Y-4.8478
G01 X6.1194 Y-4.8275
G01 X6.2083 Y-4.7855
G01 X6.2146 Y-4.7820
G01 X6.3009 Y-4.7300
G01 X6.3779 Y-4.6729
G01 X6.3854 Y-4.6667
G01 X6.4581 Y-4.6006
G01 X6.5258 Y-4.5261
G01 X6.5304 Y-4.5204
G01 X6.5888 Y-4.4414
G01 X6.6395 Y-4.3571
G01 X6.6440 Y-4.3486
G01 X6.6860 Y-4.2597
G01 X6.7192 Y-4.1672
G01 X6.7220 Y-4.1579
G01 X6.7447 Y-4.0672
G01 X6.7466 Y-4.0578
G01 X6.7609 Y-3.9605
G01 X6.7658 Y-3.8623
G01 X6.7659 Y-3.7601
G01 X6.7611 Y-3.6619
G01 X6.7466 Y-3.5622
G01 X6.7447 Y-3.5528
G01 X6.7207 Y-3.4574
G01 X6.6860 Y-3.3603
G01 X6.6419 Y-3.2671
G01 X6.5888 Y-3.1786
G01 X6.5274 Y-3.0958
G01 X6.4615 Y-3.0229
G01 X6.4564 Y-3.0177
G01 X6.3817 Y-2.9501
G01 X6.3028 Y-2.8914
G01 X6.2969 Y-2.8873
G01 X6.2146 Y-2.8380
G01 X6.2083 Y-2.8345
G01 X6.1194 Y-2.7925
G01 X6.0634 Y-2.7722
G01 X6.0634 Y-2.4505
G01 X6.2608 Y-2.5183
G01 X6.4581 Y-2.6250
G01 X6.5943 Y-2.7310
G01 X6.6007 Y-2.7356
G01 X6.6236 Y-2.7503
G01 X6.6345 Y-2.7555
G01 X6.6459 Y-2.7594
G01 X6.7212 Y-2.7758
G01 X6.7333 Y-2.7774
G01 X6.7455 Y-2.7774
G01 X6.7577 Y-2.7760
G01 X6.7672 Y-2.7737
G01 X6.7741 Y-2.7714
G01 X6.8419 Y-2.7461
G01 X6.8529 Y-2.7409
G01 X6.8612 Y-2.7357
G01 X6.8708 Y-2.7281
G01 X6.8761 Y-2.7231
G01 X6.8810 Y-2.7176
G01 X6.9273 Y-2.6559
G01 X6.9323 Y-2.6480
G01 X6.9366 Y-2.6397
G01 X6.9441 Y-2.6202
G01 X6.9466 Y-2.6105
G01 X6.9549 Y-2.5647
G01 X6.9562 Y-2.5547
G01 X6.9564 Y-2.5472
G01 X6.9563 Y-0.1198
G01 X6.9558 Y-0.1128
G01 X6.9547 Y-0.1059
G01 X6.9418 Y-0.0473
G01 X6.9396 Y-0.0402
G01 X6.9369 Y-0.0334
G01 X6.9313 Y-0.0225
G01 X6.9273 Y-0.0163
G01 X6.9228 Y-0.0104
G01 X6.8754 Y0.0443
G01 X6.8704 Y0.0496
G01 X6.8650 Y0.0546
G01 X6.8573 Y0.0606
G01 X6.8490 Y0.0658
G01 X6.8403 Y0.0701
G01 X6.8288 Y0.0743
G01 X6.7595 Y0.0946
G01 X6.7480 Y0.0969
G01 X6.7363 Y0.0979
G01 X4.9428 Y0.0978
G01 X4.9358 Y0.0973
G01 X4.9289 Y0.0962
G01 X4.8703 Y0.0833
G01 X4.8586 Y0.0794
G01 X4.8519 Y0.0763
G01 X4.8455 Y0.0728
G01 X4.8393 Y0.0688
G01 X4.8334 Y0.0643
G01 X4.7787 Y0.0169
G01 X4.7734 Y0.0119
G01 X4.7668 Y0.0047
G01 X4.7610 Y-0.0032
G01 X4.7572 Y-0.0095
G01 X4.7529 Y-0.0182
G01 X4.7487 Y-0.0297
G01 X4.7284 Y-0.0990
G01 X4.7261 Y-0.1105
G01 X4.7253 Y-0.1175
G01 X4.7251 Y-0.1245
G01 X4.7251 Y-2.3853
G01 X4.7253 Y-2.3927
G01 X4.7262 Y-2.4001
G01 X4.7352 Y-2.4502
G01 X4.7378 Y-2.4594
G01 X4.7413 Y-2.4683
G01 X4.7456 Y-2.4769
G01 X4.7507 Y-2.4850
G01 X4.7953 Y-2.5449
G01 X4.8034 Y-2.5541
G01 X4.8125 Y-2.5621
G01 X4.8227 Y-2.5690
G01 X4.8335 Y-2.5746
G01 X4.9057 Y-2.6019
G01 X4.9127 Y-2.6041
G01 X4.9223 Y-2.6061
G01 X4.9320 Y-2.6072
G01 X4.9393 Y-2.6074
G01 X4.9491 Y-2.6068
G01 X4.9588 Y-2.6052
G01 X5.0294 Y-2.5901
G01 X5.0406 Y-2.5867
G01 X5.0471 Y-2.5841
G01 X5.0534 Y-2.5809
G01 X5.1692 Y-2.5182
G01 X5.3666 Y-2.4505
G01 X5.3666 Y-2.7722
G01 X5.3106 Y-2.7925
G01 X5.2217 Y-2.8345
G01 X5.2154 Y-2.8380
G01 X5.1331 Y-2.8873
G01 X5.1272 Y-2.8914
G01 X5.0483 Y-2.9501
G01 X4.9754 Y-3.0160
G01 X4.9702 Y-3.0211
G01 X4.9026 Y-3.0958
G01 X4.8439 Y-3.1747
G01 X4.8386 Y-3.1827
G01 X4.7881 Y-3.2671
G01 X4.7460 Y-3.3559
G01 X4.7423 Y-3.3648
G01 X4.7108 Y-3.4528
G01 X4.7080 Y-3.4621
G01 X4.6853 Y-3.5528
G01 X4.6834 Y-3.5622
G01 X4.6691 Y-3.6595
G01 X4.6641 Y-3.7625
G01 X4.6641 Y-3.8599
G01 X4.6688 Y-3.9557
G01 X4.6694 Y-3.9629
G01 X4.6842 Y-4.0625
G01 X4.7080 Y-4.1579
G01 X4.7108 Y-4.1672
G01 X4.7423 Y-4.2552
G01 X4.7460 Y-4.2641
G01 X4.7881 Y-4.3529
G01 X4.8398 Y-4.4394
G01 X4.8996 Y-4.5204
G01 X4.9042 Y-4.5261
G01 X4.9719 Y-4.6006
G01 X5.0214 Y-4.6457
G01 X4.8033 Y-4.8637
G01 X4.7931 Y-4.8565
G01 X4.7845 Y-4.8516
G01 X4.7236 Y-4.8250
G01 X4.7169 Y-4.8223
G01 X4.7077 Y-4.8196
G01 X4.7006 Y-4.8182
G01 X4.6935 Y-4.8172
G01 X4.6839 Y-4.8168
G01 X4.6743 Y-4.8173
G01 X4.5978 Y-4.8271
G01 X4.5882 Y-4.8293
G01 X4.5790 Y-4.8324
G01 X4.5701 Y-4.8364
G01 X4.5616 Y-4.8413
G01 X4.5518 Y-4.8485
G01 X4.4982 Y-4.8934
G01 X4.4913 Y-4.8998
G01 X4.4851 Y-4.9067
G01 X4.4795 Y-4.9143
G01 X4.3907 Y-5.0479
G01 X4.3736 Y-5.0813
G01 X4.3700 Y-5.0904
G01 X4.3673 Y-5.0999
G01 X4.3659 Y-5.1071
G01 X4.3651 Y-5.1145
G01 X4.3597 Y-5.1865
G01 X4.3596 Y-5.1935
G01 X4.3602 Y-5.2028
G01 X4.3613 Y-5.2098
G01 X4.3647 Y-5.2258
G01 X4.3685 Y-5.2815
G01 X4.3611 Y-5.3798
G01 X4.3577 Y-5.3944
G01 X4.3534 Y-5.4234
G01 X4.3515 Y-5.4576
G01 X4.3514 Y-5.8164
G01 X4.3342 Y-5.8268
G01 X4.3126 Y-5.8428
G01 X4.2890 Y-5.8640
G01 X4.2725 Y-5.8820
G01 X4.2663 Y-5.8895
G01 X4.2518 Y-5.9092
G01 X4.2380 Y-5.9322
G01 X4.2243 Y-5.9608
G01 X4.2159 Y-5.9838
G01 X4.2131 Y-5.9930
G01 X4.2073 Y-6.0168
G01 X4.2036 Y-6.0410
G01 X4.2026 Y-6.0506
G01 X4.2016 Y-6.0750
G00 Z2.0000
G00 X4.1653 Y-6.9343
G01 F60.00
G01 Z-0.1500
G01 F240.00
G01 X4.1702 Y-6.9461
G01 X4.1764 Y-6.9640
G01 X4.1939 Y-7.0265
G01 X4.1939 Y-6.9626
G01 X4.1776 Y-6.9474
G01 X4.1653 Y-6.9343
G00 Z2.0000
G00 X5.5366 Y-6.0687
G01 F60.00
G01 Z-0.1500
G01 F240.00
G01 X5.5134 Y-6.0674
G01 X5.5134 Y-6.6313
G01 X5.5366 Y-6.6327
G01 X5.5366 Y-6.0687
G00 Z2.0000
G00 X5.8516 Y-6.0750
G01 F60.00
G01 Z-0.1500
G01 F240.00
G01 X5.8516 Y-6.6274
G01 X5.8528 Y-6.6518
G01 X5.8536 Y-6.6590
G01 X5.8573 Y-6.6832
G01 X5.8631 Y-6.7070
G01 X5.8659 Y-6.7162
G01 X5.8743 Y-6.7392
G01 X5.8846 Y-6.7614
G01 X5.8892 Y-6.7699
G01 X5.9018 Y-6.7908
G01 X5.9163 Y-6.8105
G01 X5.9225 Y-6.8180
G01 X5.9390 Y-6.8360
G01 X5.9607 Y-6.8557
G01 X5.9802 Y-6.8704
G01 X5.9883 Y-6.8757
G01 X6.0093 Y-6.8882
G01 X6.0314 Y-6.8988
G01 X6.0403 Y-6.9025
G01 X6.0634 Y-6.9106
G01 X6.0918 Y-6.9177
G01 X6.1160 Y-6.9214
G01 X6.1256 Y-6.9224
G01 X6.1500 Y-6.9234
G01 X6.5524 Y-6.9234
G01 X6.5768 Y-6.9222
G01 X6.5840 Y-6.9214
G01 X6.6082 Y-6.9177
G01 X6.6343 Y-6.9113
G01 X6.6597 Y-6.9025
G01 X6.6686 Y-6.8988
G01 X6.6907 Y-6.8882
G01 X6.7117 Y-6.8757
G01 X6.7198 Y-6.8704
G01 X6.7393 Y-6.8557
G01 X6.7627 Y-6.8343
G01 X6.7807 Y-6.8143
G01 X6.7954 Y-6.7948
G01 X6.7995 Y-6.7888
G01 X6.8120 Y-6.7678
G01 X6.8238 Y-6.7436
G01 X6.8266 Y-6.7370
G01 X6.8349 Y-6.7139
G01 X6.8390 Y-6.6986
G01 X7.7660 Y-6.6986
G01 X7.7701 Y-6.7139
G01 X7.7784 Y-6.7370
G01 X7.7812 Y-6.7436
G01 X7.7930 Y-6.7678
G01 X7.8068 Y-6.7908
G01 X7.8213 Y-6.8105
G01 X7.8275 Y-6.8180
G01 X7.8457 Y-6.8377
G01 X7.8657 Y-6.8557
G01 X7.8852 Y-6.8704
G01 X7.8933 Y-6.8757
G01 X7.9143 Y-6.8882
G01 X7.9364 Y-6.8988
G01 X7.9453 Y-6.9025
G01 X7.9684 Y-6.9106
G01 X7.9944 Y-6.9172
G01 X8.0257 Y-6.9220
G01 X8.0550 Y-6.9234
G01 X8.4550 Y-6.9234
G01 X8.4794 Y-6.9224
G01 X8.4890 Y-6.9214
G01 X8.5132 Y-6.9177
G01 X8.5416 Y-6.9106
G01 X8.5692 Y-6.9007
G01 X8.5978 Y-6.8870
G01 X8.6208 Y-6.8732
G01 X8.6405 Y-6.8587
G01 X8.6480 Y-6.8525
G01 X8.6660 Y-6.8360
G01 X8.6825 Y-6.8180
G01 X8.6887 Y-6.8105
G01 X8.7032 Y-6.7908
G01 X8.7158 Y-6.7699
G01 X8.7204 Y-6.7614
G01 X8.7307 Y-6.7392
G01 X8.7391 Y-6.7162
G01 X8.7419 Y-6.7070
G01 X8.7477 Y-6.6832
G01 X8.7514 Y-6.6590
G01 X8.7524 Y-6.6494
G01 X8.7534 Y-6.6250
G01 X8.7534 Y-6.0750
G01 X8.7520 Y-6.0457
G01 X8.7482 Y-6.0192
G01 X8.7406 Y-5.9884
G01 X8.7307 Y-5.9608
G01 X8.7182 Y-5.9343
G01 X8.7018 Y-5.9072
G01 X8.6841 Y-5.8838
G01 X8.6677 Y-5.8657
G01 X8.6625 Y-5.8606
G01 X8.6462 Y-5.8459
G01 X8.6405 Y-5.8413
G01 X8.6208 Y-5.8268
G01 X8.6036 Y-5.8164
G01 X8.6036 Y-4.9084
G01 X9.2123 Y-4.9083
G01 X9.2219 Y-4.9074
G01 X9.2314 Y-4.9055
G01 X9.2407 Y-4.9027
G01 X9.2496 Y-4.8990
G01 X9.2581 Y-4.8944
G01 X9.2661 Y-4.8891
G01 X9.2736 Y-4.8829
G01 X9.2788 Y-4.8779
G01 X9.2851 Y-4.8706
G01 X9.2894 Y-4.8647
G01 X9.2943 Y-4.8564
G01 X9.2985 Y-4.8477
G01 X9.3010 Y-4.8409
G01 X9.3036 Y-4.8316
G01 X9.3052 Y-4.8221
G01 X9.3058 Y-4.8148
G01 X9.3059 Y-4.1584
G01 X9.6090 Y-4.1584
G01 X9.6090 Y-4.8526
G01 X9.6043 Y-4.8963
G01 X9.6001 Y-4.9110
G01 X9.5986 Y-4.9203
G01 X9.5980 Y-4.9274
G01 X9.5999 Y-5.0043
G01 X9.6004 Y-5.0116
G01 X9.6014 Y-5.0188
G01 X9.6036 Y-5.0284
G01 X9.6058 Y-5.0353
G01 X9.6097 Y-5.0444
G01 X9.6143 Y-5.0529
G01 X9.6578 Y-5.1168
G01 X9.6639 Y-5.1244
G01 X9.6725 Y-5.1330
G01 X9.6782 Y-5.1377
G01 X9.6842 Y-5.1419
G01 X9.6905 Y-5.1457
G01 X9.6993 Y-5.1499
G01 X9.7681 Y-5.1790
G01 X9.7798 Y-5.1825
G01 X9.7919 Y-5.1845
G01 X9.8041 Y-5.1850
G01 X9.8163 Y-5.1840
G01 X9.8900 Y-5.1713
G01 X9.8971 Y-5.1696
G01 X9.9064 Y-5.1665
G01 X9.9153 Y-5.1626
G01 X9.9238 Y-5.1577
G01 X9.9318 Y-5.1521
G01 X9.9374 Y-5.1473
G01 X9.9906 Y-5.0985
G01 X9.9985 Y-5.0899
G01 X10.0028 Y-5.0843
G01 X10.0067 Y-5.0785
G01 X10.0571 Y-4.9950
G01 X10.1476 Y-4.9122
G01 X10.1936 Y-4.8807
G01 X10.3067 Y-4.8253
G01 X10.3692 Y-4.8104
G01 X10.3998 Y-4.8055
G01 X10.4709 Y-4.7999
G01 X11.4615 Y-4.7999
G01 X11.4738 Y-4.7996
G01 X11.4811 Y-4.7990
G01 X11.4907 Y-4.7975
G01 X11.4978 Y-4.7957
G01 X11.5047 Y-4.7934
G01 X11.5747 Y-4.7672
G01 X11.5856 Y-4.7617
G01 X11.5958 Y-4.7548
G01 X11.6032 Y-4.7485
G01 X11.6116 Y-4.7396
G01 X11.6565 Y-4.6798
G01 X11.6606 Y-4.6738
G01 X11.6644 Y-4.6675
G01 X11.6676 Y-4.6609
G01 X11.6703 Y-4.6541
G01 X11.6732 Y-4.6447
G01 X11.6754 Y-4.6327
G01 X11.6808 Y-4.5582
G01 X11.6811 Y-4.5508
G01 X11.6808 Y-4.5435
G01 X11.6800 Y-4.5362
G01 X11.6780 Y-4.5266
G01 X11.6751 Y-4.5173
G01 X11.6702 Y-4.5061
G01 X11.6356 Y-4.4426
G01 X11.6294 Y-4.4327
G01 X11.6236 Y-4.4253
G01 X11.6188 Y-4.4202
G01 X11.5354 Y-4.3369
G01 X11.4555 Y-4.2072
G01 X11.4073 Y-4.0620
G01 X11.3985 Y-3.9750
G01 X11.3985 Y-3.9536
G01 X11.7026 Y-3.9536
G01 X11.7035 Y-3.9666
G01 X11.7087 Y-4.0003
G01 X11.7166 Y-4.0311
G01 X11.7281 Y-4.0633
G01 X11.7427 Y-4.0943
G01 X11.7577 Y-4.1195
G01 X11.7616 Y-4.1256
G01 X11.7777 Y-4.1472
G01 X11.7838 Y-4.1547
G01 X11.8036 Y-4.1764
G01 X11.8289 Y-4.1994
G01 X11.8564 Y-4.2197
G01 X11.8815 Y-4.2349
G01 X11.8879 Y-4.2384
G01 X11.9122 Y-4.2500
G01 X11.9212 Y-4.2537
G01 X11.9489 Y-4.2634
G01 X11.9844 Y-4.2722
G01 X12.0158 Y-4.2768
G01 X12.0500 Y-4.2784
G01 X13.3500 Y-4.2784
G01 X13.3842 Y-4.2768
G01 X13.4180 Y-4.2718
G01 X13.4511 Y-4.2634
G01 X13.4833 Y-4.2519
G01 X13.5143 Y-4.2373
G01 X13.5436 Y-4.2197
G01 X13.5711 Y-4.1994
G01 X13.5947 Y-4.1781
G01 X13.6194 Y-4.1511
G01 X13.6397 Y-4.1236
G01 X13.6573 Y-4.0943
G01 X13.6710 Y-4.0656
G01 X13.6834 Y-4.0311
G01 X13.6913 Y-4.0003
G01 X13.6965 Y-3.9666
G01 X13.6974 Y-3.9534
G01 X14.0015 Y-3.9534
G01 X14.0015 Y-3.9750
G01 X13.9927 Y-4.0620
G01 X13.9445 Y-4.2072
G01 X13.8646 Y-4.3369
G01 X13.7812 Y-4.4202
G01 X13.7695 Y-4.4328
G01 X13.7636 Y-4.4406
G01 X13.7597 Y-4.4468
G01 X13.7563 Y-4.4532
G01 X13.7262 Y-4.5190
G01 X13.7226 Y-4.5280
G01 X13.7199 Y-4.5374
G01 X13.7182 Y-4.5471
G01 X13.7175 Y-4.5544
G01 X13.7174 Y-4.5641
G01 X13.7180 Y-4.5714
G01 X13.7287 Y-4.6454
G01 X13.7314 Y-4.6573
G01 X13.7357 Y-4.6688
G01 X13.7389 Y-4.6754
G01 X13.7426 Y-4.6817
G01 X13.7467 Y-4.6878
G01 X13.7513 Y-4.6935
G01 X13.8004 Y-4.7499
G01 X13.8075 Y-4.7566
G01 X13.8172 Y-4.7640
G01 X13.8235 Y-4.7678
G01 X13.8300 Y-4.7711
G01 X13.8368 Y-4.7740
G01 X13.8437 Y-4.7763
G01 X13.9153 Y-4.7972
G01 X13.9268 Y-4.7993
G01 X13.9385 Y-4.7999
G01 X15.1178 Y-4.7999
G01 X15.1272 Y-4.7993
G01 X15.1341 Y-4.7982
G01 X15.1927 Y-4.7853
G01 X15.1998 Y-4.7831
G01 X15.2066 Y-4.7804
G01 X15.2133 Y-4.7772
G01 X15.2196 Y-4.7735
G01 X15.2257 Y-4.7693
G01 X15.2315 Y-4.7647
G01 X15.2861 Y-4.7173
G01 X15.2946 Y-4.7085
G01 X15.2992 Y-4.7028
G01 X15.3033 Y-4.6967
G01 X15.3069 Y-4.6904
G01 X15.3101 Y-4.6838
G01 X15.3143 Y-4.6723
G01 X15.3346 Y-4.6030
G01 X15.3369 Y-4.5915
G01 X15.3379 Y-4.5798
G01 X15.3379 Y-0.1245
G01 X15.3375 Y-0.1151
G01 X15.3362 Y-0.1059
G01 X15.3239 Y-0.0497
G01 X15.3219 Y-0.0426
G01 X15.3194 Y-0.0356
G01 X15.3163 Y-0.0289
G01 X15.3115 Y-0.0204
G01 X15.3073 Y-0.0143
G01 X15.3027 Y-0.0085
G01 X15.2553 Y0.0461
G01 X15.2502 Y0.0513
G01 X15.2447 Y0.0562
G01 X15.2388 Y0.0606
G01 X15.2326 Y0.0646
G01 X15.2240 Y0.0691
G01 X15.2126 Y0.0736
G01 X15.1432 Y0.0940
G01 X15.1364 Y0.0957
G01 X15.1295 Y0.0969
G01 X15.1225 Y0.0977
G01 X15.1155 Y0.0979
G01 X7.4875 Y0.0979
G01 X7.4781 Y0.0975
G01 X7.4689 Y0.0962
G01 X7.4127 Y0.0839
G01 X7.4056 Y0.0819
G01 X7.3986 Y0.0794
G01 X7.3897 Y0.0752
G01 X7.3834 Y0.0715
G01 X7.3773 Y0.0673
G01 X7.3715 Y0.0627
G01 X7.3169 Y0.0153
G01 X7.3084 Y0.0065
G01 X7.3038 Y0.0008
G01 X7.2997 Y-0.0053
G01 X7.2961 Y-0.0116
G01 X7.2929 Y-0.0182
G01 X7.2887 Y-0.0297
G01 X7.2684 Y-0.0990
G01 X7.2661 Y-0.1105
G01 X7.2652 Y-0.1198
G01 X7.2650 Y-2.1860
G01 X7.2655 Y-2.1954
G01 X7.2668 Y-2.2046
G01 X7.2803 Y-2.2656
G01 X7.2827 Y-2.2726
G01 X7.2856 Y-2.2794
G01 X7.2890 Y-2.2859
G01 X7.2942 Y-2.2942
G01 X7.3003 Y-2.3020
G01 X7.3461 Y-2.3548
G01 X7.3528 Y-2.3618
G01 X7.3602 Y-2.3682
G01 X7.3704 Y-2.3751
G01 X7.3790 Y-2.3796
G01 X7.3904 Y-2.3841
G01 X7.4620 Y-2.4051
G01 X7.4712 Y-2.4071
G01 X7.4828 Y-2.4083
G01 X7.9066 Y-2.4084
G01 X7.9066 Y-2.7116
G01 X7.3025 Y-2.7116
G01 X7.2929 Y-2.7120
G01 X7.2857 Y-2.7130
G01 X7.2786 Y-2.7145
G01 X7.2716 Y-2.7165
G01 X7.2648 Y-2.7190
G01 X7.2582 Y-2.7221
G01 X7.2519 Y-2.7256
G01 X7.2458 Y-2.7295
G01 X7.2400 Y-2.7339
G01 X7.2312 Y-2.7421
G01 X7.2264 Y-2.7475
G01 X7.2220 Y-2.7533
G01 X7.2181 Y-2.7594
G01 X7.2146 Y-2.7657
G01 X7.2115 Y-2.7723
G01 X7.2090 Y-2.7791
G01 X7.2064 Y-2.7884
G01 X7.2051 Y-2.7956
G01 X7.2043 Y-2.8028
G01 X7.2041 Y-2.8100
G01 X7.2041 Y-4.8100
G01 X7.2045 Y-4.8196
G01 X7.2059 Y-4.8292
G01 X7.2076 Y-4.8363
G01 X7.2098 Y-4.8432
G01 X7.2135 Y-4.8521
G01 X7.2181 Y-4.8606
G01 X7.2220 Y-4.8667
G01 X7.2264 Y-4.8725
G01 X7.2329 Y-4.8796
G01 X7.2382 Y-4.8845
G01 X7.2458 Y-4.8905
G01 X7.2519 Y-4.8944
G01 X7.2604 Y-4.8990
G01 X7.2671 Y-4.9019
G01 X7.2762 Y-4.9049
G01 X7.2833 Y-4.9066
G01 X7.2904 Y-4.9077
G01 X7.3025 Y-4.9084
G01 X7.9064 Y-4.9084
G01 X7.9064 Y-5.8164
G01 X7.8872 Y-5.8282
G01 X7.8638 Y-5.8459
G01 X7.8423 Y-5.8657
G01 X7.8259 Y-5.8838
G01 X7.8213 Y-5.8895
G01 X7.8068 Y-5.9092
G01 X7.7907 Y-5.9365
G01 X7.7784 Y-5.9630
G01 X7.7701 Y-5.9861
G01 X7.7660 Y-6.0014
G01 X6.8390 Y-6.0014
G01 X6.8349 Y-5.9861
G01 X6.8266 Y-5.9630
G01 X6.8154 Y-5.9386
G01 X6.8120 Y-5.9322
G01 X6.7982 Y-5.9092
G01 X6.7837 Y-5.8895
G01 X6.7791 Y-5.8838
G01 X6.7627 Y-5.8657
G01 X6.7393 Y-5.8443
G01 X6.7198 Y-5.8296
G01 X6.7117 Y-5.8243
G01 X6.6907 Y-5.8118
G01 X6.6686 Y-5.8012
G01 X6.6597 Y-5.7975
G01 X6.6366 Y-5.7894
G01 X6.6129 Y-5.7833
G01 X6.6035 Y-5.7815
G01 X6.5793 Y-5.7780
G01 X6.5524 Y-5.7766
G01 X6.1500 Y-5.7766
G01 X6.1183 Y-5.7783
G01 X6.0918 Y-5.7823
G01 X6.0634 Y-5.7894
G01 X6.0358 Y-5.7993
G01 X6.0093 Y-5.8118
G01 X5.9842 Y-5.8268
G01 X5.9607 Y-5.8443
G01 X5.9390 Y-5.8640
G01 X5.9225 Y-5.8820
G01 X5.9178 Y-5.8876
G01 X5.9046 Y-5.9052
G01 X5.8993 Y-5.9133
G01 X5.8857 Y-5.9365
G01 X5.8752 Y-5.9586
G01 X5.8725 Y-5.9653
G01 X5.8644 Y-5.9884
G01 X5.8573 Y-6.0168
G01 X5.8530 Y-6.0457
G01 X5.8516 Y-6.0750
G00 Z2.0000
G00 X5.7692 Y-5.8243
G01 F60.00
G01 Z-0.1500
G01 F240.00
G01 X5.7608 Y-5.8305
G01 X5.7507 Y-5.8374
G01 X5.7350 Y-5.8467
G01 X5.6681 Y-5.8831
G01 X5.6566 Y-5.8887
G01 X5.6449 Y-5.8936
G01 X5.6269 Y-5.9000
G01 X5.6147 Y-5.9034
G01 X5.6023 Y-5.9063
G01 X5.5898 Y-5.9085
G01 X5.5772 Y-5.9101
G01 X5.5645 Y-5.9111
G01 X5.5518 Y-5.9115
G01 X5.5327 Y-5.9108
G01 X5.4631 Y-5.9058
G01 X5.4503 Y-5.9046
G01 X5.4377 Y-5.9027
G01 X5.4251 Y-5.9002
G01 X5.4066 Y-5.8953
G01 X5.3884 Y-5.8890
G01 X5.3766 Y-5.8841
G01 X5.3651 Y-5.8786
G01 X5.3539 Y-5.8725
G01 X5.3429 Y-5.8658
G01 X5.2986 Y-5.8373
G01 X5.2815 Y-5.8254
G01 X5.2959 Y-5.8491
G01 X5.3021 Y-5.8601
G01 X5.3162 Y-5.8890
G01 X5.3236 Y-5.9063
G01 X5.3363 Y-5.9426
G01 X5.3397 Y-5.9547
G01 X5.3472 Y-5.9860
G01 X5.3522 Y-6.0178
G01 X5.3543 Y-6.0366
G01 X5.3560 Y-6.0750
G01 X5.3560 Y-6.6250
G01 X5.3557 Y-6.6376
G01 X5.3538 Y-6.6697
G01 X5.3494 Y-6.7016
G01 X5.3459 Y-6.7201
G01 X5.3381 Y-6.7513
G01 X5.3324 Y-6.7693
G01 X5.3213 Y-6.7995
G01 X5.3078 Y-6.8287
G01 X5.2991 Y-6.8454
G01 X5.2815 Y-6.8746
G01 X5.2986 Y-6.8627
G01 X5.3143 Y-6.8533
G01 X5.3812 Y-6.8169
G01 X5.3927 Y-6.8113
G01 X5.4044 Y-6.8064
G01 X5.4224 Y-6.8000
G01 X5.4346 Y-6.7966
G01 X5.4470 Y-6.7937
G01 X5.4595 Y-6.7915
G01 X5.4721 Y-6.7899
G01 X5.4848 Y-6.7889
G01 X5.4975 Y-6.7885
G01 X5.5165 Y-6.7892
G01 X5.5862 Y-6.7942
G01 X5.5990 Y-6.7954
G01 X5.6116 Y-6.7973
G01 X5.6242 Y-6.7998
G01 X5.6366 Y-6.8029
G01 X5.6488 Y-6.8066
G01 X5.6608 Y-6.8110
G01 X5.6726 Y-6.8159
G01 X5.6842 Y-6.8214
G01 X5.6954 Y-6.8275
G01 X5.7064 Y-6.8341
G01 X5.7507 Y-6.8626
G01 X5.7608 Y-6.8695
G01 X5.7692 Y-6.8757
G01 X5.7509 Y-6.8454
G01 X5.7422 Y-6.8287
G01 X5.7287 Y-6.7995
G01 X5.7176 Y-6.7693
G01 X5.7119 Y-6.7513
G01 X5.7041 Y-6.7201
G01 X5.7006 Y-6.7016
G01 X5.6962 Y-6.6697
G01 X5.6943 Y-6.6376
G01 X5.6940 Y-6.6250
G01 X5.6940 Y-6.0750
G01 X5.6957 Y-6.0366
G01 X5.6978 Y-6.0178
G01 X5.7028 Y-5.9860
G01 X5.7103 Y-5.9547
G01 X5.7137 Y-5.9426
G01 X5.7264 Y-5.9063
G01 X5.7338 Y-5.8890
G01 X5.7479 Y-5.8601
G01 X5.7541 Y-5.8491
G01 X5.7692 Y-5.8243
G00 Z2.0000
G00 X6.7544 Y-4.9700
G01 F60.00
G01 Z-0.1500
G01 F240.00
G01 X6.6922 Y-5.0262
G01 X6.6706 Y-5.0439
G01 X6.5730 Y-5.1163
G01 X6.5497 Y-5.1319
G01 X6.5360 Y-5.1403
G01 X6.5360 Y-5.2866
G01 X6.5357 Y-5.3040
G01 X6.5640 Y-5.3042
G01 X6.5780 Y-5.3047
G01 X6.6116 Y-5.3065
G01 X6.6256 Y-5.3077
G01 X6.6395 Y-5.3092
G01 X6.6728 Y-5.3140
G01 X6.7004 Y-5.3188
G01 X6.7278 Y-5.3249
G01 X6.7604 Y-5.3333
G01 X6.7738 Y-5.3372
G01 X6.7872 Y-5.3414
G01 X6.8189 Y-5.3526
G01 X6.8451 Y-5.3627
G01 X6.8707 Y-5.3740
G01 X6.9010 Y-5.3886
G01 X6.9135 Y-5.3950
G01 X6.9257 Y-5.4018
G01 X6.9547 Y-5.4189
G01 X6.9784 Y-5.4339
G01 X7.0013 Y-5.4501
G01 X7.0282 Y-5.4702
G01 X7.0391 Y-5.4790
G01 X7.0603 Y-5.4973
G01 X7.0852 Y-5.5200
G01 X7.0942 Y-5.5289
G01 X7.4339 Y-5.5289
G01 X7.4339 Y-5.3810
G01 X7.3025 Y-5.3810
G01 X7.2745 Y-5.3803
G01 X7.2465 Y-5.3783
G01 X7.2326 Y-5.3767
G01 X7.2187 Y-5.3748
G01 X7.1911 Y-5.3700
G01 X7.1638 Y-5.3639
G01 X7.1502 Y-5.3603
G01 X7.1234 Y-5.3522
G01 X7.0970 Y-5.3427
G01 X7.0711 Y-5.3320
G01 X7.0584 Y-5.3262
G01 X7.0333 Y-5.3136
G01 X7.0089 Y-5.2998
G01 X6.9853 Y-5.2848
G01 X6.9623 Y-5.2686
G01 X6.9403 Y-5.2514
G01 X6.9190 Y-5.2331
G01 X6.8987 Y-5.2138
G01 X6.8889 Y-5.2037
G01 X6.8701 Y-5.1830
G01 X6.8523 Y-5.1613
G01 X6.8357 Y-5.1388
G01 X6.8201 Y-5.1155
G01 X6.8057 Y-5.0914
G01 X6.7925 Y-5.0667
G01 X6.7805 Y-5.0414
G01 X6.7698 Y-5.0155
G01 X6.7603 Y-4.9891
G01 X6.7544 Y-4.9700
G00 Z2.0000
G00 X6.8890 Y-4.5536
G01 F60.00
G01 Z-0.1500
G01 F240.00
G01 X6.8563 Y-4.6079
G01 X6.8450 Y-4.6248
G01 X6.7773 Y-4.7162
G01 X6.7577 Y-4.7394
G01 X6.6949 Y-4.8087
G01 X6.6736 Y-4.8305
G01 X6.5893 Y-4.9069
G01 X6.5656 Y-4.9259
G01 X6.4905 Y-4.9816
G01 X6.4739 Y-4.9933
G01 X6.4568 Y-5.0041
G01 X6.3785 Y-5.0510
G01 X6.3785 Y-5.2866
G01 X6.3774 Y-5.3161
G01 X6.3743 Y-5.3455
G01 X6.3690 Y-5.3745
G01 X6.3617 Y-5.4031
G01 X6.3446 Y-5.4615
G01 X6.5500 Y-5.4615
G01 X6.5703 Y-5.4620
G01 X6.6000 Y-5.4636
G01 X6.6303 Y-5.4669
G01 X6.6697 Y-5.4733
G01 X6.7085 Y-5.4825
G01 X6.7378 Y-5.4910
G01 X6.7658 Y-5.5009
G01 X6.7848 Y-5.5082
G01 X6.8211 Y-5.5248
G01 X6.8481 Y-5.5388
G01 X6.8737 Y-5.5540
G01 X6.8908 Y-5.5649
G01 X6.9074 Y-5.5766
G01 X6.9313 Y-5.5944
G01 X6.9470 Y-5.6073
G01 X6.9691 Y-5.6272
G01 X6.9909 Y-5.6485
G01 X7.0110 Y-5.6704
G01 X7.0247 Y-5.6864
G01 X7.5803 Y-5.6864
G01 X7.5914 Y-5.6734
G01 X7.5914 Y-5.2235
G01 X7.2924 Y-5.2234
G01 X7.2620 Y-5.2215
G01 X7.2418 Y-5.2190
G01 X7.2218 Y-5.2155
G01 X7.1922 Y-5.2085
G01 X7.1632 Y-5.1993
G01 X7.1349 Y-5.1880
G01 X7.1076 Y-5.1747
G01 X7.0813 Y-5.1593
G01 X7.0562 Y-5.1421
G01 X7.0402 Y-5.1296
G01 X7.0174 Y-5.1095
G01 X6.9961 Y-5.0877
G01 X6.9765 Y-5.0644
G01 X6.9587 Y-5.0397
G01 X6.9427 Y-5.0138
G01 X6.9287 Y-4.9868
G01 X6.9167 Y-4.9588
G01 X6.9068 Y-4.9300
G01 X6.8991 Y-4.9006
G01 X6.8951 Y-4.8807
G01 X6.8921 Y-4.8606
G01 X6.8901 Y-4.8404
G01 X6.8891 Y-4.8201
G01 X6.8890 Y-4.5536
G00 Z2.0000
G00 X6.8890 Y-3.0648
G01 F60.00
G01 Z-0.1500
G01 F240.00
G01 X6.8882 Y-3.0651
G01 X6.8890 Y-3.0664
G01 X6.8890 Y-3.0648
G00 Z2.0000
G00 X7.0537 Y-2.7499
G01 F60.00
G01 Z-0.1500
G01 F240.00
G01 X7.0101 Y-2.8082
G01 X6.9981 Y-2.8230
G01 X6.9851 Y-2.8369
G01 X6.9758 Y-2.8456
G01 X6.9661 Y-2.8538
G01 X6.9560 Y-2.8616
G01 X6.9456 Y-2.8688
G01 X6.9348 Y-2.8755
G01 X6.9180 Y-2.8845
G01 X6.9064 Y-2.8898
G01 X6.8946 Y-2.8946
G01 X6.8292 Y-2.9190
G01 X6.8172 Y-2.9231
G01 X6.8049 Y-2.9267
G01 X6.7926 Y-2.9296
G01 X6.7801 Y-2.9319
G01 X6.7675 Y-2.9336
G01 X6.7548 Y-2.9347
G01 X6.7421 Y-2.9351
G01 X6.7294 Y-2.9349
G01 X6.7167 Y-2.9341
G01 X6.7041 Y-2.9326
G01 X6.6853 Y-2.9293
G01 X6.6170 Y-2.9144
G01 X6.6049 Y-2.9115
G01 X6.5870 Y-2.9059
G01 X6.5753 Y-2.9015
G01 X6.5638 Y-2.8965
G01 X6.5492 Y-2.8892
G01 X6.5650 Y-2.9036
G01 X6.5739 Y-2.9125
G01 X6.6410 Y-2.9863
G01 X6.6492 Y-2.9959
G01 X6.6569 Y-3.0058
G01 X6.7126 Y-3.0808
G01 X6.7232 Y-3.0964
G01 X6.7746 Y-3.1819
G01 X6.7808 Y-3.1928
G01 X6.7864 Y-3.2041
G01 X6.8264 Y-3.2886
G01 X6.8315 Y-3.3000
G01 X6.8360 Y-3.3118
G01 X6.8675 Y-3.3998
G01 X6.8714 Y-3.4117
G01 X6.8748 Y-3.4238
G01 X6.8975 Y-3.5145
G01 X6.9002 Y-3.5267
G01 X6.9024 Y-3.5391
G01 X6.9161 Y-3.6316
G01 X6.9177 Y-3.6440
G01 X6.9186 Y-3.6566
G01 X6.9232 Y-3.7499
G01 X6.9235 Y-3.7625
G01 X6.9234 Y-3.8638
G01 X6.9182 Y-3.9697
G01 X6.9161 Y-3.9884
G01 X6.9024 Y-4.0809
G01 X6.9002 Y-4.0933
G01 X6.8975 Y-4.1055
G01 X6.8748 Y-4.1962
G01 X6.8714 Y-4.2083
G01 X6.8675 Y-4.2202
G01 X6.8360 Y-4.3082
G01 X6.8315 Y-4.3200
G01 X6.8264 Y-4.3314
G01 X6.7864 Y-4.4159
G01 X6.7808 Y-4.4272
G01 X6.7746 Y-4.4381
G01 X6.7265 Y-4.5183
G01 X6.7198 Y-4.5289
G01 X6.7126 Y-4.5392
G01 X6.6531 Y-4.6192
G01 X6.6410 Y-4.6337
G01 X6.5782 Y-4.7029
G01 X6.5695 Y-4.7120
G01 X6.5604 Y-4.7207
G01 X6.4912 Y-4.7835
G01 X6.4767 Y-4.7956
G01 X6.3967 Y-4.8551
G01 X6.3811 Y-4.8657
G01 X6.2956 Y-4.9171
G01 X6.2847 Y-4.9233
G01 X6.2734 Y-4.9289
G01 X6.2210 Y-4.9537
G01 X6.2210 Y-5.2866
G01 X6.2203 Y-5.3049
G01 X6.2192 Y-5.3170
G01 X6.2174 Y-5.3291
G01 X6.2138 Y-5.3470
G01 X6.2106 Y-5.3588
G01 X6.1891 Y-5.4318
G01 X6.1849 Y-5.4437
G01 X6.1802 Y-5.4553
G01 X6.1721 Y-5.4723
G01 X6.1660 Y-5.4833
G01 X6.1594 Y-5.4940
G01 X6.1523 Y-5.5043
G01 X6.1236 Y-5.5402
G01 X6.1097 Y-5.5553
G01 X6.0776 Y-5.5874
G01 X6.0630 Y-5.6009
G01 X6.0474 Y-5.6132
G01 X6.0058 Y-5.6426
G01 X6.0176 Y-5.6387
G01 X6.0297 Y-5.6353
G01 X6.0549 Y-5.6291
G01 X6.0672 Y-5.6266
G01 X6.1053 Y-5.6212
G01 X6.1437 Y-5.6191
G01 X6.5500 Y-5.6190
G01 X6.5822 Y-5.6203
G01 X6.6009 Y-5.6219
G01 X6.6328 Y-5.6266
G01 X6.6512 Y-5.6305
G01 X6.6824 Y-5.6387
G01 X6.7128 Y-5.6492
G01 X6.7303 Y-5.6562
G01 X6.7594 Y-5.6700
G01 X6.7704 Y-5.6759
G01 X6.7981 Y-5.6924
G01 X6.8136 Y-5.7031
G01 X6.8393 Y-5.7225
G01 X6.8633 Y-5.7439
G01 X6.8768 Y-5.7571
G01 X6.8984 Y-5.7809
G01 X6.9102 Y-5.7956
G01 X6.9291 Y-5.8217
G01 X6.9428 Y-5.8439
G01 X7.6622 Y-5.8439
G01 X7.6724 Y-5.8269
G01 X7.6794 Y-5.8165
G01 X7.7025 Y-5.7857
G01 X7.7282 Y-5.7571
G01 X7.7371 Y-5.7482
G01 X7.7489 Y-5.7374
G01 X7.7489 Y-5.0660
G01 X7.2962 Y-5.0659
G01 X7.2774 Y-5.0647
G01 X7.2587 Y-5.0622
G01 X7.2403 Y-5.0583
G01 X7.2282 Y-5.0549
G01 X7.2163 Y-5.0510
G01 X7.1988 Y-5.0440
G01 X7.1818 Y-5.0357
G01 X7.1656 Y-5.0263
G01 X7.1551 Y-5.0193
G01 X7.1401 Y-5.0079
G01 X7.1260 Y-4.9954
G01 X7.1128 Y-4.9819
G01 X7.1007 Y-4.9675
G01 X7.0897 Y-4.9522
G01 X7.0798 Y-4.9362
G01 X7.0739 Y-4.9251
G01 X7.0660 Y-4.9080
G01 X7.0594 Y-4.8903
G01 X7.0542 Y-4.8722
G01 X7.0514 Y-4.8599
G01 X7.0493 Y-4.8476
G01 X7.0478 Y-4.8351
G01 X7.0468 Y-4.8226
G01 X7.0465 Y-4.8100
G01 X7.0465 Y-2.8100
G01 X7.0468 Y-2.7974
G01 X7.0485 Y-2.7787
G01 X7.0503 Y-2.7662
G01 X7.0537 Y-2.7499
G00 Z2.0000
G00 X7.1140 Y-2.2431
G01 F60.00
G01 Z-0.1500
G01 F240.00
G01 X7.1140 Y-2.5472
G01 X7.1136 Y-2.5602
G01 X7.1126 Y-2.5733
G01 X7.1099 Y-2.5926
G01 X7.1008 Y-2.6424
G01 X7.0974 Y-2.6569
G01 X7.1046 Y-2.6476
G01 X7.1128 Y-2.6381
G01 X7.1260 Y-2.6246
G01 X7.1401 Y-2.6121
G01 X7.1551 Y-2.6007
G01 X7.1709 Y-2.5904
G01 X7.1874 Y-2.5814
G01 X7.2045 Y-2.5735
G01 X7.2222 Y-2.5669
G01 X7.2342 Y-2.5633
G01 X7.2526 Y-2.5589
G01 X7.2712 Y-2.5560
G01 X7.2837 Y-2.5547
G01 X7.3025 Y-2.5540
G01 X7.4100 Y-2.5540
G01 X7.3423 Y-2.5340
G01 X7.3243 Y-2.5276
G01 X7.3069 Y-2.5197
G01 X7.2957 Y-2.5138
G01 X7.2848 Y-2.5074
G01 X7.2690 Y-2.4966
G01 X7.2589 Y-2.4889
G01 X7.2493 Y-2.4806
G01 X7.2356 Y-2.4673
G01 X7.2270 Y-2.4579
G01 X7.1813 Y-2.4051
G01 X7.1731 Y-2.3953
G01 X7.1655 Y-2.3850
G01 X7.1584 Y-2.3744
G01 X7.1487 Y-2.3578
G01 X7.1430 Y-2.3463
G01 X7.1379 Y-2.3346
G01 X7.1333 Y-2.3227
G01 X7.1294 Y-2.3105
G01 X7.1246 Y-2.2919
G01 X7.1140 Y-2.2431
G00 Z2.0000
G00 X8.6034 Y-2.7116
G01 F60.00
G01 Z-0.1500
G01 F240.00
G01 X9.2099 Y-2.7116
G01 X9.2196 Y-2.7123
G01 X9.2314 Y-2.7145
G01 X9.2429 Y-2.7181
G01 X9.2539 Y-2.7232
G01 X9.2642 Y-2.7295
G01 X9.2736 Y-2.7371
G01 X9.2820 Y-2.7457
G01 X9.2894 Y-2.7553
G01 X9.2954 Y-2.7657
G01 X9.3002 Y-2.7768
G01 X9.3036 Y-2.7884
G01 X9.3055 Y-2.8004
G01 X9.3059 Y-2.8100
G01 X9.3059 Y-3.2564
G01 X9.6091 Y-3.2564
G01 X9.6091 Y-2.7674
G01 X9.6045 Y-2.7254
G01 X9.5636 Y-2.6156
G01 X9.4944 Y-2.5231
G01 X9.4019 Y-2.4539
G01 X9.2921 Y-2.4130
G01 X9.2501 Y-2.4084
G01 X8.6034 Y-2.4084
G01 X8.6034 Y-2.7116
G00 Z2.0000
G00 X11.3984 Y-3.2564
G01 F60.00
G01 Z-0.1500
G01 F240.00
G01 X11.7026 Y-3.2564
G01 X11.7035 Y-3.2434
G01 X11.7087 Y-3.2097
G01 X11.7166 Y-3.1789
G01 X11.7272 Y-3.1489
G01 X11.7405 Y-3.1201
G01 X11.7451 Y-3.1115
G01 X11.7603 Y-3.0864
G01 X11.7791 Y-3.0608
G01 X11.8003 Y-3.0371
G01 X11.8071 Y-3.0303
G01 X11.8289 Y-3.0106
G01 X11.8564 Y-2.9903
G01 X11.8815 Y-2.9751
G01 X11.8901 Y-2.9705
G01 X11.9167 Y-2.9581
G01 X11.9465 Y-2.9473
G01 X11.9773 Y-2.9393
G01 X11.9868 Y-2.9374
G01 X12.0158 Y-2.9332
G01 X12.0452 Y-2.9317
G01 X12.3516 Y-2.9316
G01 X12.3516 Y-2.6284
G01 X12.0050 Y-2.6284
G01 X11.9180 Y-2.6373
G01 X11.7728 Y-2.6855
G01 X11.6431 Y-2.7654
G01 X11.5354 Y-2.8731
G01 X11.4555 Y-3.0028
G01 X11.4073 Y-3.1480
G01 X11.3984 Y-3.2350
G01 X11.3984 Y-3.2564
G00 Z2.0000
G00 X11.9533 Y-4.7935
G01 F60.00
G01 Z-0.1500
G01 F240.00
G01 X13.4464 Y-4.7935
G01 X13.4397 Y-4.7771
G01 X13.4328 Y-4.7578
G01 X13.4269 Y-4.7381
G01 X13.4220 Y-4.7182
G01 X13.4180 Y-4.6980
G01 X13.4164 Y-4.6879
G01 X13.4065 Y-4.6187
G01 X13.4035 Y-4.5913
G01 X13.3703 Y-4.5930
G01 X13.3500 Y-4.5935
G01 X12.0500 Y-4.5935
G01 X12.0297 Y-4.5930
G01 X11.9943 Y-4.5911
G01 X11.9892 Y-4.6606
G01 X11.9868 Y-4.6809
G01 X11.9833 Y-4.7012
G01 X11.9788 Y-4.7212
G01 X11.9733 Y-4.7410
G01 X11.9702 Y-4.7508
G01 X11.9633 Y-4.7701
G01 X11.9533 Y-4.7935
G00 Z2.0000
G00 X11.5259 Y-4.9510
G01 F60.00
G01 Z-0.1500
G01 F240.00
G01 X13.8815 Y-4.9510
G01 X13.8664 Y-4.9471
G01 X13.7994 Y-4.9274
G01 X13.7873 Y-4.9235
G01 X13.7754 Y-4.9191
G01 X13.7580 Y-4.9112
G01 X13.7467 Y-4.9053
G01 X13.7304 Y-4.8954
G01 X13.7149 Y-4.8843
G01 X13.7003 Y-4.8721
G01 X13.6910 Y-4.8634
G01 X13.6823 Y-4.8542
G01 X13.6323 Y-4.7966
G01 X13.6242 Y-4.7868
G01 X13.6166 Y-4.7766
G01 X13.6062 Y-4.7606
G01 X13.5970 Y-4.7439
G01 X13.5891 Y-4.7266
G01 X13.5845 Y-4.7147
G01 X13.5806 Y-4.7027
G01 X13.5772 Y-4.6904
G01 X13.5745 Y-4.6780
G01 X13.5724 Y-4.6654
G01 X13.5624 Y-4.5963
G01 X13.5604 Y-4.5773
G01 X13.5599 Y-4.5646
G01 X13.5602 Y-4.5456
G01 X13.5620 Y-4.5266
G01 X13.5652 Y-4.5078
G01 X13.5697 Y-4.4893
G01 X13.5735 Y-4.4771
G01 X13.5804 Y-4.4593
G01 X13.6120 Y-4.3900
G01 X13.6175 Y-4.3786
G01 X13.6269 Y-4.3621
G01 X13.6373 Y-4.3464
G01 X13.6205 Y-4.3574
G01 X13.5940 Y-4.3732
G01 X13.5829 Y-4.3791
G01 X13.5436 Y-4.3975
G01 X13.5088 Y-4.4102
G01 X13.4908 Y-4.4159
G01 X13.4487 Y-4.4262
G01 X13.4058 Y-4.4328
G01 X13.3871 Y-4.4345
G01 X13.3500 Y-4.4360
G01 X12.0500 Y-4.4360
G01 X12.0067 Y-4.4341
G01 X11.9879 Y-4.4320
G01 X11.9513 Y-4.4262
G01 X11.9390 Y-4.4235
G01 X11.9031 Y-4.4142
G01 X11.8681 Y-4.4020
G01 X11.8564 Y-4.3975
G01 X11.8227 Y-4.3819
G01 X11.8115 Y-4.3762
G01 X11.8006 Y-4.3700
G01 X11.7742 Y-4.3541
G01 X11.7597 Y-4.3442
G01 X11.7677 Y-4.3566
G01 X11.7738 Y-4.3671
G01 X11.8073 Y-4.4285
G01 X11.8158 Y-4.4455
G01 X11.8230 Y-4.4632
G01 X11.8289 Y-4.4813
G01 X11.8334 Y-4.4998
G01 X11.8357 Y-4.5124
G01 X11.8373 Y-4.5250
G01 X11.8383 Y-4.5376
G01 X11.8386 Y-4.5567
G01 X11.8380 Y-4.5694
G01 X11.8324 Y-4.6454
G01 X11.8309 Y-4.6580
G01 X11.8274 Y-4.6768
G01 X11.8226 Y-4.6952
G01 X11.8164 Y-4.7133
G01 X11.8088 Y-4.7308
G01 X11.8031 Y-4.7421
G01 X11.7934 Y-4.7586
G01 X11.7826 Y-4.7742
G01 X11.7407 Y-4.8302
G01 X11.7328 Y-4.8402
G01 X11.7245 Y-4.8497
G01 X11.7157 Y-4.8589
G01 X11.7064 Y-4.8676
G01 X11.6967 Y-4.8758
G01 X11.6866 Y-4.8836
G01 X11.6708 Y-4.8942
G01 X11.6543 Y-4.9037
G01 X11.6370 Y-4.9119
G01 X11.6252 Y-4.9166
G01 X11.5538 Y-4.9432
G01 X11.5418 Y-4.9470
G01 X11.5259 Y-4.9510
G00 Z2.0000
G00 X11.3984 Y-6.2064
G01 F60.00
G01 Z-0.1500
G01 F240.00
G01 X11.7026 Y-6.2064
G01 X11.7035 Y-6.1934
G01 X11.7087 Y-6.1597
G01 X11.7166 Y-6.1289
G01 X11.7272 Y-6.0989
G01 X11.7405 Y-6.0701
G01 X11.7451 Y-6.0615
G01 X11.7603 Y-6.0364
G01 X11.7791 Y-6.0108
G01 X11.8003 Y-5.9871
G01 X11.8071 Y-5.9803
G01 X11.8289 Y-5.9606
G01 X11.8564 Y-5.9403
G01 X11.8815 Y-5.9251
G01 X11.8901 Y-5.9205
G01 X11.9167 Y-5.9081
G01 X11.9465 Y-5.8973
G01 X11.9773 Y-5.8893
G01 X11.9868 Y-5.8874
G01 X12.0158 Y-5.8832
G01 X12.0452 Y-5.8817
G01 X12.3516 Y-5.8816
G01 X12.3516 Y-5.5784
G01 X12.0050 Y-5.5784
G01 X11.9180 Y-5.5873
G01 X11.7728 Y-5.6355
G01 X11.6431 Y-5.7154
G01 X11.5354 Y-5.8231
G01 X11.4555 Y-5.9528
G01 X11.4073 Y-6.0980
G01 X11.3984 Y-6.1850
G01 X11.3984 Y-6.2064
G00 Z2.0000
G00 X11.3985 Y-6.9036
G01 F60.00
G01 Z-0.1500
G01 F240.00
G01 X11.3985 Y-6.9250
G01 X11.4073 Y-7.0120
G01 X11.4555 Y-7.1572
G01 X11.5354 Y-7.2869
G01 X11.6431 Y-7.3946
G01 X11.7728 Y-7.4745
G01 X11.9180 Y-7.5227
G01 X12.0050 Y-7.5315
G01 X12.3515 Y-7.5315
G01 X12.3515 Y-7.2284
G01 X12.0452 Y-7.2283
G01 X12.0158 Y-7.2268
G01 X11.9868 Y-7.2226
G01 X11.9773 Y-7.2207
G01 X11.9465 Y-7.2127
G01 X11.9167 Y-7.2019
G01 X11.8901 Y-7.1895
G01 X11.8815 Y-7.1849
G01 X11.8564 Y-7.1697
G01 X11.8289 Y-7.1494
G01 X11.8071 Y-7.1297
G01 X11.8003 Y-7.1229
G01 X11.7791 Y-7.0992
G01 X11.7603 Y-7.0736
G01 X11.7451 Y-7.0485
G01 X11.7405 Y-7.0399
G01 X11.7272 Y-7.0111
G01 X11.7166 Y-6.9811
G01 X11.7087 Y-6.9503
G01 X11.7035 Y-6.9166
G01 X11.7026 Y-6.9036
G01 X11.3985 Y-6.9036
G00 Z2.0000
G00 X10.2536 Y-7.2088
G01 F60.00
G01 Z-0.1500
G01 F240.00
G01 X10.3537 Y-7.1776
G01 X10.4787 Y-7.1020
G01 X10.5820 Y-6.9987
G01 X10.6576 Y-6.8737
G01 X10.6975 Y-6.7455
G01 X10.6506 Y-6.6986
G01 X10.3940 Y-6.6986
G01 X10.3899 Y-6.7139
G01 X10.3816 Y-6.7370
G01 X10.3693 Y-6.7635
G01 X10.3532 Y-6.7908
G01 X10.3387 Y-6.8105
G01 X10.3341 Y-6.8162
G01 X10.3177 Y-6.8343
G01 X10.2962 Y-6.8541
G01 X10.2728 Y-6.8718
G01 X10.2536 Y-6.8836
G01 X10.2536 Y-7.2088
G00 Z2.0000
G00 X9.8017 Y-7.9633
G01 F60.00
G01 Z-0.1500
G01 F240.00
G01 X9.8096 Y-7.9704
G01 X9.8161 Y-7.9775
G01 X9.8219 Y-7.9853
G01 X9.8268 Y-7.9936
G01 X9.8310 Y-8.0023
G01 X9.8349 Y-8.0137
G01 X9.8370 Y-8.0232
G01 X9.8382 Y-8.0328
G01 X9.8384 Y-8.0400
G01 X9.8384 Y-8.5416
G01 X10.1416 Y-8.5416
G01 X10.1416 Y-7.9974
G01 X10.1370 Y-7.9554
G01 X10.0961 Y-7.8456
G01 X10.0269 Y-7.7531
G01 X10.0183 Y-7.7467
G01 X9.8017 Y-7.9633
G00 Z2.0000
G00 X9.2386 Y-9.8384
G01 F60.00
G01 Z-0.1500
G01 F240.00
G01 X9.2386 Y-10.6208
G01 X9.2457 Y-10.6231
G01 X9.2733 Y-10.6331
G01 X9.3043 Y-10.6477
G01 X9.3336 Y-10.6653
G01 X9.3611 Y-10.6856
G01 X9.3864 Y-10.7086
G01 X9.4094 Y-10.7339
G01 X9.4297 Y-10.7614
G01 X9.4473 Y-10.7907
G01 X9.4619 Y-10.8217
G01 X9.4734 Y-10.8539
G01 X9.4818 Y-10.8870
G01 X9.4862 Y-10.9161
G01 X9.4871 Y-10.9257
G01 X9.4884 Y-10.9526
G01 X9.4884 Y-11.0816
G01 X9.7915 Y-11.0816
G01 X9.7915 Y-10.9100
G01 X9.7827 Y-10.8230
G01 X9.7345 Y-10.6778
G01 X9.6546 Y-10.5481
G01 X9.6245 Y-10.5179
G01 X9.6200 Y-10.5125
G01 X9.6145 Y-10.5049
G01 X9.5774 Y-10.4375
G01 X9.5723 Y-10.4265
G01 X9.5698 Y-10.4196
G01 X9.5674 Y-10.4101
G01 X9.5659 Y-10.4004
G01 X9.5654 Y-10.3907
G01 X9.5706 Y-10.3136
G01 X9.5723 Y-10.3015
G01 X9.5746 Y-10.2921
G01 X9.5789 Y-10.2806
G01 X9.5833 Y-10.2719
G01 X9.5886 Y-10.2636
G01 X9.6349 Y-10.2019
G01 X9.6398 Y-10.1964
G01 X9.6451 Y-10.1913
G01 X9.6547 Y-10.1838
G01 X9.6630 Y-10.1786
G01 X9.6740 Y-10.1734
G01 X9.7464 Y-10.1465
G01 X9.7558 Y-10.1440
G01 X9.7654 Y-10.1425
G01 X9.7821 Y-10.1416
G01 X9.8246 Y-10.1370
G01 X9.9344 Y-10.0961
G01 X10.0269 Y-10.0269
G01 X10.0961 Y-9.9344
G01 X10.1370 Y-9.8246
G01 X10.1415 Y-9.7826
G01 X10.1415 Y-9.2384
G01 X9.8384 Y-9.2384
G01 X9.8384 Y-9.7400
G01 X9.8382 Y-9.7472
G01 X9.8366 Y-9.7592
G01 X9.8342 Y-9.7686
G01 X9.8300 Y-9.7799
G01 X9.8257 Y-9.7885
G01 X9.8191 Y-9.7986
G01 X9.8129 Y-9.8061
G01 X9.8043 Y-9.8145
G01 X9.7947 Y-9.8219
G01 X9.7843 Y-9.8279
G01 X9.7777 Y-9.8310
G01 X9.7709 Y-9.8335
G01 X9.7639 Y-9.8355
G01 X9.7568 Y-9.8370
G01 X9.7496 Y-9.8380
G01 X9.7424 Y-9.8384
G01 X9.2386 Y-9.8384
G00 Z2.0000
G00 X9.3961 Y-9.9960
G01 F60.00
G01 Z-0.1500
G01 F240.00
G01 X9.3961 Y-10.5190
G01 X9.4158 Y-10.5309
G01 X9.4263 Y-10.5379
G01 X9.4561 Y-10.5600
G01 X9.4724 Y-10.5738
G01 X9.4362 Y-10.5074
G01 X9.4281 Y-10.4901
G01 X9.4214 Y-10.4723
G01 X9.4176 Y-10.4602
G01 X9.4131 Y-10.4417
G01 X9.4100 Y-10.4229
G01 X9.4082 Y-10.4039
G01 X9.4079 Y-10.3848
G01 X9.4085 Y-10.3721
G01 X9.4141 Y-10.2961
G01 X9.4166 Y-10.2772
G01 X9.4205 Y-10.2585
G01 X9.4239 Y-10.2463
G01 X9.4301 Y-10.2282
G01 X9.4377 Y-10.2107
G01 X9.4434 Y-10.1994
G01 X9.4531 Y-10.1829
G01 X9.4602 Y-10.1724
G01 X9.5058 Y-10.1113
G01 X9.5137 Y-10.1013
G01 X9.5220 Y-10.0918
G01 X9.5308 Y-10.0826
G01 X9.5449 Y-10.0697
G01 X9.5599 Y-10.0579
G01 X9.5703 Y-10.0507
G01 X9.5866 Y-10.0408
G01 X9.5979 Y-10.0350
G01 X9.6095 Y-10.0296
G01 X9.6213 Y-10.0249
G01 X9.6867 Y-10.0005
G01 X9.7000 Y-9.9960
G01 X9.3961 Y-9.9960
G00 Z2.0000
G00 X7.9400 Y-10.5265
G01 F60.00
G01 Z-0.1500
G01 F240.00
G01 X7.9497 Y-10.5106
G01 X7.9653 Y-10.4873
G01 X7.9966 Y-10.4451
G01 X8.0054 Y-10.4342
G01 X8.0237 Y-10.4129
G01 X8.0497 Y-10.3845
G01 X8.0689 Y-10.3653
G01 X8.0689 Y-10.3110
G01 X8.0260 Y-10.3108
G01 X8.0120 Y-10.3103
G01 X7.9840 Y-10.3083
G01 X7.9701 Y-10.3067
G01 X7.9424 Y-10.3026
G01 X7.9149 Y-10.2971
G01 X7.9013 Y-10.2939
G01 X7.8742 Y-10.2864
G01 X7.8609 Y-10.2822
G01 X7.8476 Y-10.2776
G01 X7.8215 Y-10.2675
G01 X7.7959 Y-10.2562
G01 X7.7833 Y-10.2500
G01 X7.7708 Y-10.2436
G01 X7.7482 Y-10.2308
G01 X7.7587 Y-10.2579
G01 X7.7715 Y-10.2943
G01 X7.7797 Y-10.3211
G01 X7.7849 Y-10.3412
G01 X7.8105 Y-10.3647
G01 X7.8303 Y-10.3845
G01 X7.8563 Y-10.4129
G01 X7.8746 Y-10.4342
G01 X7.8919 Y-10.4563
G01 X7.9147 Y-10.4873
G01 X7.9303 Y-10.5106
G01 X7.9400 Y-10.5265
G00 Z2.0000
G00 X7.4869 Y-9.8816
G01 F60.00
G01 Z-0.1500
G01 F240.00
G01 X7.4800 Y-9.8514
G01 X7.4752 Y-9.8238
G01 X7.4717 Y-9.7960
G01 X7.4695 Y-9.7642
G01 X7.4485 Y-9.7915
G01 X7.4394 Y-9.8022
G01 X7.4244 Y-9.8191
G01 X7.4869 Y-9.8816
G00 Z2.0000
G00 X7.4695 Y-8.0158
G01 F60.00
G01 Z-0.1500
G01 F240.00
G01 X7.4717 Y-7.9840
G01 X7.4752 Y-7.9562
G01 X7.4774 Y-7.9424
G01 X7.4829 Y-7.9149
G01 X7.4861 Y-7.9013
G01 X7.4936 Y-7.8742
G01 X7.4978 Y-7.8609
G01 X7.5073 Y-7.8345
G01 X7.5125 Y-7.8215
G01 X7.5238 Y-7.7959
G01 X7.5364 Y-7.7708
G01 X7.5502 Y-7.7464
G01 X7.5576 Y-7.7345
G01 X7.5732 Y-7.7112
G01 X7.5898 Y-7.6887
G01 X7.5986 Y-7.6778
G01 X7.6076 Y-7.6670
G01 X7.6264 Y-7.6463
G01 X7.6463 Y-7.6264
G01 X7.6670 Y-7.6076
G01 X7.6887 Y-7.5898
G01 X7.6998 Y-7.5814
G01 X7.7112 Y-7.5732
G01 X7.7345 Y-7.5576
G01 X7.7586 Y-7.5432
G01 X7.7708 Y-7.5364
G01 X7.7959 Y-7.5238
G01 X7.8086 Y-7.5180
G01 X7.8345 Y-7.5073
G01 X7.8609 Y-7.4978
G01 X7.8877 Y-7.4897
G01 X7.9149 Y-7.4829
G01 X7.9424 Y-7.4774
G01 X7.9701 Y-7.4733
G01 X7.9980 Y-7.4705
G01 X8.0260 Y-7.4692
G01 X8.0400 Y-7.4690
G01 X8.6417 Y-7.4690
G01 X8.7929 Y-7.3178
G01 X8.7629 Y-7.3318
G01 X8.7370 Y-7.3425
G01 X8.6922 Y-7.3586
G01 X8.6654 Y-7.3667
G01 X8.6328 Y-7.3751
G01 X8.6054 Y-7.3812
G01 X8.5916 Y-7.3838
G01 X8.5584 Y-7.3889
G01 X8.5306 Y-7.3923
G01 X8.5166 Y-7.3935
G01 X8.4830 Y-7.3953
G01 X8.4550 Y-7.3960
G01 X8.0550 Y-7.3960
G01 X8.0270 Y-7.3953
G01 X7.9934 Y-7.3935
G01 X7.9794 Y-7.3923
G01 X7.9655 Y-7.3908
G01 X7.9322 Y-7.3860
G01 X7.9046 Y-7.3812
G01 X7.8772 Y-7.3751
G01 X7.8446 Y-7.3667
G01 X7.8178 Y-7.3586
G01 X7.7861 Y-7.3474
G01 X7.7599 Y-7.3373
G01 X7.7343 Y-7.3260
G01 X7.7040 Y-7.3114
G01 X7.6793 Y-7.2982
G01 X7.6384 Y-7.2737
G01 X7.6151 Y-7.2581
G01 X7.5880 Y-7.2382
G01 X7.5659 Y-7.2210
G01 X7.5447 Y-7.2027
G01 X7.5198 Y-7.1800
G01 X7.5108 Y-7.1711
G01 X7.0942 Y-7.1711
G01 X7.0749 Y-7.1895
G01 X7.0498 Y-7.2120
G01 X7.0282 Y-7.2298
G01 X7.0013 Y-7.2499
G01 X6.9899 Y-7.2581
G01 X6.9666 Y-7.2737
G01 X6.9378 Y-7.2912
G01 X6.9135 Y-7.3050
G01 X6.8884 Y-7.3176
G01 X6.8579 Y-7.3318
G01 X6.8320 Y-7.3425
G01 X6.8004 Y-7.3540
G01 X6.7738 Y-7.3628
G01 X6.7604 Y-7.3667
G01 X6.7278 Y-7.3751
G01 X6.7000 Y-7.3813
G01 X6.7017 Y-7.4128
G01 X6.7018 Y-7.4412
G01 X6.7005 Y-7.4695
G01 X6.6974 Y-7.5132
G01 X6.7490 Y-7.5263
G01 X6.7759 Y-7.5344
G01 X6.8676 Y-7.5671
G01 X6.8938 Y-7.5772
G01 X6.9067 Y-7.5827
G01 X6.9948 Y-7.6242
G01 X7.0199 Y-7.6368
G01 X7.0442 Y-7.6506
G01 X7.1158 Y-7.6935
G01 X7.1395 Y-7.7085
G01 X7.1624 Y-7.7246
G01 X7.2294 Y-7.7743
G01 X7.2515 Y-7.7915
G01 X7.2727 Y-7.8099
G01 X7.3448 Y-7.8754
G01 X7.3646 Y-7.8952
G01 X7.4301 Y-7.9673
G01 X7.4485 Y-7.9885
G01 X7.4695 Y-8.0158
G00 Z2.0000
G00 X7.3926 Y-7.7060
G01 F60.00
G01 Z-0.1500
G01 F240.00
G01 X7.4061 Y-7.6809
G01 X7.4151 Y-7.6655
G01 X7.4342 Y-7.6353
G01 X7.4548 Y-7.6060
G01 X7.4768 Y-7.5778
G01 X7.4884 Y-7.5641
G01 X7.5124 Y-7.5376
G01 X7.5249 Y-7.5249
G01 X7.5507 Y-7.5002
G01 X7.5778 Y-7.4768
G01 X7.5918 Y-7.4657
G01 X7.6195 Y-7.4451
G01 X7.6016 Y-7.4353
G01 X7.5862 Y-7.4263
G01 X7.5541 Y-7.4068
G01 X7.5391 Y-7.3970
G01 X7.5099 Y-7.3765
G01 X7.4799 Y-7.3539
G01 X7.4659 Y-7.3428
G01 X7.4493 Y-7.3287
G01 X7.1557 Y-7.3287
G01 X7.1391 Y-7.3428
G01 X7.1251 Y-7.3539
G01 X7.0951 Y-7.3765
G01 X7.0659 Y-7.3970
G01 X7.0509 Y-7.4068
G01 X7.0188 Y-7.4263
G01 X7.0034 Y-7.4353
G01 X6.9850 Y-7.4453
G01 X7.0622 Y-7.4818
G01 X7.0941 Y-7.4979
G01 X7.1252 Y-7.5155
G01 X7.2120 Y-7.5677
G01 X7.2417 Y-7.5876
G01 X7.2562 Y-7.5981
G01 X7.3374 Y-7.6586
G01 X7.3651 Y-7.6813
G01 X7.3926 Y-7.7060
G00 Z2.0000
G00 X9.0800 Y-5.6238
G01 F60.00
G01 Z-0.1500
G01 F240.00
G01 X9.1002 Y-5.5968
G01 X9.1180 Y-5.5752
G01 X9.1500 Y-5.5398
G01 X9.1698 Y-5.5200
G01 X9.2052 Y-5.4880
G01 X9.2268 Y-5.4702
G01 X9.2651 Y-5.4419
G01 X9.2766 Y-5.4339
G01 X9.2963 Y-5.4214
G01 X9.2825 Y-5.4041
G01 X9.2640 Y-5.3782
G01 X9.2495 Y-5.3795
G01 X9.2215 Y-5.3808
G01 X9.0761 Y-5.3810
G01 X9.0761 Y-5.6186
G01 X9.0800 Y-5.6238
G00 Z2.0000
G00 X13.0484 Y-5.8816
G01 F60.00
G01 Z-0.1500
G01 F240.00
G01 X13.3548 Y-5.8817
G01 X13.3842 Y-5.8832
G01 X13.4132 Y-5.8874
G01 X13.4227 Y-5.8893
G01 X13.4535 Y-5.8973
G01 X13.4833 Y-5.9081
G01 X13.5099 Y-5.9205
G01 X13.5185 Y-5.9251
G01 X13.5436 Y-5.9403
G01 X13.5711 Y-5.9606
G01 X13.5929 Y-5.9803
G01 X13.5997 Y-5.9871
G01 X13.6209 Y-6.0108
G01 X13.6397 Y-6.0364
G01 X13.6549 Y-6.0615
G01 X13.6595 Y-6.0701
G01 X13.6728 Y-6.0989
G01 X13.6834 Y-6.1289
G01 X13.6913 Y-6.1597
G01 X13.6965 Y-6.1934
G01 X13.6974 Y-6.2066
G01 X14.0015 Y-6.2066
G01 X14.0015 Y-6.1850
G01 X13.9927 Y-6.0980
G01 X13.9445 Y-5.9528
G01 X13.8646 Y-5.8231
G01 X13.7569 Y-5.7154
G01 X13.6272 Y-5.6355
G01 X13.4820 Y-5.5873
G01 X13.3950 Y-5.5784
G01 X13.0484 Y-5.5784
G01 X13.0484 Y-5.8816
G00 Z2.0000
G00 X13.6974 Y-6.9034
G01 F60.00
G01 Z-0.1500
G01 F240.00
G01 X13.6965 Y-6.9166
G01 X13.6922 Y-6.9456
G01 X13.6907 Y-6.9527
G01 X13.6827 Y-6.9835
G01 X13.6737 Y-7.0088
G01 X13.6700 Y-7.0178
G01 X13.6573 Y-7.0443
G01 X13.6410 Y-7.0716
G01 X13.6194 Y-7.1011
G01 X13.5997 Y-7.1229
G01 X13.5929 Y-7.1297
G01 X13.5711 Y-7.1494
G01 X13.5475 Y-7.1669
G01 X13.5395 Y-7.1723
G01 X13.5121 Y-7.1884
G01 X13.4833 Y-7.2019
G01 X13.4511 Y-7.2134
G01 X13.4180 Y-7.2218
G01 X13.3842 Y-7.2268
G01 X13.3500 Y-7.2284
G01 X13.0484 Y-7.2284
G01 X13.0484 Y-7.5315
G01 X13.3950 Y-7.5315
G01 X13.4820 Y-7.5227
G01 X13.6272 Y-7.4745
G01 X13.7569 Y-7.3946
G01 X13.8646 Y-7.2869
G01 X13.9445 Y-7.1572
G01 X13.9927 Y-7.0120
G01 X14.0015 Y-6.9250
G01 X14.0015 Y-6.9034
G01 X13.6974 Y-6.9034
G00 Z2.0000
G00 X15.1559 Y-4.9542
G01 F60.00
G01 Z-0.1500
G01 F240.00
G01 X15.1699 Y-4.9516
G01 X15.2214 Y-4.9404
G01 X15.2400 Y-4.9356
G01 X15.2522 Y-4.9317
G01 X15.2641 Y-4.9271
G01 X15.2758 Y-4.9220
G01 X15.2873 Y-4.9163
G01 X15.2984 Y-4.9100
G01 X15.3092 Y-4.9031
G01 X15.3197 Y-4.8958
G01 X15.3297 Y-4.8879
G01 X15.3922 Y-4.8338
G01 X15.4014 Y-4.8250
G01 X15.4101 Y-4.8157
G01 X15.4184 Y-4.8061
G01 X15.4261 Y-4.7960
G01 X15.4334 Y-4.7856
G01 X15.4402 Y-4.7748
G01 X15.4464 Y-4.7637
G01 X15.4520 Y-4.7523
G01 X15.4594 Y-4.7347
G01 X15.4654 Y-4.7167
G01 X15.4883 Y-4.6378
G01 X15.4919 Y-4.6199
G01 X15.4937 Y-4.6079
G01 X15.4948 Y-4.5958
G01 X15.4954 Y-4.5836
G01 X15.4955 Y-0.1245
G01 X15.4952 Y-0.1123
G01 X15.4937 Y-0.0941
G01 X15.4908 Y-0.0761
G01 X15.4784 Y-0.0186
G01 X15.4736 Y0.0000
G01 X15.4675 Y0.0182
G01 X15.4600 Y0.0358
G01 X15.4512 Y0.0529
G01 X15.4411 Y0.0692
G01 X15.4338 Y0.0797
G01 X15.4259 Y0.0897
G01 X15.3760 Y0.1474
G01 X15.3630 Y0.1614
G01 X15.3490 Y0.1743
G01 X15.3391 Y0.1823
G01 X15.3289 Y0.1898
G01 X15.3128 Y0.2002
G01 X15.3017 Y0.2064
G01 X15.2903 Y0.2120
G01 X15.2787 Y0.2171
G01 X15.2668 Y0.2215
G01 X15.2547 Y0.2254
G01 X15.1876 Y0.2451
G01 X15.1699 Y0.2496
G01 X15.1519 Y0.2529
G01 X15.1398 Y0.2543
G01 X15.1277 Y0.2552
G01 X15.1155 Y0.2555
G01 X7.4875 Y0.2555
G01 X7.4753 Y0.2552
G01 X7.4571 Y0.2537
G01 X7.4391 Y0.2508
G01 X7.3753 Y0.2370
G01 X7.3630 Y0.2336
G01 X7.3508 Y0.2297
G01 X7.3389 Y0.2251
G01 X7.3272 Y0.2200
G01 X7.3157 Y0.2143
G01 X7.3046 Y0.2080
G01 X7.2938 Y0.2011
G01 X7.2833 Y0.1938
G01 X7.2684 Y0.1817
G01 X7.2108 Y0.1318
G01 X7.2016 Y0.1230
G01 X7.1929 Y0.1137
G01 X7.1846 Y0.1041
G01 X7.1769 Y0.0940
G01 X7.1696 Y0.0836
G01 X7.1628 Y0.0728
G01 X7.1566 Y0.0617
G01 X7.1510 Y0.0503
G01 X7.1436 Y0.0327
G01 X7.1376 Y0.0147
G01 X7.1163 Y-0.0582
G01 X7.1134 Y-0.0701
G01 X7.1107 Y-0.0841
G01 X7.1081 Y-0.0701
G01 X7.0969 Y-0.0186
G01 X7.0921 Y0.0000
G01 X7.0882 Y0.0122
G01 X7.0836 Y0.0241
G01 X7.0785 Y0.0358
G01 X7.0728 Y0.0473
G01 X7.0665 Y0.0584
G01 X7.0596 Y0.0692
G01 X7.0523 Y0.0797
G01 X7.0444 Y0.0897
G01 X6.9945 Y0.1474
G01 X6.9859 Y0.1568
G01 X6.9769 Y0.1658
G01 X6.9675 Y0.1743
G01 X6.9576 Y0.1823
G01 X6.9474 Y0.1898
G01 X6.9367 Y0.1969
G01 X6.9258 Y0.2033
G01 X6.9145 Y0.2092
G01 X6.9030 Y0.2146
G01 X6.8912 Y0.2194
G01 X6.8732 Y0.2254
G01 X6.7943 Y0.2483
G01 X6.7824 Y0.2508
G01 X6.7704 Y0.2529
G01 X6.7583 Y0.2543
G01 X6.7462 Y0.2552
G01 X6.7340 Y0.2555
G01 X4.9475 Y0.2555
G01 X4.9353 Y0.2552
G01 X4.9232 Y0.2543
G01 X4.9051 Y0.2519
G01 X4.8416 Y0.2384
G01 X4.8230 Y0.2336
G01 X4.8108 Y0.2297
G01 X4.7989 Y0.2251
G01 X4.7872 Y0.2200
G01 X4.7757 Y0.2143
G01 X4.7591 Y0.2046
G01 X4.7485 Y0.1975
G01 X4.7382 Y0.1899
G01 X4.7284 Y0.1817
G01 X4.6756 Y0.1360
G01 X4.6616 Y0.1230
G01 X4.6529 Y0.1137
G01 X4.6446 Y0.1041
G01 X4.6369 Y0.0940
G01 X4.6296 Y0.0836
G01 X4.6228 Y0.0728
G01 X4.6166 Y0.0617
G01 X4.6084 Y0.0445
G01 X4.6036 Y0.0327
G01 X4.5995 Y0.0207
G01 X4.5779 Y-0.0524
G01 X4.5734 Y-0.0701
G01 X4.5707 Y-0.0841
G01 X4.5681 Y-0.0701
G01 X4.5569 Y-0.0186
G01 X4.5521 Y0.0000
G01 X4.5482 Y0.0122
G01 X4.5436 Y0.0241
G01 X4.5385 Y0.0358
G01 X4.5328 Y0.0473
G01 X4.5265 Y0.0584
G01 X4.5196 Y0.0692
G01 X4.5123 Y0.0797
G01 X4.5044 Y0.0897
G01 X4.4545 Y0.1474
G01 X4.4459 Y0.1568
G01 X4.4369 Y0.1658
G01 X4.4226 Y0.1784
G01 X4.4125 Y0.1861
G01 X4.4021 Y0.1934
G01 X4.3913 Y0.2002
G01 X4.3802 Y0.2064
G01 X4.3688 Y0.2120
G01 X4.3572 Y0.2171
G01 X4.3453 Y0.2215
G01 X4.3332 Y0.2254
G01 X4.2603 Y0.2467
G01 X4.2484 Y0.2496
G01 X4.2364 Y0.2519
G01 X4.2244 Y0.2537
G01 X4.2123 Y0.2548
G01 X4.1940 Y0.2555
G01 X0.1245 Y0.2555
G01 X0.1062 Y0.2548
G01 X0.0941 Y0.2537
G01 X0.0821 Y0.2519
G01 X0.0186 Y0.2384
G01 X0.0061 Y0.2354
G01 X-0.0122 Y0.2297
G01 X-0.0241 Y0.2251
G01 X-0.0416 Y0.2172
G01 X-0.0584 Y0.2080
G01 X-0.0745 Y0.1975
G01 X-0.0897 Y0.1859
G01 X-0.1474 Y0.1360
G01 X-0.1568 Y0.1274
G01 X-0.1658 Y0.1184
G01 X-0.1784 Y0.1041
G01 X-0.1898 Y0.0889
G01 X-0.2002 Y0.0728
G01 X-0.2064 Y0.0617
G01 X-0.2120 Y0.0503
G01 X-0.2171 Y0.0387
G01 X-0.2215 Y0.0268
G01 X-0.2254 Y0.0147
G01 X-0.2467 Y-0.0582
G01 X-0.2508 Y-0.0761
G01 X-0.2537 Y-0.0941
G01 X-0.2552 Y-0.1123
G01 X-0.2555 Y-0.1245
G01 X-0.2555 Y-13.8455
G01 X-0.2552 Y-13.8577
G01 X-0.2543 Y-13.8698
G01 X-0.2519 Y-13.8879
G01 X-0.2384 Y-13.9514
G01 X-0.2354 Y-13.9639
G01 X-0.2297 Y-13.9822
G01 X-0.2226 Y-14.0000
G01 X-0.2143 Y-14.0173
G01 X-0.2080 Y-14.0284
G01 X-0.1975 Y-14.0445
G01 X-0.1859 Y-14.0597
G01 X-0.1360 Y-14.1174
G01 X-0.1274 Y-14.1268
G01 X-0.1137 Y-14.1401
G01 X-0.1041 Y-14.1484
G01 X-0.0889 Y-14.1598
G01 X-0.0728 Y-14.1702
G01 X-0.0617 Y-14.1764
G01 X-0.0503 Y-14.1820
G01 X-0.0387 Y-14.1871
G01 X-0.0268 Y-14.1915
G01 X-0.0147 Y-14.1954
G01 X0.0582 Y-14.2167
G01 X0.0701 Y-14.2196
G01 X0.0881 Y-14.2229
G01 X0.1062 Y-14.2248
G01 X0.1245 Y-14.2255
G01 X3.6885 Y-14.2255
G01 X3.7007 Y-14.2252
G01 X3.7128 Y-14.2243
G01 X3.7249 Y-14.2229
G01 X3.7369 Y-14.2208
G01 X3.7944 Y-14.2084
G01 X3.8069 Y-14.2054
G01 X3.8191 Y-14.2017
G01 X3.8312 Y-14.1975
G01 X3.8430 Y-14.1926
G01 X3.8546 Y-14.1872
G01 X3.8659 Y-14.1812
G01 X3.8769 Y-14.1746
G01 X3.8875 Y-14.1675
G01 X3.8978 Y-14.1599
G01 X3.9076 Y-14.1517
G01 X3.9604 Y-14.1060
G01 X3.9698 Y-14.0974
G01 X3.9831 Y-14.0837
G01 X3.9914 Y-14.0741
G01 X3.9991 Y-14.0640
G01 X4.0064 Y-14.0536
G01 X4.0132 Y-14.0428
G01 X4.0194 Y-14.0317
G01 X4.0250 Y-14.0203
G01 X4.0324 Y-14.0027
G01 X4.0384 Y-13.9847
G01 X4.0597 Y-13.9118
G01 X4.0626 Y-13.8999
G01 X4.0653 Y-13.8859
G01 X4.0679 Y-13.8999
G01 X4.0791 Y-13.9514
G01 X4.0839 Y-13.9700
G01 X4.0878 Y-13.9822
G01 X4.0924 Y-13.9941
G01 X4.0975 Y-14.0058
G01 X4.1032 Y-14.0173
G01 X4.1095 Y-14.0284
G01 X4.1164 Y-14.0392
G01 X4.1237 Y-14.0497
G01 X4.1316 Y-14.0597
G01 X4.1857 Y-14.1222
G01 X4.1945 Y-14.1314
G01 X4.2038 Y-14.1401
G01 X4.2134 Y-14.1484
G01 X4.2235 Y-14.1561
G01 X4.2339 Y-14.1634
G01 X4.2447 Y-14.1702
G01 X4.2558 Y-14.1764
G01 X4.2672 Y-14.1820
G01 X4.2848 Y-14.1894
G01 X4.3028 Y-14.1954
G01 X4.3817 Y-14.2183
G01 X4.3936 Y-14.2208
G01 X4.4056 Y-14.2229
G01 X4.4237 Y-14.2248
G01 X4.4359 Y-14.2254
G01 X15.1155 Y-14.2255
G01 X15.1338 Y-14.2248
G01 X15.1459 Y-14.2237
G01 X15.1579 Y-14.2219
G01 X15.2214 Y-14.2084
G01 X15.2339 Y-14.2054
G01 X15.2522 Y-14.1997
G01 X15.2700 Y-14.1926
G01 X15.2873 Y-14.1843
G01 X15.2984 Y-14.1780
G01 X15.3145 Y-14.1675
G01 X15.3297 Y-14.1559
G01 X15.3874 Y-14.1060
G01 X15.3968 Y-14.0974
G01 X15.4058 Y-14.0884
G01 X15.4184 Y-14.0741
G01 X15.4298 Y-14.0589
G01 X15.4402 Y-14.0428
G01 X15.4464 Y-14.0317
G01 X15.4520 Y-14.0203
G01 X15.4571 Y-14.0087
G01 X15.4615 Y-13.9968
G01 X15.4654 Y-13.9847
G01 X15.4851 Y-13.9176
G01 X15.4883 Y-13.9058
G01 X15.4919 Y-13.8879
G01 X15.4943 Y-13.8698
G01 X15.4954 Y-13.8516
G01 X15.4954 Y-5.3249
G01 X15.4943 Y-5.3067
G01 X15.4919 Y-5.2886
G01 X15.4784 Y-5.2251
G01 X15.4754 Y-5.2126
G01 X15.4697 Y-5.1943
G01 X15.4651 Y-5.1824
G01 X15.4600 Y-5.1707
G01 X15.4543 Y-5.1592
G01 X15.4480 Y-5.1481
G01 X15.4411 Y-5.1373
G01 X15.4338 Y-5.1268
G01 X15.4217 Y-5.1119
G01 X15.3718 Y-5.0543
G01 X15.3630 Y-5.0451
G01 X15.3537 Y-5.0364
G01 X15.3441 Y-5.0281
G01 X15.3340 Y-5.0204
G01 X15.3236 Y-5.0131
G01 X15.3128 Y-5.0063
G01 X15.3017 Y-5.0001
G01 X15.2903 Y-4.9945
G01 X15.2727 Y-4.9871
G01 X15.2547 Y-4.9811
G01 X15.1818 Y-4.9598
G01 X15.1699 Y-4.9569
G01 X15.1559 Y-4.9542
G00 Z2.0000
G00 X15.4936 Y-4.9543
G01 F60.00
G01 Z-0.1500
G01 F240.00
G01 X15.5131 Y-4.9360
G01 X15.5272 Y-4.9211
G01 X15.5406 Y-4.9055
G01 X15.5531 Y-4.8892
G01 X15.5649 Y-4.8724
G01 X15.5757 Y-4.8550
G01 X15.5858 Y-4.8370
G01 X15.5949 Y-4.8186
G01 X15.5991 Y-4.8093
G01 X15.6068 Y-4.7902
G01 X15.6135 Y-4.7709
G01 X15.6362 Y-4.6940
G01 X15.6413 Y-4.6750
G01 X15.6455 Y-4.6558
G01 X15.6488 Y-4.6363
G01 X15.6519 Y-4.6070
G01 X15.6529 Y-4.5873
G01 X15.6529 Y-0.1147
G01 X15.6511 Y-0.0852
G01 X15.6473 Y-0.0559
G01 X15.6435 Y-0.0366
G01 X15.6323 Y0.0149
G01 X15.6274 Y0.0350
G01 X15.6246 Y0.0449
G01 X15.6215 Y0.0548
G01 X15.6147 Y0.0743
G01 X15.6109 Y0.0839
G01 X15.6026 Y0.1028
G01 X15.5980 Y0.1121
G01 X15.5883 Y0.1303
G01 X15.5777 Y0.1481
G01 X15.5663 Y0.1653
G01 X15.5539 Y0.1818
G01 X15.5475 Y0.1899
G01 X15.4882 Y0.2583
G01 X15.4740 Y0.2731
G01 X15.4666 Y0.2802
G01 X15.4591 Y0.2872
G01 X15.4435 Y0.3006
G01 X15.4272 Y0.3131
G01 X15.4189 Y0.3191
G01 X15.4018 Y0.3304
G01 X15.3841 Y0.3409
G01 X15.3659 Y0.3504
G01 X15.3473 Y0.3591
G01 X15.3378 Y0.3630
G01 X15.3186 Y0.3703
G01 X15.2990 Y0.3766
G01 X15.2320 Y0.3962
G01 X15.2034 Y0.4035
G01 X15.1841 Y0.4073
G01 X15.1646 Y0.4101
G01 X15.1352 Y0.4125
G01 X15.1155 Y0.4130
G01 X7.4777 Y0.4129
G01 X7.4482 Y0.4111
G01 X7.4189 Y0.4073
G01 X7.3996 Y0.4035
G01 X7.3481 Y0.3923
G01 X7.3280 Y0.3874
G01 X7.3082 Y0.3815
G01 X7.2887 Y0.3747
G01 X7.2696 Y0.3668
G01 X7.2509 Y0.3580
G01 X7.2327 Y0.3483
G01 X7.2149 Y0.3377
G01 X7.1977 Y0.3263
G01 X7.1812 Y0.3139
G01 X7.1731 Y0.3075
G01 X7.1108 Y0.2536
G01 X7.0925 Y0.2731
G01 X7.0776 Y0.2872
G01 X7.0620 Y0.3006
G01 X7.0457 Y0.3131
G01 X7.0289 Y0.3249
G01 X7.0115 Y0.3357
G01 X6.9935 Y0.3458
G01 X6.9844 Y0.3504
G01 X6.9658 Y0.3591
G01 X6.9467 Y0.3668
G01 X6.9274 Y0.3735
G01 X6.8505 Y0.3962
G01 X6.8315 Y0.4013
G01 X6.8123 Y0.4055
G01 X6.7928 Y0.4088
G01 X6.7733 Y0.4111
G01 X6.7438 Y0.4129
G01 X4.9475 Y0.4130
G01 X4.9180 Y0.4119
G01 X4.8887 Y0.4088
G01 X4.8692 Y0.4055
G01 X4.7980 Y0.3900
G01 X4.7781 Y0.3846
G01 X4.7584 Y0.3782
G01 X4.7391 Y0.3709
G01 X4.7202 Y0.3626
G01 X4.7017 Y0.3533
G01 X4.6837 Y0.3431
G01 X4.6663 Y0.3321
G01 X4.6494 Y0.3202
G01 X4.6331 Y0.3075
G01 X4.6252 Y0.3008
G01 X4.5708 Y0.2536
G01 X4.5525 Y0.2731
G01 X4.5376 Y0.2872
G01 X4.5220 Y0.3006
G01 X4.5057 Y0.3131
G01 X4.4889 Y0.3249
G01 X4.4715 Y0.3357
G01 X4.4535 Y0.3458
G01 X4.4444 Y0.3504
G01 X4.4258 Y0.3591
G01 X4.4067 Y0.3668
G01 X4.3874 Y0.3735
G01 X4.3105 Y0.3962
G01 X4.2915 Y0.4013
G01 X4.2723 Y0.4055
G01 X4.2528 Y0.4088
G01 X4.2235 Y0.4119
G01 X4.2038 Y0.4129
G01 X0.1147 Y0.4129
G01 X0.0852 Y0.4111
G01 X0.0559 Y0.4073
G01 X0.0366 Y0.4035
G01 X-0.0149 Y0.3923
G01 X-0.0350 Y0.3874
G01 X-0.0548 Y0.3815
G01 X-0.0743 Y0.3747
G01 X-0.0839 Y0.3709
G01 X-0.1028 Y0.3626
G01 X-0.1213 Y0.3533
G01 X-0.1303 Y0.3483
G01 X-0.1481 Y0.3377
G01 X-0.1567 Y0.3321
G01 X-0.1736 Y0.3202
G01 X-0.1818 Y0.3139
G01 X-0.1978 Y0.3008
G01 X-0.2583 Y0.2482
G01 X-0.2731 Y0.2340
G01 X-0.2802 Y0.2266
G01 X-0.2872 Y0.2191
G01 X-0.3006 Y0.2035
G01 X-0.3131 Y0.1872
G01 X-0.3249 Y0.1704
G01 X-0.3304 Y0.1618
G01 X-0.3357 Y0.1530
G01 X-0.3458 Y0.1350
G01 X-0.3549 Y0.1166
G01 X-0.3591 Y0.1073
G01 X-0.3668 Y0.0882
G01 X-0.3703 Y0.0786
G01 X-0.3766 Y0.0590
G01 X-0.3962 Y-0.0080
G01 X-0.4035 Y-0.0366
G01 X-0.4073 Y-0.0559
G01 X-0.4101 Y-0.0754
G01 X-0.4119 Y-0.0950
G01 X-0.4129 Y-0.1147
G01 X-0.4130 Y-13.8455
G01 X-0.4119 Y-13.8750
G01 X-0.4088 Y-13.9043
G01 X-0.4035 Y-13.9334
G01 X-0.3900 Y-13.9950
G01 X-0.3846 Y-14.0149
G01 X-0.3815 Y-14.0248
G01 X-0.3747 Y-14.0443
G01 X-0.3668 Y-14.0634
G01 X-0.3626 Y-14.0728
G01 X-0.3580 Y-14.0821
G01 X-0.3483 Y-14.1003
G01 X-0.3377 Y-14.1181
G01 X-0.3321 Y-14.1267
G01 X-0.3263 Y-14.1353
G01 X-0.3139 Y-14.1518
G01 X-0.3008 Y-14.1678
G01 X-0.2482 Y-14.2283
G01 X-0.2412 Y-14.2358
G01 X-0.2266 Y-14.2502
G01 X-0.2114 Y-14.2640
G01 X-0.1954 Y-14.2769
G01 X-0.1872 Y-14.2831
G01 X-0.1704 Y-14.2949
G01 X-0.1618 Y-14.3004
G01 X-0.1530 Y-14.3057
G01 X-0.1350 Y-14.3158
G01 X-0.1166 Y-14.3249
G01 X-0.0978 Y-14.3330
G01 X-0.0882 Y-14.3368
G01 X-0.0786 Y-14.3403
G01 X-0.0590 Y-14.3466
G01 X0.0080 Y-14.3662
G01 X0.0366 Y-14.3735
G01 X0.0559 Y-14.3773
G01 X0.0754 Y-14.3801
G01 X0.0950 Y-14.3819
G01 X0.1147 Y-14.3829
G01 X3.6885 Y-14.3830
G01 X3.7082 Y-14.3825
G01 X3.7376 Y-14.3801
G01 X3.7571 Y-14.3773
G01 X3.7764 Y-14.3735
G01 X3.8279 Y-14.3623
G01 X3.8480 Y-14.3574
G01 X3.8678 Y-14.3515
G01 X3.8873 Y-14.3447
G01 X3.9064 Y-14.3368
G01 X3.9251 Y-14.3280
G01 X3.9433 Y-14.3183
G01 X3.9611 Y-14.3077
G01 X3.9783 Y-14.2963
G01 X3.9866 Y-14.2902
G01 X4.0029 Y-14.2775
G01 X4.0652 Y-14.2236
G01 X4.0835 Y-14.2431
G01 X4.0984 Y-14.2572
G01 X4.1140 Y-14.2706
G01 X4.1303 Y-14.2831
G01 X4.1386 Y-14.2891
G01 X4.1557 Y-14.3004
G01 X4.1734 Y-14.3109
G01 X4.1916 Y-14.3204
G01 X4.2102 Y-14.3291
G01 X4.2293 Y-14.3368
G01 X4.2486 Y-14.3435
G01 X4.3255 Y-14.3662
G01 X4.3445 Y-14.3713
G01 X4.3734 Y-14.3773
G01 X4.3929 Y-14.3801
G01 X4.4125 Y-14.3819
G01 X4.4420 Y-14.3830
G01 X15.1155 Y-14.3830
G01 X15.1450 Y-14.3819
G01 X15.1743 Y-14.3788
G01 X15.2034 Y-14.3735
G01 X15.2650 Y-14.3600
G01 X15.2750 Y-14.3574
G01 X15.2948 Y-14.3515
G01 X15.3143 Y-14.3447
G01 X15.3334 Y-14.3368
G01 X15.3428 Y-14.3326
G01 X15.3521 Y-14.3280
G01 X15.3703 Y-14.3183
G01 X15.3793 Y-14.3131
G01 X15.3967 Y-14.3021
G01 X15.4053 Y-14.2963
G01 X15.4218 Y-14.2839
G01 X15.4378 Y-14.2708
G01 X15.4983 Y-14.2182
G01 X15.5131 Y-14.2040
G01 X15.5272 Y-14.1891
G01 X15.5340 Y-14.1814
G01 X15.5469 Y-14.1654
G01 X15.5531 Y-14.1572
G01 X15.5649 Y-14.1404
G01 X15.5704 Y-14.1318
G01 X15.5757 Y-14.1230
G01 X15.5858 Y-14.1050
G01 X15.5949 Y-14.0866
G01 X15.6030 Y-14.0678
G01 X15.6068 Y-14.0582
G01 X15.6103 Y-14.0486
G01 X15.6166 Y-14.0290
G01 X15.6362 Y-13.9620
G01 X15.6435 Y-13.9334
G01 X15.6473 Y-13.9141
G01 X15.6501 Y-13.8946
G01 X15.6519 Y-13.8750
G01 X15.6529 Y-13.8553
G01 X15.6529 Y-5.3212
G01 X15.6511 Y-5.2917
G01 X15.6473 Y-5.2624
G01 X15.6435 Y-5.2431
G01 X15.6323 Y-5.1916
G01 X15.6274 Y-5.1715
G01 X15.6215 Y-5.1517
G01 X15.6147 Y-5.1322
G01 X15.6068 Y-5.1131
G01 X15.5980 Y-5.0944
G01 X15.5883 Y-5.0762
G01 X15.5777 Y-5.0584
G01 X15.5663 Y-5.0412
G01 X15.5602 Y-5.0329
G01 X15.5475 Y-5.0166
G01 X15.4936 Y-4.9543
G00 Z2.0000
G00 X15.6986 Y-4.9557
G01 F60.00
G01 Z-0.1500
G01 F240.00
G01 X15.7113 Y-4.9351
G01 X15.7184 Y-4.9229
G01 X15.7252 Y-4.9104
G01 X15.7377 Y-4.8850
G01 X15.7490 Y-4.8590
G01 X15.7542 Y-4.8457
G01 X15.7635 Y-4.8190
G01 X15.7677 Y-4.8054
G01 X15.7911 Y-4.7253
G01 X15.7975 Y-4.6989
G01 X15.8002 Y-4.6856
G01 X15.8047 Y-4.6588
G01 X15.8079 Y-4.6318
G01 X15.8091 Y-4.6182
G01 X15.8103 Y-4.5911
G01 X15.8105 Y-0.1245
G01 X15.8103 Y-0.1109
G01 X15.8091 Y-0.0838
G01 X15.8079 Y-0.0702
G01 X15.8047 Y-0.0432
G01 X15.8026 Y-0.0298
G01 X15.7975 Y-0.0031
G01 X15.7830 Y0.0623
G01 X15.7756 Y0.0898
G01 X15.7668 Y0.1170
G01 X15.7619 Y0.1304
G01 X15.7510 Y0.1568
G01 X15.7389 Y0.1826
G01 X15.7324 Y0.1953
G01 X15.7255 Y0.2078
G01 X15.7108 Y0.2323
G01 X15.7031 Y0.2442
G01 X15.6866 Y0.2676
G01 X15.6690 Y0.2900
G01 X15.6598 Y0.3009
G01 X15.6047 Y0.3643
G01 X15.5850 Y0.3848
G01 X15.5749 Y0.3947
G01 X15.5538 Y0.4137
G01 X15.5429 Y0.4228
G01 X15.5205 Y0.4401
G01 X15.5089 Y0.4483
G01 X15.4853 Y0.4640
G01 X15.4609 Y0.4784
G01 X15.4358 Y0.4916
G01 X15.4230 Y0.4977
G01 X15.3970 Y0.5090
G01 X15.3704 Y0.5190
G01 X15.3434 Y0.5277
G01 X15.2633 Y0.5511
G01 X15.2369 Y0.5575
G01 X15.2236 Y0.5602
G01 X15.1968 Y0.5647
G01 X15.1698 Y0.5679
G01 X15.1427 Y0.5699
G01 X15.1155 Y0.5705
G01 X7.4875 Y0.5705
G01 X7.4739 Y0.5703
G01 X7.4468 Y0.5691
G01 X7.4197 Y0.5665
G01 X7.3928 Y0.5626
G01 X7.3661 Y0.5575
G01 X7.3146 Y0.5463
G01 X7.3007 Y0.5430
G01 X7.2732 Y0.5356
G01 X7.2460 Y0.5268
G01 X7.2326 Y0.5219
G01 X7.2062 Y0.5110
G01 X7.1932 Y0.5051
G01 X7.1677 Y0.4924
G01 X7.1552 Y0.4855
G01 X7.1307 Y0.4709
G01 X7.1122 Y0.4586
G01 X7.0916 Y0.4713
G01 X7.0794 Y0.4784
G01 X7.0543 Y0.4916
G01 X7.0415 Y0.4977
G01 X7.0285 Y0.5036
G01 X7.0022 Y0.5142
G01 X6.9755 Y0.5235
G01 X6.8949 Y0.5474
G01 X6.8818 Y0.5511
G01 X6.8554 Y0.5575
G01 X6.8287 Y0.5626
G01 X6.8018 Y0.5665
G01 X6.7883 Y0.5679
G01 X6.7612 Y0.5699
G01 X6.7340 Y0.5705
G01 X4.9475 Y0.5705
G01 X4.9203 Y0.5699
G01 X4.8932 Y0.5679
G01 X4.8797 Y0.5665
G01 X4.8528 Y0.5626
G01 X4.8261 Y0.5575
G01 X4.7746 Y0.5463
G01 X4.7469 Y0.5395
G01 X4.7332 Y0.5356
G01 X4.7195 Y0.5314
G01 X4.6926 Y0.5219
G01 X4.6794 Y0.5166
G01 X4.6532 Y0.5051
G01 X4.6404 Y0.4989
G01 X4.6152 Y0.4855
G01 X4.5907 Y0.4708
G01 X4.5722 Y0.4586
G01 X4.5516 Y0.4713
G01 X4.5394 Y0.4784
G01 X4.5143 Y0.4916
G01 X4.5015 Y0.4977
G01 X4.4885 Y0.5036
G01 X4.4622 Y0.5142
G01 X4.4355 Y0.5235
G01 X4.4219 Y0.5277
G01 X4.3418 Y0.5511
G01 X4.3154 Y0.5575
G01 X4.3021 Y0.5602
G01 X4.2753 Y0.5647
G01 X4.2618 Y0.5665
G01 X4.2347 Y0.5691
G01 X4.2076 Y0.5703
G01 X0.1245 Y0.5705
G01 X0.0973 Y0.5699
G01 X0.0838 Y0.5691
G01 X0.0702 Y0.5679
G01 X0.0432 Y0.5647
G01 X0.0298 Y0.5626
G01 X0.0031 Y0.5575
G01 X-0.0623 Y0.5430
G01 X-0.0898 Y0.5356
G01 X-0.1035 Y0.5314
G01 X-0.1304 Y0.5219
G01 X-0.1568 Y0.5110
G01 X-0.1698 Y0.5051
G01 X-0.1953 Y0.4924
G01 X-0.2078 Y0.4855
G01 X-0.2323 Y0.4708
G01 X-0.2442 Y0.4631
G01 X-0.2676 Y0.4466
G01 X-0.2789 Y0.4380
G01 X-0.3009 Y0.4198
G01 X-0.3537 Y0.3741
G01 X-0.3747 Y0.3550
G01 X-0.3848 Y0.3450
G01 X-0.4043 Y0.3244
G01 X-0.4228 Y0.3029
G01 X-0.4316 Y0.2918
G01 X-0.4483 Y0.2689
G01 X-0.4563 Y0.2572
G01 X-0.4713 Y0.2331
G01 X-0.4852 Y0.2084
G01 X-0.4977 Y0.1830
G01 X-0.5090 Y0.1570
G01 X-0.5142 Y0.1437
G01 X-0.5235 Y0.1170
G01 X-0.5474 Y0.0364
G01 X-0.5544 Y0.0101
G01 X-0.5575 Y-0.0031
G01 X-0.5602 Y-0.0164
G01 X-0.5647 Y-0.0432
G01 X-0.5665 Y-0.0567
G01 X-0.5691 Y-0.0838
G01 X-0.5703 Y-0.1109
G01 X-0.5705 Y-13.8455
G01 X-0.5699 Y-13.8727
G01 X-0.5691 Y-13.8862
G01 X-0.5665 Y-13.9133
G01 X-0.5647 Y-13.9268
G01 X-0.5602 Y-13.9536
G01 X-0.5575 Y-13.9669
G01 X-0.5430 Y-14.0323
G01 X-0.5356 Y-14.0598
G01 X-0.5314 Y-14.0735
G01 X-0.5219 Y-14.1004
G01 X-0.5110 Y-14.1268
G01 X-0.5051 Y-14.1398
G01 X-0.4989 Y-14.1526
G01 X-0.4855 Y-14.1778
G01 X-0.4783 Y-14.1901
G01 X-0.4631 Y-14.2142
G01 X-0.4550 Y-14.2260
G01 X-0.4380 Y-14.2489
G01 X-0.4198 Y-14.2709
G01 X-0.3741 Y-14.3237
G01 X-0.3550 Y-14.3447
G01 X-0.3349 Y-14.3647
G01 X-0.3244 Y-14.3743
G01 X-0.3138 Y-14.3837
G01 X-0.2918 Y-14.4016
G01 X-0.2805 Y-14.4101
G01 X-0.2572 Y-14.4263
G01 X-0.2331 Y-14.4413
G01 X-0.2084 Y-14.4552
G01 X-0.1830 Y-14.4677
G01 X-0.1700 Y-14.4736
G01 X-0.1437 Y-14.4842
G01 X-0.1170 Y-14.4935
G01 X-0.0364 Y-14.5174
G01 X-0.0233 Y-14.5211
G01 X0.0031 Y-14.5275
G01 X0.0298 Y-14.5326
G01 X0.0432 Y-14.5347
G01 X0.0702 Y-14.5379
G01 X0.0838 Y-14.5391
G01 X0.1109 Y-14.5403
G01 X3.7021 Y-14.5403
G01 X3.7157 Y-14.5399
G01 X3.7428 Y-14.5379
G01 X3.7698 Y-14.5347
G01 X3.7832 Y-14.5326
G01 X3.8099 Y-14.5275
G01 X3.8614 Y-14.5163
G01 X3.8753 Y-14.5130
G01 X3.9028 Y-14.5056
G01 X3.9300 Y-14.4968
G01 X3.9434 Y-14.4919
G01 X3.9698 Y-14.4810
G01 X3.9828 Y-14.4751
G01 X3.9956 Y-14.4689
G01 X4.0208 Y-14.4555
G01 X4.0453 Y-14.4408
G01 X4.0638 Y-14.4286
G01 X4.0844 Y-14.4413
G01 X4.0966 Y-14.4484
G01 X4.1091 Y-14.4552
G01 X4.1345 Y-14.4677
G01 X4.1605 Y-14.4790
G01 X4.1738 Y-14.4842
G01 X4.2005 Y-14.4935
G01 X4.2141 Y-14.4977
G01 X4.2942 Y-14.5211
G01 X4.3206 Y-14.5275
G01 X4.3339 Y-14.5302
G01 X4.3607 Y-14.5347
G01 X4.3877 Y-14.5379
G01 X4.4148 Y-14.5399
G01 X4.4420 Y-14.5405
G01 X15.1155 Y-14.5405
G01 X15.1291 Y-14.5403
G01 X15.1562 Y-14.5391
G01 X15.1698 Y-14.5379
G01 X15.1968 Y-14.5347
G01 X15.2102 Y-14.5326
G01 X15.2369 Y-14.5275
G01 X15.3023 Y-14.5130
G01 X15.3161 Y-14.5095
G01 X15.3435 Y-14.5014
G01 X15.3704 Y-14.4919
G01 X15.3836 Y-14.4866
G01 X15.4098 Y-14.4751
G01 X15.4353 Y-14.4624
G01 X15.4478 Y-14.4555
G01 X15.4601 Y-14.4483
G01 X15.4842 Y-14.4331
G01 X15.4960 Y-14.4250
G01 X15.5189 Y-14.4080
G01 X15.5409 Y-14.3898
G01 X15.5937 Y-14.3441
G01 X15.6147 Y-14.3250
G01 X15.6347 Y-14.3049
G01 X15.6443 Y-14.2944
G01 X15.6537 Y-14.2838
G01 X15.6716 Y-14.2618
G01 X15.6883 Y-14.2389
G01 X15.7040 Y-14.2153
G01 X15.7113 Y-14.2031
G01 X15.7252 Y-14.1784
G01 X15.7316 Y-14.1658
G01 X15.7436 Y-14.1400
G01 X15.7542 Y-14.1137
G01 X15.7635 Y-14.0870
G01 X15.7874 Y-14.0064
G01 X15.7911 Y-13.9933
G01 X15.7975 Y-13.9669
G01 X15.8002 Y-13.9536
G01 X15.8047 Y-13.9268
G01 X15.8065 Y-13.9133
G01 X15.8091 Y-13.8862
G01 X15.8103 Y-13.8591
G01 X15.8103 Y-5.3174
G01 X15.8091 Y-5.2903
G01 X15.8079 Y-5.2767
G01 X15.8065 Y-5.2632
G01 X15.8026 Y-5.2363
G01 X15.7975 Y-5.2096
G01 X15.7863 Y-5.1581
G01 X15.7795 Y-5.1304
G01 X15.7756 Y-5.1167
G01 X15.7714 Y-5.1030
G01 X15.7619 Y-5.0761
G01 X15.7510 Y-5.0497
G01 X15.7451 Y-5.0367
G01 X15.7389 Y-5.0239
G01 X15.7255 Y-4.9987
G01 X15.7108 Y-4.9742
G01 X15.6986 Y-4.9557
G00 Z2.0000
G00 X15.8797 Y-4.9532
G01 F60.00
G01 Z-0.1500
G01 F240.00
G01 X15.8880 Y-4.9348
G01 X15.8950 Y-4.9181
G01 X15.9016 Y-4.9013
G01 X15.9135 Y-4.8671
G01 X15.9385 Y-4.7828
G01 X15.9475 Y-4.7493
G01 X15.9514 Y-4.7324
G01 X15.9579 Y-4.6983
G01 X15.9629 Y-4.6640
G01 X15.9662 Y-4.6295
G01 X15.9678 Y-4.5948
G01 X15.9680 Y-0.1245
G01 X15.9672 Y-0.0898
G01 X15.9662 Y-0.0725
G01 X15.9647 Y-0.0552
G01 X15.9606 Y-0.0208
G01 X15.9549 Y0.0134
G01 X15.9514 Y0.0304
G01 X15.9402 Y0.0819
G01 X15.9315 Y0.1172
G01 X15.9266 Y0.1348
G01 X15.9153 Y0.1694
G01 X15.9091 Y0.1865
G01 X15.8952 Y0.2202
G01 X15.8798 Y0.2531
G01 X15.8714 Y0.2693
G01 X15.8535 Y0.3010
G01 X15.8440 Y0.3165
G01 X15.8340 Y0.3318
G01 X15.8131 Y0.3615
G01 X15.8020 Y0.3760
G01 X15.7789 Y0.4041
G01 X15.7331 Y0.4569
G01 X15.7088 Y0.4836
G01 X15.6961 Y0.4966
G01 X15.6698 Y0.5214
G01 X15.6562 Y0.5334
G01 X15.6281 Y0.5562
G01 X15.6137 Y0.5671
G01 X15.5840 Y0.5878
G01 X15.5533 Y0.6069
G01 X15.5217 Y0.6246
G01 X15.4893 Y0.6406
G01 X15.4728 Y0.6480
G01 X15.4393 Y0.6616
G01 X15.4222 Y0.6678
G01 X15.3878 Y0.6788
G01 X15.3041 Y0.7032
G01 X15.2873 Y0.7075
G01 X15.2534 Y0.7149
G01 X15.2192 Y0.7206
G01 X15.1848 Y0.7247
G01 X15.1502 Y0.7272
G01 X15.1155 Y0.7280
G01 X7.4875 Y0.7280
G01 X7.4528 Y0.7272
G01 X7.4355 Y0.7262
G01 X7.4182 Y0.7247
G01 X7.3838 Y0.7206
G01 X7.3496 Y0.7149
G01 X7.2634 Y0.6961
G01 X7.2282 Y0.6866
G01 X7.2109 Y0.6812
G01 X7.1765 Y0.6691
G01 X7.1428 Y0.6552
G01 X7.1097 Y0.6397
G01 X7.0913 Y0.6480
G01 X7.0746 Y0.6550
G01 X7.0407 Y0.6678
G01 X7.0063 Y0.6788
G01 X6.9226 Y0.7032
G01 X6.8889 Y0.7114
G01 X6.8719 Y0.7149
G01 X6.8377 Y0.7206
G01 X6.8033 Y0.7247
G01 X6.7687 Y0.7272
G01 X6.7340 Y0.7280
G01 X4.9475 Y0.7280
G01 X4.9302 Y0.7278
G01 X4.8955 Y0.7262
G01 X4.8610 Y0.7229
G01 X4.8438 Y0.7206
G01 X4.8096 Y0.7149
G01 X4.7234 Y0.6961
G01 X4.6882 Y0.6866
G01 X4.6536 Y0.6753
G01 X4.6365 Y0.6691
G01 X4.6028 Y0.6552
G01 X4.5697 Y0.6397
G01 X4.5513 Y0.6480
G01 X4.5346 Y0.6550
G01 X4.5178 Y0.6616
G01 X4.4836 Y0.6735
G01 X4.3993 Y0.6985
G01 X4.3658 Y0.7075
G01 X4.3319 Y0.7149
G01 X4.2977 Y0.7206
G01 X4.2633 Y0.7247
G01 X4.2287 Y0.7272
G01 X4.2113 Y0.7278
G01 X0.1245 Y0.7280
G01 X0.0898 Y0.7272
G01 X0.0725 Y0.7262
G01 X0.0380 Y0.7229
G01 X0.0208 Y0.7206
G01 X0.0037 Y0.7179
G01 X-0.0304 Y0.7114
G01 X-0.0819 Y0.7002
G01 X-0.1172 Y0.6915
G01 X-0.1521 Y0.6812
G01 X-0.1694 Y0.6753
G01 X-0.2034 Y0.6624
G01 X-0.2367 Y0.6477
G01 X-0.2531 Y0.6398
G01 X-0.2853 Y0.6227
G01 X-0.3165 Y0.6040
G01 X-0.3318 Y0.5940
G01 X-0.3615 Y0.5731
G01 X-0.3760 Y0.5620
G01 X-0.4041 Y0.5389
G01 X-0.4569 Y0.4931
G01 X-0.4836 Y0.4688
G01 X-0.5092 Y0.4431
G01 X-0.5334 Y0.4162
G01 X-0.5449 Y0.4023
G01 X-0.5562 Y0.3881
G01 X-0.5776 Y0.3590
G01 X-0.5975 Y0.3288
G01 X-0.6069 Y0.3133
G01 X-0.6159 Y0.2976
G01 X-0.6328 Y0.2656
G01 X-0.6406 Y0.2493
G01 X-0.6550 Y0.2161
G01 X-0.6616 Y0.1993
G01 X-0.6735 Y0.1651
G01 X-0.6985 Y0.0808
G01 X-0.7075 Y0.0473
G01 X-0.7149 Y0.0134
G01 X-0.7179 Y-0.0037
G01 X-0.7229 Y-0.0380
G01 X-0.7247 Y-0.0552
G01 X-0.7262 Y-0.0725
G01 X-0.7278 Y-0.1072
G01 X-0.7280 Y-13.8455
G01 X-0.7278 Y-13.8628
G01 X-0.7262 Y-13.8975
G01 X-0.7247 Y-13.9148
G01 X-0.7206 Y-13.9492
G01 X-0.7149 Y-13.9834
G01 X-0.7114 Y-14.0004
G01 X-0.7002 Y-14.0519
G01 X-0.6915 Y-14.0872
G01 X-0.6866 Y-14.1048
G01 X-0.6753 Y-14.1394
G01 X-0.6624 Y-14.1734
G01 X-0.6552 Y-14.1902
G01 X-0.6398 Y-14.2231
G01 X-0.6227 Y-14.2553
G01 X-0.6040 Y-14.2865
G01 X-0.5940 Y-14.3018
G01 X-0.5731 Y-14.3315
G01 X-0.5620 Y-14.3460
G01 X-0.5389 Y-14.3741
G01 X-0.4931 Y-14.4269
G01 X-0.4688 Y-14.4536
G01 X-0.4431 Y-14.4792
G01 X-0.4298 Y-14.4914
G01 X-0.4162 Y-14.5034
G01 X-0.3881 Y-14.5262
G01 X-0.3590 Y-14.5476
G01 X-0.3288 Y-14.5675
G01 X-0.3133 Y-14.5769
G01 X-0.2976 Y-14.5859
G01 X-0.2656 Y-14.6028
G01 X-0.2328 Y-14.6180
G01 X-0.2161 Y-14.6250
G01 X-0.1993 Y-14.6316
G01 X-0.1651 Y-14.6435
G01 X-0.0808 Y-14.6685
G01 X-0.0473 Y-14.6775
G01 X-0.0304 Y-14.6814
G01 X0.0037 Y-14.6879
G01 X0.0380 Y-14.6929
G01 X0.0552 Y-14.6947
G01 X0.0725 Y-14.6962
G01 X0.1072 Y-14.6978
G01 X3.7058 Y-14.6978
G01 X3.7405 Y-14.6962
G01 X3.7578 Y-14.6947
G01 X3.7922 Y-14.6906
G01 X3.8264 Y-14.6849
G01 X3.9126 Y-14.6661
G01 X3.9478 Y-14.6566
G01 X3.9651 Y-14.6512
G01 X3.9995 Y-14.6391
G01 X4.0332 Y-14.6252
G01 X4.0663 Y-14.6097
G01 X4.0847 Y-14.6180
G01 X4.1014 Y-14.6250
G01 X4.1182 Y-14.6316
G01 X4.1524 Y-14.6435
G01 X4.2367 Y-14.6685
G01 X4.2702 Y-14.6775
G01 X4.3041 Y-14.6849
G01 X4.3212 Y-14.6879
G01 X4.3555 Y-14.6929
G01 X4.3900 Y-14.6962
G01 X4.4247 Y-14.6978
G01 X4.4420 Y-14.6980
G01 X15.1155 Y-14.6980
G01 X15.1502 Y-14.6972
G01 X15.1675 Y-14.6962
G01 X15.2020 Y-14.6929
G01 X15.2192 Y-14.6906
G01 X15.2534 Y-14.6849
G01 X15.2704 Y-14.6814
G01 X15.3219 Y-14.6702
G01 X15.3572 Y-14.6615
G01 X15.3921 Y-14.6512
G01 X15.4094 Y-14.6453
G01 X15.4434 Y-14.6324
G01 X15.4602 Y-14.6252
G01 X15.4931 Y-14.6098
G01 X15.5253 Y-14.5927
G01 X15.5565 Y-14.5740
G01 X15.5718 Y-14.5640
G01 X15.5868 Y-14.5537
G01 X15.6160 Y-14.5320
G01 X15.6441 Y-14.5089
G01 X15.6969 Y-14.4631
G01 X15.7236 Y-14.4388
G01 X15.7492 Y-14.4131
G01 X15.7614 Y-14.3998
G01 X15.7849 Y-14.3723
G01 X15.8071 Y-14.3437
G01 X15.8176 Y-14.3290
G01 X15.8375 Y-14.2988
G01 X15.8469 Y-14.2833
G01 X15.8646 Y-14.2517
G01 X15.8806 Y-14.2193
G01 X15.8950 Y-14.1861
G01 X15.9016 Y-14.1693
G01 X15.9135 Y-14.1351
G01 X15.9385 Y-14.0508
G01 X15.9432 Y-14.0341
G01 X15.9514 Y-14.0004
G01 X15.9579 Y-13.9663
G01 X15.9629 Y-13.9320
G01 X15.9662 Y-13.8975
G01 X15.9672 Y-13.8802
G01 X15.9680 Y-13.8455
G01 X15.9680 Y-5.3310
G01 X15.9678 Y-5.3137
G01 X15.9662 Y-5.2790
G01 X15.9629 Y-5.2445
G01 X15.9606 Y-5.2273
G01 X15.9549 Y-5.1931
G01 X15.9361 Y-5.1069
G01 X15.9315 Y-5.0893
G01 X15.9212 Y-5.0544
G01 X15.9091 Y-5.0200
G01 X15.8952 Y-4.9863
G01 X15.8797 Y-4.9532
G00 Z2.0000
G00 X13.0484 Y-2.9316
G01 F60.00
G01 Z-0.1500
G01 F240.00
G01 X13.3548 Y-2.9317
G01 X13.3842 Y-2.9332
G01 X13.4132 Y-2.9374
G01 X13.4227 Y-2.9393
G01 X13.4535 Y-2.9473
G01 X13.4833 Y-2.9581
G01 X13.5099 Y-2.9705
G01 X13.5185 Y-2.9751
G01 X13.5436 Y-2.9903
G01 X13.5711 Y-3.0106
G01 X13.5929 Y-3.0303
G01 X13.5997 Y-3.0371
G01 X13.6209 Y-3.0608
G01 X13.6397 Y-3.0864
G01 X13.6549 Y-3.1115
G01 X13.6595 Y-3.1201
G01 X13.6728 Y-3.1489
G01 X13.6834 Y-3.1789
G01 X13.6913 Y-3.2097
G01 X13.6965 Y-3.2434
G01 X13.6974 Y-3.2566
G01 X14.0015 Y-3.2566
G01 X14.0015 Y-3.2350
G01 X13.9927 Y-3.1480
G01 X13.9445 Y-3.0028
G01 X13.8646 Y-2.8731
G01 X13.7569 Y-2.7654
G01 X13.6272 Y-2.6855
G01 X13.4820 Y-2.6373
G01 X13.3950 Y-2.6284
G01 X13.0484 Y-2.6284
G01 X13.0484 Y-2.9316
G00 Z2.0000
G00 X4.6543 Y-2.8353
G01 F60.00
G01 Z-0.1500
G01 F240.00
G01 X4.6434 Y-2.8528
G01 X4.6316 Y-2.8696
G01 X4.6191 Y-2.8859
G01 X4.6057 Y-2.9015
G01 X4.5987 Y-2.9090
G01 X4.5843 Y-2.9236
G01 X4.5691 Y-2.9374
G01 X4.5163 Y-2.9832
G01 X4.5004 Y-2.9962
G01 X4.4840 Y-3.0085
G01 X4.4669 Y-3.0199
G01 X4.4493 Y-3.0305
G01 X4.4312 Y-3.0401
G01 X4.4126 Y-3.0489
G01 X4.3936 Y-3.0567
G01 X4.3743 Y-3.0636
G01 X4.3514 Y-3.0704
G01 X4.3748 Y-3.1097
G01 X4.3844 Y-3.1276
G01 X4.4330 Y-3.2304
G01 X4.4408 Y-3.2492
G01 X4.4450 Y-3.2606
G01 X4.4492 Y-3.2492
G01 X4.4570 Y-3.2304
G01 X4.5056 Y-3.1276
G01 X4.5203 Y-3.1009
G01 X4.5737 Y-3.0121
G01 X4.5909 Y-2.9870
G01 X4.6527 Y-2.9038
G01 X4.6656 Y-2.8882
G01 X4.6937 Y-2.8569
G01 X4.6710 Y-2.8452
G01 X4.6543 Y-2.8353
G00 Z2.0000
G00 X4.5740 Y-2.4440
G01 F60.00
G01 Z-0.1500
G01 F240.00
G01 X4.5739 Y-2.5640
G01 X4.5728 Y-2.5822
G01 X4.5714 Y-2.5943
G01 X4.5681 Y-2.6123
G01 X4.5636 Y-2.6300
G01 X4.5420 Y-2.7031
G01 X4.5356 Y-2.7210
G01 X4.5277 Y-2.7384
G01 X4.5187 Y-2.7552
G01 X4.5083 Y-2.7712
G01 X4.5008 Y-2.7815
G01 X4.4928 Y-2.7913
G01 X4.4843 Y-2.8008
G01 X4.4707 Y-2.8141
G01 X4.4131 Y-2.8641
G01 X4.4033 Y-2.8722
G01 X4.3879 Y-2.8834
G01 X4.3771 Y-2.8902
G01 X4.3661 Y-2.8965
G01 X4.3547 Y-2.9022
G01 X4.3431 Y-2.9073
G01 X4.3312 Y-2.9119
G01 X4.3192 Y-2.9158
G01 X4.3007 Y-2.9206
G01 X4.2819 Y-2.9240
G01 X4.2065 Y-2.9348
G01 X4.1875 Y-2.9363
G01 X4.1685 Y-2.9365
G01 X4.1496 Y-2.9352
G01 X4.1370 Y-2.9335
G01 X4.1245 Y-2.9313
G01 X4.1060 Y-2.9267
G01 X4.0939 Y-2.9230
G01 X4.0820 Y-2.9186
G01 X4.0177 Y-2.8913
G01 X4.0053 Y-2.8856
G01 X4.0250 Y-2.9036
G01 X4.0339 Y-2.9125
G01 X4.1051 Y-2.9910
G01 X4.1169 Y-3.0058
G01 X4.1726 Y-3.0808
G01 X4.1832 Y-3.0964
G01 X4.2346 Y-3.1819
G01 X4.2408 Y-3.1928
G01 X4.2464 Y-3.2041
G01 X4.2864 Y-3.2886
G01 X4.2915 Y-3.3000
G01 X4.2960 Y-3.3118
G01 X4.3295 Y-3.4057
G01 X4.3348 Y-3.4238
G01 X4.3575 Y-3.5145
G01 X4.3602 Y-3.5267
G01 X4.3624 Y-3.5391
G01 X4.3761 Y-3.6316
G01 X4.3782 Y-3.6503
G01 X4.3834 Y-3.7562
G01 X4.3835 Y-3.8575
G01 X4.3832 Y-3.8701
G01 X4.3786 Y-3.9634
G01 X4.3770 Y-3.9822
G01 X4.3624 Y-4.0809
G01 X4.3602 Y-4.0933
G01 X4.3575 Y-4.1055
G01 X4.3348 Y-4.1962
G01 X4.3314 Y-4.2083
G01 X4.3275 Y-4.2202
G01 X4.2960 Y-4.3082
G01 X4.2915 Y-4.3200
G01 X4.2864 Y-4.3314
G01 X4.2464 Y-4.4159
G01 X4.2408 Y-4.4272
G01 X4.2346 Y-4.4381
G01 X4.1865 Y-4.5183
G01 X4.1798 Y-4.5289
G01 X4.1726 Y-4.5392
G01 X4.1169 Y-4.6142
G01 X4.1092 Y-4.6241
G01 X4.1010 Y-4.6337
G01 X4.0382 Y-4.7029
G01 X4.0295 Y-4.7120
G01 X4.0204 Y-4.7207
G01 X3.9512 Y-4.7835
G01 X3.9416 Y-4.7917
G01 X3.9317 Y-4.7994
G01 X3.8567 Y-4.8551
G01 X3.8464 Y-4.8623
G01 X3.8358 Y-4.8690
G01 X3.7556 Y-4.9171
G01 X3.7447 Y-4.9233
G01 X3.7333 Y-4.9290
G01 X3.8038 Y-4.9140
G01 X3.8227 Y-4.9112
G01 X3.8417 Y-4.9098
G01 X3.8544 Y-4.9096
G01 X3.8671 Y-4.9101
G01 X3.8798 Y-4.9112
G01 X3.8924 Y-4.9130
G01 X3.9048 Y-4.9153
G01 X3.9172 Y-4.9183
G01 X3.9354 Y-4.9239
G01 X4.0127 Y-4.9531
G01 X4.0243 Y-4.9581
G01 X4.0357 Y-4.9638
G01 X4.0468 Y-4.9700
G01 X4.0576 Y-4.9767
G01 X4.0680 Y-4.9840
G01 X4.0781 Y-4.9918
G01 X4.0877 Y-5.0000
G01 X4.0970 Y-5.0088
G01 X4.1058 Y-5.0180
G01 X4.1141 Y-5.0276
G01 X4.1219 Y-5.0376
G01 X4.1636 Y-5.0937
G01 X4.1744 Y-5.1094
G01 X4.1840 Y-5.1259
G01 X4.1897 Y-5.1372
G01 X4.1971 Y-5.1548
G01 X4.2028 Y-5.1714
G01 X4.2086 Y-5.0963
G01 X4.2112 Y-5.0773
G01 X4.2137 Y-5.0648
G01 X4.2187 Y-5.0463
G01 X4.2250 Y-5.0282
G01 X4.2327 Y-5.0107
G01 X4.2511 Y-4.9748
G01 X4.2600 Y-4.9597
G01 X4.3484 Y-4.8269
G01 X4.3554 Y-4.8169
G01 X4.3668 Y-4.8026
G01 X4.3792 Y-4.7892
G01 X4.3924 Y-4.7766
G01 X4.4506 Y-4.7278
G01 X4.4606 Y-4.7199
G01 X4.4709 Y-4.7125
G01 X4.4816 Y-4.7056
G01 X4.4982 Y-4.6962
G01 X4.5155 Y-4.6882
G01 X4.5333 Y-4.6814
G01 X4.5516 Y-4.6760
G01 X4.5640 Y-4.6732
G01 X4.5765 Y-4.6710
G01 X4.6521 Y-4.6613
G01 X4.6645 Y-4.6600
G01 X4.6770 Y-4.6594
G01 X4.6895 Y-4.6593
G01 X4.7020 Y-4.6599
G01 X4.7144 Y-4.6611
G01 X4.7267 Y-4.6628
G01 X4.7390 Y-4.6652
G01 X4.7511 Y-4.6682
G01 X4.7702 Y-4.6741
G01 X4.7993 Y-4.6450
G01 X4.7849 Y-4.6290
G01 X4.7769 Y-4.6192
G01 X4.7137 Y-4.5341
G01 X4.7035 Y-4.5183
G01 X4.6554 Y-4.4381
G01 X4.6492 Y-4.4272
G01 X4.6436 Y-4.4159
G01 X4.6036 Y-4.3314
G01 X4.5985 Y-4.3200
G01 X4.5940 Y-4.3082
G01 X4.5625 Y-4.2202
G01 X4.5568 Y-4.2023
G01 X4.5325 Y-4.1055
G01 X4.5298 Y-4.0933
G01 X4.5276 Y-4.0809
G01 X4.5139 Y-3.9884
G01 X4.5118 Y-3.9697
G01 X4.5066 Y-3.8638
G01 X4.5065 Y-3.7625
G01 X4.5068 Y-3.7499
G01 X4.5114 Y-3.6566
G01 X4.5123 Y-3.6440
G01 X4.5139 Y-3.6316
G01 X4.5276 Y-3.5391
G01 X4.5298 Y-3.5267
G01 X4.5325 Y-3.5145
G01 X4.5552 Y-3.4238
G01 X4.5586 Y-3.4117
G01 X4.5625 Y-3.3998
G01 X4.5940 Y-3.3118
G01 X4.5985 Y-3.3000
G01 X4.6036 Y-3.2886
G01 X4.6436 Y-3.2041
G01 X4.6492 Y-3.1928
G01 X4.6554 Y-3.1819
G01 X4.7068 Y-3.0964
G01 X4.7174 Y-3.0808
G01 X4.7731 Y-3.0058
G01 X4.7808 Y-2.9959
G01 X4.7890 Y-2.9863
G01 X4.8518 Y-2.9171
G01 X4.8605 Y-2.9080
G01 X4.8696 Y-2.8993
G01 X4.9388 Y-2.8365
G01 X4.9533 Y-2.8244
G01 X5.0384 Y-2.7612
G01 X5.0489 Y-2.7543
G01 X5.0677 Y-2.7429
G01 X4.9917 Y-2.7593
G01 X4.9729 Y-2.7626
G01 X4.9602 Y-2.7640
G01 X4.9412 Y-2.7649
G01 X4.9221 Y-2.7644
G01 X4.9095 Y-2.7633
G01 X4.8969 Y-2.7616
G01 X4.8844 Y-2.7592
G01 X4.8659 Y-2.7545
G01 X4.8538 Y-2.7506
G01 X4.7765 Y-2.7215
G01 X4.7592 Y-2.7136
G01 X4.7424 Y-2.7045
G01 X4.7264 Y-2.6942
G01 X4.7111 Y-2.6827
G01 X4.6968 Y-2.6702
G01 X4.6835 Y-2.6565
G01 X4.6752 Y-2.6469
G01 X4.6673 Y-2.6369
G01 X4.6257 Y-2.5808
G01 X4.6151 Y-2.5654
G01 X4.6057 Y-2.5493
G01 X4.6000 Y-2.5382
G01 X4.5926 Y-2.5211
G01 X4.5884 Y-2.5093
G01 X4.5847 Y-2.4974
G01 X4.5817 Y-2.4854
G01 X4.5740 Y-2.4440
G00 Z2.0000
G00 X2.8264 Y-8.1127
G01 F60.00
G01 Z-0.1500
G01 F240.00
G01 X2.7220 Y-8.2618
G01 X2.6294 Y-8.4603
G01 X2.6077 Y-8.5415
G01 X2.9284 Y-8.5415
G01 X2.9337 Y-8.5270
G01 X2.9402 Y-8.5131
G01 X2.9268 Y-8.4998
G01 X2.9040 Y-8.4742
G01 X2.8852 Y-8.4487
G01 X2.8687 Y-8.4214
G01 X2.8549 Y-8.3928
G01 X2.8512 Y-8.3839
G01 X2.8414 Y-8.3562
G01 X2.8342 Y-8.3277
G01 X2.8323 Y-8.3182
G01 X2.8281 Y-8.2892
G01 X2.8265 Y-8.2574
G01 X2.8264 Y-8.1127
G00 Z2.0000
G00 X2.6294 Y-9.3197
G01 F60.00
G01 Z-0.1500
G01 F240.00
G01 X2.7220 Y-9.5182
G01 X2.8476 Y-9.6976
G01 X2.8924 Y-9.7424
G01 X2.8924 Y-9.4590
G01 X2.8939 Y-9.4272
G01 X2.8991 Y-9.3910
G01 X2.9082 Y-9.3555
G01 X2.9172 Y-9.3301
G01 X2.9209 Y-9.3212
G01 X2.9336 Y-9.2947
G01 X2.9446 Y-9.2761
G01 X2.9337 Y-9.2530
G01 X2.9284 Y-9.2384
G01 X2.6077 Y-9.2384
G01 X2.6294 Y-9.3197
G00 Z2.0000
G00 X2.6426 Y-11.0816
G01 F60.00
G01 Z-0.1500
G01 F240.00
G01 X2.6426 Y-10.9526
G01 X2.6439 Y-10.9257
G01 X2.6448 Y-10.9161
G01 X2.6492 Y-10.8870
G01 X2.6576 Y-10.8539
G01 X2.6691 Y-10.8217
G01 X2.6837 Y-10.7907
G01 X2.7013 Y-10.7614
G01 X2.7216 Y-10.7339
G01 X2.7446 Y-10.7086
G01 X2.7699 Y-10.6856
G01 X2.7974 Y-10.6653
G01 X2.8267 Y-10.6477
G01 X2.8577 Y-10.6331
G01 X2.8853 Y-10.6231
G01 X2.8924 Y-10.6208
G01 X2.8924 Y-10.3089
G01 X2.8590 Y-10.3123
G01 X2.7138 Y-10.3605
G01 X2.5841 Y-10.4404
G01 X2.4764 Y-10.5481
G01 X2.3965 Y-10.6778
G01 X2.3483 Y-10.8230
G01 X2.3394 Y-10.9100
G01 X2.3394 Y-11.0816
G01 X2.6426 Y-11.0816
G00 Z2.0000
G00 X2.8925 Y-12.5511
G01 F60.00
G01 Z-0.1500
G01 F240.00
G01 X2.8925 Y-12.2392
G01 X2.8853 Y-12.2369
G01 X2.8577 Y-12.2269
G01 X2.8267 Y-12.2123
G01 X2.7974 Y-12.1947
G01 X2.7699 Y-12.1744
G01 X2.7446 Y-12.1514
G01 X2.7216 Y-12.1261
G01 X2.7013 Y-12.0986
G01 X2.6837 Y-12.0693
G01 X2.6691 Y-12.0383
G01 X2.6576 Y-12.0061
G01 X2.6492 Y-11.9730
G01 X2.6448 Y-11.9439
G01 X2.6439 Y-11.9343
G01 X2.6426 Y-11.9074
G01 X2.6426 Y-11.7784
G01 X2.3395 Y-11.7784
G01 X2.3395 Y-11.9500
G01 X2.3483 Y-12.0370
G01 X2.3965 Y-12.1822
G01 X2.4764 Y-12.3119
G01 X2.5841 Y-12.4196
G01 X2.7138 Y-12.4995
G01 X2.8590 Y-12.5477
G01 X2.8925 Y-12.5511
G00 Z2.0000
G00 X4.0115 Y-12.3338
G01 F60.00
G01 Z-0.1500
G01 F240.00
G01 X4.0235 Y-12.3191
G01 X4.0372 Y-12.3038
G01 X4.0517 Y-12.2892
G01 X4.0592 Y-12.2822
G01 X4.1275 Y-12.2230
G01 X4.1437 Y-12.2104
G01 X4.1520 Y-12.2043
G01 X4.1605 Y-12.1985
G01 X4.1778 Y-12.1875
G01 X4.1957 Y-12.1774
G01 X4.2141 Y-12.1682
G01 X4.2328 Y-12.1599
G01 X4.2424 Y-12.1561
G01 X4.2617 Y-12.1492
G01 X4.2729 Y-12.1458
G01 X4.2624 Y-12.1169
G01 X4.2561 Y-12.0976
G01 X4.2507 Y-12.0780
G01 X4.2447 Y-12.0542
G01 X4.2403 Y-12.0344
G01 X4.2368 Y-12.0144
G01 X4.2332 Y-11.9902
G01 X4.2307 Y-11.9700
G01 X4.2292 Y-11.9498
G01 X4.2280 Y-11.9253
G01 X4.2275 Y-11.9050
G01 X4.2276 Y-10.9449
G01 X4.2292 Y-10.9102
G01 X4.2307 Y-10.8900
G01 X4.2332 Y-10.8698
G01 X4.2368 Y-10.8456
G01 X4.2403 Y-10.8256
G01 X4.2447 Y-10.8058
G01 X4.2533 Y-10.7721
G01 X4.2591 Y-10.7527
G01 X4.2707 Y-10.7200
G01 X4.2820 Y-10.6918
G01 X4.2967 Y-10.6604
G01 X4.3059 Y-10.6422
G01 X4.3159 Y-10.6246
G01 X4.3285 Y-10.6035
G01 X4.3451 Y-10.5780
G01 X4.3718 Y-10.5420
G01 X4.3914 Y-10.5187
G01 X4.4078 Y-10.5005
G01 X4.4218 Y-10.4858
G01 X4.4365 Y-10.4718
G01 X4.4623 Y-10.4486
G01 X4.4861 Y-10.4296
G01 X4.5058 Y-10.4150
G01 X4.5224 Y-10.4033
G01 X4.5395 Y-10.3925
G01 X4.5693 Y-10.3747
G01 X4.5964 Y-10.3607
G01 X4.6185 Y-10.3502
G01 X4.6371 Y-10.3420
G01 X4.6560 Y-10.3347
G01 X4.6887 Y-10.3231
G01 X4.7180 Y-10.3147
G01 X4.7418 Y-10.3087
G01 X4.7616 Y-10.3043
G01 X4.7816 Y-10.3008
G01 X4.8058 Y-10.2972
G01 X4.8260 Y-10.2947
G01 X4.8462 Y-10.2932
G01 X4.8707 Y-10.2920
G01 X4.8910 Y-10.2915
G01 X5.4011 Y-10.2916
G01 X5.4358 Y-10.2932
G01 X5.4560 Y-10.2947
G01 X5.4762 Y-10.2972
G01 X5.5004 Y-10.3008
G01 X5.5204 Y-10.3043
G01 X5.5402 Y-10.3087
G01 X5.5640 Y-10.3147
G01 X5.5836 Y-10.3201
G01 X5.6029 Y-10.3264
G01 X5.6355 Y-10.3382
G01 X5.6542 Y-10.3460
G01 X5.6948 Y-10.3652
G01 X5.7127 Y-10.3747
G01 X5.7425 Y-10.3925
G01 X5.7596 Y-10.4033
G01 X5.7762 Y-10.4150
G01 X5.8040 Y-10.4358
G01 X5.8197 Y-10.4486
G01 X5.8455 Y-10.4718
G01 X5.8602 Y-10.4858
G01 X5.8742 Y-10.5005
G01 X5.8906 Y-10.5187
G01 X5.9039 Y-10.5341
G01 X5.9164 Y-10.5501
G01 X5.9369 Y-10.5780
G01 X5.9535 Y-10.6035
G01 X5.9713 Y-10.6333
G01 X5.9808 Y-10.6512
G01 X5.9958 Y-10.6825
G01 X6.0040 Y-10.7011
G01 X6.0113 Y-10.7200
G01 X6.0229 Y-10.7527
G01 X6.0313 Y-10.7820
G01 X6.0373 Y-10.8058
G01 X6.0417 Y-10.8256
G01 X6.0452 Y-10.8456
G01 X6.0502 Y-10.8799
G01 X6.0528 Y-10.9102
G01 X6.0540 Y-10.9347
G01 X6.0545 Y-10.9550
G01 X6.0545 Y-11.9050
G01 X6.0536 Y-11.9325
G01 X6.0774 Y-11.9339
G01 X6.0765 Y-11.9050
G01 X6.0765 Y-10.9550
G01 X6.0770 Y-10.9347
G01 X6.0782 Y-10.9102
G01 X6.0808 Y-10.8799
G01 X6.0874 Y-10.8355
G01 X6.0914 Y-10.8156
G01 X6.1023 Y-10.7721
G01 X6.1114 Y-10.7431
G01 X6.1197 Y-10.7200
G01 X6.1270 Y-10.7011
G01 X6.1352 Y-10.6825
G01 X6.1524 Y-10.6469
G01 X5.8737 Y-10.3680
G01 X5.8503 Y-10.3424
G01 X5.8370 Y-10.3270
G01 X5.8245 Y-10.3110
G01 X5.8099 Y-10.2913
G01 X5.7982 Y-10.2747
G01 X5.7874 Y-10.2575
G01 X5.7747 Y-10.2365
G01 X5.7601 Y-10.2098
G01 X5.7451 Y-10.1785
G01 X5.7369 Y-10.1600
G01 X5.7296 Y-10.1410
G01 X5.7213 Y-10.1179
G01 X5.7121 Y-10.0889
G01 X5.7036 Y-10.0553
G01 X5.6991 Y-10.0355
G01 X5.6957 Y-10.0155
G01 X5.6921 Y-9.9912
G01 X5.6891 Y-9.9658
G01 X5.6565 Y-9.9461
G01 X5.6397 Y-9.9348
G01 X5.5564 Y-9.8730
G01 X5.5331 Y-9.8534
G01 X5.4713 Y-9.7974
G01 X5.4495 Y-9.7762
G01 X5.3866 Y-9.7069
G01 X5.3733 Y-9.6915
G01 X5.3608 Y-9.6755
G01 X5.3111 Y-9.6086
G01 X5.2994 Y-9.5920
G01 X5.2886 Y-9.5748
G01 X5.2457 Y-9.5033
G01 X5.2357 Y-9.4856
G01 X5.2266 Y-9.4675
G01 X5.1909 Y-9.3921
G01 X5.1827 Y-9.3735
G01 X5.1754 Y-9.3546
G01 X5.1473 Y-9.2760
G01 X5.1409 Y-9.2568
G01 X5.1355 Y-9.2372
G01 X5.1152 Y-9.1563
G01 X5.1108 Y-9.1365
G01 X5.1073 Y-9.1165
G01 X5.0937 Y-9.0239
G01 X5.0911 Y-8.9936
G01 X5.0870 Y-8.9103
G01 X5.0865 Y-8.8900
G01 X5.0870 Y-8.8697
G01 X5.0917 Y-8.7763
G01 X5.0951 Y-8.7460
G01 X5.1089 Y-8.6535
G01 X5.1129 Y-8.6336
G01 X5.1212 Y-8.5997
G01 X5.0056 Y-8.4841
G01 X5.0160 Y-8.5136
G01 X5.0219 Y-8.5330
G01 X5.0471 Y-8.6336
G01 X5.0527 Y-8.6635
G01 X5.0663 Y-8.7561
G01 X5.0689 Y-8.7864
G01 X5.0730 Y-8.8697
G01 X5.0735 Y-8.8900
G01 X5.0730 Y-8.9103
G01 X5.0689 Y-8.9936
G01 X5.0663 Y-9.0239
G01 X5.0511 Y-9.1265
G01 X5.0448 Y-9.1563
G01 X5.0245 Y-9.2372
G01 X5.0191 Y-9.2568
G01 X5.0127 Y-9.2760
G01 X4.9846 Y-9.3546
G01 X4.9773 Y-9.3735
G01 X4.9691 Y-9.3921
G01 X4.9334 Y-9.4675
G01 X4.9243 Y-9.4856
G01 X4.9143 Y-9.5033
G01 X4.8714 Y-9.5748
G01 X4.8606 Y-9.5920
G01 X4.8489 Y-9.6086
G01 X4.7992 Y-9.6755
G01 X4.7867 Y-9.6915
G01 X4.7734 Y-9.7069
G01 X4.7174 Y-9.7687
G01 X4.7034 Y-9.7834
G01 X4.6887 Y-9.7974
G01 X4.6269 Y-9.8534
G01 X4.6115 Y-9.8667
G01 X4.5955 Y-9.8792
G01 X4.5286 Y-9.9289
G01 X4.5035 Y-9.9461
G01 X4.4233 Y-9.9943
G01 X4.4056 Y-10.0043
G01 X4.3875 Y-10.0134
G01 X4.3121 Y-10.0491
G01 X4.2935 Y-10.0573
G01 X4.2746 Y-10.0646
G01 X4.1960 Y-10.0927
G01 X4.1768 Y-10.0991
G01 X4.1572 Y-10.1045
G01 X4.0763 Y-10.1248
G01 X4.0465 Y-10.1311
G01 X3.9439 Y-10.1463
G01 X3.9237 Y-10.1483
G01 X3.9046 Y-10.1493
G01 X3.9046 Y-10.4363
G01 X3.9273 Y-10.4554
G01 X3.9455 Y-10.4718
G01 X3.9602 Y-10.4858
G01 X3.9742 Y-10.5005
G01 X3.9906 Y-10.5187
G01 X4.0039 Y-10.5341
G01 X4.0164 Y-10.5501
G01 X4.0310 Y-10.5698
G01 X4.0427 Y-10.5864
G01 X4.0535 Y-10.6035
G01 X4.0661 Y-10.6246
G01 X4.0808 Y-10.6512
G01 X4.1000 Y-10.6918
G01 X4.1078 Y-10.7105
G01 X4.1229 Y-10.7527
G01 X4.1313 Y-10.7820
G01 X4.1373 Y-10.8058
G01 X4.1417 Y-10.8256
G01 X4.1452 Y-10.8456
G01 X4.1488 Y-10.8698
G01 X4.1522 Y-10.9001
G01 X4.1540 Y-10.9347
G01 X4.1545 Y-10.9550
G01 X4.1545 Y-11.9050
G01 X4.1540 Y-11.9253
G01 X4.1528 Y-11.9498
G01 X4.1513 Y-11.9700
G01 X4.1488 Y-11.9902
G01 X4.1436 Y-12.0245
G01 X4.1373 Y-12.0542
G01 X4.1313 Y-12.0780
G01 X4.1259 Y-12.0976
G01 X4.1196 Y-12.1169
G01 X4.1078 Y-12.1495
G01 X4.1000 Y-12.1682
G01 X4.0853 Y-12.1996
G01 X4.0761 Y-12.2178
G01 X4.0661 Y-12.2354
G01 X4.0482 Y-12.2651
G01 X4.0369 Y-12.2820
G01 X4.0164 Y-12.3099
G01 X4.0024 Y-12.3277
G01 X4.0115 Y-12.3338
G00 Z2.0000
G00 X4.0620 Y-12.6549
G01 F60.00
G01 Z-0.1500
G01 F240.00
G01 X4.0627 Y-12.6367
G01 X4.0646 Y-12.6185
G01 X4.0679 Y-12.6005
G01 X4.0708 Y-12.5887
G01 X4.0921 Y-12.5158
G01 X4.0960 Y-12.5037
G01 X4.1004 Y-12.4918
G01 X4.1055 Y-12.4801
G01 X4.1142 Y-12.4631
G01 X4.1241 Y-12.4468
G01 X4.1352 Y-12.4313
G01 X4.1474 Y-12.4167
G01 X4.1561 Y-12.4075
G01 X4.1701 Y-12.3945
G01 X4.2229 Y-12.3487
G01 X4.2377 Y-12.3368
G01 X4.2481 Y-12.3294
G01 X4.2643 Y-12.3194
G01 X4.2756 Y-12.3134
G01 X4.2871 Y-12.3080
G01 X4.3048 Y-12.3010
G01 X4.3230 Y-12.2952
G01 X4.3353 Y-12.2922
G01 X4.3541 Y-12.2888
G01 X4.4232 Y-12.2788
G01 X4.4419 Y-12.2768
G01 X4.4608 Y-12.2762
G01 X4.4796 Y-12.2770
G01 X4.4921 Y-12.2783
G01 X4.5106 Y-12.2814
G01 X4.5229 Y-12.2842
G01 X4.5350 Y-12.2876
G01 X4.5791 Y-12.3032
G01 X4.5652 Y-12.2921
G01 X4.5377 Y-12.2672
G01 X4.5288 Y-12.2583
G01 X4.5039 Y-12.2308
G01 X4.4960 Y-12.2211
G01 X4.4739 Y-12.1913
G01 X4.4669 Y-12.1808
G01 X4.4478 Y-12.1490
G01 X4.4419 Y-12.1379
G01 X4.4260 Y-12.1044
G01 X4.4212 Y-12.0928
G01 X4.4087 Y-12.0579
G01 X4.4051 Y-12.0458
G01 X4.3961 Y-12.0099
G01 X4.3936 Y-11.9975
G01 X4.3890 Y-11.9671
G01 X4.3869 Y-11.9483
G01 X4.3850 Y-11.9050
G01 X4.3850 Y-10.9550
G01 X4.3865 Y-10.9179
G01 X4.3882 Y-10.8992
G01 X4.3948 Y-10.8563
G01 X4.4051 Y-10.8142
G01 X4.4087 Y-10.8021
G01 X4.4190 Y-10.7731
G01 X4.4235 Y-10.7614
G01 X4.4286 Y-10.7499
G01 X4.4448 Y-10.7165
G01 X4.4636 Y-10.6845
G01 X4.4703 Y-10.6739
G01 X4.4922 Y-10.6439
G01 X4.4999 Y-10.6340
G01 X4.5246 Y-10.6063
G01 X4.5332 Y-10.5972
G01 X4.5423 Y-10.5886
G01 X4.5652 Y-10.5679
G01 X4.5749 Y-10.5600
G01 X4.6099 Y-10.5343
G01 X4.6470 Y-10.5118
G01 X4.6581 Y-10.5059
G01 X4.6859 Y-10.4926
G01 X4.6974 Y-10.4875
G01 X4.7091 Y-10.4830
G01 X4.7441 Y-10.4708
G01 X4.7562 Y-10.4675
G01 X4.7923 Y-10.4588
G01 X4.8289 Y-10.4530
G01 X4.8414 Y-10.4515
G01 X4.8784 Y-10.4493
G01 X4.8910 Y-10.4490
G01 X5.3973 Y-10.4491
G01 X5.4406 Y-10.4515
G01 X5.4835 Y-10.4576
G01 X5.4959 Y-10.4601
G01 X5.5258 Y-10.4675
G01 X5.5379 Y-10.4708
G01 X5.5498 Y-10.4748
G01 X5.5788 Y-10.4852
G01 X5.5904 Y-10.4900
G01 X5.6239 Y-10.5059
G01 X5.6350 Y-10.5118
G01 X5.6721 Y-10.5343
G01 X5.7021 Y-10.5562
G01 X5.7120 Y-10.5639
G01 X5.7397 Y-10.5886
G01 X5.7488 Y-10.5972
G01 X5.7739 Y-10.6245
G01 X5.7860 Y-10.6389
G01 X5.8045 Y-10.6636
G01 X5.8117 Y-10.6739
G01 X5.8184 Y-10.6845
G01 X5.8342 Y-10.7110
G01 X5.8401 Y-10.7221
G01 X5.8560 Y-10.7556
G01 X5.8608 Y-10.7672
G01 X5.8752 Y-10.8081
G01 X5.8785 Y-10.8202
G01 X5.8872 Y-10.8563
G01 X5.8930 Y-10.8929
G01 X5.8945 Y-10.9054
G01 X5.8969 Y-10.9487
G01 X5.8970 Y-11.9050
G01 X5.8951 Y-11.9483
G01 X5.8930 Y-11.9671
G01 X5.8872 Y-12.0037
G01 X5.8769 Y-12.0458
G01 X5.8712 Y-12.0638
G01 X5.8585 Y-12.0986
G01 X5.8429 Y-12.1323
G01 X5.8342 Y-12.1490
G01 X5.8145 Y-12.1818
G01 X5.8290 Y-12.1707
G01 X5.8391 Y-12.1639
G01 X5.8495 Y-12.1575
G01 X5.9161 Y-12.1211
G01 X5.9274 Y-12.1152
G01 X5.9390 Y-12.1100
G01 X5.9508 Y-12.1053
G01 X5.9629 Y-12.1013
G01 X5.9751 Y-12.0978
G01 X5.9875 Y-12.0949
G01 X6.0000 Y-12.0927
G01 X6.0126 Y-12.0911
G01 X6.0253 Y-12.0901
G01 X6.0380 Y-12.0897
G01 X6.0570 Y-12.0904
G01 X6.1267 Y-12.0954
G01 X6.1395 Y-12.0966
G01 X6.1521 Y-12.0985
G01 X6.1647 Y-12.1010
G01 X6.1771 Y-12.1041
G01 X6.1893 Y-12.1078
G01 X6.2013 Y-12.1122
G01 X6.2131 Y-12.1171
G01 X6.2247 Y-12.1226
G01 X6.2359 Y-12.1287
G01 X6.2469 Y-12.1354
G01 X6.2963 Y-12.1672
