%
(1001)
(MACHINE)
(  VENDOR AUTODESK)
(  MODEL GENERIC 3-AXIS)
(  DESCRIPTION THIS MACHINE HAS XY AXIS ON THE TABLE AND Z AXIS ON THE HEAD)
(T1 D=3. CR=0. TAPER=118DEG - ZMIN=-4.251 - DRILL)
N10 G90 G94 G17 G91.1
N15 G21
N20 G53 G0 Z0.
(DRILL2)
N25 T1 M6
N30 S4800 M3
N35 G17 G90 G94
N40 G54
N45 M8
N50 G0 X106.97 Y-41.846
N55 G43 Z15. H1
N60 G0 Z5.
N65 G98 G81 X106.97 Y-41.846 Z-4.251 R5. F48.
N70 X118.194 Y-47.684
N75 X117.406 Y-54.609
N80 X120.488 Y-61.256
N85 X108.49 Y-71.917
N90 X89.49
N95 X70.49
N100 X79.415 Y-60.115
N105 X86.906 Y-53.894
N110 X67.801 Y-35.688
N115 X48.522 Y-53.582
N120 X59.105 Y-60.185
N125 X51.49 Y-71.917
N130 X32.49
N135 X13.49
N140 X15.563 Y-60.092
N145 X21.022 Y-54.297
N150 X11.254 Y-45.688
N155 X28.684 Y-41.548
N160 X9.594 Y-19.781
N165 X28.684 Y-9.798
N170 X48.522 Y-21.832
N175 X59.184 Y-9.083
N180 X65.409 Y-15.488
N185 X77.641 Y-23.927
N190 X86.906 Y-22.144
N195 X79.47 Y-9.381
N200 X106.97 Y-10.096
N205 G80
N210 G0 Z15.
N215 M9
N220 G53 G0 Z0.
N225 G53 G0 X0. Y0.
N230 M30
%
