%
(1002)
(MACHINE)
(  VENDOR AUTODESK)
(  MODEL GENERIC 3-AXIS)
(  DESCRIPTION THIS MACHINE HAS XY AXIS ON THE TABLE AND Z AXIS ON THE HEAD)
(T0 D=1.6 CR=0. - ZMIN=-3.35 - FLAT END MILL)
N10 G90 G94 G17 G91.1
N15 G21
(WHEN USING FUSION 360 FOR PERSONAL USE, THE FEEDRATE OF)
(RAPID MOVES IS REDUCED TO MATCH THE FEEDRATE OF CUTTING)
(MOVES, WHICH CAN INCREASE MACHINING TIME. UNRESTRICTED RAPID)
(MOVES ARE AVAILABLE WITH A FUSION 360 SUBSCRIPTION.)
N20 G53 G0 Z0.
(2D ADAPTIVE1)
N25 T0 M6
N30 S5000 M3
N35 G17 G90 G94
N40 G54
N45 M8
N50 G0 X9.594 Y-19.781
N55 G43 Z15. H0
N60 G1 Z5. F70.
N65 Z2.66
N70 Z2.5
N75 Z-1. F25.
N80 X9.631 Y-19.773 F70.
N85 X9.612 Y-19.741
N90 X9.574 Y-19.739
N95 X9.548 Y-19.766
N100 X9.551 Y-19.803
N105 X9.58 Y-19.827
N110 X9.616 Y-19.834
N115 X9.652 Y-19.822
N120 X9.673 Y-19.791
N125 X9.677 Y-19.754
N130 X9.664 Y-19.719
N135 X9.637 Y-19.693
N140 X9.602 Y-19.679
N145 X9.564 Y-19.681
N150 X9.53 Y-19.695
N155 X9.503 Y-19.721
N160 X9.486 Y-19.755
N165 X9.484 Y-19.792
N170 X9.493 Y-19.829
N175 X9.513 Y-19.861
N180 X9.54 Y-19.886
N185 X9.574 Y-19.902
N190 X9.611 Y-19.909
N195 X9.648 Y-19.904
N200 X9.683 Y-19.89
N205 X9.713 Y-19.867
N210 X9.759 Y-19.808
N215 X9.77 Y-19.734
N220 X9.747 Y-19.663
N225 X9.698 Y-19.607
N230 X9.63 Y-19.574
N235 X9.555 Y-19.569
N240 X9.483 Y-19.591
N245 X9.423 Y-19.636
N250 X9.383 Y-19.699
N255 X9.365 Y-19.772
N260 X9.371 Y-19.846
N265 X9.399 Y-19.916
N270 X9.447 Y-19.974
N275 X9.51 Y-20.015
N280 X9.581 Y-20.036
N285 X9.656 Y-20.037
N290 X9.729 Y-20.017
N295 X9.794 Y-19.981
N300 X9.848 Y-19.928
N305 X9.886 Y-19.864
N310 X9.929 Y-19.72
N315 X9.895 Y-19.574
N320 X9.799 Y-19.458
N325 X9.664 Y-19.393
N330 X9.514 Y-19.385
N335 X9.373 Y-19.435
N340 X9.259 Y-19.533
N345 X9.188 Y-19.665
N350 X9.167 Y-19.813
N355 X9.198 Y-19.96
N360 X9.276 Y-20.088
N365 X9.392 Y-20.183
N370 X9.533 Y-20.235
N375 X9.683 Y-20.242
N380 X9.828 Y-20.203
N385 X9.954 Y-20.122
N390 X10.054 Y-20.011
N395 X10.118 Y-19.875
N400 X10.144 Y-19.727
N405 X10.124 Y-19.578
N410 X10.067 Y-19.44
N415 X9.975 Y-19.321
N420 X9.853 Y-19.233
N425 X9.715 Y-19.176
N430 X9.566 Y-19.157
N435 X9.417 Y-19.176
N440 X9.276 Y-19.228
N445 X9.153 Y-19.314
N450 X9.053 Y-19.426
N455 X8.981 Y-19.557
N460 X8.942 Y-19.702
N465 X8.936 Y-19.852
N470 X8.963 Y-19.999
N475 X9.023 Y-20.137
N480 X9.112 Y-20.257
N485 X9.224 Y-20.357
N490 X9.356 Y-20.429
N495 X9.499 Y-20.472
N500 X9.649 Y-20.486
N505 X9.797 Y-20.467
N510 X9.939 Y-20.418
N515 X10.07 Y-20.344
N520 X10.182 Y-20.245
N525 X10.273 Y-20.126
N530 X10.341 Y-19.992
N535 X10.38 Y-19.847
N540 X10.391 Y-19.697
N545 X10.374 Y-19.548
N550 X10.33 Y-19.405
N555 X10.258 Y-19.273
N560 X10.164 Y-19.157
N565 X10.051 Y-19.058
N570 X9.921 Y-18.982
N575 X9.78 Y-18.931
N580 X9.633 Y-18.905
N585 X9.483 Y-18.904
N590 X9.335 Y-18.931
N595 X9.194 Y-18.982
N600 X9.063 Y-19.056
N605 X8.947 Y-19.15
N610 X8.849 Y-19.264
N615 X8.77 Y-19.391
N620 X8.713 Y-19.53
N625 X8.68 Y-19.676
N630 X8.671 Y-19.826
N635 X8.686 Y-19.975
N640 X8.725 Y-20.12
N645 X8.787 Y-20.257
N650 X8.87 Y-20.382
N655 X8.97 Y-20.493
N660 X9.088 Y-20.586
N665 X9.219 Y-20.66
N670 X9.359 Y-20.714
N675 X9.505 Y-20.746
N680 X9.655 Y-20.754
N685 X9.804 Y-20.74
N690 X9.95 Y-20.705
N695 X10.089 Y-20.649
N700 X10.218 Y-20.572
N705 X10.334 Y-20.477
N710 X10.437 Y-20.368
N715 X10.522 Y-20.244
N720 X10.588 Y-20.11
N725 X10.634 Y-19.967
N730 X10.661 Y-19.819
N735 X10.666 Y-19.669
N740 X10.649 Y-19.52
N745 X10.612 Y-19.375
N750 X10.555 Y-19.236
N755 X10.48 Y-19.106
N760 X10.387 Y-18.989
N765 X10.279 Y-18.884
N770 X10.158 Y-18.795
N775 X10.026 Y-18.724
N780 X9.886 Y-18.671
N785 X9.74 Y-18.637
N790 X9.591 Y-18.621
N795 X9.441 Y-18.626
N800 X9.293 Y-18.651
N805 X9.15 Y-18.695
N810 X9.013 Y-18.756
N815 X8.885 Y-18.835
N820 X8.768 Y-18.929
N825 X8.665 Y-19.038
N830 X8.576 Y-19.159
N835 X8.502 Y-19.29
N840 X8.446 Y-19.429
N845 X8.408 Y-19.574
N850 X8.389 Y-19.723
N855 X8.387 Y-19.873
N860 X8.404 Y-20.022
N865 X8.439 Y-20.167
N870 X8.493 Y-20.307
N875 X8.562 Y-20.441
N880 X8.647 Y-20.564
N885 X8.746 Y-20.676
N890 X8.859 Y-20.775
N895 X8.982 Y-20.861
N900 X9.115 Y-20.931
N905 X9.255 Y-20.985
N910 X9.4 Y-21.021
N915 X9.549 Y-21.041
N920 X9.699 Y-21.043
N925 X9.848 Y-21.029
N930 X9.995 Y-20.996
N935 X10.136 Y-20.947
N940 X10.272 Y-20.882
N945 X10.399 Y-20.802
N950 X10.516 Y-20.709
N955 X10.622 Y-20.603
N960 X10.715 Y-20.485
N965 X10.795 Y-20.358
N970 X10.86 Y-20.223
N975 X10.909 Y-20.081
N980 X10.942 Y-19.935
N985 X10.958 Y-19.785
N990 X10.959 Y-19.635
N995 X10.943 Y-19.486
N1000 X10.91 Y-19.34
N1005 X10.862 Y-19.198
N1010 X10.798 Y-19.062
N1015 X10.72 Y-18.934
N1020 X10.629 Y-18.815
N1025 X10.526 Y-18.706
N1030 X10.411 Y-18.61
N1035 X10.287 Y-18.526
N1040 X10.154 Y-18.455
N1045 X10.015 Y-18.399
N1050 X9.871 Y-18.358
N1055 X9.723 Y-18.332
N1060 X9.573 Y-18.322
N1065 X9.423 Y-18.327
N1070 X9.275 Y-18.348
N1075 X9.129 Y-18.385
N1080 X8.988 Y-18.436
N1085 X8.853 Y-18.501
N1090 X8.725 Y-18.58
N1095 X8.606 Y-18.671
N1100 X8.497 Y-18.774
N1105 X8.399 Y-18.887
N1110 X8.313 Y-19.01
N1115 X8.239 Y-19.141
N1120 X8.179 Y-19.278
N1125 X8.134 Y-19.421
N1130 X8.102 Y-19.568
N1135 X8.085 Y-19.717
N1140 X8.083 Y-19.867
N1145 X8.096 Y-20.016
N1150 X8.124 Y-20.164
N1155 X8.166 Y-20.307
N1160 X8.222 Y-20.447
N1165 X8.291 Y-20.58
N1170 X8.373 Y-20.706
N1175 X8.467 Y-20.823
N1180 X8.571 Y-20.93
N1185 X8.686 Y-21.027
N1190 X8.809 Y-21.113
N1195 X8.94 Y-21.186
N1200 X9.077 Y-21.246
N1205 X9.22 Y-21.293
N1210 X9.366 Y-21.326
N1215 X9.515 Y-21.346
N1220 X9.665 Y-21.351
N1225 X9.814 Y-21.342
N1230 X9.963 Y-21.319
N1235 X10.108 Y-21.282
N1240 X10.25 Y-21.233
N1245 X10.386 Y-21.17
N1250 X10.516 Y-21.095
N1255 X10.638 Y-21.008
N1260 X10.752 Y-20.911
N1265 X10.856 Y-20.803
N1270 X10.951 Y-20.686
N1275 X11.034 Y-20.562
N1280 X11.105 Y-20.43
N1285 X11.164 Y-20.292
N1290 X11.211 Y-20.149
N1295 X11.244 Y-20.003
N1300 X11.265 Y-19.854
N1305 X11.271 Y-19.704
N1310 X11.264 Y-19.555
N1315 X11.243 Y-19.406
N1320 X11.21 Y-19.26
N1325 X11.164 Y-19.117
N1330 X11.126 Y-19.03
N1335 X11.113 Y-19.
N1340 X11.097 Y-18.97
N1345 X11.079 Y-18.942
N1350 X10.954 Y-18.755
N1355 X10.932 Y-18.723
N1360 X10.907 Y-18.684
N1365 X10.817 Y-18.564
N1370 X10.794 Y-18.542
N1375 X10.769 Y-18.522
N1380 X10.744 Y-18.503
N1385 X10.698 Y-18.484 Z-0.96
N1390 X10.648 Y-18.48 Z-0.92
N1395 X10.599 Y-18.491 Z-0.88
N1400 X10.556 Y-18.517 Z-0.84
N1405 X10.524 Y-18.555 Z-0.8
N1410 X10.507 Y-18.592
N1415 X10.5 Y-18.632
N1420 X10.503 Y-18.672
N1425 X10.516 Y-18.71
N1430 X10.538 Y-18.744
N1435 X10.649 Y-18.873
N1440 X10.684 Y-18.902
N1445 X10.725 Y-18.921
N1450 X10.77 Y-18.928
N1455 X10.814 Y-18.922
N1460 X10.855 Y-18.904
N1465 X10.893 Y-18.871 Z-0.84
N1470 X10.919 Y-18.829 Z-0.88
N1475 X10.93 Y-18.78 Z-0.92
N1480 X10.926 Y-18.73 Z-0.96
N1485 X10.907 Y-18.684 Z-1.
N1490 X10.83 Y-18.572
N1495 X10.808 Y-18.55
N1500 X10.788 Y-18.533
N1505 X10.419 Y-18.286
N1510 X10.382 Y-18.261
N1515 X10.351 Y-18.241
N1520 X10.32 Y-18.222
N1525 X10.266 Y-18.194
N1530 X10.209 Y-18.172
N1535 X10.15 Y-18.157
N1540 X10.1 Z-0.96
N1545 X10.053 Y-18.172 Z-0.92
N1550 X10.012 Y-18.201 Z-0.88
N1555 X9.982 Y-18.242 Z-0.84
N1560 X9.967 Y-18.289 Z-0.8
N1565 X9.965 Y-18.332
N1570 X9.975 Y-18.373
N1575 X9.996 Y-18.41
N1580 X10.026 Y-18.441
N1585 X10.063 Y-18.463
N1590 X10.196 Y-18.519
N1595 X10.237 Y-18.53
N1600 X10.28
N1605 X10.322 Y-18.518
N1610 X10.358 Y-18.496
N1615 X10.388 Y-18.464
N1620 X10.41 Y-18.42 Z-0.84
N1625 X10.418 Y-18.37 Z-0.88
N1630 X10.41 Y-18.321 Z-0.92
N1635 X10.387 Y-18.276 Z-0.96
N1640 X10.351 Y-18.241 Z-1.
N1645 X10.316 Y-18.218
N1650 X10.265 Y-18.185
N1655 X10.239 Y-18.175
N1660 X10.057 Y-18.138
N1665 X9.746 Y-18.077
N1670 X9.7 Y-18.067
N1675 X9.671 Y-18.062
N1680 X9.612 Y-18.057
N1685 X9.552 Y-18.058
N1690 X9.493 Y-18.066
N1695 X9.447 Y-18.085 Z-0.96
N1700 X9.409 Y-18.118 Z-0.92
N1705 X9.382 Y-18.16 Z-0.88
N1710 X9.371 Y-18.209 Z-0.84
N1715 X9.374 Y-18.259 Z-0.8
N1720 X9.39 Y-18.3
N1725 X9.417 Y-18.335
N1730 X9.452 Y-18.362
N1735 X9.493 Y-18.378
N1740 X9.537 Y-18.382
N1745 X9.642 Y-18.377
N1750 X9.682 Y-18.37
N1755 X9.72 Y-18.353
N1760 X9.752 Y-18.327
N1765 X9.776 Y-18.293
N1770 X9.79 Y-18.254
N1775 X9.794 Y-18.204 Z-0.84
N1780 X9.782 Y-18.156 Z-0.88
N1785 X9.756 Y-18.113 Z-0.92
N1790 X9.718 Y-18.081 Z-0.96
N1795 X9.671 Y-18.062 Z-1.
N1800 X9.623 Y-18.052
N1805 X9.597 Y-18.05
N1810 X9.571 Y-18.051
N1815 X9.027 Y-18.159
N1820 X8.955 Y-18.174
N1825 X8.929 Y-18.183
N1830 X8.904 Y-18.196
N1835 X8.467 Y-18.488
N1840 X8.38 Y-18.55
N1845 X8.364 Y-18.565
N1850 X8.354 Y-18.576
N1855 X8.346 Y-18.586
N1860 X8.027 Y-19.063
N1865 X7.996 Y-19.115
N1870 X7.987 Y-19.141
N1875 X7.864 Y-19.757
N1880 X7.862 Y-19.783
N1885 X7.865 Y-19.809
N1890 X7.982 Y-20.4
N1895 X7.988 Y-20.425
N1900 X7.999 Y-20.451
N1905 X8.03 Y-20.502
N1910 X8.305 Y-20.913
N1915 X8.364 Y-20.997
N1920 X8.383 Y-21.016
N1925 X8.467 Y-21.074
N1930 X8.904 Y-21.365
N1935 X8.916 Y-21.372
N1940 X8.929 Y-21.378
N1945 X8.981 Y-21.393
N1950 X9.546 Y-21.505
N1955 X9.571 Y-21.51
N1960 X9.597 Y-21.511
N1965 X9.623 Y-21.509
N1970 X10.213 Y-21.392
N1975 X10.239 Y-21.386
N1980 X10.265 Y-21.376
N1985 X10.316 Y-21.344
N1990 X10.727 Y-21.069
N1995 X10.803 Y-21.016
N2000 X10.83 Y-20.989
N2005 X10.882 Y-20.913
N2010 X11.157 Y-20.502
N2015 X11.188 Y-20.451
N2020 X11.198 Y-20.425
N2025 X11.205 Y-20.4
N2030 X11.322 Y-19.809
N2035 X11.325 Y-19.783
N2040 X11.323 Y-19.757
N2045 X11.206 Y-19.166
N2050 X11.2 Y-19.141
N2055 X11.19 Y-19.115
N2060 X11.16 Y-19.063
N2065 X11.079 Y-18.942
N2070 G3 X10.789 Y-19.036 I-0.13 J-0.093
N2075 G1 X10.795 Y-19.08
N2080 X10.813 Y-19.12
N2085 X10.842 Y-19.154
N2090 X10.879 Y-19.179
N2095 X10.921 Y-19.193
N2100 X10.949 Y-19.196 Z-0.997
N2105 X10.99 Y-19.181 Z-0.982
N2110 X11.026 Y-19.168 Z-0.954
N2115 X11.052 Y-19.159 Z-0.917
N2120 X11.063 Y-19.148 Z-0.88
N2125 X11.066 Y-19.145 Z-0.84
N2130 Z5.
N2135 X13.49 Y-71.916
N2140 Z2.66
N2145 Z2.5
N2150 Z-1. F25.
N2155 X13.469 Y-71.885 F70.
N2160 X13.447 Y-71.915
N2165 X13.459 Y-71.95
N2170 X13.494 Y-71.964
N2175 X13.528 Y-71.948
N2180 X13.539 Y-71.912
N2185 X13.531 Y-71.875
N2190 X13.507 Y-71.847
N2195 X13.47 Y-71.839
N2200 X13.434 Y-71.849
N2205 X13.407 Y-71.875
N2210 X13.393 Y-71.909
N2215 Y-71.947
N2220 X13.409 Y-71.981
N2225 X13.435 Y-72.008
N2230 X13.469 Y-72.023
N2235 X13.507 Y-72.025
N2240 X13.543 Y-72.014
N2245 X13.573 Y-71.992
N2250 X13.595 Y-71.962
N2255 X13.608 Y-71.926
N2260 X13.61 Y-71.889
N2265 X13.602 Y-71.852
N2270 X13.584 Y-71.819
N2275 X13.558 Y-71.792
N2280 X13.526 Y-71.773
N2285 X13.454 Y-71.752
N2290 X13.381 Y-71.77
N2295 X13.323 Y-71.818
N2300 X13.29 Y-71.885
N2305 X13.286 Y-71.96
N2310 X13.308 Y-72.031
N2315 X13.356 Y-72.09
N2320 X13.42 Y-72.129
N2325 X13.493 Y-72.143
N2330 X13.568 Y-72.132
N2335 X13.635 Y-72.099
N2340 X13.688 Y-72.046
N2345 X13.724 Y-71.98
N2350 X13.739 Y-71.907
N2355 X13.732 Y-71.832
N2360 X13.704 Y-71.762
N2365 X13.659 Y-71.702
N2370 X13.601 Y-71.655
N2375 X13.532 Y-71.625
N2380 X13.458 Y-71.614
N2385 X13.309 Y-71.628
N2390 X13.186 Y-71.714
N2395 X13.115 Y-71.846
N2400 X13.104 Y-71.996
N2405 X13.153 Y-72.138
N2410 X13.252 Y-72.25
N2415 X13.386 Y-72.319
N2420 X13.535 Y-72.336
N2425 X13.68 Y-72.3
N2430 X13.805 Y-72.217
N2435 X13.894 Y-72.096
N2440 X13.939 Y-71.953
N2445 X13.935 Y-71.803
N2450 X13.885 Y-71.661
N2455 X13.795 Y-71.542
N2460 X13.673 Y-71.455
N2465 X13.532 Y-71.403
N2470 X13.382 Y-71.395
N2475 X13.235 Y-71.426
N2480 X13.105 Y-71.5
N2485 X12.997 Y-71.605
N2490 X12.922 Y-71.734
N2495 X12.886 Y-71.88
N2500 X12.884 Y-72.03
N2505 X12.922 Y-72.175
N2510 X12.996 Y-72.306
N2515 X13.096 Y-72.417
N2520 X13.222 Y-72.5
N2525 X13.363 Y-72.55
N2530 X13.512 Y-72.569
N2535 X13.661 Y-72.551
N2540 X13.802 Y-72.5
N2545 X13.929 Y-72.42
N2550 X14.034 Y-72.313
N2555 X14.113 Y-72.185
N2560 X14.163 Y-72.044
N2565 X14.181 Y-71.895
N2570 X14.167 Y-71.746
N2575 X14.124 Y-71.602
N2580 X14.051 Y-71.471
N2585 X13.953 Y-71.358
N2590 X13.835 Y-71.265
N2595 X13.701 Y-71.197
N2600 X13.557 Y-71.157
N2605 X13.407 Y-71.144
N2610 X13.258 Y-71.162
N2615 X13.116 Y-71.208
N2620 X12.984 Y-71.279
N2625 X12.867 Y-71.374
N2630 X12.772 Y-71.489
N2635 X12.699 Y-71.621
N2640 X12.649 Y-71.762
N2645 X12.627 Y-71.911
N2650 X12.633 Y-72.06
N2655 X12.663 Y-72.207
N2660 X12.719 Y-72.347
N2665 X12.799 Y-72.474
N2670 X12.899 Y-72.585
N2675 X13.016 Y-72.679
N2680 X13.147 Y-72.752
N2685 X13.289 Y-72.801
N2690 X13.437 Y-72.826
N2695 X13.587 Y-72.827
N2700 X13.735 Y-72.803
N2705 X13.877 Y-72.755
N2710 X14.01 Y-72.686
N2715 X14.13 Y-72.595
N2720 X14.233 Y-72.487
N2725 X14.318 Y-72.364
N2730 X14.384 Y-72.229
N2735 X14.427 Y-72.085
N2740 X14.446 Y-71.936
N2745 X14.444 Y-71.786
N2750 X14.419 Y-71.638
N2755 X14.371 Y-71.496
N2760 X14.302 Y-71.363
N2765 X14.215 Y-71.241
N2770 X14.111 Y-71.133
N2775 X13.991 Y-71.042
N2780 X13.86 Y-70.969
N2785 X13.72 Y-70.915
N2790 X13.574 Y-70.882
N2795 X13.424 Y-70.871
N2800 X13.275 Y-70.882
N2805 X13.128 Y-70.912
N2810 X12.987 Y-70.963
N2815 X12.855 Y-71.035
N2820 X12.734 Y-71.123
N2825 X12.626 Y-71.228
N2830 X12.534 Y-71.346
N2835 X12.459 Y-71.476
N2840 X12.403 Y-71.615
N2845 X12.366 Y-71.76
N2850 X12.348 Y-71.909
N2855 X12.351 Y-72.059
N2860 X12.374 Y-72.208
N2865 X12.416 Y-72.352
N2870 X12.476 Y-72.489
N2875 X12.555 Y-72.617
N2880 X12.649 Y-72.734
N2885 X12.757 Y-72.838
N2890 X12.878 Y-72.927
N2895 X13.009 Y-73.
N2900 X13.148 Y-73.055
N2905 X13.293 Y-73.093
N2910 X13.442 Y-73.112
N2915 X13.592
N2920 X13.741 Y-73.093
N2925 X13.886 Y-73.056
N2930 X14.026 Y-73.002
N2935 X14.158 Y-72.931
N2940 X14.28 Y-72.843
N2945 X14.39 Y-72.741
N2950 X14.488 Y-72.627
N2955 X14.571 Y-72.503
N2960 X14.637 Y-72.368
N2965 X14.687 Y-72.227
N2970 X14.72 Y-72.08
N2975 X14.737 Y-71.931
N2980 X14.734 Y-71.781
N2985 X14.714 Y-71.633
N2990 X14.676 Y-71.488
N2995 X14.622 Y-71.347
N3000 X14.553 Y-71.214
N3005 X14.468 Y-71.091
N3010 X14.369 Y-70.978
N3015 X14.259 Y-70.877
N3020 X14.138 Y-70.788
N3025 X14.007 Y-70.714
N3030 X13.869 Y-70.656
N3035 X13.725 Y-70.613
N3040 X13.577 Y-70.587
N3045 X13.428 Y-70.577
N3050 X13.278 Y-70.584
N3055 X13.13 Y-70.608
N3060 X12.985 Y-70.648
N3065 X12.846 Y-70.704
N3070 X12.714 Y-70.775
N3075 X12.59 Y-70.859
N3080 X12.477 Y-70.958
N3085 X12.374 Y-71.067
N3090 X12.284 Y-71.187
N3095 X12.208 Y-71.316
N3100 X12.146 Y-71.453
N3105 X12.099 Y-71.595
N3110 X12.067 Y-71.742
N3115 X12.051 Y-71.891
N3120 Y-72.041
N3125 X12.067 Y-72.19
N3130 X12.098 Y-72.337
N3135 X12.145 Y-72.48
N3140 X12.206 Y-72.617
N3145 X12.281 Y-72.747
N3150 X12.369 Y-72.868
N3155 X12.469 Y-72.98
N3160 X12.58 Y-73.081
N3165 X12.7 Y-73.17
N3170 X12.829 Y-73.247
N3175 X12.965 Y-73.309
N3180 X13.107 Y-73.358
N3185 X13.253 Y-73.392
N3190 X13.402 Y-73.412
N3195 X13.552 Y-73.416
N3200 X13.702 Y-73.405
N3205 X13.849 Y-73.38
N3210 X13.994 Y-73.34
N3215 X14.134 Y-73.286
N3220 X14.268 Y-73.218
N3225 X14.394 Y-73.137
N3230 X14.512 Y-73.044
N3235 X14.62 Y-72.941
N3240 X14.718 Y-72.827
N3245 X14.804 Y-72.704
N3250 X14.878 Y-72.573
N3255 X14.938 Y-72.436
N3260 X14.985 Y-72.294
N3265 X15.019 Y-72.147
N3270 X15.038 Y-71.999
N3275 X15.043 Y-71.849
N3280 X15.033 Y-71.699
N3285 X15.009 Y-71.551
N3290 X14.972 Y-71.406
N3295 X14.921 Y-71.264
N3300 X14.857 Y-71.129
N3305 X14.78 Y-71.
N3310 X14.692 Y-70.879
N3315 X14.593 Y-70.766
N3320 X14.484 Y-70.663
N3325 X14.366 Y-70.57
N3330 X14.24 Y-70.489
N3335 X14.106 Y-70.42
N3340 X13.968 Y-70.364
N3345 X13.824 Y-70.319
N3350 X13.677 Y-70.289
N3355 X13.528 Y-70.272
N3360 X13.378 Y-70.269
N3365 X13.229 Y-70.279
N3370 X13.081 Y-70.302
N3375 X12.935 Y-70.339
N3380 X12.794 Y-70.389
N3385 X12.657 Y-70.451
N3390 X12.527 Y-70.526
N3395 X12.404 Y-70.612
N3400 X12.289 Y-70.708
N3405 X12.217 Y-70.779
N3410 X12.193 Y-70.805
N3415 X12.171 Y-70.832
N3420 X12.15 Y-70.86
N3425 X12.011 Y-71.07
N3430 X11.995 Y-71.093
N3435 X11.976 Y-71.122
N3440 X11.899 Y-71.251
N3445 X11.888 Y-71.279
N3450 X11.879 Y-71.307
N3455 X11.872 Y-71.336
N3460 X11.871 Y-71.386 Z-0.96
N3465 X11.886 Y-71.434 Z-0.92
N3470 X11.915 Y-71.475 Z-0.88
N3475 X11.955 Y-71.505 Z-0.84
N3480 X12.002 Y-71.521 Z-0.8
N3485 X12.043 Y-71.523
N3490 X12.082 Y-71.514
N3495 X12.119 Y-71.496
N3500 X12.149 Y-71.47
N3505 X12.172 Y-71.436
N3510 X12.248 Y-71.288
N3515 X12.263 Y-71.246
N3520 X12.265 Y-71.2
N3525 X12.254 Y-71.156
N3530 X12.231 Y-71.117
N3535 X12.199 Y-71.086
N3540 X12.154 Y-71.063 Z-0.84
N3545 X12.105 Y-71.056 Z-0.88
N3550 X12.055 Y-71.064 Z-0.92
N3555 X12.011 Y-71.087 Z-0.96
N3560 X11.976 Y-71.122 Z-1.
N3565 X11.908 Y-71.224
N3570 X11.9 Y-71.237
N3575 X11.894 Y-71.25
N3580 X11.885 Y-71.275
N3585 X11.857 Y-71.41
N3590 X11.791 Y-71.743
N3595 X11.781 Y-71.789
N3600 X11.776 Y-71.82
N3605 X11.772 Y-71.844
N3610 X11.767 Y-71.903
N3615 X11.769 Y-71.963
N3620 X11.777 Y-72.022
N3625 X11.796 Y-72.069 Z-0.96
N3630 X11.828 Y-72.107 Z-0.92
N3635 X11.871 Y-72.133 Z-0.88
N3640 X11.92 Y-72.145 Z-0.84
N3645 X11.97 Y-72.141 Z-0.8
N3650 X12.01 Y-72.126
N3655 X12.044 Y-72.1
N3660 X12.071 Y-72.066
N3665 X12.088 Y-72.027
N3670 X12.093 Y-71.984
N3675 X12.091 Y-71.854
N3680 X12.085 Y-71.812
N3685 X12.068 Y-71.773
N3690 X12.042 Y-71.74
N3695 X12.007 Y-71.715
N3700 X11.967 Y-71.7
N3705 X11.917 Y-71.697 Z-0.84
N3710 X11.869 Y-71.709 Z-0.88
N3715 X11.826 Y-71.735 Z-0.92
N3720 X11.794 Y-71.774 Z-0.96
N3725 X11.776 Y-71.82 Z-1.
N3730 X11.762 Y-71.892
N3735 X11.76 Y-71.918
N3740 X11.762 Y-71.943
N3745 X11.853 Y-72.406
N3750 X11.885 Y-72.56
N3755 X11.895 Y-72.586
N3760 X11.909 Y-72.611
N3765 X12.184 Y-73.023
N3770 X12.254 Y-73.125
N3775 X12.268 Y-73.14
N3780 X12.293 Y-73.162
N3785 X12.807 Y-73.505
N3790 X12.82 Y-73.512
N3795 X12.833 Y-73.517
N3800 X12.884 Y-73.53
N3805 X13.466 Y-73.646
N3810 X13.5
N3815 X13.549 Y-73.639
N3820 X14.117 Y-73.526
N3825 X14.142 Y-73.519
N3830 X14.168 Y-73.508
N3835 X14.22 Y-73.475
N3840 X14.679 Y-73.168
N3845 X14.703 Y-73.149
N3850 X14.727 Y-73.125
N3855 X14.733 Y-73.118
N3860 X15.072 Y-72.611
N3865 X15.087 Y-72.586
N3870 X15.096 Y-72.56
N3875 X15.219 Y-71.943
N3880 X15.221 Y-71.918
N3885 X15.219 Y-71.892
N3890 X15.138 Y-71.481
N3895 X15.096 Y-71.275
N3900 X15.087 Y-71.25
N3905 X15.082 Y-71.238
N3910 X15.074 Y-71.226
N3915 X14.733 Y-70.715
N3920 X14.719 Y-70.699
N3925 X14.701 Y-70.683
N3930 X14.67 Y-70.659
N3935 X14.208 Y-70.35
N3940 X14.162 Y-70.322
N3945 X14.14 Y-70.313
N3950 X14.117 Y-70.307
N3955 X13.603 Y-70.205
N3960 X13.5 Y-70.187
N3965 X13.475
N3970 X13.449 Y-70.19
N3975 X12.884 Y-70.303
N3980 X12.833 Y-70.315
N3985 X12.82 Y-70.321
N3990 X12.807 Y-70.328
N3995 X12.29 Y-70.674
N4000 X12.268 Y-70.694
N4005 X12.216 Y-70.761
N4010 X12.15 Y-70.86
N4015 G3 X12.422 Y-71.029 I0.136 J-0.084
N4020 X12.443 Y-70.911 I-0.136 J0.084
N4025 G1 X12.422 Y-70.877 Z-0.994
N4030 X12.402 Y-70.846 Z-0.979
N4035 X12.385 Y-70.818 Z-0.955
N4040 X12.362 Y-70.806 Z-0.921
N4045 X12.347 Y-70.798 Z-0.882
N4050 X12.342 Y-70.795 Z-0.84
N4055 Z5.
N4060 X28.704 Y-41.549
N4065 Z2.66
N4070 Z2.5
N4075 Z-1.
N4080 X28.741
N4085 X28.729 Y-41.513
N4090 X28.693 Y-41.504
N4095 X28.662 Y-41.525
N4100 X28.657 Y-41.563
N4105 X28.681 Y-41.592
N4110 X28.716 Y-41.605
N4115 X28.753 Y-41.6
N4120 X28.78 Y-41.574
N4125 X28.791 Y-41.538
N4130 X28.784 Y-41.501
N4135 X28.762 Y-41.47
N4140 X28.73 Y-41.451
N4145 X28.693 Y-41.445
N4150 X28.657 Y-41.453
N4155 X28.626 Y-41.474
N4160 X28.603 Y-41.504
N4165 X28.594 Y-41.54
N4170 X28.596 Y-41.577
N4175 X28.609 Y-41.612
N4180 X28.632 Y-41.642
N4185 X28.662 Y-41.664
N4190 X28.698 Y-41.678
N4195 X28.735 Y-41.68
N4200 X28.772 Y-41.672
N4205 X28.805 Y-41.656
N4210 X28.862 Y-41.606
N4215 X28.886 Y-41.535
N4220 X28.876 Y-41.461
N4225 X28.837 Y-41.397
N4230 X28.777 Y-41.352
N4235 X28.704 Y-41.334
N4240 X28.63 Y-41.342
N4245 X28.563 Y-41.375
N4250 X28.511 Y-41.43
N4255 X28.48 Y-41.498
N4260 X28.473 Y-41.573
N4265 X28.488 Y-41.646
N4270 X28.524 Y-41.712
N4275 X28.579 Y-41.764
N4280 X28.645 Y-41.798
N4285 X28.719 Y-41.812
N4290 X28.794 Y-41.806
N4295 X28.865 Y-41.782
N4300 X28.927 Y-41.74
N4305 X28.976 Y-41.683
N4310 X29.045 Y-41.55
N4315 X29.037 Y-41.4
N4320 X28.964 Y-41.269
N4325 X28.843 Y-41.18
N4330 X28.697 Y-41.146
N4335 X28.549 Y-41.169
N4340 X28.42 Y-41.245
N4345 X28.326 Y-41.362
N4350 X28.278 Y-41.504
N4355 X28.282 Y-41.654
N4360 X28.336 Y-41.794
N4365 X28.433 Y-41.908
N4370 X28.562 Y-41.985
N4375 X28.708 Y-42.018
N4380 X28.858 Y-42.006
N4385 X28.996 Y-41.949
N4390 X29.115 Y-41.858
N4395 X29.203 Y-41.736
N4400 X29.255 Y-41.595
N4405 X29.262 Y-41.445
N4410 X29.231 Y-41.299
N4415 X29.161 Y-41.166
N4420 X29.058 Y-41.057
N4425 X28.932 Y-40.976
N4430 X28.789 Y-40.93
N4435 X28.639 Y-40.922
N4440 X28.491 Y-40.948
N4445 X28.354 Y-41.01
N4450 X28.236 Y-41.102
N4455 X28.141 Y-41.218
N4460 X28.077 Y-41.354
N4465 X28.044 Y-41.5
N4470 Y-41.65
N4475 X28.079 Y-41.796
N4480 X28.144 Y-41.931
N4485 X28.236 Y-42.049
N4490 X28.353 Y-42.144
N4495 X28.486 Y-42.212
N4500 X28.631 Y-42.252
N4505 X28.781 Y-42.26
N4510 X28.929 Y-42.238
N4515 X29.071 Y-42.188
N4520 X29.199 Y-42.111
N4525 X29.31 Y-42.01
N4530 X29.401 Y-41.891
N4535 X29.466 Y-41.756
N4540 X29.503 Y-41.61
N4545 X29.513 Y-41.461
N4550 X29.496 Y-41.312
N4555 X29.449 Y-41.169
N4560 X29.377 Y-41.038
N4565 X29.283 Y-40.92
N4570 X29.17 Y-40.822
N4575 X29.04 Y-40.747
N4580 X28.9 Y-40.694
N4585 X28.752 Y-40.667
N4590 X28.602 Y-40.666
N4595 X28.454 Y-40.691
N4600 X28.312 Y-40.74
N4605 X28.181 Y-40.812
N4610 X28.064 Y-40.906
N4615 X27.963 Y-41.017
N4620 X27.882 Y-41.144
N4625 X27.824 Y-41.282
N4630 X27.788 Y-41.427
N4635 X27.776 Y-41.577
N4640 X27.788 Y-41.726
N4645 X27.825 Y-41.872
N4650 X27.883 Y-42.01
N4655 X27.963 Y-42.137
N4660 X28.061 Y-42.25
N4665 X28.177 Y-42.346
N4670 X28.305 Y-42.424
N4675 X28.443 Y-42.482
N4680 X28.589 Y-42.517
N4685 X28.738 Y-42.53
N4690 X28.888 Y-42.522
N4695 X29.035 Y-42.492
N4700 X29.176 Y-42.439
N4705 X29.307 Y-42.367
N4710 X29.428 Y-42.278
N4715 X29.534 Y-42.172
N4720 X29.623 Y-42.051
N4725 X29.694 Y-41.919
N4730 X29.746 Y-41.778
N4735 X29.779 Y-41.632
N4740 X29.789 Y-41.482
N4745 X29.778 Y-41.333
N4750 X29.747 Y-41.186
N4755 X29.697 Y-41.045
N4760 X29.627 Y-40.912
N4765 X29.539 Y-40.79
N4770 X29.436 Y-40.681
N4775 X29.32 Y-40.587
N4780 X29.191 Y-40.509
N4785 X29.053 Y-40.449
N4790 X28.909 Y-40.408
N4795 X28.761 Y-40.386
N4800 X28.611 Y-40.384
N4805 X28.462 Y-40.401
N4810 X28.316 Y-40.437
N4815 X28.177 Y-40.491
N4820 X28.045 Y-40.563
N4825 X27.924 Y-40.651
N4830 X27.814 Y-40.754
N4835 X27.719 Y-40.869
N4840 X27.638 Y-40.996
N4845 X27.575 Y-41.132
N4850 X27.529 Y-41.275
N4855 X27.5 Y-41.422
N4860 X27.49 Y-41.572
N4865 X27.499 Y-41.721
N4870 X27.526 Y-41.869
N4875 X27.57 Y-42.012
N4880 X27.631 Y-42.149
N4885 X27.709 Y-42.277
N4890 X27.802 Y-42.395
N4895 X27.908 Y-42.501
N4900 X28.026 Y-42.594
N4905 X28.154 Y-42.673
N4910 X28.291 Y-42.734
N4915 X28.433 Y-42.78
N4920 X28.581 Y-42.809
N4925 X28.73 Y-42.822
N4930 X28.88 Y-42.816
N4935 X29.028 Y-42.793
N4940 X29.173 Y-42.753
N4945 X29.312 Y-42.698
N4950 X29.445 Y-42.628
N4955 X29.568 Y-42.542
N4960 X29.68 Y-42.443
N4965 X29.781 Y-42.332
N4970 X29.87 Y-42.211
N4975 X29.944 Y-42.08
N4980 X30.002 Y-41.942
N4985 X30.045 Y-41.799
N4990 X30.073 Y-41.651
N4995 X30.084 Y-41.502
N5000 X30.078 Y-41.352
N5005 X30.056 Y-41.203
N5010 X30.018 Y-41.058
N5015 X29.964 Y-40.918
N5020 X29.896 Y-40.784
N5025 X29.814 Y-40.659
N5030 X29.718 Y-40.544
N5035 X29.611 Y-40.438
N5040 X29.494 Y-40.345
N5045 X29.367 Y-40.265
N5050 X29.232 Y-40.199
N5055 X29.091 Y-40.147
N5060 X28.946 Y-40.11
N5065 X28.798 Y-40.089
N5070 X28.648 Y-40.082
N5075 X28.498 Y-40.092
N5080 X28.35 Y-40.117
N5085 X28.205 Y-40.157
N5090 X28.066 Y-40.211
N5095 X27.932 Y-40.28
N5100 X27.806 Y-40.361
N5105 X27.689 Y-40.455
N5110 X27.582 Y-40.56
N5115 X27.486 Y-40.676
N5120 X27.403 Y-40.8
N5125 X27.332 Y-40.932
N5130 X27.275 Y-41.071
N5135 X27.231 Y-41.215
N5140 X27.202 Y-41.362
N5145 X27.188 Y-41.511
N5150 X27.189 Y-41.661
N5155 X27.205 Y-41.81
N5160 X27.235 Y-41.957
N5165 X27.278 Y-42.101
N5170 X27.336 Y-42.239
N5175 X27.408 Y-42.371
N5180 X27.492 Y-42.495
N5185 X27.587 Y-42.611
N5190 X27.692 Y-42.718
N5195 X27.808 Y-42.814
N5200 X27.932 Y-42.897
N5205 X28.064 Y-42.969
N5210 X28.202 Y-43.028
N5215 X28.345 Y-43.074
N5220 X28.491 Y-43.107
N5225 X28.64 Y-43.124
N5230 X28.79 Y-43.128
N5235 X28.94 Y-43.118
N5240 X29.088 Y-43.095
N5245 X29.233 Y-43.058
N5250 X29.375 Y-43.008
N5255 X29.511 Y-42.944
N5260 X29.64 Y-42.868
N5265 X29.762 Y-42.781
N5270 X29.876 Y-42.684
N5275 X29.98 Y-42.576
N5280 X30.074 Y-42.459
N5285 X30.157 Y-42.334
N5290 X30.228 Y-42.202
N5295 X30.287 Y-42.064
N5300 X30.334 Y-41.921
N5305 X30.368 Y-41.775
N5310 X30.387 Y-41.626
N5315 X30.394 Y-41.476
N5320 X30.387 Y-41.327
N5325 X30.367 Y-41.178
N5330 X30.334 Y-41.032
N5335 X30.288 Y-40.889
N5340 X30.229 Y-40.751
N5345 X30.159 Y-40.618
N5350 X30.077 Y-40.493
N5355 X29.985 Y-40.374
N5360 X29.883 Y-40.265
N5365 X29.771 Y-40.165
N5370 X29.651 Y-40.075
N5375 X29.524 Y-39.995
N5380 X29.39 Y-39.927
N5385 X29.251 Y-39.87
N5390 X29.108 Y-39.826
N5395 X28.961 Y-39.795
N5400 X28.812 Y-39.776
N5405 X28.663 Y-39.769
N5410 X28.513 Y-39.775
N5415 X28.364 Y-39.794
N5420 X28.217 Y-39.826
N5425 X28.074 Y-39.87
N5430 X27.935 Y-39.926
N5435 X27.801 Y-39.993
N5440 X27.672 Y-40.071
N5445 X27.551 Y-40.159
N5450 X27.438 Y-40.258
N5455 X27.334 Y-40.365
N5460 X27.239 Y-40.481
N5465 X27.153 Y-40.604
N5470 X27.078 Y-40.734
N5475 X27.014 Y-40.87
N5480 X26.961 Y-41.011
N5485 X26.921 Y-41.155
N5490 X26.892 Y-41.302
N5495 X26.875 Y-41.451
N5500 X26.87 Y-41.601
N5505 X26.878 Y-41.751
N5510 X26.898 Y-41.9
N5515 X26.93 Y-42.046
N5520 X26.974 Y-42.19
N5525 X27.029 Y-42.329
N5530 X27.095 Y-42.464
N5535 X27.172 Y-42.593
N5540 X27.259 Y-42.715
N5545 X27.356 Y-42.83
N5550 X27.461 Y-42.936
N5555 X27.574 Y-43.035
N5560 X27.695 Y-43.123
N5565 X27.823 Y-43.202
N5570 X27.956 Y-43.271
N5575 X28.095 Y-43.328
N5580 X28.237 Y-43.375
N5585 X28.383 Y-43.411
N5590 X28.531 Y-43.434
N5595 X28.681 Y-43.447
N5600 X28.831
N5605 X28.98 Y-43.436
N5610 X29.128 Y-43.413
N5615 X29.275 Y-43.379
N5620 X29.418 Y-43.334
N5625 X29.557 Y-43.278
N5630 X29.691 Y-43.211
N5635 X29.82 Y-43.134
N5640 X29.942 Y-43.047
N5645 X30.058 Y-42.952
N5650 X30.166 Y-42.848
N5655 X30.266 Y-42.736
N5660 X30.356 Y-42.616
N5665 X30.438 Y-42.49
N5670 X30.509 Y-42.358
N5675 X30.571 Y-42.222
N5680 X30.622 Y-42.081
N5685 X30.662 Y-41.936
N5690 X30.691 Y-41.789
N5695 X30.709 Y-41.64
N5700 X30.716 Y-41.49
N5705 X30.711 Y-41.34
N5710 X30.696 Y-41.191
N5715 X30.669 Y-41.043
N5720 X30.631 Y-40.898
N5725 X30.582 Y-40.756
N5730 X30.524 Y-40.618
N5735 X30.455 Y-40.485
N5740 X30.377 Y-40.357
N5745 X30.289 Y-40.235
N5750 X30.192 Y-40.121
N5755 X30.087 Y-40.013
N5760 X29.975 Y-39.914
N5765 X29.856 Y-39.823
N5770 X29.73 Y-39.741
N5775 X29.599 Y-39.668
N5780 X29.463 Y-39.605
N5785 X29.323 Y-39.552
N5790 X29.179 Y-39.51
N5795 X29.032 Y-39.478
N5800 X28.884 Y-39.456
N5805 X28.734 Y-39.445
N5810 X28.584
N5815 X28.435 Y-39.456
N5820 X28.286 Y-39.478
N5825 X28.14 Y-39.511
N5830 X27.996 Y-39.553
N5835 X27.855 Y-39.605
N5840 X27.719 Y-39.668
N5845 X27.587 Y-39.74
N5850 X27.461 Y-39.821
N5855 X27.341 Y-39.911
N5860 X27.228 Y-40.009
N5865 X27.121 Y-40.115
N5870 X27.023 Y-40.228
N5875 X26.932 Y-40.347
N5880 X26.85 Y-40.473
N5885 X26.778 Y-40.605
N5890 X26.715 Y-40.741
N5895 X26.661 Y-40.881
N5900 X26.617 Y-41.024
N5905 X26.583 Y-41.17
N5910 X26.56 Y-41.318
N5915 X26.547 Y-41.468
N5920 X26.544 Y-41.618
N5925 X26.552 Y-41.768
N5930 X26.57 Y-41.916
N5935 X26.598 Y-42.064
N5940 X26.636 Y-42.209
N5945 X26.684 Y-42.351
N5950 X26.742 Y-42.489
N5955 X26.809 Y-42.623
N5960 X26.886 Y-42.752
N5965 X26.971 Y-42.876
N5970 X27.063 Y-42.994
N5975 X27.164 Y-43.105
N5980 X27.272 Y-43.209
N5985 X27.388 Y-43.305
N5990 X27.509 Y-43.393
N5995 X27.636 Y-43.473
N6000 X27.768 Y-43.544
N6005 X27.904 Y-43.607
N6010 X28.045 Y-43.66
N6015 X28.188 Y-43.703
N6020 X28.335 Y-43.736
N6025 X28.483 Y-43.76
N6030 X28.632 Y-43.773
N6035 X28.782 Y-43.777
N6040 X28.932 Y-43.771
N6045 X29.081 Y-43.755
N6050 X29.229 Y-43.729
N6055 X29.374 Y-43.693
N6060 X29.517 Y-43.648
N6065 X29.657 Y-43.593
N6070 X29.793 Y-43.53
N6075 X29.924 Y-43.458
N6080 X30.051 Y-43.377
N6085 X30.172 Y-43.288
N6090 X30.286 Y-43.191
N6095 X30.394 Y-43.087
N6100 X30.495 Y-42.976
N6105 X30.589 Y-42.858
N6110 X30.674 Y-42.736
N6115 X30.752 Y-42.607
N6120 X30.821 Y-42.474
N6125 X30.881 Y-42.337
N6130 X30.932 Y-42.195
N6135 X30.974 Y-42.051
N6140 X31.007 Y-41.905
N6145 X31.03 Y-41.757
N6150 X31.044 Y-41.607
N6155 X31.047 Y-41.458
N6160 X31.041 Y-41.308
N6165 X31.026 Y-41.158
N6170 X31. Y-41.011
N6175 X30.966 Y-40.865
N6180 X30.923 Y-40.721
N6185 X30.87 Y-40.581
N6190 X30.808 Y-40.444
N6195 X30.738 Y-40.311
N6200 X30.659 Y-40.184
N6205 X30.573 Y-40.061
N6210 X30.479 Y-39.944
N6215 X30.378 Y-39.833
N6220 X30.27 Y-39.729
N6225 X30.155 Y-39.632
N6230 X30.035 Y-39.542
N6235 X29.909 Y-39.461
N6240 X29.779 Y-39.387
N6245 X29.644 Y-39.321
N6250 X29.565 Y-39.289
N6255 X29.499 Y-39.266
N6260 X29.431 Y-39.253
N6265 X29.362 Y-39.249
N6270 X28.806
N6275 X28.498 Y-39.298
N6280 X28.293 Y-39.333
N6285 X27.985 Y-39.388
N6290 X27.94 Y-39.396
N6295 X27.918 Y-39.403
N6300 X27.895 Y-39.414
N6305 X27.251 Y-39.786
N6310 X27.237 Y-39.796
N6315 X27.209 Y-39.825
N6320 X26.752 Y-40.37
N6325 X26.725 Y-40.406
N6330 X26.716 Y-40.424
N6335 X26.466 Y-41.11
N6340 X26.457 Y-41.135
N6345 X26.453 Y-41.161
N6350 X26.451 Y-41.264
N6355 Y-41.88
N6360 X26.452 Y-41.932
N6365 X26.457 Y-41.958
N6370 X26.464 Y-41.983
N6375 X26.708 Y-42.651
N6380 X26.718 Y-42.677
N6385 X26.733 Y-42.703
N6390 X26.752 Y-42.727
N6395 X27.163 Y-43.217
N6400 X27.214 Y-43.277
N6405 X27.24 Y-43.302
N6410 X27.266 Y-43.32
N6415 X27.882 Y-43.675
N6420 X27.908 Y-43.689
N6425 X27.933 Y-43.699
N6430 X27.985 Y-43.709
N6435 X28.755 Y-43.845
N6440 X28.781 Y-43.848
N6445 X29.479
N6450 X29.629 Y-43.841
N6455 X29.777 Y-43.815
N6460 X29.92 Y-43.772
N6465 X30.059 Y-43.715
N6470 X30.192 Y-43.646
N6475 X30.319 Y-43.566
N6480 X30.441 Y-43.478
N6485 X30.556 Y-43.381
N6490 X30.664 Y-43.277
N6495 X30.765 Y-43.167
N6500 X30.86 Y-43.05
N6505 X30.947 Y-42.928
N6510 X31.026 Y-42.801
N6515 X31.098 Y-42.67
N6520 X31.163 Y-42.534
N6525 X31.219 Y-42.395
N6530 X31.268 Y-42.253
N6535 X31.308 Y-42.109
N6540 X31.34 Y-41.962
N6545 X31.363 Y-41.814
N6550 X31.378 Y-41.664
N6555 X31.385 Y-41.513
N6560 X31.383 Y-41.361
N6565 X31.373 Y-41.21
N6570 X31.354 Y-41.062
N6575 X31.327 Y-40.914
N6580 X31.291 Y-40.768
N6585 X31.247 Y-40.624
N6590 X31.195 Y-40.481
N6595 X31.135 Y-40.341
N6600 X31.066 Y-40.203
N6605 X30.989 Y-40.07
N6610 X30.907 Y-39.943
N6615 X30.818 Y-39.822
N6620 X30.722 Y-39.706
N6625 X30.619 Y-39.594
N6630 X30.509 Y-39.487
N6635 X30.392 Y-39.387
N6640 X30.356 Y-39.359
N6645 X30.257 Y-39.299
N6650 X30.147 Y-39.261
N6655 X30.031 Y-39.249
N6660 X29.362
N6665 X29.313 Y-39.258 Z-0.96
N6670 X29.269 Y-39.282 Z-0.92
N6675 X29.235 Y-39.318 Z-0.881
N6680 X29.214 Y-39.363 Z-0.841
N6685 X29.207 Y-39.413 Z-0.801
N6690 Y-39.414 Z-0.8
N6695 X29.22 Y-39.878
N6700 X29.312 Y-43.219
N6705 X29.325 Y-43.683
N6710 Y-43.693 Z-0.808
N6715 X29.333 Y-43.74 Z-0.846
N6720 X29.356 Y-43.783 Z-0.885
N6725 X29.389 Y-43.817 Z-0.923
N6730 X29.432 Y-43.84 Z-0.962
N6735 X29.479 Y-43.848 Z-1.
N6740 X30.07
N6745 X30.22 Y-43.841
N6750 X30.366 Y-43.805
N6755 X30.504 Y-43.748
N6760 X30.636 Y-43.675
N6765 X30.759 Y-43.59
N6770 X30.875 Y-43.495
N6775 X30.984 Y-43.392
N6780 X31.085 Y-43.281
N6785 X31.179 Y-43.164
N6790 X31.266 Y-43.042
N6795 X31.345 Y-42.915
N6800 X31.418 Y-42.782
N6805 X31.484 Y-42.643
N6810 X31.544 Y-42.497
N6815 X31.596 Y-42.346
N6820 X31.641 Y-42.189
N6825 X31.676 Y-42.029
N6830 X31.703 Y-41.865
N6835 X31.721 Y-41.699
N6840 X31.73 Y-41.531
N6845 X31.729 Y-41.363
N6850 X31.718 Y-41.196
N6855 X31.699 Y-41.028
N6860 X31.669 Y-40.861
N6865 X31.63 Y-40.696
N6870 X31.582 Y-40.532
N6875 X31.524 Y-40.371
N6880 X31.457 Y-40.213
N6885 X31.382 Y-40.059
N6890 X31.298 Y-39.91
N6895 X31.206 Y-39.766
N6900 X31.106 Y-39.627
N6905 X30.998 Y-39.495
N6910 X30.933 Y-39.423
N6915 X30.82 Y-39.329
N6920 X30.685 Y-39.269
N6925 X30.538 Y-39.249
N6930 X30.031
N6935 X29.983 Y-39.258 Z-0.961
N6940 X29.94 Y-39.281 Z-0.921
N6945 X29.905 Y-39.317 Z-0.882
N6950 X29.884 Y-39.361 Z-0.843
N6955 X29.877 Y-39.41 Z-0.803
N6960 Y-39.414 Z-0.8
N6965 X29.881 Y-39.878
N6970 X29.911 Y-43.219
N6975 X29.916 Y-43.683
N6980 Y-43.69 Z-0.806
N6985 X29.924 Y-43.738 Z-0.844
N6990 X29.945 Y-43.782 Z-0.883
N6995 X29.979 Y-43.816 Z-0.922
N7000 X30.022 Y-43.839 Z-0.961
N7005 X30.07 Y-43.848 Z-1.
N7010 X30.553
N7015 X30.703 Y-43.841
N7020 X30.846 Y-43.798
N7025 X30.981 Y-43.732
N7030 X31.107 Y-43.651
N7035 X31.225 Y-43.558
N7040 X31.334 Y-43.455
N7045 X31.434 Y-43.344
N7050 X31.527 Y-43.226
N7055 X31.613 Y-43.102
N7060 X31.691 Y-42.973
N7065 X31.765 Y-42.834
N7070 X31.833 Y-42.687
N7075 X31.894 Y-42.534
N7080 X31.947 Y-42.373
N7085 X31.993 Y-42.205
N7090 X32.029 Y-42.031
N7095 X32.056 Y-41.853
N7100 X32.074 Y-41.672
N7105 X32.081 Y-41.488
N7110 X32.078 Y-41.303
N7115 X32.064 Y-41.117
N7120 X32.039 Y-40.931
N7125 X32.004 Y-40.745
N7130 X31.959 Y-40.562
N7135 X31.903 Y-40.38
N7140 X31.837 Y-40.202
N7145 X31.761 Y-40.028
N7150 X31.675 Y-39.858
N7155 X31.579 Y-39.693
N7160 X31.497 Y-39.568
N7165 X31.407 Y-39.448
N7170 X31.397 Y-39.435
N7175 X31.282 Y-39.334
N7180 X31.143 Y-39.27
N7185 X30.991 Y-39.249
N7190 X30.538
N7195 X30.49 Y-39.258 Z-0.961
N7200 X30.447 Y-39.281 Z-0.922
N7205 X30.413 Y-39.316 Z-0.882
N7210 X30.391 Y-39.36 Z-0.843
N7215 X30.384 Y-39.409 Z-0.804
N7220 Y-39.414 Z-0.8
N7225 X30.386 Y-39.878
N7230 X30.397 Y-43.219
N7235 X30.398 Y-43.683
N7240 Y-43.689 Z-0.805
N7245 X30.406 Y-43.737 Z-0.844
N7250 X30.428 Y-43.781 Z-0.883
N7255 X30.462 Y-43.816 Z-0.922
N7260 X30.505 Y-43.839 Z-0.961
N7265 X30.553 Y-43.848 Z-1.
N7270 X30.964
N7275 X31.113 Y-43.841
N7280 X31.257 Y-43.799
N7285 X31.392 Y-43.732
N7290 X31.516 Y-43.648
N7295 X31.63 Y-43.551
N7300 X31.736 Y-43.444
N7305 X31.833 Y-43.33
N7310 X31.922 Y-43.209
N7315 X32.003 Y-43.083
N7320 X32.078 Y-42.949
N7325 X32.149 Y-42.803
N7330 X32.215 Y-42.646
N7335 X32.274 Y-42.479
N7340 X32.326 Y-42.304
N7345 X32.368 Y-42.124
N7350 X32.4 Y-41.938
N7355 X32.422 Y-41.745
N7360 X32.434 Y-41.548
N7365 X32.435 Y-41.348
N7370 X32.424 Y-41.145
N7375 X32.402 Y-40.942
N7380 X32.368 Y-40.738
N7385 X32.322 Y-40.536
N7390 X32.265 Y-40.336
N7395 X32.197 Y-40.138
N7400 X32.117 Y-39.945
N7405 X32.033 Y-39.769
N7410 X31.96 Y-39.638
N7415 X31.88 Y-39.511
N7420 X31.846 Y-39.464
N7425 X31.728 Y-39.348
N7430 X31.581 Y-39.274
N7435 X31.417 Y-39.249
N7440 X30.991
N7445 X30.944 Y-39.258 Z-0.961
N7450 X30.901 Y-39.281 Z-0.922
N7455 X30.867 Y-39.316 Z-0.883
N7460 X30.845 Y-39.359 Z-0.844
N7465 X30.837 Y-39.407 Z-0.805
N7470 Y-39.414 Z-0.8
N7475 X30.834 Y-39.878
N7480 X30.812 Y-43.219
N7485 X30.809 Y-43.683
N7490 Y-43.688 Z-0.804
N7495 X30.816 Y-43.736 Z-0.843
N7500 X30.838 Y-43.78 Z-0.882
N7505 X30.872 Y-43.816 Z-0.921
N7510 X30.915 Y-43.839 Z-0.961
N7515 X30.964 Y-43.848 Z-1.
N7520 X31.374
N7525 X31.524 Y-43.841
N7530 X31.667 Y-43.794
N7535 X31.799 Y-43.723
N7540 X31.921 Y-43.635
N7545 X32.032 Y-43.535
N7550 X32.134 Y-43.425
N7555 X32.228 Y-43.308
N7560 X32.312 Y-43.184
N7565 X32.389 Y-43.055
N7570 X32.463 Y-42.913
N7575 X32.534 Y-42.759
N7580 X32.597 Y-42.594
N7585 X32.653 Y-42.422
N7590 X32.701 Y-42.239
N7595 X32.74 Y-42.046
N7600 X32.769 Y-41.845
N7605 X32.787 Y-41.636
N7610 X32.794 Y-41.422
N7615 X32.788 Y-41.205
N7620 X32.77 Y-40.985
N7625 X32.739 Y-40.765
N7630 X32.696 Y-40.544
N7635 X32.64 Y-40.325
N7640 X32.573 Y-40.113
N7645 X32.499 Y-39.919
N7650 X32.426 Y-39.755
N7655 X32.357 Y-39.622
N7660 X32.313 Y-39.55
N7665 X32.216 Y-39.434
N7670 X32.09 Y-39.35
N7675 X31.946 Y-39.304
N7680 X31.896 Y-39.305 Z-0.96
N7685 X31.849 Y-39.322 Z-0.92
N7690 X31.809 Y-39.353 Z-0.88
N7695 X31.781 Y-39.394 Z-0.84
N7700 X31.767 Y-39.442 Z-0.8
N7705 X31.766
N7710 X31.707 Y-39.903
N7715 X31.279 Y-43.223
N7720 X31.221 Y-43.668
N7725 X31.22 Y-43.683
N7730 X31.226 Y-43.733 Z-0.84
N7735 X31.247 Y-43.778 Z-0.88
N7740 X31.282 Y-43.815 Z-0.92
N7745 X31.325 Y-43.839 Z-0.96
N7750 X31.374 Y-43.848 Z-1.
N7755 X31.631
N7760 X31.72 Y-43.833
N7765 X31.888 Y-43.804
N7770 X32.034 Y-43.77
N7775 X32.17 Y-43.706
N7780 X32.293 Y-43.621
N7785 X32.406 Y-43.522
N7790 X32.508 Y-43.412
N7795 X32.601 Y-43.294
N7800 X32.685 Y-43.17
N7805 X32.761 Y-43.04
N7810 X32.833 Y-42.899
N7815 X32.898 Y-42.751
N7820 X32.96 Y-42.587
N7825 X33.016 Y-42.407
N7830 X33.064 Y-42.215
N7835 X33.104 Y-42.01
N7840 X33.133 Y-41.797
N7845 X33.15 Y-41.576
N7850 X33.155 Y-41.35
N7855 X33.147 Y-41.121
N7860 X33.125 Y-40.887
N7865 X33.09 Y-40.651
N7870 X33.042 Y-40.416
N7875 X32.982 Y-40.19
N7880 X32.916 Y-39.99
N7885 X32.858 Y-39.842
N7890 X32.796 Y-39.706
N7895 X32.766 Y-39.651
N7900 X32.712 Y-39.57
N7905 X32.644 Y-39.5
N7910 X32.564 Y-39.444
N7915 X32.517 Y-39.428 Z-0.96
N7920 X32.467 Y-39.427 Z-0.92
N7925 X32.419 Y-39.441 Z-0.88
N7930 X32.378 Y-39.47 Z-0.84
N7935 X32.348 Y-39.51 Z-0.8
N7940 X32.337 Y-39.535
N7945 X32.331 Y-39.561
N7950 X32.269 Y-39.966
N7955 X31.771 Y-43.208
N7960 X31.708 Y-43.621
N7965 X31.707 Y-43.668
N7970 X31.722 Y-43.715 Z-0.84
N7975 X31.751 Y-43.756 Z-0.88
N7980 X31.791 Y-43.786 Z-0.92
N7985 X31.838 Y-43.803 Z-0.96
N7990 X31.888 Y-43.804 Z-1.
N7995 X32.299 Y-43.731
N8000 X32.445 Y-43.698
N8005 X32.582 Y-43.635
N8010 X32.705 Y-43.55
N8015 X32.816 Y-43.448
N8020 X32.915 Y-43.337
N8025 X33.005 Y-43.216
N8030 X33.086 Y-43.09
N8035 X33.158 Y-42.959
N8040 X33.227 Y-42.815
N8045 X33.292 Y-42.653
N8050 X33.35 Y-42.484
N8055 X33.402 Y-42.3
N8060 X33.446 Y-42.099
N8065 X33.481 Y-41.884
N8070 X33.505 Y-41.659
N8075 X33.516 Y-41.424
N8080 X33.514 Y-41.182
N8085 X33.498 Y-40.935
N8090 X33.468 Y-40.687
N8095 X33.425 Y-40.447
N8100 X33.373 Y-40.228
N8105 X33.315 Y-40.034
N8110 X33.303 Y-40.001
N8115 X33.278 Y-39.943
N8120 X33.247 Y-39.889
N8125 X33.21 Y-39.839
N8130 X33.171 Y-39.807 Z-0.96
N8135 X33.124 Y-39.789 Z-0.92
N8140 X33.074 Y-39.787 Z-0.88
N8145 X33.026 Y-39.799 Z-0.84
N8150 X32.984 Y-39.827 Z-0.8
N8155 X32.953 Y-39.865
N8160 X32.935 Y-39.911
N8165 X32.855 Y-40.267
N8170 X32.21 Y-43.141
N8175 X32.121 Y-43.538
N8180 X32.117 Y-43.566
N8185 X32.118 Y-43.595
N8190 X32.133 Y-43.643 Z-0.84
N8195 X32.162 Y-43.684 Z-0.88
N8200 X32.202 Y-43.714 Z-0.92
N8205 X32.249 Y-43.73 Z-0.96
N8210 X32.299 Y-43.731 Z-1.
N8215 X32.453 Y-43.704
N8220 X32.479 Y-43.697
N8225 X32.504 Y-43.687
N8230 X33.075 Y-43.358
N8235 X33.1 Y-43.344
N8240 X33.121 Y-43.332
N8245 X33.164 Y-43.304
N8250 X33.195 Y-43.265 Z-0.96
N8255 X33.216 Y-43.219 Z-0.92
N8260 X33.224 Y-43.169 Z-0.88
N8265 X33.219 Y-43.12 Z-0.84
N8270 X33.202 Y-43.072 Z-0.8
N8275 X33.193 Y-43.056
N8280 G3 X32.91 Y-43.009 I-0.163 J-0.105
N8285 X32.89 Y-43.294 I0.12 J-0.152
N8290 G1 X32.929 Y-43.326 Z-0.84
N8295 X32.975 Y-43.346 Z-0.88
N8300 X33.024 Y-43.354 Z-0.92
N8305 X33.074 Y-43.349 Z-0.96
N8310 X33.121 Y-43.332 Z-1.
N8315 X33.142 Y-43.319
N8320 X33.163 Y-43.305
N8325 X33.183 Y-43.287
N8330 X33.224 Y-43.242
N8335 X33.326 Y-43.12
N8340 X33.417 Y-43.
N8345 X33.5 Y-42.876
N8350 X33.573 Y-42.744
N8355 X33.635 Y-42.608
N8360 X33.69 Y-42.465
N8365 X33.741 Y-42.303
N8370 X33.785 Y-42.134
N8375 X33.823 Y-41.941
N8380 X33.853 Y-41.729
N8385 X33.872 Y-41.5
N8390 X33.878 Y-41.26
N8395 X33.871 Y-41.015
N8400 X33.865 Y-40.954
N8405 X33.859 Y-40.908
N8410 X33.849 Y-40.863
N8415 X33.835 Y-40.818
N8420 X33.81 Y-40.775 Z-0.96
N8425 X33.772 Y-40.742 Z-0.92
N8430 X33.726 Y-40.723 Z-0.88
N8435 X33.676 Y-40.718 Z-0.84
N8440 X33.627 Y-40.73 Z-0.8
N8445 X33.593 Y-40.748
N8450 X33.565 Y-40.774
N8455 X33.544 Y-40.807
N8460 X33.531 Y-40.843
N8465 X33.463 Y-41.145
N8470 X33.116 Y-42.69
N8475 X33.051 Y-42.978
N8480 X33.048 Y-43.02
N8485 X33.055 Y-43.061
N8490 X33.073 Y-43.099
N8495 X33.1 Y-43.132
N8500 X33.142 Y-43.159 Z-0.84
N8505 X33.191 Y-43.172 Z-0.88
N8510 X33.241 Y-43.169 Z-0.92
N8515 X33.287 Y-43.151 Z-0.96
N8520 X33.326 Y-43.12 Z-1.
N8525 X33.634 Y-42.752
N8530 X33.674 Y-42.703
N8535 X33.69 Y-42.677
N8540 X33.719 Y-42.6
N8545 X33.943 Y-41.983
N8550 X33.951 Y-41.958
N8555 X33.956 Y-41.932
N8560 X33.957 Y-41.88
N8565 Y-41.264
N8570 X33.955 Y-41.161
N8575 X33.951 Y-41.137
N8580 X33.943 Y-41.113
N8585 X33.698 Y-40.442
N8590 X33.689 Y-40.417
N8595 X33.682 Y-40.405
N8600 X33.674 Y-40.393
N8605 X33.198 Y-39.825
N8610 X33.179 Y-39.805
N8615 X33.16 Y-39.789
N8620 X33.121 Y-39.765
N8625 X32.504 Y-39.41
N8630 X32.479 Y-39.399
N8635 X32.453 Y-39.393
N8640 X31.988 Y-39.311
N8645 X31.888 Y-39.294
N8650 X31.58 Y-39.25
N8655 X31.444 Y-39.249
N8660 X31.417
N8665 G3 X31.429 Y-39.568 I0.006 J-0.16
N8670 X31.538 Y-39.52 I-0.006 J0.16
N8675 G1 X31.554 Y-39.483 Z-0.994
N8680 X31.569 Y-39.449 Z-0.979
N8685 X31.583 Y-39.42 Z-0.955
N8690 Y-39.408 Z-0.942
N8695 X31.581 Y-39.388 Z-0.911
N8700 X31.579 Y-39.376 Z-0.877
N8705 Y-39.372 Z-0.84
N8710 Z5.
N8715 X28.704 Y-9.798
N8720 Z2.66
N8725 Z2.5
N8730 Z-1.
N8735 X28.741
N8740 X28.729 Y-9.763
N8745 X28.693 Y-9.754
N8750 X28.662 Y-9.775
N8755 X28.657 Y-9.813
N8760 X28.681 Y-9.842
N8765 X28.716 Y-9.855
N8770 X28.753 Y-9.85
N8775 X28.78 Y-9.824
N8780 X28.791 Y-9.788
N8785 X28.784 Y-9.751
N8790 X28.762 Y-9.72
N8795 X28.73 Y-9.701
N8800 X28.693 Y-9.695
N8805 X28.657 Y-9.703
N8810 X28.626 Y-9.724
N8815 X28.603 Y-9.754
N8820 X28.594 Y-9.79
N8825 X28.596 Y-9.827
N8830 X28.609 Y-9.862
N8835 X28.632 Y-9.892
N8840 X28.662 Y-9.914
N8845 X28.698 Y-9.927
N8850 X28.735 Y-9.93
N8855 X28.772 Y-9.922
N8860 X28.805 Y-9.906
N8865 X28.862 Y-9.856
N8870 X28.886 Y-9.785
N8875 X28.876 Y-9.711
N8880 X28.837 Y-9.647
N8885 X28.777 Y-9.602
N8890 X28.704 Y-9.583
N8895 X28.63 Y-9.592
N8900 X28.563 Y-9.625
N8905 X28.511 Y-9.68
N8910 X28.48 Y-9.748
N8915 X28.473 Y-9.823
N8920 X28.488 Y-9.896
N8925 X28.524 Y-9.962
N8930 X28.579 Y-10.014
N8935 X28.645 Y-10.048
N8940 X28.719 Y-10.062
N8945 X28.794 Y-10.056
N8950 X28.865 Y-10.032
N8955 X28.927 Y-9.99
N8960 X28.976 Y-9.933
N8965 X29.045 Y-9.8
N8970 X29.037 Y-9.65
N8975 X28.964 Y-9.519
N8980 X28.843 Y-9.43
N8985 X28.697 Y-9.396
N8990 X28.549 Y-9.419
N8995 X28.42 Y-9.495
N9000 X28.326 Y-9.611
N9005 X28.278 Y-9.754
N9010 X28.282 Y-9.904
N9015 X28.336 Y-10.044
N9020 X28.433 Y-10.158
N9025 X28.562 Y-10.235
N9030 X28.708 Y-10.268
N9035 X28.858 Y-10.256
N9040 X28.996 Y-10.199
N9045 X29.115 Y-10.108
N9050 X29.203 Y-9.986
N9055 X29.255 Y-9.845
N9060 X29.262 Y-9.695
N9065 X29.231 Y-9.549
N9070 X29.161 Y-9.416
N9075 X29.058 Y-9.307
N9080 X28.932 Y-9.226
N9085 X28.789 Y-9.18
N9090 X28.639 Y-9.172
N9095 X28.491 Y-9.198
N9100 X28.354 Y-9.26
N9105 X28.236 Y-9.352
N9110 X28.141 Y-9.468
N9115 X28.077 Y-9.604
N9120 X28.044 Y-9.75
N9125 Y-9.9
N9130 X28.079 Y-10.046
N9135 X28.144 Y-10.181
N9140 X28.236 Y-10.299
N9145 X28.353 Y-10.394
N9150 X28.486 Y-10.462
N9155 X28.631 Y-10.502
N9160 X28.781 Y-10.51
N9165 X28.929 Y-10.488
N9170 X29.071 Y-10.438
N9175 X29.199 Y-10.361
N9180 X29.31 Y-10.26
N9185 X29.401 Y-10.141
N9190 X29.466 Y-10.006
N9195 X29.503 Y-9.86
N9200 X29.513 Y-9.711
N9205 X29.496 Y-9.562
N9210 X29.449 Y-9.419
N9215 X29.377 Y-9.288
N9220 X29.283 Y-9.17
N9225 X29.17 Y-9.072
N9230 X29.04 Y-8.997
N9235 X28.9 Y-8.944
N9240 X28.752 Y-8.917
N9245 X28.602 Y-8.916
N9250 X28.454 Y-8.941
N9255 X28.312 Y-8.99
N9260 X28.181 Y-9.062
N9265 X28.064 Y-9.156
N9270 X27.963 Y-9.267
N9275 X27.882 Y-9.393
N9280 X27.824 Y-9.532
N9285 X27.788 Y-9.677
N9290 X27.776 Y-9.827
N9295 X27.788 Y-9.976
N9300 X27.825 Y-10.122
N9305 X27.883 Y-10.26
N9310 X27.963 Y-10.387
N9315 X28.061 Y-10.5
N9320 X28.177 Y-10.596
N9325 X28.305 Y-10.674
N9330 X28.443 Y-10.732
N9335 X28.589 Y-10.767
N9340 X28.738 Y-10.78
N9345 X28.888 Y-10.772
N9350 X29.035 Y-10.742
N9355 X29.176 Y-10.689
N9360 X29.307 Y-10.617
N9365 X29.428 Y-10.528
N9370 X29.534 Y-10.422
N9375 X29.623 Y-10.301
N9380 X29.694 Y-10.169
N9385 X29.746 Y-10.028
N9390 X29.779 Y-9.882
N9395 X29.789 Y-9.732
N9400 X29.778 Y-9.583
N9405 X29.747 Y-9.436
N9410 X29.697 Y-9.295
N9415 X29.627 Y-9.162
N9420 X29.539 Y-9.04
N9425 X29.436 Y-8.931
N9430 X29.32 Y-8.837
N9435 X29.191 Y-8.759
N9440 X29.054 Y-8.699
N9445 X28.909 Y-8.658
N9450 X28.761 Y-8.636
N9455 X28.611 Y-8.633
N9460 X28.462 Y-8.651
N9465 X28.316 Y-8.687
N9470 X28.177 Y-8.741
N9475 X28.045 Y-8.813
N9480 X27.924 Y-8.901
N9485 X27.814 Y-9.004
N9490 X27.719 Y-9.119
N9495 X27.638 Y-9.246
N9500 X27.575 Y-9.382
N9505 X27.529 Y-9.525
N9510 X27.5 Y-9.672
N9515 X27.49 Y-9.822
N9520 X27.499 Y-9.971
N9525 X27.526 Y-10.119
N9530 X27.57 Y-10.262
N9535 X27.631 Y-10.399
N9540 X27.709 Y-10.527
N9545 X27.802 Y-10.645
N9550 X27.908 Y-10.751
N9555 X28.026 Y-10.844
N9560 X28.154 Y-10.922
N9565 X28.291 Y-10.984
N9570 X28.433 Y-11.03
N9575 X28.581 Y-11.059
N9580 X28.73 Y-11.072
N9585 X28.88 Y-11.066
N9590 X29.028 Y-11.043
N9595 X29.173 Y-11.003
N9600 X29.312 Y-10.948
N9605 X29.445 Y-10.878
N9610 X29.568 Y-10.792
N9615 X29.68 Y-10.693
N9620 X29.781 Y-10.582
N9625 X29.87 Y-10.461
N9630 X29.944 Y-10.33
N9635 X30.002 Y-10.192
N9640 X30.045 Y-10.049
N9645 X30.073 Y-9.901
N9650 X30.084 Y-9.752
N9655 X30.078 Y-9.602
N9660 X30.056 Y-9.453
N9665 X30.018 Y-9.308
N9670 X29.964 Y-9.168
N9675 X29.896 Y-9.034
N9680 X29.814 Y-8.909
N9685 X29.718 Y-8.794
N9690 X29.611 Y-8.688
N9695 X29.494 Y-8.595
N9700 X29.367 Y-8.515
N9705 X29.232 Y-8.449
N9710 X29.091 Y-8.397
N9715 X28.946 Y-8.36
N9720 X28.798 Y-8.339
N9725 X28.648 Y-8.332
N9730 X28.498 Y-8.342
N9735 X28.35 Y-8.367
N9740 X28.205 Y-8.407
N9745 X28.066 Y-8.461
N9750 X27.932 Y-8.529
N9755 X27.806 Y-8.611
N9760 X27.689 Y-8.705
N9765 X27.582 Y-8.81
N9770 X27.486 Y-8.926
N9775 X27.403 Y-9.05
N9780 X27.332 Y-9.182
N9785 X27.275 Y-9.321
N9790 X27.231 Y-9.465
N9795 X27.202 Y-9.612
N9800 X27.188 Y-9.761
N9805 X27.189 Y-9.911
N9810 X27.205 Y-10.06
N9815 X27.235 Y-10.207
N9820 X27.278 Y-10.351
N9825 X27.336 Y-10.489
N9830 X27.408 Y-10.621
N9835 X27.492 Y-10.745
N9840 X27.587 Y-10.861
N9845 X27.692 Y-10.968
N9850 X27.808 Y-11.064
N9855 X27.932 Y-11.147
N9860 X28.064 Y-11.219
N9865 X28.202 Y-11.278
N9870 X28.345 Y-11.324
N9875 X28.491 Y-11.356
N9880 X28.64 Y-11.374
N9885 X28.79 Y-11.378
N9890 X28.94 Y-11.368
N9895 X29.088 Y-11.345
N9900 X29.233 Y-11.308
N9905 X29.375 Y-11.258
N9910 X29.511 Y-11.194
N9915 X29.64 Y-11.118
N9920 X29.762 Y-11.031
N9925 X29.876 Y-10.934
N9930 X29.98 Y-10.826
N9935 X30.074 Y-10.709
N9940 X30.157 Y-10.584
N9945 X30.228 Y-10.452
N9950 X30.287 Y-10.314
N9955 X30.334 Y-10.171
N9960 X30.368 Y-10.025
N9965 X30.387 Y-9.876
N9970 X30.394 Y-9.727
N9975 X30.387 Y-9.577
N9980 X30.367 Y-9.428
N9985 X30.334 Y-9.282
N9990 X30.288 Y-9.139
N9995 X30.229 Y-9.001
N10000 X30.159 Y-8.869
N10005 X30.077 Y-8.743
N10010 X29.985 Y-8.624
N10015 X29.883 Y-8.515
N10020 X29.771 Y-8.415
N10025 X29.651 Y-8.325
N10030 X29.524 Y-8.245
N10035 X29.39 Y-8.177
N10040 X29.251 Y-8.12
N10045 X29.108 Y-8.076
N10050 X28.961 Y-8.045
N10055 X28.813 Y-8.026
N10060 X28.663 Y-8.019
N10065 X28.513 Y-8.025
N10070 X28.364 Y-8.044
N10075 X28.217 Y-8.076
N10080 X28.074 Y-8.12
N10085 X27.935 Y-8.176
N10090 X27.801 Y-8.243
N10095 X27.672 Y-8.321
N10100 X27.551 Y-8.409
N10105 X27.438 Y-8.508
N10110 X27.334 Y-8.615
N10115 X27.239 Y-8.731
N10120 X27.153 Y-8.854
N10125 X27.078 Y-8.984
N10130 X27.014 Y-9.12
N10135 X26.961 Y-9.26
N10140 X26.921 Y-9.405
N10145 X26.892 Y-9.552
N10150 X26.875 Y-9.701
N10155 X26.87 Y-9.851
N10160 X26.878 Y-10.001
N10165 X26.898 Y-10.149
N10170 X26.93 Y-10.296
N10175 X26.974 Y-10.44
N10180 X27.029 Y-10.579
N10185 X27.095 Y-10.714
N10190 X27.172 Y-10.842
N10195 X27.259 Y-10.965
N10200 X27.356 Y-11.079
N10205 X27.461 Y-11.186
N10210 X27.574 Y-11.285
N10215 X27.695 Y-11.373
N10220 X27.823 Y-11.452
N10225 X27.956 Y-11.52
N10230 X28.095 Y-11.578
N10235 X28.237 Y-11.625
N10240 X28.383 Y-11.661
N10245 X28.531 Y-11.684
N10250 X28.681 Y-11.696
N10255 X28.831 Y-11.697
N10260 X28.98 Y-11.686
N10265 X29.128 Y-11.663
N10270 X29.275 Y-11.629
N10275 X29.418 Y-11.584
N10280 X29.557 Y-11.528
N10285 X29.691 Y-11.461
N10290 X29.82 Y-11.384
N10295 X29.942 Y-11.297
N10300 X30.058 Y-11.202
N10305 X30.166 Y-11.098
N10310 X30.265 Y-10.986
N10315 X30.356 Y-10.866
N10320 X30.437 Y-10.74
N10325 X30.509 Y-10.608
N10330 X30.571 Y-10.472
N10335 X30.622 Y-10.331
N10340 X30.662 Y-10.186
N10345 X30.691 Y-10.039
N10350 X30.709 Y-9.89
N10355 X30.716 Y-9.74
N10360 X30.711 Y-9.59
N10365 X30.696 Y-9.441
N10370 X30.669 Y-9.293
N10375 X30.631 Y-9.148
N10380 X30.583 Y-9.006
N10385 X30.524 Y-8.868
N10390 X30.455 Y-8.735
N10395 X30.377 Y-8.607
N10400 X30.289 Y-8.485
N10405 X30.192 Y-8.371
N10410 X30.087 Y-8.263
N10415 X29.975 Y-8.164
N10420 X29.856 Y-8.073
N10425 X29.73 Y-7.991
N10430 X29.599 Y-7.918
N10435 X29.463 Y-7.855
N10440 X29.323 Y-7.802
N10445 X29.179 Y-7.76
N10450 X29.032 Y-7.728
N10455 X28.884 Y-7.706
N10460 X28.734 Y-7.695
N10465 X28.584
N10470 X28.435 Y-7.706
N10475 X28.286 Y-7.728
N10480 X28.14 Y-7.761
N10485 X27.996 Y-7.803
N10490 X27.855 Y-7.855
N10495 X27.719 Y-7.918
N10500 X27.587 Y-7.99
N10505 X27.461 Y-8.071
N10510 X27.341 Y-8.161
N10515 X27.228 Y-8.259
N10520 X27.121 Y-8.365
N10525 X27.023 Y-8.478
N10530 X26.932 Y-8.597
N10535 X26.85 Y-8.723
N10540 X26.778 Y-8.855
N10545 X26.715 Y-8.991
N10550 X26.661 Y-9.131
N10555 X26.617 Y-9.274
N10560 X26.583 Y-9.42
N10565 X26.56 Y-9.568
N10570 X26.547 Y-9.718
N10575 X26.544 Y-9.868
N10580 X26.552 Y-10.017
N10585 X26.57 Y-10.166
N10590 X26.598 Y-10.314
N10595 X26.636 Y-10.459
N10600 X26.684 Y-10.601
N10605 X26.742 Y-10.739
N10610 X26.809 Y-10.873
N10615 X26.886 Y-11.002
N10620 X26.97 Y-11.126
N10625 X27.063 Y-11.244
N10630 X27.164 Y-11.355
N10635 X27.272 Y-11.459
N10640 X27.387 Y-11.555
N10645 X27.509 Y-11.643
N10650 X27.636 Y-11.723
N10655 X27.768 Y-11.794
N10660 X27.904 Y-11.857
N10665 X28.045 Y-11.91
N10670 X28.188 Y-11.953
N10675 X28.335 Y-11.986
N10680 X28.483 Y-12.01
N10685 X28.632 Y-12.023
N10690 X28.782 Y-12.027
N10695 X28.932 Y-12.021
N10700 X29.081 Y-12.005
N10705 X29.229 Y-11.979
N10710 X29.374 Y-11.943
N10715 X29.517 Y-11.898
N10720 X29.657 Y-11.843
N10725 X29.793 Y-11.78
N10730 X29.924 Y-11.708
N10735 X30.051 Y-11.627
N10740 X30.171 Y-11.538
N10745 X30.286 Y-11.441
N10750 X30.394 Y-11.337
N10755 X30.495 Y-11.226
N10760 X30.588 Y-11.108
N10765 X30.674 Y-10.986
N10770 X30.752 Y-10.857
N10775 X30.821 Y-10.724
N10780 X30.881 Y-10.587
N10785 X30.932 Y-10.446
N10790 X30.974 Y-10.301
N10795 X31.007 Y-10.155
N10800 X31.03 Y-10.007
N10805 X31.044 Y-9.858
N10810 X31.047 Y-9.708
N10815 X31.041 Y-9.558
N10820 X31.026 Y-9.409
N10825 X31. Y-9.261
N10830 X30.966 Y-9.115
N10835 X30.923 Y-8.971
N10840 X30.87 Y-8.831
N10845 X30.808 Y-8.694
N10850 X30.738 Y-8.561
N10855 X30.659 Y-8.434
N10860 X30.573 Y-8.311
N10865 X30.479 Y-8.194
N10870 X30.378 Y-8.083
N10875 X30.27 Y-7.979
N10880 X30.156 Y-7.882
N10885 X30.035 Y-7.792
N10890 X29.91 Y-7.711
N10895 X29.779 Y-7.637
N10900 X29.644 Y-7.571
N10905 X29.565 Y-7.539
N10910 X29.499 Y-7.516
N10915 X29.431 Y-7.503
N10920 X29.362 Y-7.498
N10925 X28.781 Y-7.499
N10930 X28.755 Y-7.502
N10935 X27.949 Y-7.644
N10940 X27.913 Y-7.655
N10945 X27.882 Y-7.672
N10950 X27.266 Y-8.027
N10955 X27.242 Y-8.043
N10960 X27.218 Y-8.066
N10965 X27.13 Y-8.169
N10970 X26.752 Y-8.62
N10975 X26.728 Y-8.651
N10980 X26.712 Y-8.683
N10985 X26.46 Y-9.377
N10990 X26.453 Y-9.402
N10995 X26.451 Y-9.505
N11000 Y-10.173
N11005 X26.454 Y-10.199
N11010 X26.461 Y-10.224
N11015 X26.714 Y-10.918
N11020 X26.719 Y-10.931
N11025 X26.726 Y-10.944
N11030 X26.752 Y-10.977
N11035 X27.202 Y-11.514
N11040 X27.228 Y-11.541
N11045 X27.266 Y-11.569
N11050 X27.882 Y-11.925
N11055 X27.908 Y-11.939
N11060 X27.933 Y-11.948
N11065 X27.985 Y-11.959
N11070 X28.755 Y-12.095
N11075 X28.781 Y-12.098
N11080 X29.479 Y-12.099
N11085 X29.629 Y-12.091
N11090 X29.777 Y-12.065
N11095 X29.92 Y-12.022
N11100 X30.059 Y-11.965
N11105 X30.192 Y-11.895
N11110 X30.319 Y-11.816
N11115 X30.441 Y-11.728
N11120 X30.556 Y-11.631
N11125 X30.664 Y-11.527
N11130 X30.765 Y-11.417
N11135 X30.86 Y-11.3
N11140 X30.947 Y-11.178
N11145 X31.026 Y-11.051
N11150 X31.098 Y-10.92
N11155 X31.163 Y-10.784
N11160 X31.219 Y-10.645
N11165 X31.268 Y-10.503
N11170 X31.308 Y-10.359
N11175 X31.34 Y-10.212
N11180 X31.363 Y-10.064
N11185 X31.378 Y-9.914
N11190 X31.385 Y-9.763
N11195 X31.383 Y-9.611
N11200 X31.373 Y-9.46
N11205 X31.354 Y-9.311
N11210 X31.327 Y-9.164
N11215 X31.291 Y-9.018
N11220 X31.247 Y-8.874
N11225 X31.195 Y-8.731
N11230 X31.135 Y-8.591
N11235 X31.066 Y-8.453
N11240 X30.989 Y-8.32
N11245 X30.907 Y-8.193
N11250 X30.818 Y-8.072
N11255 X30.722 Y-7.955
N11260 X30.619 Y-7.844
N11265 X30.509 Y-7.737
N11270 X30.392 Y-7.637
N11275 X30.356 Y-7.609
N11280 X30.257 Y-7.549
N11285 X30.147 Y-7.511
N11290 X30.031 Y-7.498
N11295 X29.362
N11300 X29.313 Y-7.508 Z-0.96
N11305 X29.269 Y-7.532 Z-0.92
N11310 X29.235 Y-7.568 Z-0.881
N11315 X29.214 Y-7.613 Z-0.841
N11320 X29.207 Y-7.663 Z-0.801
N11325 Y-7.664 Z-0.8
N11330 X29.22 Y-8.128
N11335 X29.312 Y-11.469
N11340 X29.325 Y-11.933
N11345 Y-11.943 Z-0.808
N11350 X29.333 Y-11.99 Z-0.846
N11355 X29.356 Y-12.033 Z-0.885
N11360 X29.389 Y-12.067 Z-0.923
N11365 X29.432 Y-12.09 Z-0.962
N11370 X29.479 Y-12.099 Z-1.
N11375 X30.07
N11380 X30.22 Y-12.091
N11385 X30.366 Y-12.055
N11390 X30.504 Y-11.998
N11395 X30.636 Y-11.925
N11400 X30.759 Y-11.84
N11405 X30.875 Y-11.745
N11410 X30.984 Y-11.642
N11415 X31.085 Y-11.531
N11420 X31.179 Y-11.414
N11425 X31.266 Y-11.292
N11430 X31.345 Y-11.165
N11435 X31.418 Y-11.032
N11440 X31.484 Y-10.893
N11445 X31.544 Y-10.747
N11450 X31.596 Y-10.596
N11455 X31.641 Y-10.439
N11460 X31.676 Y-10.279
N11465 X31.703 Y-10.115
N11470 X31.721 Y-9.949
N11475 X31.73 Y-9.781
N11480 X31.729 Y-9.613
N11485 X31.719 Y-9.446
N11490 X31.699 Y-9.278
N11495 X31.669 Y-9.111
N11500 X31.63 Y-8.946
N11505 X31.582 Y-8.782
N11510 X31.524 Y-8.62
N11515 X31.457 Y-8.463
N11520 X31.382 Y-8.309
N11525 X31.298 Y-8.16
N11530 X31.206 Y-8.016
N11535 X31.106 Y-7.877
N11540 X30.998 Y-7.745
N11545 X30.933 Y-7.673
N11550 X30.82 Y-7.579
N11555 X30.685 Y-7.519
N11560 X30.538 Y-7.498
N11565 X30.031
N11570 X29.983 Y-7.508 Z-0.961
N11575 X29.94 Y-7.531 Z-0.921
N11580 X29.905 Y-7.567 Z-0.882
N11585 X29.884 Y-7.611 Z-0.843
N11590 X29.877 Y-7.66 Z-0.803
N11595 Y-7.664 Z-0.8
N11600 X29.881 Y-8.128
N11605 X29.911 Y-11.469
N11610 X29.916 Y-11.933
N11615 Y-11.94 Z-0.806
N11620 X29.924 Y-11.988 Z-0.844
N11625 X29.945 Y-12.032 Z-0.883
N11630 X29.979 Y-12.066 Z-0.922
N11635 X30.022 Y-12.089 Z-0.961
N11640 X30.07 Y-12.099 Z-1.
N11645 X30.553
N11650 X30.703 Y-12.091
N11655 X30.846 Y-12.048
N11660 X30.981 Y-11.982
N11665 X31.107 Y-11.901
N11670 X31.225 Y-11.808
N11675 X31.334 Y-11.705
N11680 X31.434 Y-11.594
N11685 X31.527 Y-11.476
N11690 X31.613 Y-11.352
N11695 X31.691 Y-11.223
N11700 X31.765 Y-11.084
N11705 X31.833 Y-10.937
N11710 X31.894 Y-10.784
N11715 X31.947 Y-10.623
N11720 X31.993 Y-10.455
N11725 X32.029 Y-10.281
N11730 X32.056 Y-10.103
N11735 X32.074 Y-9.922
N11740 X32.081 Y-9.738
N11745 X32.078 Y-9.553
N11750 X32.064 Y-9.367
N11755 X32.039 Y-9.181
N11760 X32.005 Y-8.995
N11765 X31.959 Y-8.812
N11770 X31.903 Y-8.63
N11775 X31.837 Y-8.452
N11780 X31.761 Y-8.278
N11785 X31.675 Y-8.108
N11790 X31.579 Y-7.943
N11795 X31.497 Y-7.818
N11800 X31.407 Y-7.697
N11805 X31.397 Y-7.685
N11810 X31.282 Y-7.584
N11815 X31.143 Y-7.52
N11820 X30.991 Y-7.498
N11825 X30.538
N11830 X30.49 Y-7.508 Z-0.961
N11835 X30.447 Y-7.531 Z-0.922
N11840 X30.413 Y-7.566 Z-0.882
N11845 X30.391 Y-7.61 Z-0.843
N11850 X30.384 Y-7.659 Z-0.804
N11855 Y-7.664 Z-0.8
N11860 X30.386 Y-8.128
N11865 X30.397 Y-11.469
N11870 X30.398 Y-11.933
N11875 Y-11.939 Z-0.805
N11880 X30.406 Y-11.987 Z-0.844
N11885 X30.428 Y-12.031 Z-0.883
N11890 X30.462 Y-12.066 Z-0.922
N11895 X30.505 Y-12.089 Z-0.961
N11900 X30.553 Y-12.099 Z-1.
N11905 X30.964
N11910 X31.113 Y-12.091
N11915 X31.257 Y-12.049
N11920 X31.392 Y-11.982
N11925 X31.516 Y-11.898
N11930 X31.63 Y-11.801
N11935 X31.736 Y-11.694
N11940 X31.833 Y-11.58
N11945 X31.922 Y-11.459
N11950 X32.003 Y-11.333
N11955 X32.078 Y-11.199
N11960 X32.149 Y-11.053
N11965 X32.215 Y-10.896
N11970 X32.274 Y-10.729
N11975 X32.326 Y-10.554
N11980 X32.368 Y-10.374
N11985 X32.4 Y-10.188
N11990 X32.422 Y-9.995
N11995 X32.434 Y-9.798
N12000 X32.435 Y-9.598
N12005 X32.424 Y-9.395
N12010 X32.402 Y-9.192
N12015 X32.368 Y-8.988
N12020 X32.322 Y-8.786
N12025 X32.265 Y-8.586
N12030 X32.197 Y-8.388
N12035 X32.117 Y-8.194
N12040 X32.033 Y-8.019
N12045 X31.96 Y-7.888
N12050 X31.88 Y-7.761
N12055 X31.846 Y-7.714
N12060 X31.728 Y-7.598
N12065 X31.581 Y-7.524
N12070 X31.417 Y-7.498
N12075 X30.991
N12080 X30.944 Y-7.508 Z-0.961
N12085 X30.901 Y-7.531 Z-0.922
N12090 X30.867 Y-7.566 Z-0.883
N12095 X30.845 Y-7.609 Z-0.844
N12100 X30.837 Y-7.657 Z-0.805
N12105 Y-7.664 Z-0.8
N12110 X30.834 Y-8.128
N12115 X30.812 Y-11.469
N12120 X30.809 Y-11.933
N12125 Y-11.938 Z-0.804
N12130 X30.816 Y-11.986 Z-0.843
N12135 X30.838 Y-12.03 Z-0.882
N12140 X30.872 Y-12.066 Z-0.921
N12145 X30.915 Y-12.089 Z-0.961
N12150 X30.964 Y-12.099 Z-1.
N12155 X31.374
N12160 X31.524 Y-12.091
N12165 X31.667 Y-12.044
N12170 X31.799 Y-11.973
N12175 X31.921 Y-11.885
N12180 X32.032 Y-11.785
N12185 X32.134 Y-11.675
N12190 X32.228 Y-11.558
N12195 X32.312 Y-11.434
N12200 X32.389 Y-11.305
N12205 X32.463 Y-11.163
N12210 X32.534 Y-11.009
N12215 X32.597 Y-10.844
N12220 X32.653 Y-10.672
N12225 X32.701 Y-10.489
N12230 X32.74 Y-10.296
N12235 X32.769 Y-10.095
N12240 X32.787 Y-9.886
N12245 X32.794 Y-9.672
N12250 X32.788 Y-9.455
N12255 X32.77 Y-9.235
N12260 X32.739 Y-9.015
N12265 X32.696 Y-8.794
N12270 X32.64 Y-8.575
N12275 X32.573 Y-8.363
N12280 X32.499 Y-8.169
N12285 X32.426 Y-8.005
N12290 X32.357 Y-7.872
N12295 X32.313 Y-7.8
N12300 X32.217 Y-7.685
N12305 X32.093 Y-7.601
N12310 X31.951 Y-7.554
N12315 X31.901 Y-7.555 Z-0.96
N12320 X31.854 Y-7.572 Z-0.92
N12325 X31.814 Y-7.602 Z-0.88
N12330 X31.785 Y-7.643 Z-0.84
N12335 X31.771 Y-7.691 Z-0.8
N12340 X31.77 Y-7.692
N12345 X31.711 Y-8.151
N12350 X31.279 Y-11.473
N12355 X31.221 Y-11.918
N12360 X31.22 Y-11.933
N12365 X31.226 Y-11.983 Z-0.84
N12370 X31.247 Y-12.028 Z-0.88
N12375 X31.282 Y-12.065 Z-0.92
N12380 X31.325 Y-12.089 Z-0.96
N12385 X31.374 Y-12.099 Z-1.
N12390 X31.631 Y-12.098
N12395 X31.683 Y-12.09
N12400 X31.888 Y-12.054
N12405 X32.034 Y-12.02
N12410 X32.17 Y-11.956
N12415 X32.293 Y-11.871
N12420 X32.406 Y-11.772
N12425 X32.508 Y-11.662
N12430 X32.601 Y-11.544
N12435 X32.685 Y-11.42
N12440 X32.761 Y-11.29
N12445 X32.833 Y-11.149
N12450 X32.898 Y-11.001
N12455 X32.96 Y-10.837
N12460 X33.016 Y-10.657
N12465 X33.064 Y-10.465
N12470 X33.104 Y-10.26
N12475 X33.133 Y-10.047
N12480 X33.15 Y-9.826
N12485 X33.155 Y-9.6
N12490 X33.147 Y-9.371
N12495 X33.125 Y-9.137
N12500 X33.09 Y-8.901
N12505 X33.042 Y-8.666
N12510 X32.982 Y-8.44
N12515 X32.916 Y-8.24
N12520 X32.858 Y-8.092
N12525 X32.796 Y-7.956
N12530 X32.767 Y-7.902
N12535 X32.712 Y-7.82
N12540 X32.644 Y-7.75
N12545 X32.564 Y-7.694
N12550 X32.516 Y-7.677 Z-0.96
N12555 X32.466 Z-0.92
N12560 X32.418 Y-7.691 Z-0.88
N12565 X32.378 Y-7.72 Z-0.84
N12570 X32.347 Y-7.76 Z-0.8
N12575 X32.337 Y-7.785
N12580 X32.331 Y-7.811
N12585 X32.268 Y-8.217
N12590 X31.771 Y-11.458
N12595 X31.708 Y-11.871
N12600 X31.707 Y-11.918
N12605 X31.722 Y-11.965 Z-0.84
N12610 X31.751 Y-12.006 Z-0.88
N12615 X31.791 Y-12.036 Z-0.92
N12620 X31.838 Y-12.053 Z-0.96
N12625 X31.888 Y-12.054 Z-1.
N12630 X32.299 Y-11.981
N12635 X32.445 Y-11.948
N12640 X32.582 Y-11.885
N12645 X32.705 Y-11.8
N12650 X32.816 Y-11.698
N12655 X32.915 Y-11.587
N12660 X33.005 Y-11.466
N12665 X33.086 Y-11.34
N12670 X33.158 Y-11.209
N12675 X33.227 Y-11.065
N12680 X33.292 Y-10.903
N12685 X33.35 Y-10.734
N12690 X33.402 Y-10.55
N12695 X33.446 Y-10.349
N12700 X33.481 Y-10.134
N12705 X33.505 Y-9.909
N12710 X33.516 Y-9.674
N12715 X33.514 Y-9.432
N12720 X33.498 Y-9.185
N12725 X33.468 Y-8.937
N12730 X33.425 Y-8.697
N12735 X33.373 Y-8.478
N12740 X33.315 Y-8.284
N12745 X33.303 Y-8.251
N12750 X33.278 Y-8.193
N12755 X33.246 Y-8.138
N12760 X33.208 Y-8.087
N12765 X33.169 Y-8.056 Z-0.96
N12770 X33.122 Y-8.038 Z-0.92
N12775 X33.072 Y-8.036 Z-0.88
N12780 X33.024 Y-8.049 Z-0.84
N12785 X32.982 Y-8.076 Z-0.8
N12790 X32.952 Y-8.114
N12795 X32.934 Y-8.16
N12800 X32.854 Y-8.517
N12805 X32.21 Y-11.391
N12810 X32.121 Y-11.788
N12815 X32.117 Y-11.816
N12820 X32.118 Y-11.845
N12825 X32.133 Y-11.893 Z-0.84
N12830 X32.162 Y-11.934 Z-0.88
N12835 X32.202 Y-11.964 Z-0.92
N12840 X32.249 Y-11.98 Z-0.96
N12845 X32.299 Y-11.981 Z-1.
N12850 X32.453 Y-11.954
N12855 X32.479 Y-11.947
N12860 X32.504 Y-11.937
N12865 X33.075 Y-11.608
N12870 X33.1 Y-11.594
N12875 X33.121 Y-11.582
N12880 X33.174 Y-11.546
N12885 X33.204 Y-11.512 Z-0.964
N12890 X33.223 Y-11.471 Z-0.927
N12895 X33.23 Y-11.426 Z-0.891
N12900 Y-11.425 Z-0.89
N12905 X33.226 Y-11.387 Z-0.86
N12910 X33.213 Y-11.352 Z-0.83
N12915 X33.192 Y-11.321 Z-0.8
N12920 X33.157 Y-11.291
N12925 X33.116 Y-11.272
N12930 X33.071 Y-11.265
N12935 X33.026 Y-11.271
N12940 X32.984 Y-11.29
N12945 X32.96 Y-11.305
N12950 X32.924 Y-11.337
N12955 X32.899 Y-11.377
N12960 X32.887 Y-11.423
N12965 X32.889 Y-11.471
N12970 X32.904 Y-11.516
N12975 X32.935 Y-11.556 Z-0.84
N12980 X32.976 Y-11.584 Z-0.88
N12985 X33.023 Y-11.599 Z-0.92
N12990 X33.073 Y-11.598 Z-0.96
N12995 X33.121 Y-11.582 Z-1.
N13000 X33.156 Y-11.561
N13005 X33.175 Y-11.545
N13010 X33.194 Y-11.526
N13015 X33.326 Y-11.37
N13020 X33.417 Y-11.25
N13025 X33.5 Y-11.126
N13030 X33.573 Y-10.994
N13035 X33.635 Y-10.858
N13040 X33.69 Y-10.715
N13045 X33.741 Y-10.553
N13050 X33.785 Y-10.384
N13055 X33.823 Y-10.191
N13060 X33.853 Y-9.979
N13065 X33.872 Y-9.75
N13070 X33.878 Y-9.51
N13075 X33.871 Y-9.265
N13080 X33.865 Y-9.204
N13085 X33.859 Y-9.158
N13090 X33.849 Y-9.113
N13095 X33.835 Y-9.068
N13100 X33.81 Y-9.025 Z-0.96
N13105 X33.772 Y-8.992 Z-0.92
N13110 X33.726 Y-8.973 Z-0.88
N13115 X33.676 Y-8.968 Z-0.84
N13120 X33.627 Y-8.98 Z-0.8
N13125 X33.593 Y-8.998
N13130 X33.565 Y-9.024
N13135 X33.544 Y-9.057
N13140 X33.531 Y-9.093
N13145 X33.463 Y-9.395
N13150 X33.116 Y-10.94
N13155 X33.051 Y-11.228
N13160 X33.048 Y-11.27
N13165 X33.055 Y-11.311
N13170 X33.073 Y-11.349
N13175 X33.1 Y-11.382
N13180 X33.142 Y-11.409 Z-0.84
N13185 X33.191 Y-11.422 Z-0.88
N13190 X33.241 Y-11.419 Z-0.92
N13195 X33.287 Y-11.401 Z-0.96
N13200 X33.326 Y-11.37 Z-1.
N13205 X33.634 Y-11.002
N13210 X33.681 Y-10.944
N13215 X33.688 Y-10.931
N13220 X33.694 Y-10.918
N13225 X33.946 Y-10.224
N13230 X33.953 Y-10.199
N13235 X33.956 Y-10.173
N13240 X33.957 Y-9.505
N13245 X33.954 Y-9.402
N13250 X33.95 Y-9.382
N13255 X33.695 Y-8.683
N13260 X33.685 Y-8.661
N13265 X33.67 Y-8.639
N13270 X33.622 Y-8.58
N13275 X33.191 Y-8.066
N13280 X33.173 Y-8.049
N13285 X33.156 Y-8.036
N13290 X32.504 Y-7.66
N13295 X32.495 Y-7.655
N13300 X32.471 Y-7.647
N13305 X32.402 Y-7.634
N13310 X31.683 Y-7.507
N13315 X31.631 Y-7.499
N13320 X31.417 Y-7.498
N13325 G3 X31.429 Y-7.818 I0.006 J-0.16
N13330 X31.538 Y-7.77 I-0.006 J0.16
N13335 G1 X31.554 Y-7.733 Z-0.994
N13340 X31.569 Y-7.699 Z-0.979
N13345 X31.583 Y-7.67 Z-0.955
N13350 Y-7.658 Z-0.942
N13355 X31.581 Y-7.638 Z-0.911
N13360 X31.579 Y-7.626 Z-0.877
N13365 Y-7.622 Z-0.84
N13370 Z5.
N13375 X32.49 Y-71.917
N13380 Z2.66
N13385 Z2.5
N13390 Z-1. F25.
N13395 X32.483 Y-71.953 F70.
N13400 X32.52 Y-71.948
N13405 X32.537 Y-71.915
N13410 X32.521 Y-71.88
N13415 X32.486 Y-71.868
N13420 X32.453 Y-71.886
N13425 X32.432 Y-71.917
N13430 X32.43 Y-71.955
N13435 X32.451 Y-71.986
N13440 X32.483 Y-72.004
N13445 X32.521 Y-72.005
N13450 X32.555 Y-71.99
N13455 X32.581 Y-71.963
N13460 X32.594 Y-71.928
N13465 Y-71.89
N13470 X32.58 Y-71.855
N13475 X32.555 Y-71.827
N13480 X32.521 Y-71.811
N13485 X32.484 Y-71.805
N13490 X32.447 Y-71.811
N13495 X32.413 Y-71.827
N13500 X32.386 Y-71.853
N13505 X32.365 Y-71.884
N13510 X32.356 Y-71.92
N13515 X32.355 Y-71.958
N13520 X32.365 Y-71.994
N13525 X32.402 Y-72.059
N13530 X32.466 Y-72.098
N13535 X32.541 Y-72.104
N13540 X32.612 Y-72.079
N13545 X32.668 Y-72.028
N13550 X32.701 Y-71.961
N13555 X32.708 Y-71.887
N13560 X32.689 Y-71.814
N13565 X32.646 Y-71.752
N13570 X32.586 Y-71.708
N13575 X32.514 Y-71.685
N13580 X32.439
N13585 X32.368 Y-71.708
N13590 X32.306 Y-71.75
N13595 X32.259 Y-71.808
N13600 X32.23 Y-71.878
N13605 X32.22 Y-71.952
N13610 X32.229 Y-72.026
N13615 X32.257 Y-72.096
N13620 X32.303 Y-72.156
N13625 X32.419 Y-72.25
N13630 X32.567 Y-72.274
N13635 X32.711 Y-72.229
N13640 X32.823 Y-72.129
N13645 X32.886 Y-71.993
N13650 X32.894 Y-71.843
N13655 X32.846 Y-71.701
N13660 X32.752 Y-71.585
N13665 X32.622 Y-71.509
N13670 X32.475 Y-71.482
N13675 X32.326 Y-71.506
N13680 X32.195 Y-71.578
N13685 X32.093 Y-71.688
N13690 X32.03 Y-71.824
N13695 X32.011 Y-71.973
N13700 X32.038 Y-72.12
N13705 X32.103 Y-72.255
N13710 X32.204 Y-72.366
N13715 X32.331 Y-72.446
N13720 X32.476 Y-72.484
N13725 X32.626
N13730 X32.771 Y-72.443
N13735 X32.898 Y-72.364
N13740 X33.004 Y-72.258
N13745 X33.078 Y-72.127
N13750 X33.117 Y-71.982
N13755 X33.122 Y-71.832
N13760 X33.09 Y-71.686
N13765 X33.024 Y-71.551
N13770 X32.93 Y-71.434
N13775 X32.811 Y-71.343
N13780 X32.674 Y-71.281
N13785 X32.527 Y-71.25
N13790 X32.378 Y-71.254
N13795 X32.232 Y-71.29
N13800 X32.097 Y-71.356
N13805 X31.981 Y-71.45
N13810 X31.886 Y-71.567
N13815 X31.817 Y-71.7
N13820 X31.778 Y-71.845
N13825 X31.77 Y-71.995
N13830 X31.789 Y-72.143
N13835 X31.837 Y-72.285
N13840 X31.914 Y-72.414
N13845 X32.012 Y-72.528
N13850 X32.131 Y-72.619
N13855 X32.265 Y-72.686
N13860 X32.409 Y-72.727
N13865 X32.559 Y-72.74
N13870 X32.708 Y-72.724
N13875 X32.852 Y-72.681
N13880 X32.986 Y-72.614
N13885 X33.105 Y-72.523
N13890 X33.206 Y-72.411
N13895 X33.286 Y-72.285
N13900 X33.344 Y-72.146
N13905 X33.375 Y-71.999
N13910 X33.381 Y-71.85
N13915 X33.363 Y-71.701
N13920 X33.319 Y-71.557
N13925 X33.251 Y-71.423
N13930 X33.163 Y-71.302
N13935 X33.057 Y-71.197
N13940 X32.933 Y-71.111
N13945 X32.798 Y-71.046
N13950 X32.654 Y-71.003
N13955 X32.506 Y-70.984
N13960 X32.356 Y-70.99
N13965 X32.209 Y-71.019
N13970 X32.068 Y-71.07
N13975 X31.937 Y-71.143
N13980 X31.819 Y-71.236
N13985 X31.716 Y-71.345
N13990 X31.631 Y-71.469
N13995 X31.567 Y-71.604
N14000 X31.523 Y-71.748
N14005 X31.5 Y-71.896
N14010 X31.499 Y-72.046
N14015 X31.522 Y-72.194
N14020 X31.565 Y-72.338
N14025 X31.628 Y-72.474
N14030 X31.709 Y-72.6
N14035 X31.809 Y-72.712
N14040 X31.924 Y-72.809
N14045 X32.05 Y-72.889
N14050 X32.187 Y-72.951
N14055 X32.331 Y-72.992
N14060 X32.48 Y-73.012
N14065 X32.63 Y-73.013
N14070 X32.778 Y-72.992
N14075 X32.923 Y-72.951
N14080 X33.06 Y-72.891
N14085 X33.188 Y-72.813
N14090 X33.304 Y-72.718
N14095 X33.407 Y-72.608
N14100 X33.494 Y-72.486
N14105 X33.564 Y-72.354
N14110 X33.617 Y-72.213
N14115 X33.65 Y-72.067
N14120 X33.663 Y-71.917
N14125 X33.658 Y-71.767
N14130 X33.634 Y-71.619
N14135 X33.591 Y-71.476
N14140 X33.529 Y-71.339
N14145 X33.452 Y-71.211
N14150 X33.359 Y-71.093
N14155 X33.251 Y-70.988
N14160 X33.131 Y-70.898
N14165 X33.001 Y-70.824
N14170 X32.863 Y-70.765
N14175 X32.719 Y-70.724
N14180 X32.57 Y-70.702
N14185 X32.42 Y-70.698
N14190 X32.271 Y-70.712
N14195 X32.124 Y-70.743
N14200 X31.983 Y-70.793
N14205 X31.849 Y-70.86
N14210 X31.723 Y-70.942
N14215 X31.607 Y-71.037
N14220 X31.504 Y-71.146
N14225 X31.416 Y-71.267
N14230 X31.341 Y-71.398
N14235 X31.282 Y-71.535
N14240 X31.239 Y-71.679
N14245 X31.214 Y-71.827
N14250 X31.206 Y-71.977
N14255 X31.215 Y-72.127
N14260 X31.24 Y-72.274
N14265 X31.281 Y-72.418
N14270 X31.34 Y-72.557
N14275 X31.414 Y-72.687
N14280 X31.501 Y-72.809
N14285 X31.602 Y-72.921
N14290 X31.714 Y-73.02
N14295 X31.837 Y-73.106
N14300 X31.969 Y-73.178
N14305 X32.107 Y-73.235
N14310 X32.251 Y-73.277
N14315 X32.399 Y-73.302
N14320 X32.549 Y-73.311
N14325 X32.699 Y-73.303
N14330 X32.847 Y-73.28
N14335 X32.992 Y-73.241
N14340 X33.131 Y-73.186
N14345 X33.264 Y-73.117
N14350 X33.389 Y-73.034
N14355 X33.505 Y-72.938
N14360 X33.609 Y-72.831
N14365 X33.702 Y-72.713
N14370 X33.781 Y-72.585
N14375 X33.848 Y-72.451
N14380 X33.9 Y-72.31
N14385 X33.937 Y-72.165
N14390 X33.958 Y-72.016
N14395 X33.964 Y-71.866
N14400 X33.955 Y-71.717
N14405 X33.931 Y-71.569
N14410 X33.892 Y-71.424
N14415 X33.838 Y-71.284
N14420 X33.77 Y-71.15
N14425 X33.689 Y-71.024
N14430 X33.596 Y-70.906
N14435 X33.492 Y-70.798
N14440 X33.377 Y-70.702
N14445 X33.253 Y-70.617
N14450 X33.122 Y-70.545
N14455 X32.984 Y-70.486
N14460 X32.84 Y-70.442
N14465 X32.693 Y-70.412
N14470 X32.544 Y-70.396
N14475 X32.394 Y-70.395
N14480 X32.245 Y-70.408
N14485 X32.097 Y-70.436
N14490 X31.954 Y-70.479
N14495 X31.815 Y-70.535
N14500 X31.681 Y-70.604
N14505 X31.555 Y-70.685
N14510 X31.438 Y-70.779
N14515 X31.33 Y-70.883
N14520 X31.233 Y-70.997
N14525 X31.147 Y-71.12
N14530 X31.072 Y-71.25
N14535 X31.01 Y-71.387
N14540 X30.962 Y-71.529
N14545 X30.927 Y-71.675
N14550 X30.906 Y-71.823
N14555 X30.898 Y-71.973
N14560 X30.904 Y-72.123
N14565 X30.924 Y-72.271
N14570 X30.958 Y-72.418
N14575 X31.006 Y-72.56
N14580 X31.066 Y-72.697
N14585 X31.138 Y-72.829
N14590 X31.222 Y-72.953
N14595 X31.317 Y-73.069
N14600 X31.422 Y-73.176
N14605 X31.536 Y-73.273
N14610 X31.659 Y-73.36
N14615 X31.789 Y-73.435
N14620 X31.925 Y-73.498
N14625 X32.066 Y-73.548
N14630 X32.212 Y-73.585
N14635 X32.36 Y-73.609
N14640 X32.509 Y-73.621
N14645 X32.602 Y-73.62
N14650 X32.634 Y-73.618
N14655 X32.666 Y-73.615
N14660 X32.698 Y-73.609
N14665 X32.915 Y-73.566
N14670 X32.946 Y-73.56
N14675 X32.986 Y-73.552
N14680 X33.131 Y-73.516
N14685 X33.182 Y-73.494
N14690 X33.215 Y-73.477
N14695 X33.246 Y-73.457
N14700 X33.282 Y-73.422 Z-0.96
N14705 X33.305 Y-73.378 Z-0.92
N14710 X33.313 Y-73.328 Z-0.88
N14715 X33.305 Y-73.279 Z-0.84
N14720 X33.283 Y-73.234 Z-0.8
N14725 X33.255 Y-73.204
N14730 X33.22 Y-73.182
N14735 X33.181 Y-73.17
N14740 X33.14 Y-73.168
N14745 X33.1 Y-73.176
N14750 X32.908 Y-73.243
N14755 X32.868 Y-73.264
N14760 X32.835 Y-73.294
N14765 X32.813 Y-73.332
N14770 X32.801 Y-73.376
N14775 X32.802 Y-73.42
N14780 X32.818 Y-73.468 Z-0.84
N14785 X32.848 Y-73.508 Z-0.88
N14790 X32.888 Y-73.537 Z-0.92
N14795 X32.936 Y-73.553 Z-0.96
N14800 X32.986 Y-73.552 Z-1.
N14805 X33.121 Y-73.525
N14810 X33.146 Y-73.518
N14815 X33.159 Y-73.513
N14820 X33.172 Y-73.506
N14825 X33.532 Y-73.267
N14830 X33.589 Y-73.228
N14835 X33.614 Y-73.211
N14840 X33.653 Y-73.183
N14845 X33.7 Y-73.144
N14850 X33.741 Y-73.1
N14855 X33.778 Y-73.051
N14860 X33.798 Y-73.005 Z-0.96
N14865 X33.802 Y-72.955 Z-0.92
N14870 X33.79 Y-72.906 Z-0.88
N14875 X33.764 Y-72.864 Z-0.84
N14880 X33.726 Y-72.831 Z-0.8
N14885 X33.688 Y-72.814
N14890 X33.646 Y-72.807
N14895 X33.604 Y-72.811
N14900 X33.565 Y-72.827
N14905 X33.531 Y-72.852
N14910 X33.419 Y-72.96
N14915 X33.392 Y-72.995
N14920 X33.375 Y-73.034
N14925 X33.37 Y-73.077
N14930 X33.376 Y-73.12
N14935 X33.394 Y-73.16
N14940 X33.427 Y-73.198 Z-0.84
N14945 X33.469 Y-73.224 Z-0.88
N14950 X33.518 Y-73.235 Z-0.92
N14955 X33.568 Y-73.231 Z-0.96
N14960 X33.614 Y-73.211 Z-1.
N14965 X33.681 Y-73.167
N14970 X33.704 Y-73.149
N14975 X33.727 Y-73.125
N14980 X33.737 Y-73.112
N14985 X34.003 Y-72.714
N14990 X34.072 Y-72.611
N14995 X34.08 Y-72.599
N15000 X34.086 Y-72.586
N15005 X34.095 Y-72.56
N15010 X34.107 Y-72.509
N15015 X34.219 Y-71.943
N15020 X34.221 Y-71.918
N15025 X34.219 Y-71.892
N15030 X34.138 Y-71.481
N15035 X34.118 Y-71.378
N15040 X34.096 Y-71.275
N15045 X34.087 Y-71.252
N15050 X34.076 Y-71.229
N15055 X33.737 Y-70.721
N15060 X33.722 Y-70.702
N15065 X33.703 Y-70.683
N15070 X33.67 Y-70.659
N15075 X33.208 Y-70.35
N15080 X33.164 Y-70.324
N15085 X33.143 Y-70.314
N15090 X33.121 Y-70.308
N15095 X32.607 Y-70.205
N15100 X32.504 Y-70.187
N15105 X32.479
N15110 X32.453 Y-70.19
N15115 X31.862 Y-70.307
N15120 X31.837 Y-70.315
N15125 X31.811 Y-70.327
N15130 X31.785 Y-70.342
N15135 X31.292 Y-70.672
N15140 X31.272 Y-70.689
N15145 X31.241 Y-70.725
N15150 X30.908 Y-71.224
N15155 X30.9 Y-71.237
N15160 X30.894 Y-71.25
N15165 X30.884 Y-71.275
N15170 X30.822 Y-71.584
N15175 X30.762 Y-71.892
N15180 X30.76 Y-71.918
N15185 X30.762 Y-71.943
N15190 X30.885 Y-72.56
N15195 X30.894 Y-72.586
N15200 X30.909 Y-72.611
N15205 X31.184 Y-73.023
N15210 X31.254 Y-73.125
N15215 X31.272 Y-73.144
N15220 X31.285 Y-73.156
N15225 X31.297 Y-73.165
N15230 X31.785 Y-73.491
N15235 X31.811 Y-73.507
N15240 X31.837 Y-73.518
N15245 X31.888 Y-73.531
N15250 X32.432 Y-73.639
N15255 X32.468 Y-73.646
N15260 X32.504
N15265 X32.549 Y-73.639
N15270 X32.698 Y-73.609
N15275 G3 X32.625 Y-73.298 I-0.037 J0.156
N15280 X32.527 Y-73.367 I0.037 J-0.156
N15285 G1 X32.514 Y-73.412 Z-0.992
N15290 X32.502 Y-73.454 Z-0.971
N15295 X32.508 Y-73.481 Z-0.946
N15300 X32.512 Y-73.503 Z-0.914
N15305 X32.515 Y-73.516 Z-0.878
N15310 X32.516 Y-73.52 Z-0.84
N15315 Z5.
N15320 X48.522 Y-53.582
N15325 Z2.66
N15330 Z2.5
N15335 Z-1.
N15340 X48.56
N15345 X48.548 Y-53.546
N15350 X48.511 Y-53.537
N15355 X48.481 Y-53.558
N15360 X48.476 Y-53.596
N15365 X48.5 Y-53.625
N15370 X48.535 Y-53.639
N15375 X48.572 Y-53.633
N15380 X48.598 Y-53.607
N15385 X48.609 Y-53.571
N15390 X48.602 Y-53.534
N15395 X48.581 Y-53.503
N15400 X48.549 Y-53.484
N15405 X48.512 Y-53.478
N15410 X48.475 Y-53.486
N15415 X48.444 Y-53.507
N15420 X48.422 Y-53.537
N15425 X48.412 Y-53.573
N15430 X48.414 Y-53.61
N15435 X48.428 Y-53.645
N15440 X48.451 Y-53.675
N15445 X48.481 Y-53.697
N15450 X48.516 Y-53.711
N15455 X48.554 Y-53.713
N15460 X48.59 Y-53.705
N15465 X48.624 Y-53.689
N15470 X48.68 Y-53.639
N15475 X48.704 Y-53.568
N15480 X48.695 Y-53.494
N15485 X48.656 Y-53.43
N15490 X48.595 Y-53.385
N15495 X48.523 Y-53.367
N15500 X48.448 Y-53.375
N15505 X48.381 Y-53.408
N15510 X48.33 Y-53.463
N15515 X48.299 Y-53.531
N15520 X48.291 Y-53.606
N15525 X48.307 Y-53.679
N15530 X48.343 Y-53.745
N15535 X48.397 Y-53.797
N15540 X48.464 Y-53.831
N15545 X48.538 Y-53.845
N15550 X48.613 Y-53.839
N15555 X48.684 Y-53.815
N15560 X48.746 Y-53.773
N15565 X48.795 Y-53.716
N15570 X48.863 Y-53.583
N15575 X48.856 Y-53.433
N15580 X48.783 Y-53.302
N15585 X48.662 Y-53.213
N15590 X48.516 Y-53.179
N15595 X48.368 Y-53.202
N15600 X48.238 Y-53.278
N15605 X48.144 Y-53.395
N15610 X48.097 Y-53.537
N15615 X48.1 Y-53.687
N15620 X48.154 Y-53.827
N15625 X48.252 Y-53.941
N15630 X48.381 Y-54.018
N15635 X48.527 Y-54.051
N15640 X48.676 Y-54.039
N15645 X48.815 Y-53.982
N15650 X48.934 Y-53.891
N15655 X49.021 Y-53.769
N15660 X49.073 Y-53.628
N15665 X49.08 Y-53.478
N15670 X49.049 Y-53.332
N15675 X48.98 Y-53.199
N15680 X48.876 Y-53.09
N15685 X48.75 Y-53.009
N15690 X48.607 Y-52.963
N15695 X48.457 Y-52.955
N15700 X48.31 Y-52.981
N15705 X48.173 Y-53.043
N15710 X48.055 Y-53.135
N15715 X47.96 Y-53.251
N15720 X47.895 Y-53.387
N15725 X47.863 Y-53.533
N15730 X47.862 Y-53.683
N15735 X47.897 Y-53.829
N15740 X47.963 Y-53.964
N15745 X48.055 Y-54.082
N15750 X48.171 Y-54.177
N15755 X48.305 Y-54.245
N15760 X48.449 Y-54.285
N15765 X48.599 Y-54.293
N15770 X48.747 Y-54.271
N15775 X48.889 Y-54.221
N15780 X49.018 Y-54.144
N15785 X49.129 Y-54.043
N15790 X49.219 Y-53.924
N15795 X49.284 Y-53.789
N15800 X49.321 Y-53.643
N15805 X49.332 Y-53.494
N15810 X49.314 Y-53.345
N15815 X49.267 Y-53.202
N15820 X49.195 Y-53.071
N15825 X49.102 Y-52.953
N15830 X48.988 Y-52.855
N15835 X48.859 Y-52.78
N15840 X48.718 Y-52.727
N15845 X48.571 Y-52.7
N15850 X48.421 Y-52.699
N15855 X48.273 Y-52.724
N15860 X48.131 Y-52.773
N15865 X48. Y-52.845
N15870 X47.883 Y-52.939
N15875 X47.782 Y-53.05
N15880 X47.701 Y-53.177
N15885 X47.642 Y-53.315
N15890 X47.607 Y-53.46
N15895 X47.595 Y-53.61
N15900 X47.607 Y-53.759
N15905 X47.644 Y-53.905
N15910 X47.702 Y-54.043
N15915 X47.781 Y-54.17
N15920 X47.88 Y-54.283
N15925 X47.995 Y-54.379
N15930 X48.123 Y-54.457
N15935 X48.262 Y-54.515
N15940 X48.408 Y-54.55
N15945 X48.557 Y-54.563
N15950 X48.707 Y-54.555
N15955 X48.854 Y-54.525
N15960 X48.994 Y-54.472
N15965 X49.126 Y-54.4
N15970 X49.246 Y-54.311
N15975 X49.353 Y-54.205
N15980 X49.441 Y-54.084
N15985 X49.512 Y-53.952
N15990 X49.565 Y-53.811
N15995 X49.597 Y-53.665
N16000 X49.607 Y-53.515
N16005 X49.597 Y-53.366
N16010 X49.566 Y-53.219
N16015 X49.515 Y-53.078
N16020 X49.445 Y-52.945
N16025 X49.358 Y-52.823
N16030 X49.255 Y-52.714
N16035 X49.138 Y-52.62
N16040 X49.01 Y-52.542
N16045 X48.872 Y-52.482
N16050 X48.728 Y-52.441
N16055 X48.58 Y-52.419
N16060 X48.43 Y-52.417
N16065 X48.281 Y-52.434
N16070 X48.135 Y-52.47
N16075 X47.995 Y-52.524
N16080 X47.864 Y-52.596
N16085 X47.742 Y-52.684
N16090 X47.633 Y-52.787
N16095 X47.537 Y-52.902
N16100 X47.457 Y-53.029
N16105 X47.394 Y-53.165
N16110 X47.347 Y-53.308
N16115 X47.318 Y-53.455
N16120 X47.308 Y-53.605
N16125 X47.317 Y-53.754
N16130 X47.345 Y-53.902
N16135 X47.389 Y-54.045
N16140 X47.45 Y-54.182
N16145 X47.528 Y-54.31
N16150 X47.621 Y-54.428
N16155 X47.727 Y-54.534
N16160 X47.844 Y-54.627
N16165 X47.973 Y-54.706
N16170 X48.109 Y-54.767
N16175 X48.252 Y-54.813
N16180 X48.399 Y-54.842
N16185 X48.549 Y-54.855
N16190 X48.699 Y-54.849
N16195 X48.847 Y-54.826
N16200 X48.991 Y-54.786
N16205 X49.131 Y-54.731
N16210 X49.263 Y-54.661
N16215 X49.386 Y-54.575
N16220 X49.499 Y-54.476
N16225 X49.6 Y-54.365
N16230 X49.688 Y-54.244
N16235 X49.762 Y-54.113
N16240 X49.821 Y-53.975
N16245 X49.864 Y-53.832
N16250 X49.891 Y-53.684
N16255 X49.903 Y-53.535
N16260 X49.897 Y-53.385
N16265 X49.874 Y-53.236
N16270 X49.836 Y-53.091
N16275 X49.783 Y-52.951
N16280 X49.715 Y-52.817
N16285 X49.632 Y-52.692
N16290 X49.537 Y-52.577
N16295 X49.43 Y-52.471
N16300 X49.312 Y-52.378
N16305 X49.185 Y-52.298
N16310 X49.051 Y-52.232
N16315 X48.91 Y-52.18
N16320 X48.765 Y-52.143
N16325 X48.616 Y-52.122
N16330 X48.466 Y-52.115
N16335 X48.317 Y-52.125
N16340 X48.169 Y-52.15
N16345 X48.024 Y-52.19
N16350 X47.884 Y-52.244
N16355 X47.751 Y-52.313
N16360 X47.625 Y-52.394
N16365 X47.508 Y-52.488
N16370 X47.401 Y-52.593
N16375 X47.305 Y-52.709
N16380 X47.221 Y-52.833
N16385 X47.151 Y-52.965
N16390 X47.093 Y-53.104
N16395 X47.05 Y-53.248
N16400 X47.021 Y-53.395
N16405 X47.007 Y-53.544
N16410 X47.008 Y-53.694
N16415 X47.023 Y-53.843
N16420 X47.053 Y-53.99
N16425 X47.097 Y-54.134
N16430 X47.155 Y-54.272
N16435 X47.227 Y-54.404
N16440 X47.31 Y-54.528
N16445 X47.405 Y-54.644
N16450 X47.511 Y-54.751
N16455 X47.627 Y-54.847
N16460 X47.751 Y-54.93
N16465 X47.883 Y-55.002
N16470 X48.021 Y-55.061
N16475 X48.163 Y-55.107
N16480 X48.31 Y-55.14
N16485 X48.459 Y-55.157
N16490 X48.609 Y-55.161
N16495 X48.758 Y-55.151
N16500 X48.907 Y-55.128
N16505 X49.052 Y-55.091
N16510 X49.193 Y-55.041
N16515 X49.329 Y-54.977
N16520 X49.459 Y-54.901
N16525 X49.581 Y-54.814
N16530 X49.695 Y-54.717
N16535 X49.799 Y-54.609
N16540 X49.893 Y-54.492
N16545 X49.976 Y-54.367
N16550 X50.047 Y-54.235
N16555 X50.106 Y-54.097
N16560 X50.153 Y-53.954
N16565 X50.186 Y-53.808
N16570 X50.206 Y-53.659
N16575 X50.212 Y-53.509
N16580 X50.206 Y-53.36
N16585 X50.186 Y-53.211
N16590 X50.153 Y-53.065
N16595 X50.107 Y-52.922
N16600 X50.048 Y-52.784
N16605 X49.978 Y-52.651
N16610 X49.896 Y-52.526
N16615 X49.804 Y-52.407
N16620 X49.701 Y-52.298
N16625 X49.59 Y-52.198
N16630 X49.47 Y-52.108
N16635 X49.342 Y-52.028
N16640 X49.209 Y-51.96
N16645 X49.07 Y-51.903
N16650 X48.927 Y-51.859
N16655 X48.78 Y-51.828
N16660 X48.631 Y-51.809
N16665 X48.481 Y-51.802
N16670 X48.331 Y-51.808
N16675 X48.183 Y-51.827
N16680 X48.036 Y-51.859
N16685 X47.893 Y-51.903
N16690 X47.753 Y-51.959
N16695 X47.619 Y-52.026
N16700 X47.491 Y-52.104
N16705 X47.37 Y-52.192
N16710 X47.257 Y-52.291
N16715 X47.152 Y-52.398
N16720 X47.057 Y-52.514
N16725 X46.972 Y-52.637
N16730 X46.896 Y-52.767
N16735 X46.832 Y-52.903
N16740 X46.78 Y-53.044
N16745 X46.739 Y-53.188
N16750 X46.711 Y-53.335
N16755 X46.694 Y-53.484
N16760 X46.689 Y-53.634
N16765 X46.697 Y-53.784
N16770 X46.717 Y-53.933
N16775 X46.749 Y-54.079
N16780 X46.793 Y-54.223
N16785 X46.848 Y-54.362
N16790 X46.914 Y-54.497
N16795 X46.991 Y-54.626
N16800 X47.078 Y-54.748
N16805 X47.174 Y-54.863
N16810 X47.279 Y-54.969
N16815 X47.393 Y-55.068
N16820 X47.514 Y-55.156
N16825 X47.641 Y-55.235
N16830 X47.775 Y-55.304
N16835 X47.913 Y-55.361
N16840 X48.056 Y-55.408
N16845 X48.202 Y-55.444
N16850 X48.35 Y-55.467
N16855 X48.499 Y-55.48
N16860 X48.649
N16865 X48.799 Y-55.469
N16870 X48.947 Y-55.446
N16875 X49.093 Y-55.412
N16880 X49.236 Y-55.367
N16885 X49.375 Y-55.311
N16890 X49.509 Y-55.244
N16895 X49.638 Y-55.167
N16900 X49.761 Y-55.08
N16905 X49.877 Y-54.985
N16910 X49.985 Y-54.881
N16915 X50.084 Y-54.769
N16920 X50.175 Y-54.649
N16925 X50.256 Y-54.523
N16930 X50.328 Y-54.391
N16935 X50.39 Y-54.255
N16940 X50.441 Y-54.114
N16945 X50.481 Y-53.969
N16950 X50.51 Y-53.822
N16955 X50.527 Y-53.673
N16960 X50.534 Y-53.523
N16965 X50.53 Y-53.373
N16970 X50.515 Y-53.224
N16975 X50.488 Y-53.076
N16980 X50.45 Y-52.931
N16985 X50.401 Y-52.789
N16990 X50.342 Y-52.651
N16995 X50.273 Y-52.518
N17000 X50.195 Y-52.39
N17005 X50.107 Y-52.268
N17010 X50.011 Y-52.154
N17015 X49.906 Y-52.046
N17020 X49.794 Y-51.947
N17025 X49.674 Y-51.856
N17030 X49.549 Y-51.774
N17035 X49.418 Y-51.701
N17040 X49.282 Y-51.638
N17045 X49.141 Y-51.585
N17050 X48.997 Y-51.543
N17055 X48.851 Y-51.511
N17060 X48.702 Y-51.489
N17065 X48.553 Y-51.478
N17070 X48.403
N17075 X48.253 Y-51.489
N17080 X48.105 Y-51.511
N17085 X47.958 Y-51.544
N17090 X47.814 Y-51.586
N17095 X47.674 Y-51.638
N17100 X47.537 Y-51.701
N17105 X47.406 Y-51.773
N17110 X47.28 Y-51.854
N17115 X47.16 Y-51.944
N17120 X47.046 Y-52.042
N17125 X46.94 Y-52.148
N17130 X46.841 Y-52.261
N17135 X46.751 Y-52.38
N17140 X46.669 Y-52.506
N17145 X46.597 Y-52.638
N17150 X46.533 Y-52.774
N17155 X46.48 Y-52.914
N17160 X46.436 Y-53.057
N17165 X46.402 Y-53.203
N17170 X46.378 Y-53.351
N17175 X46.365 Y-53.501
N17180 X46.363 Y-53.651
N17185 X46.37 Y-53.801
N17190 X46.388 Y-53.949
N17195 X46.416 Y-54.097
N17200 X46.454 Y-54.242
N17205 X46.503 Y-54.384
N17210 X46.561 Y-54.522
N17215 X46.628 Y-54.656
N17220 X46.704 Y-54.785
N17225 X46.789 Y-54.909
N17230 X46.882 Y-55.027
N17235 X46.983 Y-55.138
N17240 X47.091 Y-55.242
N17245 X47.206 Y-55.338
N17250 X47.328 Y-55.426
N17255 X47.455 Y-55.506
N17260 X47.587 Y-55.577
N17265 X47.723 Y-55.64
N17270 X47.863 Y-55.693
N17275 X48.007 Y-55.736
N17280 X48.153 Y-55.769
N17285 X48.301 Y-55.793
N17290 X48.451 Y-55.806
N17295 X48.601 Y-55.81
N17300 X48.751 Y-55.804
N17305 X48.9 Y-55.788
N17310 X49.047 Y-55.762
N17315 X49.193 Y-55.726
N17320 X49.336 Y-55.681
N17325 X49.476 Y-55.626
N17330 X49.612 Y-55.563
N17335 X49.743 Y-55.491
N17340 X49.869 Y-55.41
N17345 X49.99 Y-55.321
N17350 X50.105 Y-55.224
N17355 X50.213 Y-55.12
N17360 X50.313 Y-55.009
N17365 X50.407 Y-54.891
N17370 X50.493 Y-54.769
N17375 X50.571 Y-54.64
N17380 X50.64 Y-54.507
N17385 X50.7 Y-54.37
N17390 X50.751 Y-54.228
N17395 X50.793 Y-54.084
N17400 X50.825 Y-53.938
N17405 X50.849 Y-53.79
N17410 X50.862 Y-53.64
N17415 X50.866 Y-53.491
N17420 X50.86 Y-53.341
N17425 X50.844 Y-53.191
N17430 X50.819 Y-53.044
N17435 X50.785 Y-52.898
N17440 X50.741 Y-52.754
N17445 X50.689 Y-52.614
N17450 X50.627 Y-52.477
N17455 X50.557 Y-52.344
N17460 X50.478 Y-52.217
N17465 X50.391 Y-52.094
N17470 X50.297 Y-51.977
N17475 X50.196 Y-51.866
N17480 X50.088 Y-51.762
N17485 X49.974 Y-51.665
N17490 X49.854 Y-51.575
N17495 X49.728 Y-51.494
N17500 X49.597 Y-51.42
N17505 X49.463 Y-51.354
N17510 X49.383 Y-51.322
N17515 X49.318 Y-51.299
N17520 X49.25 Y-51.286
N17525 X49.18 Y-51.282
N17530 X48.632
N17535 X48.581 Y-51.284
N17540 X47.77 Y-51.426
N17545 X47.75 Y-51.431
N17550 X47.73 Y-51.439
N17555 X47.708 Y-51.45
N17560 X47.091 Y-51.806
N17565 X47.063 Y-51.825
N17570 X47.035 Y-51.85
N17575 X46.578 Y-52.394
N17580 X46.549 Y-52.43
N17585 X46.538 Y-52.449
N17590 X46.531 Y-52.467
N17595 X46.306 Y-53.083
N17600 X46.272 Y-53.186
N17605 X46.27 Y-53.209
N17610 Y-53.948
N17615 X46.272 Y-53.978
N17620 X46.275 Y-53.993
N17625 X46.28 Y-54.008
N17630 X46.533 Y-54.702
N17635 X46.546 Y-54.728
N17640 X46.578 Y-54.769
N17645 X47.025 Y-55.302
N17650 X47.048 Y-55.327
N17655 X47.059 Y-55.336
N17660 X47.07 Y-55.345
N17665 X47.708 Y-55.713
N17670 X47.733 Y-55.726
N17675 X47.759 Y-55.734
N17680 X48.221 Y-55.816
N17685 X48.324 Y-55.833
N17690 X48.632 Y-55.88
N17695 X48.735 Y-55.882
N17700 X49.305
N17705 X49.455 Y-55.874
N17710 X49.602 Y-55.847
N17715 X49.746 Y-55.803
N17720 X49.884 Y-55.745
N17725 X50.017 Y-55.675
N17730 X50.144 Y-55.595
N17735 X50.265 Y-55.506
N17740 X50.379 Y-55.41
N17745 X50.487 Y-55.305
N17750 X50.588 Y-55.195
N17755 X50.682 Y-55.078
N17760 X50.769 Y-54.955
N17765 X50.848 Y-54.828
N17770 X50.92 Y-54.696
N17775 X50.984 Y-54.561
N17780 X51.04 Y-54.422
N17785 X51.089 Y-54.28
N17790 X51.128 Y-54.135
N17795 X51.16 Y-53.988
N17800 X51.183 Y-53.84
N17805 X51.198 Y-53.691
N17810 X51.204 Y-53.539
N17815 X51.201 Y-53.387
N17820 X51.191 Y-53.236
N17825 X51.171 Y-53.087
N17830 X51.144 Y-52.939
N17835 X51.108 Y-52.794
N17840 X51.064 Y-52.65
N17845 X51.011 Y-52.507
N17850 X50.95 Y-52.367
N17855 X50.881 Y-52.23
N17860 X50.804 Y-52.097
N17865 X50.72 Y-51.969
N17870 X50.631 Y-51.848
N17875 X50.535 Y-51.732
N17880 X50.432 Y-51.621
N17885 X50.322 Y-51.515
N17890 X50.205 Y-51.415
N17895 X50.174 Y-51.391
N17900 X50.075 Y-51.331
N17905 X49.965 Y-51.294
N17910 X49.85 Y-51.282
N17915 X49.18
N17920 X49.131 Y-51.291 Z-0.96
N17925 X49.088 Y-51.315 Z-0.92
N17930 X49.054 Y-51.351 Z-0.88
N17935 X49.032 Y-51.397 Z-0.841
N17940 X49.026 Y-51.446 Z-0.801
N17945 Y-51.447 Z-0.8
N17950 X49.039 Y-51.911
N17955 X49.137 Y-55.252
N17960 X49.15 Y-55.716
N17965 X49.151 Y-55.726 Z-0.808
N17970 X49.159 Y-55.774 Z-0.846
N17975 X49.182 Y-55.816 Z-0.885
N17980 X49.215 Y-55.85 Z-0.923
N17985 X49.258 Y-55.873 Z-0.962
N17990 X49.305 Y-55.882 Z-1.
N17995 X49.865
N18000 X50.015 Y-55.874
N18005 X50.161 Y-55.843
N18010 X50.302 Y-55.789
N18015 X50.434 Y-55.719
N18020 X50.559 Y-55.637
N18025 X50.677 Y-55.543
N18030 X50.787 Y-55.441
N18035 X50.889 Y-55.332
N18040 X50.984 Y-55.216
N18045 X51.072 Y-55.094
N18050 X51.152 Y-54.967
N18055 X51.226 Y-54.835
N18060 X51.294 Y-54.695
N18065 X51.355 Y-54.549
N18070 X51.409 Y-54.398
N18075 X51.454 Y-54.242
N18080 X51.491 Y-54.082
N18085 X51.519 Y-53.918
N18090 X51.538 Y-53.752
N18095 X51.548 Y-53.585
N18100 Y-53.417
N18105 X51.539 Y-53.249
N18110 X51.52 Y-53.082
N18115 X51.492 Y-52.915
N18120 X51.454 Y-52.749
N18125 X51.407 Y-52.585
N18130 X51.351 Y-52.424
N18135 X51.285 Y-52.265
N18140 X51.211 Y-52.111
N18145 X51.128 Y-51.962
N18150 X51.037 Y-51.817
N18155 X50.938 Y-51.677
N18160 X50.831 Y-51.543
N18165 X50.755 Y-51.459
N18170 X50.641 Y-51.363
N18175 X50.505 Y-51.302
N18180 X50.358 Y-51.282
N18185 X49.85
N18190 X49.802 Y-51.291 Z-0.961
N18195 X49.759 Y-51.314 Z-0.922
N18200 X49.725 Y-51.349 Z-0.882
N18205 X49.703 Y-51.393 Z-0.843
N18210 X49.695 Y-51.442 Z-0.804
N18215 Y-51.447 Z-0.8
N18220 X49.697 Y-51.911
N18225 X49.709 Y-55.252
N18230 X49.71 Y-55.716
N18235 Y-55.722 Z-0.805
N18240 X49.718 Y-55.77 Z-0.844
N18245 X49.74 Y-55.814 Z-0.883
N18250 X49.774 Y-55.849 Z-0.922
N18255 X49.817 Y-55.872 Z-0.961
N18260 X49.865 Y-55.882 Z-1.
N18265 X50.379
N18270 X50.528 Y-55.874
N18275 X50.671 Y-55.829
N18280 X50.806 Y-55.763
N18285 X50.932 Y-55.681
N18290 X51.049 Y-55.587
N18295 X51.157 Y-55.484
N18300 X51.258 Y-55.372
N18305 X51.35 Y-55.254
N18310 X51.435 Y-55.13
N18315 X51.513 Y-55.001
N18320 X51.587 Y-54.861
N18325 X51.655 Y-54.712
N18330 X51.717 Y-54.555
N18335 X51.77 Y-54.392
N18340 X51.815 Y-54.224
N18345 X51.851 Y-54.051
N18350 X51.877 Y-53.873
N18355 X51.894 Y-53.692
N18360 X51.9 Y-53.508
N18365 X51.896 Y-53.323
N18370 X51.882 Y-53.137
N18375 X51.857 Y-52.951
N18380 X51.821 Y-52.766
N18385 X51.775 Y-52.582
N18390 X51.718 Y-52.401
N18395 X51.651 Y-52.223
N18400 X51.574 Y-52.049
N18405 X51.488 Y-51.88
N18410 X51.392 Y-51.715
N18415 X51.309 Y-51.59
N18420 X51.214 Y-51.465
N18425 X51.099 Y-51.366
N18430 X50.961 Y-51.303
N18435 X50.811 Y-51.282
N18440 X50.358
N18445 X50.309 Y-51.291 Z-0.961
N18450 X50.266 Y-51.314 Z-0.921
N18455 X50.232 Y-51.35 Z-0.882
N18460 X50.211 Y-51.394 Z-0.843
N18465 X50.203 Y-51.442 Z-0.804
N18470 Y-51.447 Z-0.8
N18475 X50.206 Y-51.911
N18480 X50.222 Y-55.252
N18485 X50.224 Y-55.716
N18490 Y-55.722 Z-0.805
N18495 X50.232 Y-55.771 Z-0.844
N18500 X50.254 Y-55.814 Z-0.883
N18505 X50.288 Y-55.849 Z-0.922
N18510 X50.331 Y-55.872 Z-0.961
N18515 X50.379 Y-55.882 Z-1.
N18520 X50.789
N18525 X50.939 Y-55.874
N18530 X51.083 Y-55.83
N18535 X51.216 Y-55.762
N18540 X51.34 Y-55.677
N18545 X51.454 Y-55.58
N18550 X51.559 Y-55.473
N18555 X51.656 Y-55.358
N18560 X51.744 Y-55.237
N18565 X51.825 Y-55.11
N18570 X51.9 Y-54.975
N18575 X51.971 Y-54.828
N18580 X52.037 Y-54.67
N18585 X52.096 Y-54.502
N18590 X52.147 Y-54.328
N18595 X52.188 Y-54.147
N18600 X52.22 Y-53.961
N18605 X52.242 Y-53.768
N18610 X52.254 Y-53.571
N18615 Y-53.371
N18620 X52.242 Y-53.168
N18625 X52.219 Y-52.964
N18630 X52.185 Y-52.761
N18635 X52.139 Y-52.558
N18640 X52.081 Y-52.358
N18645 X52.012 Y-52.161
N18650 X51.931 Y-51.967
N18655 X51.848 Y-51.794
N18660 X51.775 Y-51.663
N18665 X51.694 Y-51.536
N18670 X51.664 Y-51.495
N18675 X51.546 Y-51.38
N18680 X51.399 Y-51.307
N18685 X51.237 Y-51.282
N18690 X50.811
N18695 X50.763 Y-51.291 Z-0.961
N18700 X50.72 Y-51.314 Z-0.922
N18705 X50.686 Y-51.349 Z-0.883
N18710 X50.665 Y-51.392 Z-0.844
N18715 X50.657 Y-51.441 Z-0.805
N18720 Y-51.447 Z-0.8
N18725 X50.654 Y-51.911
N18730 X50.637 Y-55.252
N18735 X50.635 Y-55.716
N18740 Y-55.721 Z-0.804
N18745 Y-55.722
N18750 X50.642 Y-55.77 Z-0.843
N18755 X50.664 Y-55.814 Z-0.883
N18760 X50.698 Y-55.849 Z-0.922
N18765 X50.741 Y-55.872 Z-0.961
N18770 X50.789 Y-55.882 Z-1.
N18775 X51.2
N18780 X51.35 Y-55.874
N18785 X51.492 Y-55.826
N18790 X51.624 Y-55.753
N18795 X51.745 Y-55.665
N18800 X51.856 Y-55.564
N18805 X51.957 Y-55.454
N18810 X52.05 Y-55.336
N18815 X52.135 Y-55.212
N18820 X52.211 Y-55.083
N18825 X52.285 Y-54.94
N18830 X52.355 Y-54.785
N18835 X52.419 Y-54.62
N18840 X52.474 Y-54.448
N18845 X52.521 Y-54.265
N18850 X52.56 Y-54.071
N18855 X52.589 Y-53.869
N18860 X52.607 Y-53.66
N18865 X52.613 Y-53.446
N18870 X52.607 Y-53.229
N18875 X52.588 Y-53.009
N18880 X52.557 Y-52.788
N18885 X52.513 Y-52.568
N18890 X52.456 Y-52.349
N18895 X52.389 Y-52.137
N18900 X52.315 Y-51.944
N18905 X52.242 Y-51.782
N18910 X52.173 Y-51.649
N18915 X52.131 Y-51.582
N18920 X52.036 Y-51.467
N18925 X51.912 Y-51.384
N18930 X51.771 Y-51.338
N18935 X51.721 Y-51.339 Z-0.96
N18940 X51.673 Y-51.355 Z-0.92
N18945 X51.633 Y-51.385 Z-0.88
N18950 X51.605 Y-51.426 Z-0.84
N18955 X51.59 Y-51.474 Z-0.8
N18960 Y-51.476
N18965 X51.531 Y-51.934
N18970 X51.104 Y-55.256
N18975 X51.047 Y-55.701
N18980 X51.046 Y-55.716
N18985 X51.052 Y-55.766 Z-0.84
N18990 X51.073 Y-55.811 Z-0.88
N18995 X51.107 Y-55.848 Z-0.92
N19000 X51.151 Y-55.872 Z-0.96
N19005 X51.2 Y-55.882 Z-1.
N19010 X51.303
N19015 X51.406 Y-55.88
N19020 X51.714 Y-55.834
N19025 X51.861 Y-55.802
N19030 X51.995 Y-55.736
N19035 X52.118 Y-55.65
N19040 X52.23 Y-55.551
N19045 X52.332 Y-55.44
N19050 X52.424 Y-55.322
N19055 X52.507 Y-55.197
N19060 X52.583 Y-55.068
N19065 X52.655 Y-54.926
N19070 X52.72 Y-54.777
N19075 X52.781 Y-54.612
N19080 X52.837 Y-54.432
N19085 X52.885 Y-54.239
N19090 X52.924 Y-54.034
N19095 X52.953 Y-53.819
N19100 X52.969 Y-53.598
N19105 X52.974 Y-53.372
N19110 X52.965 Y-53.143
N19115 X52.943 Y-52.909
N19120 X52.907 Y-52.673
N19125 X52.858 Y-52.437
N19130 X52.797 Y-52.213
N19135 X52.732 Y-52.014
N19140 X52.675 Y-51.869
N19145 X52.612 Y-51.733
N19150 X52.585 Y-51.684
N19155 X52.531 Y-51.603
N19160 X52.463 Y-51.534
N19165 X52.384 Y-51.478
N19170 X52.336 Y-51.461 Z-0.96
N19175 X52.286 Y-51.46 Z-0.92
N19180 X52.239 Y-51.475 Z-0.88
N19185 X52.198 Y-51.504 Z-0.84
N19190 X52.167 Y-51.544 Z-0.8
N19195 X52.157 Y-51.569
N19200 X52.15 Y-51.595
N19205 X52.089 Y-52.
N19210 X51.601 Y-55.234
N19215 X51.538 Y-55.651
N19220 X51.537 Y-55.694
N19225 X51.55 Y-55.742 Z-0.84
N19230 X51.578 Y-55.784 Z-0.88
N19235 X51.617 Y-55.815 Z-0.92
N19240 X51.664 Y-55.832 Z-0.96
N19245 X51.714 Y-55.834 Z-1.
N19250 X51.817 Y-55.817
N19255 X52.125 Y-55.763
N19260 X52.271 Y-55.73
N19265 X52.407 Y-55.666
N19270 X52.529 Y-55.579
N19275 X52.639 Y-55.477
N19280 X52.739 Y-55.365
N19285 X52.828 Y-55.244
N19290 X52.909 Y-55.118
N19295 X52.98 Y-54.986
N19300 X53.049 Y-54.841
N19305 X53.114 Y-54.679
N19310 X53.172 Y-54.509
N19315 X53.223 Y-54.324
N19320 X53.267 Y-54.122
N19325 X53.301 Y-53.907
N19330 X53.325 Y-53.681
N19335 X53.335 Y-53.446
N19340 X53.333 Y-53.203
N19345 X53.316 Y-52.956
N19350 X53.285 Y-52.709
N19355 X53.242 Y-52.469
N19360 X53.189 Y-52.251
N19365 X53.132 Y-52.06
N19370 X53.123 Y-52.034
N19375 X53.098 Y-51.977
N19380 X53.066 Y-51.922
N19385 X53.029 Y-51.872
N19390 X52.99 Y-51.841 Z-0.96
N19395 X52.943 Y-51.823 Z-0.92
N19400 X52.893 Y-51.821 Z-0.88
N19405 X52.845 Y-51.834 Z-0.84
N19410 X52.803 Y-51.861 Z-0.8
N19415 X52.772 Y-51.899
N19420 X52.754 Y-51.945
N19425 X52.675 Y-52.302
N19430 X52.035 Y-55.173
N19435 X51.946 Y-55.57
N19440 X51.943 Y-55.598
N19445 X51.944 Y-55.627
N19450 X51.959 Y-55.675 Z-0.84
N19455 X51.988 Y-55.716 Z-0.88
N19460 X52.027 Y-55.746 Z-0.92
N19465 X52.075 Y-55.762 Z-0.96
N19470 X52.125 Y-55.763 Z-1.
N19475 X52.279 Y-55.736
N19480 X52.305 Y-55.728
N19485 X52.317 Y-55.723
N19490 X52.33 Y-55.716
N19495 X52.875 Y-55.402
N19500 X52.914 Y-55.379
N19505 X52.947 Y-55.361
N19510 X52.986 Y-55.334
N19515 X53.019 Y-55.297 Z-0.96
N19520 X53.042 Y-55.252 Z-0.92
N19525 X53.053 Y-55.203 Z-0.88
N19530 X53.052 Y-55.153 Z-0.84
N19535 X53.038 Y-55.105 Z-0.8
N19540 X53.019 Y-55.07
N19545 G3 X52.721 Y-55.029 I-0.167 J-0.113
N19550 X52.713 Y-55.329 I0.131 J-0.154
N19555 G1 X52.754 Y-55.359 Z-0.84
N19560 X52.8 Y-55.378 Z-0.88
N19565 X52.85 Y-55.384 Z-0.92
N19570 X52.9 Y-55.378 Z-0.96
N19575 X52.947 Y-55.361 Z-1.
N19580 X52.973 Y-55.345
N19585 X52.995 Y-55.327
N19590 X53.017 Y-55.306
N19595 X53.152 Y-55.144
N19600 X53.243 Y-55.024
N19605 X53.325 Y-54.899
N19610 X53.397 Y-54.768
N19615 X53.459 Y-54.631
N19620 X53.513 Y-54.487
N19625 X53.564 Y-54.323
N19630 X53.607 Y-54.152
N19635 X53.645 Y-53.959
N19640 X53.674 Y-53.745
N19645 X53.692 Y-53.515
N19650 X53.697 Y-53.274
N19655 X53.688 Y-53.027
N19660 X53.685 Y-52.988
N19665 X53.679 Y-52.942
N19670 X53.669 Y-52.898
N19675 X53.655 Y-52.854
N19680 X53.629 Y-52.811 Z-0.96
N19685 X53.591 Y-52.778 Z-0.92
N19690 X53.545 Y-52.759 Z-0.88
N19695 X53.496 Y-52.754 Z-0.84
N19700 X53.447 Y-52.765 Z-0.8
N19705 X53.413 Y-52.784
N19710 X53.385 Y-52.81
N19715 X53.363 Y-52.843
N19720 X53.35 Y-52.879
N19725 X53.283 Y-53.181
N19730 X52.941 Y-54.714
N19735 X52.877 Y-55.002
N19740 X52.873 Y-55.044
N19745 X52.881 Y-55.086
N19750 X52.899 Y-55.124
N19755 X52.926 Y-55.156
N19760 X52.968 Y-55.183 Z-0.84
N19765 X53.017 Y-55.196 Z-0.88
N19770 X53.066 Y-55.194 Z-0.92
N19775 X53.113 Y-55.176 Z-0.96
N19780 X53.152 Y-55.144 Z-1.
N19785 X53.46 Y-54.777
N19790 X53.498 Y-54.728
N19795 X53.511 Y-54.702
N19800 X53.768 Y-53.996
N19805 X53.773 Y-53.973
N19810 X53.775 Y-53.951
N19815 Y-53.212
N19820 X53.773 Y-53.186
N19825 X53.768 Y-53.169
N19830 X53.738 Y-53.083
N19835 X53.514 Y-52.467
N19840 X53.505 Y-52.447
N19845 X53.493 Y-52.426
N19850 X53.355 Y-52.261
N19855 X53.01 Y-51.85
N19860 X52.994 Y-51.835
N19865 X52.978 Y-51.823
N19870 X52.947 Y-51.802
N19875 X52.33 Y-51.447
N19880 X52.314 Y-51.439
N19885 X52.293 Y-51.431
N19890 X52.271 Y-51.426
N19895 X51.457 Y-51.283
N19900 X51.406 Y-51.282
N19905 X51.237
N19910 G3 X51.248 Y-51.601 I0.006 J-0.16
N19915 X51.357 Y-51.553 I-0.006 J0.16
N19920 G1 X51.374 Y-51.516 Z-0.994
N19925 X51.389 Y-51.482 Z-0.979
N19930 X51.402 Y-51.453 Z-0.955
N19935 Y-51.441 Z-0.942
N19940 X51.4 Y-51.421 Z-0.911
N19945 X51.399 Y-51.409 Z-0.877
N19950 X51.398 Y-51.405 Z-0.84
N19955 Z5.
N19960 X48.522 Y-21.831
N19965 Z2.66
N19970 Z2.5
N19975 Z-1.
N19980 X48.56
N19985 X48.548 Y-21.796
N19990 X48.511 Y-21.787
N19995 X48.481 Y-21.808
N20000 X48.476 Y-21.846
N20005 X48.5 Y-21.875
N20010 X48.535 Y-21.888
N20015 X48.572 Y-21.883
N20020 X48.598 Y-21.857
N20025 X48.609 Y-21.821
N20030 X48.602 Y-21.784
N20035 X48.581 Y-21.753
N20040 X48.549 Y-21.734
N20045 X48.512 Y-21.728
N20050 X48.475 Y-21.736
N20055 X48.444 Y-21.757
N20060 X48.422 Y-21.787
N20065 X48.412 Y-21.823
N20070 X48.414 Y-21.86
N20075 X48.428 Y-21.895
N20080 X48.451 Y-21.925
N20085 X48.481 Y-21.947
N20090 X48.516 Y-21.961
N20095 X48.554 Y-21.963
N20100 X48.59 Y-21.955
N20105 X48.624 Y-21.939
N20110 X48.68 Y-21.889
N20115 X48.704 Y-21.818
N20120 X48.695 Y-21.744
N20125 X48.656 Y-21.68
N20130 X48.595 Y-21.635
N20135 X48.523 Y-21.617
N20140 X48.448 Y-21.625
N20145 X48.381 Y-21.658
N20150 X48.33 Y-21.713
N20155 X48.299 Y-21.781
N20160 X48.291 Y-21.856
N20165 X48.307 Y-21.929
N20170 X48.343 Y-21.995
N20175 X48.397 Y-22.047
N20180 X48.464 Y-22.081
N20185 X48.538 Y-22.095
N20190 X48.613 Y-22.089
N20195 X48.684 Y-22.065
N20200 X48.746 Y-22.023
N20205 X48.795 Y-21.966
N20210 X48.863 Y-21.833
N20215 X48.856 Y-21.683
N20220 X48.783 Y-21.552
N20225 X48.662 Y-21.463
N20230 X48.516 Y-21.429
N20235 X48.368 Y-21.452
N20240 X48.238 Y-21.528
N20245 X48.144 Y-21.645
N20250 X48.097 Y-21.787
N20255 X48.1 Y-21.937
N20260 X48.154 Y-22.077
N20265 X48.252 Y-22.191
N20270 X48.381 Y-22.268
N20275 X48.527 Y-22.301
