%
(1003)
(MACHINE)
(  VENDOR AUTODESK)
(  MODEL GENERIC 3-AXIS)
(  DESCRIPTION THIS MACHINE HAS XY AXIS ON THE TABLE AND Z AXIS ON THE HEAD)
(T0 D=1.6 CR=0. - ZMIN=-3.35 - FLAT END MILL)
N10 G90 G94 G17 G91.1
N15 G21
(WHEN USING FUSION 360 FOR PERSONAL USE, THE FEEDRATE OF)
(RAPID MOVES IS REDUCED TO MATCH THE FEEDRATE OF CUTTING)
(MOVES, WHICH CAN INCREASE MACHINING TIME. UNRESTRICTED RAPID)
(MOVES ARE AVAILABLE WITH A FUSION 360 SUBSCRIPTION.)
N20 G53 G0 Z0.
(2D CONTOUR1)
N25 T0 M6
N30 S18000 M3
N35 G17 G90 G94
N40 G54
N45 M8
N50 G0 X77.641 Y-23.927
N55 G43 Z15. H0
N60 G1 Z5. F111.6
N65 Z-1.7
N70 X77.638 Y-23.919
N75 X77.631 Y-23.904 Z-1.697
N80 X77.625 Y-23.888 Z-1.694
N85 X77.619 Y-23.873 Z-1.688
N90 X77.612 Y-23.858 Z-1.681
N95 X77.607 Y-23.845 Z-1.672
N100 X77.601 Y-23.832 Z-1.662
N105 X77.592 Y-23.81 Z-1.637
N110 X77.585 Y-23.794 Z-1.607
N115 X77.58 Y-23.783 Z-1.574
N120 X77.579 Y-23.78 Z-1.54
N125 Z-1.36
N130 X77.578 Y-23.777 Z-1.329
N135 X77.574 Y-23.769 Z-1.299
N140 X77.568 Y-23.755 Z-1.271
N145 X77.56 Y-23.737 Z-1.247
N150 X77.55 Y-23.715 Z-1.227
N155 X77.545 Y-23.702 Z-1.22
N160 X77.539 Y-23.69 Z-1.212
N165 X77.533 Y-23.676 Z-1.208
N170 X77.527 Y-23.662 Z-1.203
N175 X77.521 Y-23.648 Z-1.202
N180 X77.514 Y-23.634 Z-1.2
N185 G3 X75.867 Y-21.133 I-8.71 J-3.945
N190 G2 X76.143 Y-17.843 I1.663 J1.517
N195 X77.352 Y-16.993 I8.851 J-11.316
N200 X78.648 Y-16.283 I6.625 J-10.548
N205 X79.875 Y-15.808 I3.876 J-8.188
N210 X81.154 Y-15.503 I3.07 J-10.037
N215 X81.779 Y-15.436 I0.83 J-4.792
N220 G3 X82.407 Y-15.405 I-2.061 J48.882
N225 G2 X88.438 Y-15.317 I4.118 J-74.824
N230 G3 X94.47 Y-15.406 I7.142 J279.51
N235 G2 X97.284 Y-16.6 I-0.016 J-3.948
N240 X98.438 Y-19.429 I-2.919 J-2.842
N245 G1 X98.439 Y-44.609
N250 G3 X99.631 Y-47.432 I3.938 J0.
N255 X102.47 Y-48.585 I2.839 J2.919
N260 G2 X109.092 Y-48.753 I-0.002 J-130.753
N265 G3 X115.71 Y-48.49 I1.857 J36.612
N270 X116.466 Y-48.342 I-0.795 J6.065
N275 X117.204 Y-48.121 I-2.787 J10.637
N280 G1 X117.227 Y-48.108
N285 X117.245 Y-48.089
N290 X117.256 Y-48.065
N295 X117.493 Y-47.175
N300 X117.503 Y-47.139 Z-1.204
N305 X117.512 Y-47.105 Z-1.217
N310 X117.52 Y-47.075 Z-1.238
N315 X117.523 Y-47.052 Z-1.263
N320 X117.52 Y-47.034 Z-1.293
N325 X117.517 Y-47.024 Z-1.326
N330 X117.515 Y-47.02 Z-1.36
N335 Z-1.54
N340 X117.514 Y-47.017 Z-1.571
N345 X117.509 Y-47.01 Z-1.601
N350 X117.5 Y-46.998 Z-1.629
N355 X117.484 Y-46.986 Z-1.653
N360 X117.462 Y-46.977 Z-1.673
N365 X117.434 Y-46.975 Z-1.688
N370 X117.406 Y-46.984 Z-1.697
N375 X117.382 Y-47.003 Z-1.7
N380 G2 X114.47 Y-48.361 I-2.912 J2.442
N385 G1 X102.47
N390 G2 X98.67 Y-44.561 I0. J3.8
N395 G1 Y-19.381
N400 G3 X94.47 Y-15.181 I-4.2 J0.
N405 G1 X74.47
N410 G2 X73.67 Y-14.381 I0. J0.8
N415 G1 Y-7.381
N420 G2 X77.47 Y-3.581 I3.8 J0.
N425 G1 X114.47
N430 G2 X118.27 Y-7.381 I0. J-3.8
N435 G1 Y-44.561
N440 G2 X117.382 Y-47.003 I-3.8 J0.
N445 G1 X117.356 Y-47.046
N450 X117.345 Y-47.095
N455 X117.349 Y-47.145
N460 X117.369 Y-47.191
N465 X117.401 Y-47.229
N470 X117.524 Y-47.331
N475 X117.562 Y-47.363 Z-1.692
N480 X117.596 Y-47.392 Z-1.669
N485 X117.623 Y-47.415 Z-1.634
N490 X117.641 Y-47.429 Z-1.589
N495 X117.647 Y-47.434 Z-1.54
N500 Z5.
N505 X77.641 Y-23.927
N510 Z-1.7
N515 X77.638 Y-23.919
N520 X77.631 Y-23.904 Z-1.697
N525 X77.625 Y-23.888 Z-1.694
N530 X77.619 Y-23.873 Z-1.688
N535 X77.612 Y-23.858 Z-1.681
N540 X77.607 Y-23.845 Z-1.672
N545 X77.601 Y-23.832 Z-1.662
N550 X77.592 Y-23.81 Z-1.637
N555 X77.585 Y-23.794 Z-1.607
N560 X77.58 Y-23.783 Z-1.574
N565 X77.579 Y-23.78 Z-1.54
N570 Z-1.36
N575 X77.578 Y-23.777 Z-1.329
N580 X77.574 Y-23.769 Z-1.299
N585 X77.568 Y-23.755 Z-1.271
N590 X77.56 Y-23.737 Z-1.247
N595 X77.55 Y-23.715 Z-1.227
N600 X77.545 Y-23.702 Z-1.22
N605 X77.539 Y-23.69 Z-1.212
N610 X77.533 Y-23.676 Z-1.208
N615 X77.527 Y-23.662 Z-1.203
N620 X77.521 Y-23.648 Z-1.202
N625 X77.514 Y-23.634 Z-1.2
N630 G3 X75.867 Y-21.133 I-8.71 J-3.945
N635 G2 X76.143 Y-17.843 I1.663 J1.517
N640 X77.352 Y-16.993 I8.851 J-11.316
N645 X78.648 Y-16.283 I6.625 J-10.548
N650 X79.875 Y-15.808 I3.876 J-8.188
N655 X81.154 Y-15.503 I3.07 J-10.037
N660 X81.779 Y-15.436 I0.83 J-4.792
N665 G3 X82.407 Y-15.405 I-2.061 J48.882
N670 G2 X88.438 Y-15.317 I4.118 J-74.824
N675 G3 X94.47 Y-15.406 I7.142 J279.51
N680 G2 X97.284 Y-16.6 I-0.016 J-3.948
N685 X98.438 Y-19.429 I-2.919 J-2.842
N690 G1 X98.439 Y-44.609
N695 G3 X99.631 Y-47.432 I3.938 J0.
N700 X102.47 Y-48.585 I2.839 J2.919
N705 G2 X109.044 Y-48.735 I-0.002 J-144.602
N710 G3 X115.616 Y-48.504 I1.856 J40.763
N715 X116.411 Y-48.356 I-0.684 J5.88
N720 X117.186 Y-48.127 I-2.921 J11.321
N725 G1 X117.211 Y-48.123
N730 X117.236 Y-48.127
N735 X117.259 Y-48.138
N740 X117.93 Y-48.634
N745 X117.97 Y-48.663 Z-1.208
N750 X118.006 Y-48.69 Z-1.231
N755 X118.034 Y-48.711 Z-1.266
N760 X118.052 Y-48.724 Z-1.311
N765 X118.059 Y-48.729 Z-1.36
N770 Z-1.54
N775 X118.065 Y-48.734 Z-1.589
N780 X118.083 Y-48.747 Z-1.633
N785 X118.111 Y-48.768 Z-1.669
N790 X118.146 Y-48.794 Z-1.692
N795 X118.169 Y-48.805 Z-1.698
N800 X118.194 Y-48.809 Z-1.7
N805 X122.406
N810 G2 X123.206 Y-49.609 I0. J-0.8
N815 G1 Y-56.609
N820 G2 X119.406 Y-60.409 I-3.8 J0.
N825 G1 X82.407
N830 G2 X78.606 Y-56.609 I0. J3.8
N835 G1 Y-19.429
N840 G2 X82.407 Y-15.629 I3.8 J0.
N845 G1 X94.407
N850 G2 X98.206 Y-19.429 I0. J-3.8
N855 G1 Y-44.609
N860 G3 X102.406 Y-48.809 I4.2 J0.
N865 G1 X118.194
N870 X118.243 Y-48.802
N875 X118.288 Y-48.779
N880 X118.323 Y-48.743
N885 X118.346 Y-48.699
N890 X118.354 Y-48.649
N895 Y-48.489
N900 Y-48.44 Z-1.692
N905 Y-48.395 Z-1.669
N910 Y-48.36 Z-1.634
N915 Y-48.337 Z-1.589
N920 Y-48.329 Z-1.54
N925 Z5.
N930 X77.641 Y-23.927
N935 Z-3.35
N940 X77.638 Y-23.919
N945 X77.631 Y-23.904 Z-3.347
N950 X77.625 Y-23.888 Z-3.344
N955 X77.619 Y-23.873 Z-3.338
N960 X77.612 Y-23.858 Z-3.331
N965 X77.607 Y-23.845 Z-3.322
N970 X77.601 Y-23.832 Z-3.312
N975 X77.592 Y-23.81 Z-3.287
N980 X77.585 Y-23.794 Z-3.257
N985 X77.58 Y-23.783 Z-3.224
N990 X77.579 Y-23.78 Z-3.19
N995 Z-3.01
N1000 X77.578 Y-23.777 Z-2.979
N1005 X77.574 Y-23.769 Z-2.949
N1010 X77.568 Y-23.755 Z-2.921
N1015 X77.56 Y-23.737 Z-2.897
N1020 X77.55 Y-23.715 Z-2.877
N1025 X77.545 Y-23.702 Z-2.87
N1030 X77.539 Y-23.69 Z-2.862
N1035 X77.533 Y-23.676 Z-2.858
N1040 X77.527 Y-23.662 Z-2.853
N1045 X77.521 Y-23.648 Z-2.852
N1050 X77.514 Y-23.634 Z-2.85
N1055 G3 X75.867 Y-21.133 I-8.71 J-3.945
N1060 G2 X76.143 Y-17.843 I1.663 J1.517
N1065 X77.352 Y-16.993 I8.851 J-11.316
N1070 X78.648 Y-16.283 I6.625 J-10.548
N1075 X79.875 Y-15.808 I3.876 J-8.188
N1080 X81.154 Y-15.503 I3.07 J-10.037
N1085 X81.779 Y-15.436 I0.83 J-4.792
N1090 G3 X82.407 Y-15.405 I-2.061 J48.882
N1095 G2 X88.438 Y-15.317 I4.118 J-74.824
N1100 G3 X94.47 Y-15.406 I7.142 J279.51
N1105 G2 X97.284 Y-16.6 I-0.016 J-3.948
N1110 X98.438 Y-19.429 I-2.919 J-2.842
N1115 G1 X98.439 Y-44.609
N1120 G3 X99.631 Y-47.432 I3.938 J0.
N1125 X102.47 Y-48.585 I2.839 J2.919
N1130 G2 X109.092 Y-48.753 I-0.002 J-130.753
N1135 G3 X115.71 Y-48.49 I1.857 J36.612
N1140 X116.466 Y-48.342 I-0.795 J6.065
N1145 X117.204 Y-48.121 I-2.787 J10.637
N1150 G1 X117.227 Y-48.108
N1155 X117.245 Y-48.089
N1160 X117.256 Y-48.065
N1165 X117.493 Y-47.175
N1170 X117.503 Y-47.139 Z-2.854
N1175 X117.512 Y-47.105 Z-2.867
N1180 X117.52 Y-47.075 Z-2.888
N1185 X117.523 Y-47.052 Z-2.913
N1190 X117.52 Y-47.034 Z-2.943
N1195 X117.517 Y-47.024 Z-2.976
N1200 X117.515 Y-47.02 Z-3.01
N1205 Z-3.19
N1210 X117.514 Y-47.017 Z-3.221
N1215 X117.509 Y-47.01 Z-3.251
N1220 X117.5 Y-46.998 Z-3.279
N1225 X117.484 Y-46.986 Z-3.303
N1230 X117.462 Y-46.977 Z-3.323
N1235 X117.434 Y-46.975 Z-3.338
N1240 X117.406 Y-46.984 Z-3.347
N1245 X117.382 Y-47.003 Z-3.35
N1250 G2 X114.47 Y-48.361 I-2.912 J2.442
N1255 G1 X102.47
N1260 G2 X98.67 Y-44.561 I0. J3.8
N1265 G1 Y-19.381
N1270 G3 X94.47 Y-15.181 I-4.2 J0.
N1275 G1 X74.47
N1280 G2 X73.67 Y-14.381 I0. J0.8
N1285 G1 Y-7.381
N1290 G2 X77.47 Y-3.581 I3.8 J0.
N1295 G1 X114.47
N1300 G2 X118.27 Y-7.381 I0. J-3.8
N1305 G1 Y-44.561
N1310 G2 X117.382 Y-47.003 I-3.8 J0.
N1315 G1 X117.356 Y-47.046
N1320 X117.345 Y-47.095
N1325 X117.349 Y-47.145
N1330 X117.369 Y-47.191
N1335 X117.401 Y-47.229
N1340 X117.524 Y-47.331
N1345 X117.562 Y-47.363 Z-3.342
N1350 X117.596 Y-47.392 Z-3.319
N1355 X117.623 Y-47.415 Z-3.284
N1360 X117.641 Y-47.429 Z-3.239
N1365 X117.647 Y-47.434 Z-3.19
N1370 Z5.
N1375 X120.488 Y-61.257
N1380 Z-1.7
N1385 X120.478 Y-61.256
N1390 X120.431 Y-61.25 Z-1.689
N1395 X120.39 Y-61.244 Z-1.666
N1400 X120.357 Y-61.24 Z-1.631
N1405 X120.336 Y-61.237 Z-1.587
N1410 X120.329 Y-61.236 Z-1.54
N1415 Z-1.36
N1420 X120.322 Y-61.235 Z-1.311
N1425 X120.299 Y-61.232 Z-1.266
N1430 X120.264 Y-61.228 Z-1.231
N1435 X120.22 Y-61.222 Z-1.208
N1440 X120.171 Y-61.215 Z-1.2
N1445 X118.262 Y-60.965
N1450 X118.233 Y-60.961 Z-1.203
N1455 X118.204 Y-60.957 Z-1.211
N1460 X118.176 Y-60.959 Z-1.225
N1465 X118.153 Y-60.968 Z-1.245
N1470 X118.137 Y-60.98 Z-1.27
N1475 X118.127 Y-60.992 Z-1.298
N1480 X118.123 Y-61. Z-1.328
N1485 X118.121 Y-61.003 Z-1.36
N1490 Z-1.54
N1495 X118.12 Y-61.006 Z-1.572
N1500 X118.117 Y-61.016 Z-1.604
N1505 X118.114 Y-61.031 Z-1.632
N1510 X118.115 Y-61.051 Z-1.655
N1515 X118.123 Y-61.074 Z-1.674
N1520 X118.14 Y-61.095 Z-1.688
N1525 X118.164 Y-61.111 Z-1.697
N1530 X118.194 Y-61.117 Z-1.7
N1535 X118.49
N1540 G2 X119.29 Y-61.917 I0. J-0.8
N1545 G1 Y-95.916
N1550 G2 X118.49 Y-96.716 I-0.8 J0.
N1555 G1 X101.49
N1560 G2 X100.69 Y-95.916 I0. J0.8
N1565 G1 Y-61.917
N1570 G2 X101.49 Y-61.117 I0.8 J0.
N1575 G1 X118.194
N1580 X118.243 Y-61.109
N1585 X118.288 Y-61.086
N1590 X118.323 Y-61.051
N1595 X118.346 Y-61.006
N1600 X118.354 Y-60.957
N1605 Y-60.797
N1610 Y-60.747 Z-1.692
N1615 Y-60.702 Z-1.669
N1620 Y-60.667 Z-1.634
N1625 Y-60.644 Z-1.589
N1630 Y-60.637 Z-1.54
N1635 Z5.
N1640 X120.488 Y-61.257
N1645 Z-1.7
N1650 X120.518 Y-61.25 Z-1.697
N1655 X120.543 Y-61.234 Z-1.688
N1660 X120.56 Y-61.212 Z-1.673
N1665 X120.567 Y-61.189 Z-1.653
N1670 X120.568 Y-61.169 Z-1.629
N1675 X120.565 Y-61.155 Z-1.601
N1680 X120.562 Y-61.146 Z-1.571
N1685 X120.561 Y-61.143 Z-1.54
N1690 Z-1.36
N1695 X120.559 Y-61.14 Z-1.328
N1700 X120.554 Y-61.132 Z-1.297
N1705 X120.545 Y-61.12 Z-1.269
N1710 X120.529 Y-61.108 Z-1.245
N1715 X120.507 Y-61.099 Z-1.226
N1720 X120.48 Y-61.097 Z-1.212
N1725 X120.451 Y-61.105 Z-1.203
N1730 X120.427 Y-61.124 Z-1.2
N1735 X120.413 Y-61.149
N1740 X120.408 Y-61.177
N1745 Y-61.33
N1750 X120.401 Y-61.363
N1755 X120.381 Y-61.39
N1760 X120.352 Y-61.407
N1765 X120.318 Y-61.41
N1770 X120.286 Y-61.399
N1775 G3 X119.25 Y-61.096 I-1.073 J-1.75
N1780 G1 X101.433 Y-60.78
N1785 G3 X100.835 Y-60.857 I-0.036 J-2.052
N1790 G1 X100.813 Y-60.868
N1795 X100.303 Y-61.211
N1800 X100.262 Y-61.239 Z-1.208
N1805 X100.225 Y-61.264 Z-1.231
N1810 X100.196 Y-61.284 Z-1.266
N1815 X100.177 Y-61.296 Z-1.311
N1820 X100.171 Y-61.301 Z-1.36
N1825 Z-1.54
N1830 X100.164 Y-61.305 Z-1.589
N1835 X100.146 Y-61.317 Z-1.633
N1840 X100.131 Y-61.33 Z-1.656
N1845 X100.118 Y-61.35 Z-1.675
N1850 X100.111 Y-61.376 Z-1.689
N1855 X100.114 Y-61.405 Z-1.697
N1860 X100.127 Y-61.432 Z-1.7
N1865 G2 X100.29 Y-61.917 I-0.637 J-0.484
N1870 G1 Y-95.916
N1875 G2 X99.491 Y-96.716 I-0.8 J0.
N1880 G1 X82.491
N1885 G2 X81.69 Y-95.916 I0. J0.8
N1890 G1 Y-61.917
N1895 G2 X82.491 Y-61.117 I0.8 J0.
N1900 G1 X99.491
N1905 G2 X100.127 Y-61.432 I0. J-0.8
N1910 G1 X100.163 Y-61.467
N1915 X100.208 Y-61.488
N1920 X100.258 Y-61.495
N1925 X100.307 Y-61.486
N1930 X100.351 Y-61.463
N1935 X100.479 Y-61.366
N1940 X100.518 Y-61.336 Z-1.692
N1945 X100.554 Y-61.309 Z-1.669
N1950 X100.582 Y-61.287 Z-1.634
N1955 X100.6 Y-61.273 Z-1.589
N1960 X100.606 Y-61.269 Z-1.54
N1965 Z5.
N1970 X120.488 Y-61.257
N1975 Z-3.35
N1980 X120.478 Y-61.256
N1985 X120.431 Y-61.25 Z-3.339
N1990 X120.39 Y-61.244 Z-3.316
N1995 X120.357 Y-61.24 Z-3.281
N2000 X120.336 Y-61.237 Z-3.237
N2005 X120.329 Y-61.236 Z-3.19
N2010 Z-3.01
N2015 X120.322 Y-61.235 Z-2.961
N2020 X120.299 Y-61.232 Z-2.916
N2025 X120.264 Y-61.228 Z-2.881
N2030 X120.22 Y-61.222 Z-2.858
N2035 X120.171 Y-61.215 Z-2.85
N2040 X118.262 Y-60.965
N2045 X118.233 Y-60.961 Z-2.853
N2050 X118.204 Y-60.957 Z-2.861
N2055 X118.176 Y-60.959 Z-2.875
N2060 X118.153 Y-60.968 Z-2.895
N2065 X118.137 Y-60.98 Z-2.92
N2070 X118.127 Y-60.992 Z-2.948
N2075 X118.123 Y-61. Z-2.978
N2080 X118.121 Y-61.003 Z-3.01
N2085 Z-3.19
N2090 X118.12 Y-61.006 Z-3.222
N2095 X118.117 Y-61.016 Z-3.254
N2100 X118.114 Y-61.031 Z-3.282
N2105 X118.115 Y-61.051 Z-3.305
N2110 X118.123 Y-61.074 Z-3.324
N2115 X118.14 Y-61.095 Z-3.338
N2120 X118.164 Y-61.111 Z-3.347
N2125 X118.194 Y-61.117 Z-3.35
N2130 X118.49
N2135 G2 X119.29 Y-61.917 I0. J-0.8
N2140 G1 Y-95.916
N2145 G2 X118.49 Y-96.716 I-0.8 J0.
N2150 G1 X101.49
N2155 G2 X100.69 Y-95.916 I0. J0.8
N2160 G1 Y-61.917
N2165 G2 X101.49 Y-61.117 I0.8 J0.
N2170 G1 X118.194
N2175 X118.243 Y-61.109
N2180 X118.288 Y-61.086
N2185 X118.323 Y-61.051
N2190 X118.346 Y-61.006
N2195 X118.354 Y-60.957
N2200 Y-60.797
N2205 Y-60.747 Z-3.342
N2210 Y-60.702 Z-3.319
N2215 Y-60.667 Z-3.284
N2220 Y-60.644 Z-3.239
N2225 Y-60.637 Z-3.19
N2230 Z5.
N2235 X79.415 Y-60.115
N2240 Z-1.7
N2245 X79.462 Y-60.1 Z-1.692
N2250 X79.47 Y-60.094 Z-1.688
N2255 X79.472 Y-60.085 Z-1.684
N2260 X79.468 Y-60.077 Z-1.679
N2265 X79.46 Y-60.073 Z-1.674
N2270 X79.45 Y-60.075 Z-1.666
N2275 X79.444 Y-60.082 Z-1.658
N2280 Y-60.091 Z-1.649
N2285 X79.449 Y-60.098 Z-1.639
N2290 X79.464 Y-60.11 Z-1.609
N2295 X79.474 Y-60.117 Z-1.575
N2300 X79.477 Y-60.119 Z-1.54
N2305 Z-1.36
N2310 X79.483 Y-60.124 Z-1.311
N2315 X79.501 Y-60.137 Z-1.266
N2320 X79.529 Y-60.159 Z-1.231
N2325 X79.565 Y-60.186 Z-1.208
N2330 X79.604 Y-60.215 Z-1.2
N2335 X81.157 Y-61.39
N2340 X81.188 Y-61.413 Z-1.205
N2345 X81.217 Y-61.435 Z-1.219
N2350 X81.242 Y-61.454 Z-1.241
N2355 X81.263 Y-61.47 Z-1.271
N2360 X81.273 Y-61.48 Z-1.298
N2365 X81.278 Y-61.488 Z-1.329
N2370 X81.28 Y-61.491 Z-1.36
N2375 Z-1.54
N2380 X81.281 Y-61.494 Z-1.571
N2385 X81.284 Y-61.502 Z-1.6
N2390 X81.285 Y-61.516 Z-1.628
N2395 X81.282 Y-61.535 Z-1.652
N2400 X81.27 Y-61.555 Z-1.672
N2405 X81.251 Y-61.574 Z-1.687
N2410 X81.242 Y-61.587 Z-1.692
N2415 X81.237 Y-61.602 Z-1.697
N2420 X81.235 Y-61.618 Z-1.698
N2425 X81.239 Y-61.634 Z-1.7
N2430 G2 X81.29 Y-61.917 I-0.748 J-0.283
N2435 G1 Y-95.916
N2440 G2 X80.491 Y-96.716 I-0.8 J0.
N2445 G1 X63.491
N2450 G2 X62.69 Y-95.916 I0. J0.8
N2455 G1 Y-61.917
N2460 G2 X63.491 Y-61.117 I0.8 J0.
N2465 G1 X80.491
N2470 G2 X81.239 Y-61.634 I0. J-0.8
N2475 G1 X81.264 Y-61.677
N2480 X81.301 Y-61.711
N2485 X81.346 Y-61.732
N2490 X81.396 Y-61.737
N2495 X81.445 Y-61.727
N2500 X81.595 Y-61.671
N2505 X81.641 Y-61.653 Z-1.692
N2510 X81.683 Y-61.637 Z-1.669
N2515 X81.716 Y-61.625 Z-1.634
N2520 X81.737 Y-61.617 Z-1.589
N2525 X81.745 Y-61.614 Z-1.54
N2530 Z5.
N2535 X120.488 Y-61.257
N2540 Z-3.35
N2545 X120.518 Y-61.25 Z-3.347
N2550 X120.543 Y-61.234 Z-3.338
N2555 X120.56 Y-61.212 Z-3.323
N2560 X120.567 Y-61.189 Z-3.303
N2565 X120.568 Y-61.169 Z-3.279
N2570 X120.565 Y-61.155 Z-3.251
N2575 X120.562 Y-61.146 Z-3.221
N2580 X120.561 Y-61.143 Z-3.19
N2585 Z-3.01
N2590 X120.559 Y-61.14 Z-2.978
N2595 X120.554 Y-61.132 Z-2.947
N2600 X120.545 Y-61.12 Z-2.919
N2605 X120.529 Y-61.108 Z-2.895
N2610 X120.507 Y-61.099 Z-2.876
N2615 X120.48 Y-61.097 Z-2.862
N2620 X120.451 Y-61.105 Z-2.853
N2625 X120.427 Y-61.124 Z-2.85
N2630 X120.413 Y-61.149
N2635 X120.408 Y-61.177
N2640 Y-61.33
N2645 X120.401 Y-61.363
N2650 X120.381 Y-61.39
N2655 X120.352 Y-61.407
N2660 X120.318 Y-61.41
N2665 X120.286 Y-61.399
N2670 G3 X119.25 Y-61.096 I-1.073 J-1.75
N2675 G1 X101.433 Y-60.78
N2680 G3 X100.835 Y-60.857 I-0.036 J-2.052
N2685 G1 X100.813 Y-60.868
N2690 X100.303 Y-61.211
N2695 X100.262 Y-61.239 Z-2.858
N2700 X100.225 Y-61.264 Z-2.881
N2705 X100.196 Y-61.284 Z-2.916
N2710 X100.177 Y-61.296 Z-2.961
N2715 X100.171 Y-61.301 Z-3.01
N2720 Z-3.19
N2725 X100.164 Y-61.305 Z-3.239
N2730 X100.146 Y-61.317 Z-3.283
N2735 X100.131 Y-61.33 Z-3.306
N2740 X100.118 Y-61.35 Z-3.325
N2745 X100.111 Y-61.376 Z-3.339
N2750 X100.114 Y-61.405 Z-3.347
N2755 X100.127 Y-61.432 Z-3.35
N2760 G2 X100.29 Y-61.917 I-0.637 J-0.484
N2765 G1 Y-95.916
N2770 G2 X99.491 Y-96.716 I-0.8 J0.
N2775 G1 X82.491
N2780 G2 X81.69 Y-95.916 I0. J0.8
N2785 G1 Y-61.917
N2790 G2 X82.491 Y-61.117 I0.8 J0.
N2795 G1 X99.491
N2800 G2 X100.127 Y-61.432 I0. J-0.8
N2805 G1 X100.163 Y-61.467
N2810 X100.208 Y-61.488
N2815 X100.258 Y-61.495
N2820 X100.307 Y-61.486
N2825 X100.351 Y-61.463
N2830 X100.479 Y-61.366
N2835 X100.518 Y-61.336 Z-3.342
N2840 X100.554 Y-61.309 Z-3.319
N2845 X100.582 Y-61.287 Z-3.284
N2850 X100.6 Y-61.273 Z-3.239
N2855 X100.606 Y-61.269 Z-3.19
N2860 Z5.
N2865 X79.415 Y-60.115
N2870 Z2.7 F55.8
N2875 Z-1.7 F111.6
N2880 G2 X79.096 Y-59.626 I0. J0.348
N2885 G1 X79.24 Y-59.301
N2890 G3 X78.921 Y-58.812 I-0.319 J0.141
N2895 G1 X78.761
N2900 X78.712 Y-58.82
N2905 X78.667 Y-58.843
N2910 X78.632 Y-58.878
N2915 X78.609 Y-58.923
N2920 X78.601 Y-58.972
N2925 Y-59.688
N2930 G2 X77.801 Y-60.488 I-0.8 J0.
N2935 G1 X60.801
N2940 G2 X60.001 Y-59.688 I0. J0.8
N2945 G1 Y-25.688
N2950 G2 X60.801 Y-24.888 I0.8 J0.
N2955 G1 X77.801
N2960 G2 X78.601 Y-25.688 I0. J-0.8
N2965 G1 Y-58.972
N2970 X78.609 Y-59.022
N2975 X78.632 Y-59.067
N2980 X78.667 Y-59.102
N2985 X78.712 Y-59.125
N2990 X78.761 Y-59.132
N2995 X78.921
N3000 X78.971 Z-1.692
N3005 X79.015 Z-1.669
N3010 X79.051 Z-1.634
N3015 X79.073 Z-1.589
N3020 X79.081 Z-1.54
N3025 Z5.
N3030 X77.641 Y-23.927
N3035 Z-3.35
N3040 X77.638 Y-23.919
N3045 X77.631 Y-23.904 Z-3.347
N3050 X77.625 Y-23.888 Z-3.344
N3055 X77.619 Y-23.873 Z-3.338
N3060 X77.612 Y-23.858 Z-3.331
N3065 X77.607 Y-23.845 Z-3.322
N3070 X77.601 Y-23.832 Z-3.312
N3075 X77.592 Y-23.81 Z-3.287
N3080 X77.585 Y-23.794 Z-3.257
N3085 X77.58 Y-23.783 Z-3.224
N3090 X77.579 Y-23.78 Z-3.19
N3095 Z-3.01
N3100 X77.578 Y-23.777 Z-2.979
N3105 X77.574 Y-23.769 Z-2.949
N3110 X77.568 Y-23.755 Z-2.921
N3115 X77.56 Y-23.737 Z-2.897
N3120 X77.55 Y-23.715 Z-2.877
N3125 X77.545 Y-23.702 Z-2.87
N3130 X77.539 Y-23.69 Z-2.862
N3135 X77.533 Y-23.676 Z-2.858
N3140 X77.527 Y-23.662 Z-2.853
N3145 X77.521 Y-23.648 Z-2.852
N3150 X77.514 Y-23.634 Z-2.85
N3155 G3 X75.867 Y-21.133 I-8.71 J-3.945
N3160 G2 X76.143 Y-17.843 I1.663 J1.517
N3165 X77.352 Y-16.993 I8.851 J-11.316
N3170 X78.648 Y-16.283 I6.625 J-10.548
N3175 X79.875 Y-15.808 I3.876 J-8.188
N3180 X81.154 Y-15.503 I3.07 J-10.037
N3185 X81.779 Y-15.436 I0.83 J-4.792
N3190 G3 X82.407 Y-15.405 I-2.061 J48.882
N3195 G2 X88.438 Y-15.317 I4.118 J-74.824
N3200 G3 X94.47 Y-15.406 I7.142 J279.51
N3205 G2 X97.284 Y-16.6 I-0.016 J-3.948
N3210 X98.438 Y-19.429 I-2.919 J-2.842
N3215 G1 X98.439 Y-44.609
N3220 G3 X99.631 Y-47.432 I3.938 J0.
N3225 X102.47 Y-48.585 I2.839 J2.919
N3230 G2 X109.044 Y-48.735 I-0.002 J-144.602
N3235 G3 X115.616 Y-48.504 I1.856 J40.763
N3240 X116.411 Y-48.356 I-0.684 J5.88
N3245 X117.186 Y-48.127 I-2.921 J11.321
N3250 G1 X117.211 Y-48.123
N3255 X117.236 Y-48.127
N3260 X117.259 Y-48.138
N3265 X117.93 Y-48.634
N3270 X117.97 Y-48.663 Z-2.858
N3275 X118.006 Y-48.69 Z-2.881
N3280 X118.034 Y-48.711 Z-2.916
N3285 X118.052 Y-48.724 Z-2.961
N3290 X118.059 Y-48.729 Z-3.01
N3295 Z-3.19
N3300 X118.065 Y-48.734 Z-3.239
N3305 X118.083 Y-48.747 Z-3.283
N3310 X118.111 Y-48.768 Z-3.319
N3315 X118.146 Y-48.794 Z-3.342
N3320 X118.169 Y-48.805 Z-3.348
N3325 X118.194 Y-48.809 Z-3.35
N3330 X122.406
N3335 G2 X123.206 Y-49.609 I0. J-0.8
N3340 G1 Y-56.609
N3345 G2 X119.406 Y-60.409 I-3.8 J0.
N3350 G1 X82.407
N3355 G2 X78.606 Y-56.609 I0. J3.8
N3360 G1 Y-19.429
N3365 G2 X82.407 Y-15.629 I3.8 J0.
N3370 G1 X94.407
N3375 G2 X98.206 Y-19.429 I0. J-3.8
N3380 G1 Y-44.609
N3385 G3 X102.406 Y-48.809 I4.2 J0.
N3390 G1 X118.194
N3395 X118.243 Y-48.802
N3400 X118.288 Y-48.779
N3405 X118.323 Y-48.743
N3410 X118.346 Y-48.699
N3415 X118.354 Y-48.649
N3420 Y-48.489
N3425 Y-48.44 Z-3.342
N3430 Y-48.395 Z-3.319
N3435 Y-48.36 Z-3.284
N3440 Y-48.337 Z-3.239
N3445 Y-48.329 Z-3.19
N3450 Z5.
N3455 X59.105 Y-60.185
N3460 Z-1.7
N3465 X59.127 Y-60.173 Z-1.698
N3470 X59.156 Y-60.161 Z-1.69
N3475 X59.183 Y-60.153 Z-1.675
N3480 X59.208 Y-60.148 Z-1.656
N3485 X59.219 Y-60.147 Z-1.643
N3490 X59.229 Y-60.146 Z-1.631
N3495 X59.237 Y-60.145 Z-1.617
N3500 X59.245 Z-1.603
N3505 X59.254 Z-1.572
N3510 X59.258 Z-1.54
N3515 Z-1.36
N3520 X59.259 Z-1.35
N3525 X59.26 Z-1.339
N3530 X59.261 Z-1.329
N3535 X59.27 Y-60.146 Z-1.299
N3540 X59.277 Y-60.147 Z-1.285
N3545 X59.284 Y-60.148 Z-1.271
N3550 X59.294 Y-60.149 Z-1.259
N3555 X59.304 Y-60.151 Z-1.247
N3560 X59.328 Y-60.157 Z-1.227
N3565 X59.353 Y-60.167 Z-1.212
N3570 X59.38 Y-60.18 Z-1.203
N3575 X59.407 Y-60.197 Z-1.2
N3580 X59.453 Y-60.24
N3585 X59.488 Y-60.292
N3590 G3 X59.759 Y-60.558 I0.535 J0.273
N3595 X61.25 Y-60.605 I0.798 J1.628
N3600 G2 X62.491 Y-61.434 I0.343 J-0.829
N3605 G1 X62.484 Y-61.464
N3610 X62.467 Y-61.49
N3615 X62.464 Y-61.492
N3620 X62.428 Y-61.524 Z-1.209
N3625 X62.395 Y-61.553 Z-1.232
N3630 X62.369 Y-61.576 Z-1.267
N3635 X62.353 Y-61.59 Z-1.311
N3640 X62.347 Y-61.595 Z-1.36
N3645 Z-1.54
N3650 X62.343 Y-61.599 Z-1.58
N3655 X62.332 Y-61.609 Z-1.618
N3660 X62.314 Y-61.624 Z-1.65
N3665 X62.29 Y-61.645 Z-1.676
N3670 X62.274 Y-61.666 Z-1.689
N3675 X62.265 Y-61.693 Z-1.697
N3680 X62.266 Y-61.722 Z-1.7
N3685 X62.284 Y-61.818
N3690 X62.291 Y-61.917
N3695 Y-95.916
N3700 G2 X61.491 Y-96.716 I-0.8 J0.
N3705 G1 X44.491
N3710 G2 X43.69 Y-95.916 I0. J0.8
N3715 G1 Y-61.917
N3720 G2 X44.491 Y-61.117 I0.8 J0.
N3725 G1 X61.491
N3730 G2 X62.266 Y-61.722 I0. J-0.8
N3735 G1 X62.277 Y-61.751 Z-1.697
N3740 X62.292 Y-61.777 Z-1.688
N3745 X62.31 Y-61.798 Z-1.673
N3750 X62.329 Y-61.813 Z-1.653
N3755 X62.346 Y-61.824 Z-1.629
N3760 X62.359 Y-61.83 Z-1.601
N3765 X62.368 Y-61.833 Z-1.571
N3770 X62.371 Y-61.834 Z-1.54
N3775 Z5.
N3780 X79.415 Y-60.115
N3785 Z-3.35
N3790 X79.462 Y-60.1 Z-3.342
N3795 X79.47 Y-60.094 Z-3.338
N3800 X79.472 Y-60.085 Z-3.334
N3805 X79.468 Y-60.077 Z-3.329
N3810 X79.46 Y-60.073 Z-3.324
N3815 X79.45 Y-60.075 Z-3.316
N3820 X79.444 Y-60.082 Z-3.308
N3825 Y-60.091 Z-3.299
N3830 X79.449 Y-60.098 Z-3.289
N3835 X79.464 Y-60.11 Z-3.259
N3840 X79.474 Y-60.117 Z-3.225
N3845 X79.477 Y-60.119 Z-3.19
N3850 Z-3.01
N3855 X79.483 Y-60.124 Z-2.961
N3860 X79.501 Y-60.137 Z-2.916
N3865 X79.529 Y-60.159 Z-2.881
N3870 X79.565 Y-60.186 Z-2.858
N3875 X79.604 Y-60.215 Z-2.85
N3880 X81.157 Y-61.39
N3885 X81.188 Y-61.413 Z-2.855
N3890 X81.217 Y-61.435 Z-2.869
N3895 X81.242 Y-61.454 Z-2.891
N3900 X81.263 Y-61.47 Z-2.921
N3905 X81.273 Y-61.48 Z-2.948
N3910 X81.278 Y-61.488 Z-2.979
N3915 X81.28 Y-61.491 Z-3.01
N3920 Z-3.19
N3925 X81.281 Y-61.494 Z-3.221
N3930 X81.284 Y-61.502 Z-3.25
N3935 X81.285 Y-61.516 Z-3.278
N3940 X81.282 Y-61.535 Z-3.302
N3945 X81.27 Y-61.555 Z-3.322
N3950 X81.251 Y-61.574 Z-3.337
N3955 X81.242 Y-61.587 Z-3.342
N3960 X81.237 Y-61.602 Z-3.347
N3965 X81.235 Y-61.618 Z-3.348
N3970 X81.239 Y-61.634 Z-3.35
N3975 G2 X81.29 Y-61.917 I-0.748 J-0.283
N3980 G1 Y-95.916
N3985 G2 X80.491 Y-96.716 I-0.8 J0.
N3990 G1 X63.491
N3995 G2 X62.69 Y-95.916 I0. J0.8
N4000 G1 Y-61.917
N4005 G2 X63.491 Y-61.117 I0.8 J0.
N4010 G1 X80.491
N4015 G2 X81.239 Y-61.634 I0. J-0.8
N4020 G1 X81.264 Y-61.677
N4025 X81.301 Y-61.711
N4030 X81.346 Y-61.732
N4035 X81.396 Y-61.737
N4040 X81.445 Y-61.727
N4045 X81.595 Y-61.671
N4050 X81.641 Y-61.653 Z-3.342
N4055 X81.683 Y-61.637 Z-3.319
N4060 X81.716 Y-61.625 Z-3.284
N4065 X81.737 Y-61.617 Z-3.239
N4070 X81.745 Y-61.614 Z-3.19
N4075 Z5.
N4080 X59.105 Y-60.185
N4085 Z-1.7
N4090 X59.113 Y-60.179 Z-1.699
N4095 X59.111 Y-60.169 Z-1.698
N4100 X59.082 Y-60.139 Z-1.687
N4105 X59.073 Y-60.13 Z-1.68
N4110 X59.064 Y-60.12 Z-1.672
N4115 X59.056 Y-60.111 Z-1.662
N4120 X59.048 Y-60.102 Z-1.652
N4125 X59.036 Y-60.086 Z-1.628
N4130 X59.027 Y-60.075 Z-1.601
N4135 X59.022 Y-60.068 Z-1.571
N4140 X59.02 Y-60.065 Z-1.54
N4145 Z-1.36
N4150 Y-60.064 Z-1.344
N4155 X59.019 Y-60.063 Z-1.329
N4160 X59.014 Y-60.055 Z-1.299
N4165 X59.005 Y-60.043 Z-1.271
N4170 X58.995 Y-60.026 Z-1.247
N4175 X58.989 Y-60.015 Z-1.237
N4180 X58.983 Y-60.005 Z-1.227
N4185 X58.977 Y-59.992 Z-1.22
N4190 X58.971 Y-59.98 Z-1.212
N4195 X58.965 Y-59.966 Z-1.208
N4200 X58.959 Y-59.952 Z-1.203
N4205 X58.953 Y-59.938 Z-1.202
N4210 X58.948 Y-59.923 Z-1.2
N4215 G2 X59.114 Y-59.303 I0.542 J0.187
N4220 G3 X59.57 Y-58.601 I-0.996 J1.147
N4225 X59.746 Y-57.89 I-6.334 J1.941
N4230 X59.863 Y-57.167 I-13.711 J2.591
N4235 X59.896 Y-56.732 I-3.678 J0.497
N4240 G2 X59.912 Y-56.297 I11.126 J-0.186
N4245 G3 X59.971 Y-52.035 I-50.743 J2.84
N4250 G2 X59.912 Y-47.906 I152.369 J4.261
N4255 G1 Y-47.875 Z-1.203
N4260 Y-47.845 Z-1.212
N4265 Y-47.818 Z-1.226
N4270 Y-47.794 Z-1.246
N4275 Y-47.774 Z-1.27
N4280 X59.91 Y-47.764 Z-1.286
N4285 X59.906 Y-47.752 Z-1.322
N4290 X59.904 Y-47.747 Z-1.36
N4295 Z-1.54
N4300 X59.903 Y-47.742 Z-1.58
N4305 X59.898 Y-47.728 Z-1.618
N4310 X59.89 Y-47.705 Z-1.651
N4315 X59.88 Y-47.675 Z-1.676
N4320 X59.874 Y-47.664 Z-1.683
N4325 X59.863 Y-47.657 Z-1.689
N4330 X59.849 Y-47.655 Z-1.693
N4335 X59.836 Y-47.66 Z-1.697
N4340 X59.826 Y-47.67 Z-1.699
N4345 X59.822 Y-47.685 Z-1.7
N4350 Y-56.297
N4355 G2 X56.022 Y-60.097 I-3.8 J0.
N4360 G1 X19.022
N4365 G2 X15.222 Y-56.297 I0. J3.8
N4370 G1 Y-49.297
N4375 G2 X16.022 Y-48.496 I0.8 J0.
N4380 G1 X36.022
N4385 G3 X40.222 Y-44.297 I0. J4.2
N4390 G1 Y-19.116
N4395 G2 X44.022 Y-15.316 I3.8 J0.
N4400 G1 X56.022
N4405 G2 X59.822 Y-19.117 I0. J-3.8
N4410 G1 Y-47.685
N4415 X59.823 Y-47.693 Z-1.699
N4420 X59.825 Y-47.7 Z-1.697
N4425 X59.829 Y-47.707 Z-1.693
N4430 X59.832 Y-47.712 Z-1.688
N4435 X59.836 Y-47.716 Z-1.681
N4440 X59.839 Y-47.718 Z-1.674
N4445 X59.841 Y-47.72 Z-1.666
N4450 X59.842 Z-1.658
N4455 Z5.
N4460 X79.415 Y-60.115
N4465 Z1. F55.8
N4470 Z-3.35 F111.6
N4475 G2 X79.096 Y-59.626 I0. J0.348
N4480 G1 X79.24 Y-59.301
N4485 G3 X78.921 Y-58.812 I-0.319 J0.141
N4490 G1 X78.761
N4495 X78.712 Y-58.82
N4500 X78.667 Y-58.843
N4505 X78.632 Y-58.878
N4510 X78.609 Y-58.923
N4515 X78.601 Y-58.972
N4520 Y-59.688
N4525 G2 X77.801 Y-60.488 I-0.8 J0.
N4530 G1 X60.801
N4535 G2 X60.001 Y-59.688 I0. J0.8
N4540 G1 Y-25.688
N4545 G2 X60.801 Y-24.888 I0.8 J0.
N4550 G1 X77.801
N4555 G2 X78.601 Y-25.688 I0. J-0.8
N4560 G1 Y-58.972
N4565 X78.609 Y-59.022
N4570 X78.632 Y-59.067
N4575 X78.667 Y-59.102
N4580 X78.712 Y-59.125
N4585 X78.761 Y-59.132
N4590 X78.921
N4595 X78.971 Z-3.342
N4600 X79.015 Z-3.319
N4605 X79.051 Z-3.284
N4610 X79.073 Z-3.239
N4615 X79.081 Z-3.19
N4620 Z5.
N4625 X59.105 Y-60.185
N4630 Z-1.7
N4635 X59.113 Y-60.179 Z-1.699
N4640 X59.111 Y-60.169 Z-1.698
N4645 X59.082 Y-60.139 Z-1.687
N4650 X59.073 Y-60.13 Z-1.68
N4655 X59.063 Y-60.121 Z-1.672
N4660 X59.054 Y-60.113 Z-1.662
N4665 X59.044 Y-60.106 Z-1.652
N4670 X59.037 Y-60.1 Z-1.64
N4675 X59.029 Y-60.094 Z-1.628
N4680 X59.017 Y-60.086 Z-1.601
N4685 X59.009 Y-60.081 Z-1.571
N4690 X59.006 Y-60.08 Z-1.54
N4695 Z-1.36
N4700 X59.005 Y-60.079 Z-1.344
N4705 X59.004 Y-60.078 Z-1.329
N4710 X58.996 Y-60.074 Z-1.299
N4715 X58.983 Y-60.067 Z-1.271
N4720 X58.974 Y-60.062 Z-1.259
N4725 X58.965 Y-60.058 Z-1.247
N4730 X58.954 Y-60.053 Z-1.237
N4735 X58.943 Y-60.049 Z-1.227
N4740 X58.93 Y-60.044 Z-1.22
N4745 X58.916 Y-60.04 Z-1.212
N4750 X58.902 Y-60.036 Z-1.208
N4755 X58.887 Y-60.032 Z-1.203
N4760 X58.872 Y-60.029 Z-1.202
N4765 X58.857 Y-60.027 Z-1.2
N4770 G3 X58.548 Y-60.117 I-0.053 J-0.389
N4775 G2 X58.072 Y-60.363 I-0.757 J0.884
N4780 X50.933 Y-60.571 I-4.046 J16.24
N4785 G3 X43.791 Y-60.7 I-3.259 J-17.33
N4790 X43.499 Y-61.053 I0.083 J-0.366
N4795 X43.491 Y-61.511 I12.91 J-0.458
N4800 G1 X43.484 Y-61.541
N4805 X43.464 Y-61.567 Z-1.204
N4810 X43.432 Y-61.593 Z-1.218
N4815 X43.405 Y-61.615 Z-1.243
N4820 X43.384 Y-61.633 Z-1.277
N4825 X43.37 Y-61.643 Z-1.317
N4830 X43.366 Y-61.647 Z-1.36
N4835 Z-1.54
N4840 X43.362 Y-61.651 Z-1.582
N4845 X43.349 Y-61.661 Z-1.621
N4850 X43.328 Y-61.678 Z-1.655
N4855 X43.302 Y-61.699 Z-1.68
N4860 X43.286 Y-61.718 Z-1.691
N4865 X43.277 Y-61.742 Z-1.698
N4870 Y-61.769 Z-1.7
N4875 X43.287 Y-61.842
N4880 X43.291 Y-61.917
N4885 Y-95.916
N4890 G2 X42.491 Y-96.716 I-0.8 J0.
N4895 G1 X25.49
N4900 G2 X24.691 Y-95.916 I0. J0.8
N4905 G1 Y-61.917
N4910 G2 X25.49 Y-61.117 I0.8 J0.
N4915 G1 X42.491
N4920 G2 X43.277 Y-61.769 I0. J-0.8
N4925 G1 X43.285 Y-61.799 Z-1.697
N4930 X43.299 Y-61.825 Z-1.688
N4935 X43.316 Y-61.847 Z-1.673
N4940 X43.334 Y-61.864 Z-1.653
N4945 X43.35 Y-61.875 Z-1.629
N4950 X43.363 Y-61.882 Z-1.601
N4955 X43.371 Y-61.886 Z-1.571
N4960 X43.374 Y-61.887 Z-1.54
N4965 Z5.
N4970 X59.105 Y-60.185
N4975 Z-3.35
N4980 X59.127 Y-60.173 Z-3.348
N4985 X59.156 Y-60.161 Z-3.34
N4990 X59.183 Y-60.153 Z-3.325
N4995 X59.208 Y-60.148 Z-3.306
N5000 X59.219 Y-60.147 Z-3.293
N5005 X59.229 Y-60.146 Z-3.281
N5010 X59.237 Y-60.145 Z-3.267
N5015 X59.245 Z-3.253
N5020 X59.254 Z-3.222
N5025 X59.258 Z-3.19
N5030 Z-3.01
N5035 X59.259 Z-3.
N5040 X59.26 Z-2.989
N5045 X59.261 Z-2.979
N5050 X59.27 Y-60.146 Z-2.949
N5055 X59.277 Y-60.147 Z-2.935
N5060 X59.284 Y-60.148 Z-2.921
N5065 X59.294 Y-60.149 Z-2.909
N5070 X59.304 Y-60.151 Z-2.897
N5075 X59.328 Y-60.157 Z-2.877
N5080 X59.353 Y-60.167 Z-2.862
N5085 X59.38 Y-60.18 Z-2.853
N5090 X59.407 Y-60.197 Z-2.85
N5095 X59.453 Y-60.24
N5100 X59.488 Y-60.292
N5105 G3 X59.759 Y-60.558 I0.535 J0.273
N5110 X61.25 Y-60.605 I0.798 J1.628
N5115 G2 X62.491 Y-61.434 I0.343 J-0.829
N5120 G1 X62.484 Y-61.464
N5125 X62.467 Y-61.49
N5130 X62.464 Y-61.492
N5135 X62.428 Y-61.524 Z-2.859
N5140 X62.395 Y-61.553 Z-2.882
N5145 X62.369 Y-61.576 Z-2.917
N5150 X62.353 Y-61.59 Z-2.961
N5155 X62.347 Y-61.595 Z-3.01
N5160 Z-3.19
N5165 X62.343 Y-61.599 Z-3.23
N5170 X62.332 Y-61.609 Z-3.268
N5175 X62.314 Y-61.624 Z-3.3
N5180 X62.29 Y-61.645 Z-3.326
N5185 X62.274 Y-61.666 Z-3.339
N5190 X62.265 Y-61.693 Z-3.347
N5195 X62.266 Y-61.722 Z-3.35
N5200 X62.284 Y-61.818
N5205 X62.291 Y-61.917
N5210 Y-95.916
N5215 G2 X61.491 Y-96.716 I-0.8 J0.
N5220 G1 X44.491
N5225 G2 X43.69 Y-95.916 I0. J0.8
N5230 G1 Y-61.917
N5235 G2 X44.491 Y-61.117 I0.8 J0.
N5240 G1 X61.491
N5245 G2 X62.266 Y-61.722 I0. J-0.8
N5250 G1 X62.277 Y-61.751 Z-3.347
N5255 X62.292 Y-61.777 Z-3.338
N5260 X62.31 Y-61.798 Z-3.323
N5265 X62.329 Y-61.813 Z-3.303
N5270 X62.346 Y-61.824 Z-3.279
N5275 X62.359 Y-61.83 Z-3.251
N5280 X62.368 Y-61.833 Z-3.221
N5285 X62.371 Y-61.834 Z-3.19
N5290 Z5.
N5295 X65.409 Y-15.488
N5300 Z-1.7
N5305 X65.419 Y-15.464 Z-1.698
N5310 X65.421 Y-15.438 Z-1.691
N5315 X65.415 Y-15.414 Z-1.68
N5320 X65.401 Y-15.383 Z-1.655
N5325 X65.39 Y-15.359 Z-1.621
N5330 X65.384 Y-15.344 Z-1.582
N5335 X65.382 Y-15.338 Z-1.54
N5340 Z-1.36
N5345 X65.378 Y-15.331 Z-1.311
N5350 X65.369 Y-15.31 Z-1.266
N5355 X65.355 Y-15.278 Z-1.231
N5360 X65.337 Y-15.237 Z-1.208
N5365 X65.318 Y-15.192 Z-1.2
N5370 X65.082 Y-14.65
N5375 X65.064 Y-14.609 Z-1.207
N5380 X65.048 Y-14.571 Z-1.226
N5385 X65.034 Y-14.539 Z-1.256
N5390 X65.024 Y-14.517 Z-1.295
N5395 X65.019 Y-14.507 Z-1.327
N5400 X65.018 Y-14.504 Z-1.36
N5405 Z-1.54
N5410 X65.016 Y-14.502 Z-1.571
N5415 X65.01 Y-14.495 Z-1.601
N5420 X64.999 Y-14.485 Z-1.629
N5425 X64.982 Y-14.475 Z-1.653
N5430 X64.959 Y-14.469 Z-1.673
N5435 X64.931 Y-14.471 Z-1.688
N5440 X64.904 Y-14.484 Z-1.697
N5445 X64.883 Y-14.506 Z-1.7
N5450 G2 X64.204 Y-14.884 I-0.679 J0.423
N5455 G1 X44.204
N5460 G3 X40.004 Y-19.083 I0. J-4.2
N5465 G1 Y-44.264
N5470 G2 X36.204 Y-48.063 I-3.8 J0.
N5475 G1 X24.204
N5480 G2 X20.404 Y-44.264 I0. J3.8
N5485 G1 Y-7.083
N5490 G2 X24.204 Y-3.283 I3.8 J0.
N5495 G1 X61.204
N5500 G2 X65.004 Y-7.083 I0. J-3.8
N5505 G1 Y-14.083
N5510 G2 X64.883 Y-14.506 I-0.8 J0.
N5515 G1 X64.863 Y-14.552
N5520 X64.859 Y-14.602
N5525 X64.871 Y-14.651
N5530 X64.896 Y-14.694
N5535 X64.934 Y-14.727
N5540 X65.07 Y-14.811
N5545 X65.112 Y-14.837 Z-1.692
N5550 X65.15 Y-14.861 Z-1.669
N5555 X65.18 Y-14.88 Z-1.634
N5560 X65.199 Y-14.892 Z-1.589
N5565 X65.206 Y-14.896 Z-1.54
N5570 Z5.
N5575 X11.254 Y-45.688
N5580 Z2.7 F55.8
N5585 Z-1.7 F111.6
N5590 G2 X11.606 Y-45.116 I0.345 J0.182
N5595 G1 X19.906 Y-45.268
N5600 G3 X20.258 Y-44.696 I0.007 J0.39
N5605 G1 X20.183 Y-44.555
N5610 X20.153 Y-44.515
N5615 X20.112 Y-44.486
N5620 X20.065 Y-44.471
N5625 X20.015 Y-44.472
N5630 X19.967 Y-44.488
N5635 G2 X19.594 Y-44.581 I-0.374 J0.707
N5640 G1 X2.594
N5645 G2 X1.794 Y-43.781 I0. J0.8
N5650 G1 Y-9.781
N5655 G2 X2.594 Y-8.981 I0.8 J0.
N5660 G1 X19.594
N5665 G2 X20.393 Y-9.781 I0. J-0.8
N5670 G1 Y-43.781
N5675 G2 X19.967 Y-44.488 I-0.8 J0.
N5680 G1 X19.927 Y-44.518
N5685 X19.898 Y-44.559
N5690 X19.884 Y-44.607
N5695 Y-44.657
N5700 X19.9 Y-44.704
N5705 X19.975 Y-44.846
N5710 X19.998 Y-44.889 Z-1.692
N5715 X20.019 Y-44.929 Z-1.669
N5720 X20.036 Y-44.96 Z-1.634
N5725 X20.046 Y-44.98 Z-1.589
N5730 X20.05 Y-44.987 Z-1.54
N5735 Z5.
N5740 X65.409 Y-15.488
N5745 Z-3.35
N5750 X65.419 Y-15.464 Z-3.348
N5755 X65.421 Y-15.438 Z-3.341
N5760 X65.415 Y-15.414 Z-3.33
N5765 X65.401 Y-15.383 Z-3.305
N5770 X65.39 Y-15.359 Z-3.271
N5775 X65.384 Y-15.344 Z-3.232
N5780 X65.382 Y-15.338 Z-3.19
N5785 Z-3.01
N5790 X65.378 Y-15.331 Z-2.961
N5795 X65.369 Y-15.31 Z-2.916
N5800 X65.355 Y-15.278 Z-2.881
N5805 X65.337 Y-15.237 Z-2.858
N5810 X65.318 Y-15.192 Z-2.85
N5815 X65.082 Y-14.65
N5820 X65.064 Y-14.609 Z-2.857
N5825 X65.048 Y-14.571 Z-2.876
N5830 X65.034 Y-14.539 Z-2.906
N5835 X65.024 Y-14.517 Z-2.945
N5840 X65.019 Y-14.507 Z-2.977
N5845 X65.018 Y-14.504 Z-3.01
N5850 Z-3.19
N5855 X65.016 Y-14.502 Z-3.221
N5860 X65.01 Y-14.495 Z-3.251
N5865 X64.999 Y-14.485 Z-3.279
N5870 X64.982 Y-14.475 Z-3.303
N5875 X64.959 Y-14.469 Z-3.323
N5880 X64.931 Y-14.471 Z-3.338
N5885 X64.904 Y-14.484 Z-3.347
N5890 X64.883 Y-14.506 Z-3.35
N5895 G2 X64.204 Y-14.884 I-0.679 J0.423
N5900 G1 X44.204
N5905 G3 X40.004 Y-19.083 I0. J-4.2
N5910 G1 Y-44.264
N5915 G2 X36.204 Y-48.063 I-3.8 J0.
N5920 G1 X24.204
N5925 G2 X20.404 Y-44.264 I0. J3.8
N5930 G1 Y-7.083
N5935 G2 X24.204 Y-3.283 I3.8 J0.
N5940 G1 X61.204
N5945 G2 X65.004 Y-7.083 I0. J-3.8
N5950 G1 Y-14.083
N5955 G2 X64.883 Y-14.506 I-0.8 J0.
N5960 G1 X64.863 Y-14.552
N5965 X64.859 Y-14.602
N5970 X64.871 Y-14.651
N5975 X64.896 Y-14.694
N5980 X64.934 Y-14.727
N5985 X65.07 Y-14.811
N5990 X65.112 Y-14.837 Z-3.342
N5995 X65.15 Y-14.861 Z-3.319
N6000 X65.18 Y-14.88 Z-3.284
N6005 X65.199 Y-14.892 Z-3.239
N6010 X65.206 Y-14.896 Z-3.19
N6015 Z5.
N6020 X11.254 Y-45.688
N6025 Z1. F55.8
N6030 Z-3.35 F111.6
N6035 G2 X11.606 Y-45.116 I0.345 J0.182
N6040 G1 X19.906 Y-45.268
N6045 G3 X20.258 Y-44.696 I0.007 J0.39
N6050 G1 X20.183 Y-44.555
N6055 X20.153 Y-44.515
N6060 X20.112 Y-44.486
N6065 X20.065 Y-44.471
N6070 X20.015 Y-44.472
N6075 X19.967 Y-44.488
N6080 G2 X19.594 Y-44.581 I-0.374 J0.707
N6085 G1 X2.594
N6090 G2 X1.794 Y-43.781 I0. J0.8
N6095 G1 Y-9.781
N6100 G2 X2.594 Y-8.981 I0.8 J0.
N6105 G1 X19.594
N6110 G2 X20.393 Y-9.781 I0. J-0.8
N6115 G1 Y-43.781
N6120 G2 X19.967 Y-44.488 I-0.8 J0.
N6125 G1 X19.927 Y-44.518
N6130 X19.898 Y-44.559
N6135 X19.884 Y-44.607
N6140 Y-44.657
N6145 X19.9 Y-44.704
N6150 X19.975 Y-44.846
N6155 X19.998 Y-44.889 Z-3.342
N6160 X20.019 Y-44.929 Z-3.319
N6165 X20.036 Y-44.96 Z-3.284
N6170 X20.046 Y-44.98 Z-3.239
N6175 X20.05 Y-44.987 Z-3.19
N6180 Z5.
N6185 X15.563 Y-60.092
N6190 Z-1.7
N6195 X15.591 Y-60.085 Z-1.697
N6200 X15.612 Y-60.067 Z-1.69
N6205 X15.632 Y-60.04 Z-1.672
N6210 X15.648 Y-60.017 Z-1.647
N6215 X15.661 Y-59.999 Z-1.616
N6220 X15.668 Y-59.991 Z-1.592
N6225 X15.673 Y-59.987 Z-1.566
N6230 X15.674 Y-59.985 Z-1.54
N6235 Z-1.36
N6240 X15.678 Y-59.983 Z-1.325
N6245 X15.688 Y-59.978 Z-1.291
N6250 X15.706 Y-59.974 Z-1.261
N6255 X15.731 Y-59.978 Z-1.236
N6260 X15.752 Y-59.986 Z-1.221
N6265 X15.775 Y-59.994 Z-1.209
N6270 X15.8 Y-60.004 Z-1.202
N6275 X15.813 Y-60.008 Z-1.201
N6280 X15.825 Y-60.013 Z-1.2
N6285 G3 X19.948 Y-60.484 I3.049 J8.396
N6290 G2 X24.19 Y-60.7 I1.498 J-12.371
N6295 X24.49 Y-61.076 I-0.085 J-0.376
N6300 G1 Y-61.555
N6305 X24.489 Y-61.57
N6310 X24.479 Y-61.593 Z-1.202
N6315 X24.463 Y-61.611 Z-1.208
N6320 X24.428 Y-61.638 Z-1.23
N6325 X24.4 Y-61.66 Z-1.266
N6330 X24.382 Y-61.674 Z-1.31
N6335 X24.375 Y-61.679 Z-1.36
N6340 Z-1.54
N6345 X24.371 Y-61.683 Z-1.583
N6350 X24.357 Y-61.693 Z-1.623
N6355 X24.336 Y-61.71 Z-1.656
N6360 X24.308 Y-61.732 Z-1.682
N6365 X24.292 Y-61.749 Z-1.692
N6370 X24.282 Y-61.772 Z-1.698
N6375 Y-61.798 Z-1.7
N6380 X24.288 Y-61.857
N6385 X24.291 Y-61.917
N6390 Y-95.916
N6395 G2 X23.49 Y-96.716 I-0.8 J0.
N6400 G1 X6.49
N6405 G2 X5.69 Y-95.916 I0. J0.8
N6410 G1 Y-61.917
N6415 G2 X6.49 Y-61.117 I0.8 J0.
N6420 G1 X23.49
N6425 G2 X24.282 Y-61.798 I0. J-0.8
N6430 G1 X24.289 Y-61.828 Z-1.697
N6435 X24.302 Y-61.855 Z-1.688
N6440 X24.318 Y-61.877 Z-1.673
N6445 X24.335 Y-61.895 Z-1.653
N6450 X24.351 Y-61.907 Z-1.629
N6455 X24.363 Y-61.914 Z-1.601
N6460 X24.372 Y-61.919 Z-1.571
N6465 X24.374 Y-61.92 Z-1.54
N6470 Z5.
N6475 X15.563 Y-60.092
N6480 Z-3.35
N6485 X15.591 Y-60.085 Z-3.347
N6490 X15.612 Y-60.067 Z-3.34
N6495 X15.632 Y-60.04 Z-3.322
N6500 X15.648 Y-60.017 Z-3.297
N6505 X15.661 Y-59.999 Z-3.266
N6510 X15.668 Y-59.991 Z-3.242
N6515 X15.673 Y-59.987 Z-3.216
N6520 X15.674 Y-59.985 Z-3.19
N6525 Z-3.01
N6530 X15.678 Y-59.983 Z-2.975
N6535 X15.688 Y-59.978 Z-2.941
N6540 X15.706 Y-59.974 Z-2.911
N6545 X15.731 Y-59.978 Z-2.886
N6550 X15.752 Y-59.986 Z-2.871
N6555 X15.775 Y-59.994 Z-2.859
N6560 X15.8 Y-60.004 Z-2.852
N6565 X15.813 Y-60.008 Z-2.851
N6570 X15.825 Y-60.013 Z-2.85
N6575 G3 X19.948 Y-60.484 I3.049 J8.396
N6580 G2 X24.19 Y-60.7 I1.498 J-12.371
N6585 X24.49 Y-61.076 I-0.085 J-0.376
N6590 G1 Y-61.555
N6595 X24.489 Y-61.57
N6600 X24.479 Y-61.593 Z-2.852
N6605 X24.463 Y-61.611 Z-2.858
N6610 X24.428 Y-61.638 Z-2.88
N6615 X24.4 Y-61.66 Z-2.916
N6620 X24.382 Y-61.674 Z-2.96
N6625 X24.375 Y-61.679 Z-3.01
N6630 Z-3.19
N6635 X24.371 Y-61.683 Z-3.233
N6640 X24.357 Y-61.693 Z-3.273
N6645 X24.336 Y-61.71 Z-3.306
N6650 X24.308 Y-61.732 Z-3.332
N6655 X24.292 Y-61.749 Z-3.342
N6660 X24.282 Y-61.772 Z-3.348
N6665 Y-61.798 Z-3.35
N6670 X24.288 Y-61.857
N6675 X24.291 Y-61.917
N6680 Y-95.916
N6685 G2 X23.49 Y-96.716 I-0.8 J0.
N6690 G1 X6.49
N6695 G2 X5.69 Y-95.916 I0. J0.8
N6700 G1 Y-61.917
N6705 G2 X6.49 Y-61.117 I0.8 J0.
N6710 G1 X23.49
N6715 G2 X24.282 Y-61.798 I0. J-0.8
N6720 G1 X24.289 Y-61.828 Z-3.347
N6725 X24.302 Y-61.855 Z-3.338
N6730 X24.318 Y-61.877 Z-3.323
N6735 X24.335 Y-61.895 Z-3.303
N6740 X24.351 Y-61.907 Z-3.279
N6745 X24.363 Y-61.914 Z-3.251
N6750 X24.372 Y-61.919 Z-3.221
N6755 X24.374 Y-61.92 Z-3.19
N6760 Z5.
N6765 X59.105 Y-60.185
N6770 Z-3.35
N6775 X59.113 Y-60.179 Z-3.349
N6780 X59.111 Y-60.169 Z-3.348
N6785 X59.082 Y-60.139 Z-3.337
N6790 X59.073 Y-60.13 Z-3.33
N6795 X59.063 Y-60.121 Z-3.322
N6800 X59.054 Y-60.113 Z-3.312
N6805 X59.044 Y-60.106 Z-3.302
N6810 X59.037 Y-60.1 Z-3.29
N6815 X59.029 Y-60.094 Z-3.278
N6820 X59.017 Y-60.086 Z-3.251
N6825 X59.009 Y-60.081 Z-3.221
N6830 X59.006 Y-60.08 Z-3.19
N6835 Z-3.01
N6840 X59.005 Y-60.079 Z-2.994
N6845 X59.004 Y-60.078 Z-2.979
N6850 X58.996 Y-60.074 Z-2.949
N6855 X58.983 Y-60.067 Z-2.921
N6860 X58.974 Y-60.062 Z-2.909
N6865 X58.965 Y-60.058 Z-2.897
N6870 X58.954 Y-60.053 Z-2.887
N6875 X58.943 Y-60.049 Z-2.877
N6880 X58.93 Y-60.044 Z-2.87
N6885 X58.916 Y-60.04 Z-2.862
N6890 X58.902 Y-60.036 Z-2.858
N6895 X58.887 Y-60.032 Z-2.853
N6900 X58.872 Y-60.029 Z-2.852
N6905 X58.857 Y-60.027 Z-2.85
N6910 G3 X58.548 Y-60.117 I-0.053 J-0.389
N6915 G2 X58.072 Y-60.363 I-0.757 J0.884
N6920 X50.933 Y-60.571 I-4.046 J16.24
N6925 G3 X43.791 Y-60.7 I-3.259 J-17.33
N6930 X43.499 Y-61.053 I0.083 J-0.366
N6935 X43.491 Y-61.511 I12.91 J-0.458
N6940 G1 X43.484 Y-61.541
N6945 X43.464 Y-61.567 Z-2.854
N6950 X43.432 Y-61.593 Z-2.868
N6955 X43.405 Y-61.615 Z-2.893
N6960 X43.384 Y-61.633 Z-2.927
N6965 X43.37 Y-61.643 Z-2.967
N6970 X43.366 Y-61.647 Z-3.01
N6975 Z-3.19
N6980 X43.362 Y-61.651 Z-3.232
N6985 X43.349 Y-61.661 Z-3.271
N6990 X43.328 Y-61.678 Z-3.305
N6995 X43.302 Y-61.699 Z-3.33
N7000 X43.286 Y-61.718 Z-3.341
N7005 X43.277 Y-61.742 Z-3.348
N7010 Y-61.769 Z-3.35
N7015 X43.287 Y-61.842
N7020 X43.291 Y-61.917
N7025 Y-95.916
N7030 G2 X42.491 Y-96.716 I-0.8 J0.
N7035 G1 X25.49
N7040 G2 X24.691 Y-95.916 I0. J0.8
N7045 G1 Y-61.917
N7050 G2 X25.49 Y-61.117 I0.8 J0.
N7055 G1 X42.491
N7060 G2 X43.277 Y-61.769 I0. J-0.8
N7065 G1 X43.285 Y-61.799 Z-3.347
N7070 X43.299 Y-61.825 Z-3.338
N7075 X43.316 Y-61.847 Z-3.323
N7080 X43.334 Y-61.864 Z-3.303
N7085 X43.35 Y-61.875 Z-3.279
N7090 X43.363 Y-61.882 Z-3.251
N7095 X43.371 Y-61.886 Z-3.221
N7100 X43.374 Y-61.887 Z-3.19
N7105 Z5.
N7110 X59.105 Y-60.185
N7115 Z-3.35
N7120 X59.113 Y-60.179 Z-3.349
N7125 X59.111 Y-60.169 Z-3.348
N7130 X59.082 Y-60.139 Z-3.337
N7135 X59.073 Y-60.13 Z-3.33
N7140 X59.064 Y-60.12 Z-3.322
N7145 X59.056 Y-60.111 Z-3.312
N7150 X59.048 Y-60.102 Z-3.302
N7155 X59.036 Y-60.086 Z-3.278
N7160 X59.027 Y-60.075 Z-3.251
N7165 X59.022 Y-60.068 Z-3.221
N7170 X59.02 Y-60.065 Z-3.19
N7175 Z-3.01
N7180 Y-60.064 Z-2.994
N7185 X59.019 Y-60.063 Z-2.979
N7190 X59.014 Y-60.055 Z-2.949
N7195 X59.005 Y-60.043 Z-2.921
N7200 X58.995 Y-60.026 Z-2.897
N7205 X58.989 Y-60.015 Z-2.887
N7210 X58.983 Y-60.005 Z-2.877
N7215 X58.977 Y-59.992 Z-2.87
N7220 X58.971 Y-59.98 Z-2.862
N7225 X58.965 Y-59.966 Z-2.858
N7230 X58.959 Y-59.952 Z-2.853
N7235 X58.953 Y-59.938 Z-2.852
N7240 X58.948 Y-59.923 Z-2.85
N7245 G2 X59.114 Y-59.303 I0.542 J0.187
N7250 G3 X59.57 Y-58.601 I-0.996 J1.147
N7255 X59.746 Y-57.89 I-6.334 J1.941
N7260 X59.863 Y-57.167 I-13.711 J2.591
N7265 X59.896 Y-56.732 I-3.678 J0.497
N7270 G2 X59.912 Y-56.297 I11.126 J-0.186
N7275 G3 X59.971 Y-52.035 I-50.743 J2.84
N7280 G2 X59.912 Y-47.906 I152.369 J4.261
N7285 G1 Y-47.875 Z-2.853
N7290 Y-47.845 Z-2.862
N7295 Y-47.818 Z-2.876
N7300 Y-47.794 Z-2.896
N7305 Y-47.774 Z-2.92
N7310 X59.91 Y-47.764 Z-2.936
N7315 X59.906 Y-47.752 Z-2.972
N7320 X59.904 Y-47.747 Z-3.01
N7325 Z-3.19
N7330 X59.903 Y-47.742 Z-3.23
N7335 X59.898 Y-47.728 Z-3.268
N7340 X59.89 Y-47.705 Z-3.301
N7345 X59.88 Y-47.675 Z-3.326
N7350 X59.874 Y-47.664 Z-3.333
N7355 X59.863 Y-47.657 Z-3.339
N7360 X59.849 Y-47.655 Z-3.343
N7365 X59.836 Y-47.66 Z-3.347
N7370 X59.826 Y-47.67 Z-3.349
N7375 X59.822 Y-47.685 Z-3.35
N7380 Y-56.297
N7385 G2 X56.022 Y-60.097 I-3.8 J0.
N7390 G1 X19.022
N7395 G2 X15.222 Y-56.297 I0. J3.8
N7400 G1 Y-49.297
N7405 G2 X16.022 Y-48.496 I0.8 J0.
N7410 G1 X36.022
N7415 G3 X40.222 Y-44.297 I0. J4.2
N7420 G1 Y-19.116
N7425 G2 X44.022 Y-15.316 I3.8 J0.
N7430 G1 X56.022
N7435 G2 X59.822 Y-19.117 I0. J-3.8
N7440 G1 Y-47.685
N7445 X59.823 Y-47.693 Z-3.349
N7450 X59.825 Y-47.7 Z-3.347
N7455 X59.829 Y-47.707 Z-3.343
N7460 X59.832 Y-47.712 Z-3.338
N7465 X59.836 Y-47.716 Z-3.331
N7470 X59.839 Y-47.718 Z-3.324
N7475 X59.841 Y-47.72 Z-3.316
N7480 X59.842 Z-3.308
N7485 Z15.
N7490 M9
N7495 G53 G0 Z0.
N7500 G53 G0 X0. Y0.
N7505 M30
%
