(G-CODE GENERATED BY FLATCAM v8.994 - www.flatcam.org - Version Date: 2020/11/7)

(Name: SAL-FP_Keyboard-LogicBoard-B_Cu.gbr_iso_combined_1_cnc)
(Type: G-code from Geometry)
(Units: MM)

(Created on Sunday, 15 October 2023 at 03:44)

(This preprocessor is the default preprocessor used by FlatCAM.)
(It is made to work with MACH3 compatible motion controllers.)

(TOOL DIAMETER: 0.1529 mm)
(Feedrate_XY: 240.0 mm/min)
(Feedrate_Z: 60.0 mm/min)
(Feedrate rapids 1500.0 mm/min)

(Z_Cut: -0.15 mm)
(Z_Move: 2.0 mm)
(Z Start: None mm)
(Z End: 15.0 mm)
(X,Y End: None mm)
(Steps per circle: 64)
(Preprocessor Geometry: default)

(X range:  -45.0152 ...    0.4365  mm)
(Y range:  -30.5377 ...    0.5657  mm)

(Spindle Speed: 12000.0 RPM)
G21
G90
G94

G01 F240.00

M5
G00 Z15.0000
G00 X0.0000 Y0.0000
T2
M6    
(MSG, Change to Tool Dia = 0.1529)
M0
G00 Z15.0000

M03 S12000.0
G01 F240.00
G00 X-0.0764 Y-6.0963
G01 F60.00
G01 Z-0.1500
G01 F240.00
G01 X-0.1071 Y-13.2908
G01 X-0.1080 Y-13.2981
G01 X-0.1091 Y-13.3035
G01 X-0.1284 Y-13.3731
G01 X-0.1322 Y-13.3818
G01 X-0.1360 Y-13.3885
G01 X-0.1404 Y-13.3947
G01 X-0.1467 Y-13.4018
G01 X-0.2005 Y-13.4522
G01 X-0.2079 Y-13.4581
G01 X-0.2160 Y-13.4630
G01 X-0.2265 Y-13.4675
G01 X-0.2356 Y-13.4700
G01 X-0.3051 Y-13.4828
G01 X-0.6042 Y-13.7819
G01 X-0.5655 Y-13.8641
G01 X-0.5311 Y-13.9600
G01 X-0.5289 Y-13.9671
G01 X-0.5051 Y-14.0623
G01 X-0.5036 Y-14.0697
G01 X-0.4887 Y-14.1705
G01 X-0.4836 Y-14.2760
G01 X-0.4887 Y-14.3815
G01 X-0.5036 Y-14.4823
G01 X-0.5051 Y-14.4897
G01 X-0.5289 Y-14.5849
G01 X-0.5311 Y-14.5920
G01 X-0.5655 Y-14.6879
G01 X-0.6042 Y-14.7701
G01 X-0.3025 Y-15.0719
G01 X-0.2476 Y-15.0811
G01 X-0.2387 Y-15.0836
G01 X-0.2286 Y-15.0879
G01 X-0.2222 Y-15.0916
G01 X-0.2148 Y-15.0970
G01 X-0.1566 Y-15.1481
G01 X-0.1516 Y-15.1538
G01 X-0.1461 Y-15.1615
G01 X-0.1424 Y-15.1682
G01 X-0.1388 Y-15.1769
G01 X-0.1178 Y-15.2494
G01 X-0.1158 Y-15.2601
G01 X-0.1152 Y-15.2692
G01 X-0.1344 Y-19.7825
G01 X-0.1348 Y-19.7898
G01 X-0.1355 Y-19.7952
G01 X-0.1371 Y-19.8024
G01 X-0.1559 Y-19.8702
G01 X-0.1589 Y-19.8773
G01 X-0.1625 Y-19.8840
G01 X-0.1667 Y-19.8903
G01 X-0.1729 Y-19.8976
G01 X-0.2280 Y-19.9493
G01 X-0.2339 Y-19.9541
G01 X-0.2386 Y-19.9573
G01 X-0.2470 Y-19.9618
G01 X-0.2577 Y-19.9657
G01 X-0.2650 Y-19.9675
G01 X-0.2954 Y-19.9731
G01 X-0.6042 Y-20.2819
G01 X-0.5655 Y-20.3641
G01 X-0.5311 Y-20.4600
G01 X-0.5289 Y-20.4671
G01 X-0.5051 Y-20.5623
G01 X-0.5036 Y-20.5697
G01 X-0.4887 Y-20.6705
G01 X-0.4836 Y-20.7760
G01 X-0.4887 Y-20.8815
G01 X-0.5036 Y-20.9823
G01 X-0.5051 Y-20.9897
G01 X-0.5289 Y-21.0849
G01 X-0.5311 Y-21.0920
G01 X-0.5655 Y-21.1879
G01 X-0.6042 Y-21.2701
G01 X-0.2935 Y-21.5808
G01 X-0.2769 Y-21.5836
G01 X-0.2680 Y-21.5858
G01 X-0.2594 Y-21.5892
G01 X-0.2498 Y-21.5945
G01 X-0.2410 Y-21.6011
G01 X-0.1883 Y-21.6471
G01 X-0.1829 Y-21.6524
G01 X-0.1780 Y-21.6581
G01 X-0.1737 Y-21.6644
G01 X-0.1700 Y-21.6710
G01 X-0.1664 Y-21.6798
G01 X-0.1453 Y-21.7523
G01 X-0.1435 Y-21.7612
G01 X-0.1428 Y-21.7703
G01 X-0.1755 Y-29.4658
G01 X-0.1766 Y-29.4804
G01 X-0.1920 Y-29.5933
G01 X-0.1937 Y-29.6011
G01 X-0.2027 Y-29.6342
G01 X-0.2054 Y-29.6417
G01 X-0.2446 Y-29.7355
G01 X-0.2483 Y-29.7426
G01 X-0.2655 Y-29.7723
G01 X-0.2700 Y-29.7788
G01 X-0.3322 Y-29.8593
G01 X-0.3375 Y-29.8652
G01 X-0.3618 Y-29.8894
G01 X-0.3679 Y-29.8946
G01 X-0.4487 Y-29.9563
G01 X-0.4554 Y-29.9607
G01 X-0.4851 Y-29.9777
G01 X-0.4923 Y-29.9812
G01 X-0.5863 Y-30.0200
G01 X-0.5939 Y-30.0224
G01 X-0.6251 Y-30.0308
G01 X-0.6349 Y-30.0327
G01 X-0.7459 Y-30.0473
G01 X-0.7639 Y-30.0484
G01 X-43.9379 Y-30.0484
G01 X-43.9560 Y-30.0473
G01 X-44.0693 Y-30.0323
G01 X-44.0771 Y-30.0307
G01 X-44.1103 Y-30.0217
G01 X-44.1178 Y-30.0191
G01 X-44.2120 Y-29.9800
G01 X-44.2191 Y-29.9764
G01 X-44.2489 Y-29.9592
G01 X-44.2555 Y-29.9547
G01 X-44.3364 Y-29.8926
G01 X-44.3423 Y-29.8872
G01 X-44.3666 Y-29.8629
G01 X-44.3718 Y-29.8568
G01 X-44.4339 Y-29.7759
G01 X-44.4382 Y-29.7692
G01 X-44.4554 Y-29.7394
G01 X-44.4588 Y-29.7322
G01 X-44.4978 Y-29.6380
G01 X-44.5003 Y-29.6303
G01 X-44.5087 Y-29.5991
G01 X-44.5106 Y-29.5893
G01 X-44.5248 Y-29.4818
G01 X-44.5259 Y-29.4637
G01 X-44.5259 Y-0.5083
G01 X-44.5248 Y-0.4902
G01 X-44.5103 Y-0.3807
G01 X-44.5087 Y-0.3729
G01 X-44.4997 Y-0.3397
G01 X-44.4971 Y-0.3322
G01 X-44.4580 Y-0.2380
G01 X-44.4544 Y-0.2309
G01 X-44.4372 Y-0.2011
G01 X-44.4327 Y-0.1945
G01 X-44.3706 Y-0.1136
G01 X-44.3652 Y-0.1077
G01 X-44.3409 Y-0.0834
G01 X-44.3348 Y-0.0782
G01 X-44.2539 Y-0.0161
G01 X-44.2472 Y-0.0118
G01 X-44.2174 Y0.0054
G01 X-44.2102 Y0.0088
G01 X-44.1160 Y0.0478
G01 X-44.1083 Y0.0503
G01 X-44.0771 Y0.0587
G01 X-44.0673 Y0.0606
G01 X-43.9560 Y0.0753
G01 X-43.9379 Y0.0764
G01 X-0.6412 Y0.0764
G01 X-0.6231 Y0.0753
G01 X-0.5115 Y0.0605
G01 X-0.5017 Y0.0586
G01 X-0.4704 Y0.0502
G01 X-0.4628 Y0.0477
G01 X-0.3683 Y0.0085
G01 X-0.3593 Y0.0040
G01 X-0.3313 Y-0.0122
G01 X-0.3245 Y-0.0166
G01 X-0.2435 Y-0.0790
G01 X-0.2360 Y-0.0856
G01 X-0.2131 Y-0.1086
G01 X-0.2077 Y-0.1146
G01 X-0.1457 Y-0.1958
G01 X-0.1401 Y-0.2042
G01 X-0.1240 Y-0.2323
G01 X-0.1203 Y-0.2395
G01 X-0.0815 Y-0.3341
G01 X-0.0783 Y-0.3436
G01 X-0.0687 Y-0.3808
G01 X-0.0534 Y-0.5014
G01 X-0.0527 Y-0.5145
G01 X-0.0764 Y-6.0963
G00 Z2.0000
G00 X0.0459 Y-6.0968
G01 F60.00
G01 Z-0.1500
G01 F240.00
G01 X0.0155 Y-13.2859
G01 X0.0149 Y-13.3001
G01 X0.0133 Y-13.3143
G01 X0.0096 Y-13.3330
G01 X-0.0087 Y-13.4000
G01 X-0.0149 Y-13.4188
G01 X-0.0230 Y-13.4370
G01 X-0.0302 Y-13.4500
G01 X-0.0413 Y-13.4665
G01 X-0.0540 Y-13.4817
G01 X-0.0644 Y-13.4923
G01 X-0.1190 Y-13.5435
G01 X-0.1344 Y-13.5559
G01 X-0.1509 Y-13.5667
G01 X-0.1595 Y-13.5714
G01 X-0.1729 Y-13.5778
G01 X-0.1914 Y-13.5847
G01 X-0.2105 Y-13.5897
G01 X-0.2456 Y-13.5962
G01 X-0.4568 Y-13.8075
G01 X-0.4525 Y-13.8173
G01 X-0.4490 Y-13.8264
G01 X-0.4128 Y-13.9280
G01 X-0.3843 Y-14.0421
G01 X-0.3670 Y-14.1585
G01 X-0.3612 Y-14.2760
G01 X-0.3670 Y-14.3935
G01 X-0.3843 Y-14.5099
G01 X-0.4128 Y-14.6240
G01 X-0.4490 Y-14.7256
G01 X-0.4525 Y-14.7347
G01 X-0.4568 Y-14.7445
G01 X-0.2437 Y-14.9576
G01 X-0.2264 Y-14.9606
G01 X-0.2171 Y-14.9626
G01 X-0.1987 Y-14.9680
G01 X-0.1810 Y-14.9751
G01 X-0.1681 Y-14.9815
G01 X-0.1599 Y-14.9863
G01 X-0.1440 Y-14.9971
G01 X-0.1329 Y-15.0061
G01 X-0.0766 Y-15.0554
G01 X-0.0628 Y-15.0695
G01 X-0.0504 Y-15.0848
G01 X-0.0396 Y-15.1014
G01 X-0.0305 Y-15.1189
G01 X-0.0231 Y-15.1372
G01 X0.0017 Y-15.2229
G01 X0.0036 Y-15.2321
G01 X0.0058 Y-15.2461
G01 X0.0070 Y-15.2650
G01 X-0.0121 Y-19.7830
G01 X-0.0130 Y-19.8020
G01 X-0.0150 Y-19.8162
G01 X-0.0179 Y-19.8302
G01 X-0.0363 Y-19.8971
G01 X-0.0425 Y-19.9160
G01 X-0.0483 Y-19.9297
G01 X-0.0577 Y-19.9472
G01 X-0.0659 Y-19.9596
G01 X-0.0782 Y-19.9752
G01 X-0.0919 Y-19.9895
G01 X-0.1429 Y-20.0373
G01 X-0.1541 Y-20.0470
G01 X-0.1659 Y-20.0559
G01 X-0.1827 Y-20.0663
G01 X-0.2004 Y-20.0749
G01 X-0.2189 Y-20.0818
G01 X-0.2356 Y-20.0863
G01 X-0.4568 Y-20.3075
G01 X-0.4525 Y-20.3173
G01 X-0.4490 Y-20.3264
G01 X-0.4128 Y-20.4280
G01 X-0.3843 Y-20.5421
G01 X-0.3670 Y-20.6585
G01 X-0.3612 Y-20.7760
G01 X-0.3670 Y-20.8935
G01 X-0.3843 Y-21.0099
G01 X-0.4128 Y-21.1240
G01 X-0.4490 Y-21.2256
G01 X-0.4525 Y-21.2347
G01 X-0.4568 Y-21.2445
G01 X-0.2326 Y-21.4688
G01 X-0.2173 Y-21.4742
G01 X-0.1999 Y-21.4821
G01 X-0.1834 Y-21.4917
G01 X-0.1716 Y-21.5000
G01 X-0.1605 Y-21.5090
G01 X-0.1042 Y-21.5583
G01 X-0.0937 Y-21.5687
G01 X-0.0871 Y-21.5761
G01 X-0.0751 Y-21.5917
G01 X-0.0671 Y-21.6042
G01 X-0.0580 Y-21.6217
G01 X-0.0507 Y-21.6400
G01 X-0.0259 Y-21.7257
G01 X-0.0224 Y-21.7443
G01 X-0.0207 Y-21.7631
G01 X-0.0531 Y-29.4673
G01 X-0.0549 Y-29.4926
G01 X-0.0712 Y-29.6129
G01 X-0.0743 Y-29.6282
G01 X-0.0855 Y-29.6693
G01 X-0.0888 Y-29.6792
G01 X-0.0925 Y-29.6889
G01 X-0.1330 Y-29.7856
G01 X-0.1399 Y-29.7996
G01 X-0.1614 Y-29.8365
G01 X-0.1671 Y-29.8451
G01 X-0.1732 Y-29.8535
G01 X-0.2373 Y-29.9365
G01 X-0.2476 Y-29.9482
G01 X-0.2778 Y-29.9783
G01 X-0.2855 Y-29.9852
G01 X-0.2936 Y-29.9918
G01 X-0.3770 Y-30.0554
G01 X-0.3899 Y-30.0640
G01 X-0.4269 Y-30.0853
G01 X-0.4362 Y-30.0900
G01 X-0.4456 Y-30.0942
G01 X-0.5426 Y-30.1342
G01 X-0.5574 Y-30.1392
G01 X-0.5935 Y-30.1489
G01 X-0.6087 Y-30.1524
G01 X-0.6190 Y-30.1540
G01 X-0.7300 Y-30.1686
G01 X-0.7429 Y-30.1698
G01 X-0.7639 Y-30.1708
G01 X-43.9379 Y-30.1708
G01 X-43.9509 Y-30.1703
G01 X-43.9677 Y-30.1691
G01 X-44.0884 Y-30.1531
G01 X-44.1037 Y-30.1501
G01 X-44.1450 Y-30.1390
G01 X-44.1549 Y-30.1358
G01 X-44.1646 Y-30.1321
G01 X-44.2618 Y-30.0918
G01 X-44.2758 Y-30.0849
G01 X-44.3128 Y-30.0635
G01 X-44.3215 Y-30.0578
G01 X-44.3300 Y-30.0517
G01 X-44.4133 Y-29.9876
G01 X-44.4251 Y-29.9773
G01 X-44.4553 Y-29.9471
G01 X-44.4623 Y-29.9393
G01 X-44.4688 Y-29.9313
G01 X-44.5328 Y-29.8478
G01 X-44.5415 Y-29.8348
G01 X-44.5629 Y-29.7978
G01 X-44.5676 Y-29.7885
G01 X-44.5718 Y-29.7790
G01 X-44.6120 Y-29.6818
G01 X-44.6170 Y-29.6670
G01 X-44.6268 Y-29.6307
G01 X-44.6303 Y-29.6155
G01 X-44.6319 Y-29.6052
G01 X-44.6460 Y-29.4978
G01 X-44.6473 Y-29.4848
G01 X-44.6483 Y-29.4637
G01 X-44.6483 Y-0.5083
G01 X-44.6478 Y-0.4953
G01 X-44.6466 Y-0.4785
G01 X-44.6311 Y-0.3616
G01 X-44.6281 Y-0.3463
G01 X-44.6170 Y-0.3050
G01 X-44.6138 Y-0.2951
G01 X-44.6101 Y-0.2854
G01 X-44.5698 Y-0.1882
G01 X-44.5629 Y-0.1742
G01 X-44.5415 Y-0.1372
G01 X-44.5358 Y-0.1285
G01 X-44.5297 Y-0.1200
G01 X-44.4656 Y-0.0367
G01 X-44.4553 Y-0.0249
G01 X-44.4251 Y0.0053
G01 X-44.4173 Y0.0123
G01 X-44.4093 Y0.0188
G01 X-44.3258 Y0.0828
G01 X-44.3128 Y0.0915
G01 X-44.2758 Y0.1129
G01 X-44.2665 Y0.1176
G01 X-44.2570 Y0.1218
G01 X-44.1598 Y0.1620
G01 X-44.1450 Y0.1670
G01 X-44.1087 Y0.1768
G01 X-44.0986 Y0.1792
G01 X-44.0832 Y0.1819
G01 X-43.9720 Y0.1965
G01 X-43.9590 Y0.1978
G01 X-43.9379 Y0.1988
G01 X-0.6412 Y0.1988
G01 X-0.6282 Y0.1983
G01 X-0.6114 Y0.1970
G01 X-0.4955 Y0.1818
G01 X-0.4852 Y0.1802
G01 X-0.4750 Y0.1780
G01 X-0.4386 Y0.1683
G01 X-0.4237 Y0.1636
G01 X-0.3214 Y0.1214
G01 X-0.3119 Y0.1172
G01 X-0.2980 Y0.1099
G01 X-0.2655 Y0.0909
G01 X-0.2525 Y0.0822
G01 X-0.1689 Y0.0179
G01 X-0.1608 Y0.0113
G01 X-0.1530 Y0.0043
G01 X-0.1264 Y-0.0223
G01 X-0.1158 Y-0.0338
G01 X-0.0484 Y-0.1216
G01 X-0.0423 Y-0.1301
G01 X-0.0340 Y-0.1433
G01 X-0.0153 Y-0.1761
G01 X-0.0084 Y-0.1901
G01 X0.0317 Y-0.2876
G01 X0.0354 Y-0.2974
G01 X0.0386 Y-0.3073
G01 X0.0482 Y-0.3437
G01 X0.0516 Y-0.3590
G01 X0.0532 Y-0.3693
G01 X0.0684 Y-0.4896
G01 X0.0694 Y-0.5064
G01 X0.0696 Y-0.5151
G01 X0.0459 Y-6.0968
G00 Z2.0000
G00 X0.1683 Y-6.0974
G01 F60.00
G01 Z-0.1500
G01 F240.00
G01 X0.1378 Y-13.2864
G01 X0.1374 Y-13.3018
G01 X0.1362 Y-13.3171
G01 X0.1343 Y-13.3324
G01 X0.1301 Y-13.3551
G01 X0.1263 Y-13.3700
G01 X0.1092 Y-13.4324
G01 X0.1020 Y-13.4553
G01 X0.0962 Y-13.4703
G01 X0.0897 Y-13.4849
G01 X0.0786 Y-13.5063
G01 X0.0659 Y-13.5267
G01 X0.0566 Y-13.5398
G01 X0.0467 Y-13.5524
G01 X0.0362 Y-13.5644
G01 X0.0250 Y-13.5760
G01 X-0.0317 Y-13.6293
G01 X-0.0497 Y-13.6450
G01 X-0.0689 Y-13.6594
G01 X-0.0822 Y-13.6681
G01 X-0.0960 Y-13.6762
G01 X-0.1101 Y-13.6835
G01 X-0.1246 Y-13.6902
G01 X-0.1394 Y-13.6961
G01 X-0.1545 Y-13.7013
G01 X-0.1698 Y-13.7057
G01 X-0.1858 Y-13.7095
G01 X-0.3147 Y-13.8384
G01 X-0.2982 Y-13.8850
G01 X-0.2936 Y-13.9001
G01 X-0.2677 Y-14.0029
G01 X-0.2629 Y-14.0260
G01 X-0.2472 Y-14.1309
G01 X-0.2453 Y-14.1465
G01 X-0.2441 Y-14.1622
G01 X-0.2393 Y-14.2602
G01 X-0.2389 Y-14.2760
G01 X-0.2393 Y-14.2918
G01 X-0.2441 Y-14.3898
G01 X-0.2453 Y-14.4055
G01 X-0.2472 Y-14.4211
G01 X-0.2629 Y-14.5260
G01 X-0.2677 Y-14.5491
G01 X-0.2936 Y-14.6519
G01 X-0.2982 Y-14.6670
G01 X-0.3147 Y-14.7136
G01 X-0.1834 Y-14.8449
G01 X-0.1734 Y-14.8477
G01 X-0.1587 Y-14.8524
G01 X-0.1442 Y-14.8578
G01 X-0.1300 Y-14.8639
G01 X-0.1161 Y-14.8706
G01 X-0.1026 Y-14.8781
G01 X-0.0830 Y-14.8904
G01 X-0.0704 Y-14.8994
G01 X-0.0583 Y-14.9090
G01 X0.0061 Y-14.9653
G01 X0.0231 Y-14.9822
G01 X0.0388 Y-15.0002
G01 X0.0531 Y-15.0194
G01 X0.0619 Y-15.0327
G01 X0.0699 Y-15.0465
G01 X0.0807 Y-15.0678
G01 X0.0870 Y-15.0825
G01 X0.0926 Y-15.0974
G01 X0.0974 Y-15.1126
G01 X0.1168 Y-15.1797
G01 X0.1223 Y-15.2020
G01 X0.1252 Y-15.2170
G01 X0.1273 Y-15.2321
G01 X0.1287 Y-15.2474
G01 X0.1293 Y-15.2626
G01 X0.1103 Y-19.7835
G01 X0.1093 Y-19.8066
G01 X0.1068 Y-19.8295
G01 X0.1041 Y-19.8447
G01 X0.1008 Y-19.8597
G01 X0.0817 Y-19.9295
G01 X0.0745 Y-19.9525
G01 X0.0655 Y-19.9748
G01 X0.0550 Y-19.9964
G01 X0.0428 Y-20.0171
G01 X0.0338 Y-20.0304
G01 X0.0242 Y-20.0433
G01 X0.0086 Y-20.0616
G01 X-0.0025 Y-20.0731
G01 X-0.0651 Y-20.1319
G01 X-0.0835 Y-20.1471
G01 X-0.1030 Y-20.1610
G01 X-0.1235 Y-20.1733
G01 X-0.1449 Y-20.1841
G01 X-0.1595 Y-20.1904
G01 X-0.1711 Y-20.1947
G01 X-0.3147 Y-20.3384
G01 X-0.2982 Y-20.3850
G01 X-0.2936 Y-20.4001
G01 X-0.2677 Y-20.5029
G01 X-0.2629 Y-20.5260
G01 X-0.2472 Y-20.6309
G01 X-0.2453 Y-20.6465
G01 X-0.2441 Y-20.6622
G01 X-0.2393 Y-20.7602
G01 X-0.2389 Y-20.7760
G01 X-0.2393 Y-20.7918
G01 X-0.2441 Y-20.8898
G01 X-0.2453 Y-20.9055
G01 X-0.2472 Y-20.9211
G01 X-0.2629 Y-21.0260
G01 X-0.2677 Y-21.0491
G01 X-0.2936 Y-21.1519
G01 X-0.2982 Y-21.1670
G01 X-0.3147 Y-21.2136
G01 X-0.1648 Y-21.3635
G01 X-0.1506 Y-21.3700
G01 X-0.1301 Y-21.3809
G01 X-0.1105 Y-21.3933
G01 X-0.0918 Y-21.4070
G01 X-0.0800 Y-21.4169
G01 X-0.0274 Y-21.4629
G01 X-0.0156 Y-21.4737
G01 X0.0010 Y-21.4909
G01 X0.0162 Y-21.5093
G01 X0.0300 Y-21.5288
G01 X0.0384 Y-21.5424
G01 X0.0461 Y-21.5564
G01 X0.0564 Y-21.5780
G01 X0.0650 Y-21.6003
G01 X0.0698 Y-21.6155
G01 X0.0892 Y-21.6826
G01 X0.0931 Y-21.6974
G01 X0.0963 Y-21.7123
G01 X0.0988 Y-21.7274
G01 X0.1005 Y-21.7426
G01 X0.1015 Y-21.7578
G01 X0.1018 Y-21.7731
G01 X0.0691 Y-29.4705
G01 X0.0685 Y-29.4845
G01 X0.0666 Y-29.5064
G01 X0.0495 Y-29.6325
G01 X0.0445 Y-29.6572
G01 X0.0316 Y-29.7045
G01 X0.0264 Y-29.7204
G01 X0.0204 Y-29.7360
G01 X-0.0214 Y-29.8357
G01 X-0.0326 Y-29.8583
G01 X-0.0573 Y-29.9007
G01 X-0.0664 Y-29.9147
G01 X-0.0763 Y-29.9282
G01 X-0.1424 Y-30.0137
G01 X-0.1590 Y-30.0326
G01 X-0.1938 Y-30.0672
G01 X-0.2063 Y-30.0784
G01 X-0.2193 Y-30.0889
G01 X-0.3053 Y-30.1545
G01 X-0.3262 Y-30.1684
G01 X-0.3687 Y-30.1929
G01 X-0.3836 Y-30.2005
G01 X-0.3990 Y-30.2073
G01 X-0.4989 Y-30.2484
G01 X-0.5227 Y-30.2565
G01 X-0.5620 Y-30.2671
G01 X-0.5783 Y-30.2710
G01 X-0.5948 Y-30.2741
G01 X-0.7140 Y-30.2898
G01 X-0.7349 Y-30.2919
G01 X-0.7499 Y-30.2928
G01 X-0.7639 Y-30.2931
G01 X-43.9379 Y-30.2931
G01 X-43.9589 Y-30.2924
G01 X-43.9810 Y-30.2906
G01 X-44.1075 Y-30.2740
G01 X-44.1323 Y-30.2690
G01 X-44.1798 Y-30.2563
G01 X-44.1957 Y-30.2511
G01 X-44.2114 Y-30.2451
G01 X-44.3115 Y-30.2035
G01 X-44.3341 Y-30.1924
G01 X-44.3767 Y-30.1678
G01 X-44.3908 Y-30.1586
G01 X-44.4044 Y-30.1487
G01 X-44.4903 Y-30.0827
G01 X-44.5093 Y-30.0661
G01 X-44.5441 Y-30.0313
G01 X-44.5553 Y-30.0188
G01 X-44.5659 Y-30.0057
G01 X-44.6318 Y-29.9197
G01 X-44.6458 Y-29.8987
G01 X-44.6704 Y-29.8561
G01 X-44.6780 Y-29.8411
G01 X-44.6848 Y-29.8258
G01 X-44.7262 Y-29.7256
G01 X-44.7343 Y-29.7018
G01 X-44.7450 Y-29.6624
G01 X-44.7489 Y-29.6461
G01 X-44.7520 Y-29.6295
G01 X-44.7673 Y-29.5137
G01 X-44.7694 Y-29.4928
G01 X-44.7703 Y-29.4777
G01 X-44.7706 Y-29.4637
G01 X-44.7705 Y-0.5013
G01 X-44.7694 Y-0.4792
G01 X-44.7682 Y-0.4652
G01 X-44.7520 Y-0.3425
G01 X-44.7470 Y-0.3177
G01 X-44.7343 Y-0.2702
G01 X-44.7291 Y-0.2543
G01 X-44.7231 Y-0.2386
G01 X-44.6815 Y-0.1385
G01 X-44.6704 Y-0.1159
G01 X-44.6458 Y-0.0733
G01 X-44.6366 Y-0.0592
G01 X-44.6267 Y-0.0456
G01 X-44.5607 Y0.0403
G01 X-44.5441 Y0.0593
G01 X-44.5093 Y0.0941
G01 X-44.4968 Y0.1053
G01 X-44.4837 Y0.1159
G01 X-44.3977 Y0.1818
G01 X-44.3767 Y0.1958
G01 X-44.3341 Y0.2204
G01 X-44.3191 Y0.2280
G01 X-44.3038 Y0.2348
G01 X-44.2036 Y0.2762
G01 X-44.1798 Y0.2843
G01 X-44.1404 Y0.2950
G01 X-44.1241 Y0.2989
G01 X-44.1075 Y0.3020
G01 X-43.9879 Y0.3178
G01 X-43.9670 Y0.3199
G01 X-43.9519 Y0.3208
G01 X-43.9379 Y0.3211
G01 X-0.6412 Y0.3211
G01 X-0.6202 Y0.3204
G01 X-0.5981 Y0.3186
G01 X-0.4795 Y0.3031
G01 X-0.4629 Y0.3004
G01 X-0.4464 Y0.2969
G01 X-0.3988 Y0.2841
G01 X-0.3828 Y0.2789
G01 X-0.3670 Y0.2728
G01 X-0.2667 Y0.2310
G01 X-0.2515 Y0.2238
G01 X-0.2367 Y0.2157
G01 X-0.2014 Y0.1951
G01 X-0.1804 Y0.1810
G01 X-0.0876 Y0.1096
G01 X-0.0748 Y0.0986
G01 X-0.0626 Y0.0870
G01 X-0.0339 Y0.0580
G01 X-0.0226 Y0.0454
G01 X-0.0120 Y0.0323
G01 X0.0538 Y-0.0542
G01 X0.0633 Y-0.0681
G01 X0.0721 Y-0.0825
G01 X0.0923 Y-0.1180
G01 X0.0999 Y-0.1330
G01 X0.1068 Y-0.1485
G01 X0.1448 Y-0.2412
G01 X0.1508 Y-0.2569
G01 X0.1560 Y-0.2730
G01 X0.1686 Y-0.3207
G01 X0.1720 Y-0.3372
G01 X0.1746 Y-0.3538
G01 X0.1896 Y-0.4724
G01 X0.1913 Y-0.4945
G01 X0.1919 Y-0.5156
G01 X0.1683 Y-6.0974
G00 Z2.0000
G00 X0.2906 Y-6.0979
G01 F60.00
G01 Z-0.1500
G01 F240.00
G01 X0.2601 Y-13.2869
G01 X0.2595 Y-13.3081
G01 X0.2588 Y-13.3188
G01 X0.2567 Y-13.3399
G01 X0.2536 Y-13.3609
G01 X0.2494 Y-13.3818
G01 X0.2443 Y-13.4024
G01 X0.2272 Y-13.4648
G01 X0.2208 Y-13.4860
G01 X0.2172 Y-13.4964
G01 X0.2133 Y-13.5068
G01 X0.2049 Y-13.5273
G01 X0.1954 Y-13.5473
G01 X0.1849 Y-13.5668
G01 X0.1793 Y-13.5763
G01 X0.1674 Y-13.5950
G01 X0.1611 Y-13.6041
G01 X0.1478 Y-13.6218
G01 X0.1409 Y-13.6305
G01 X0.1263 Y-13.6471
G01 X0.1109 Y-13.6631
G01 X0.0439 Y-13.7260
G01 X0.0271 Y-13.7402
G01 X0.0184 Y-13.7470
G01 X0.0096 Y-13.7536
G01 X-0.0085 Y-13.7661
G01 X-0.0272 Y-13.7777
G01 X-0.0465 Y-13.7884
G01 X-0.0663 Y-13.7981
G01 X-0.0865 Y-13.8068
G01 X-0.1071 Y-13.8145
G01 X-0.1229 Y-13.8195
G01 X-0.1747 Y-13.8713
G01 X-0.1491 Y-13.9732
G01 X-0.1443 Y-13.9944
G01 X-0.1406 Y-14.0158
G01 X-0.1262 Y-14.1129
G01 X-0.1235 Y-14.1345
G01 X-0.1219 Y-14.1562
G01 X-0.1171 Y-14.2542
G01 X-0.1166 Y-14.2760
G01 X-0.1171 Y-14.2978
G01 X-0.1219 Y-14.3958
G01 X-0.1235 Y-14.4175
G01 X-0.1262 Y-14.4391
G01 X-0.1406 Y-14.5362
G01 X-0.1443 Y-14.5576
G01 X-0.1491 Y-14.5788
G01 X-0.1747 Y-14.6807
G01 X-0.1185 Y-14.7368
G01 X-0.0987 Y-14.7442
G01 X-0.0791 Y-14.7527
G01 X-0.0695 Y-14.7572
G01 X-0.0505 Y-14.7670
G01 X-0.0412 Y-14.7723
G01 X-0.0230 Y-14.7834
G01 X-0.0054 Y-14.7954
G01 X0.0117 Y-14.8083
G01 X0.0281 Y-14.8219
G01 X0.0807 Y-14.8679
G01 X0.0969 Y-14.8828
G01 X0.1047 Y-14.8906
G01 X0.1198 Y-14.9066
G01 X0.1340 Y-14.9234
G01 X0.1474 Y-14.9409
G01 X0.1538 Y-14.9499
G01 X0.1659 Y-14.9683
G01 X0.1770 Y-14.9873
G01 X0.1822 Y-14.9970
G01 X0.1872 Y-15.0068
G01 X0.1963 Y-15.0269
G01 X0.2045 Y-15.0473
G01 X0.2117 Y-15.0681
G01 X0.2343 Y-15.1458
G01 X0.2371 Y-15.1560
G01 X0.2420 Y-15.1765
G01 X0.2459 Y-15.1972
G01 X0.2488 Y-15.2181
G01 X0.2507 Y-15.2391
G01 X0.2516 Y-15.2602
G01 X0.2326 Y-19.7840
G01 X0.2324 Y-19.7947
G01 X0.2313 Y-19.8159
G01 X0.2292 Y-19.8371
G01 X0.2277 Y-19.8476
G01 X0.2241 Y-19.8685
G01 X0.2219 Y-19.8789
G01 X0.2168 Y-19.8996
G01 X0.1996 Y-19.9619
G01 X0.1966 Y-19.9726
G01 X0.1897 Y-19.9936
G01 X0.1817 Y-20.0142
G01 X0.1773 Y-20.0244
G01 X0.1727 Y-20.0345
G01 X0.1627 Y-20.0542
G01 X0.1518 Y-20.0735
G01 X0.1459 Y-20.0829
G01 X0.1399 Y-20.0922
G01 X0.1270 Y-20.1102
G01 X0.1133 Y-20.1276
G01 X0.1062 Y-20.1360
G01 X0.0988 Y-20.1443
G01 X0.0834 Y-20.1602
G01 X0.0245 Y-20.2157
G01 X0.0080 Y-20.2304
G01 X-0.0004 Y-20.2374
G01 X-0.0179 Y-20.2508
G01 X-0.0360 Y-20.2633
G01 X-0.0453 Y-20.2692
G01 X-0.0548 Y-20.2749
G01 X-0.0740 Y-20.2855
G01 X-0.0839 Y-20.2905
G01 X-0.1024 Y-20.2991
G01 X-0.1747 Y-20.3713
G01 X-0.1491 Y-20.4732
G01 X-0.1443 Y-20.4944
G01 X-0.1406 Y-20.5158
G01 X-0.1262 Y-20.6129
G01 X-0.1235 Y-20.6345
G01 X-0.1219 Y-20.6562
G01 X-0.1171 Y-20.7542
G01 X-0.1166 Y-20.7760
G01 X-0.1171 Y-20.7978
G01 X-0.1219 Y-20.8958
G01 X-0.1235 Y-20.9175
G01 X-0.1262 Y-20.9391
G01 X-0.1406 Y-21.0362
G01 X-0.1443 Y-21.0576
G01 X-0.1491 Y-21.0788
G01 X-0.1747 Y-21.1807
G01 X-0.0936 Y-21.2618
G01 X-0.0781 Y-21.2699
G01 X-0.0596 Y-21.2806
G01 X-0.0417 Y-21.2922
G01 X-0.0243 Y-21.3046
G01 X-0.0159 Y-21.3111
G01 X0.0005 Y-21.3248
G01 X0.0613 Y-21.3781
G01 X0.0772 Y-21.3934
G01 X0.0922 Y-21.4095
G01 X0.0995 Y-21.4178
G01 X0.1133 Y-21.4349
G01 X0.1262 Y-21.4527
G01 X0.1324 Y-21.4619
G01 X0.1440 Y-21.4806
G01 X0.1546 Y-21.4999
G01 X0.1596 Y-21.5097
G01 X0.1688 Y-21.5297
G01 X0.1730 Y-21.5399
G01 X0.1807 Y-21.5605
G01 X0.1841 Y-21.5710
G01 X0.2067 Y-21.6486
G01 X0.2121 Y-21.6690
G01 X0.2144 Y-21.6793
G01 X0.2165 Y-21.6897
G01 X0.2199 Y-21.7105
G01 X0.2223 Y-21.7315
G01 X0.2237 Y-21.7525
G01 X0.2242 Y-21.7736
G01 X0.1914 Y-29.4737
G01 X0.1905 Y-29.4930
G01 X0.1882 Y-29.5202
G01 X0.1702 Y-29.6521
G01 X0.1682 Y-29.6635
G01 X0.1633 Y-29.6861
G01 X0.1488 Y-29.7396
G01 X0.1416 Y-29.7616
G01 X0.1375 Y-29.7725
G01 X0.0902 Y-29.8858
G01 X0.0801 Y-29.9067
G01 X0.0747 Y-29.9169
G01 X0.0469 Y-29.9649
G01 X0.0342 Y-29.9842
G01 X0.0275 Y-29.9937
G01 X-0.0475 Y-30.0910
G01 X-0.0550 Y-30.0998
G01 X-0.0705 Y-30.1170
G01 X-0.1098 Y-30.1561
G01 X-0.1270 Y-30.1716
G01 X-0.1359 Y-30.1790
G01 X-0.2335 Y-30.2536
G01 X-0.2430 Y-30.2602
G01 X-0.2624 Y-30.2728
G01 X-0.3105 Y-30.3005
G01 X-0.3311 Y-30.3110
G01 X-0.3416 Y-30.3158
G01 X-0.4552 Y-30.3627
G01 X-0.4770 Y-30.3704
G01 X-0.4881 Y-30.3738
G01 X-0.5304 Y-30.3853
G01 X-0.5529 Y-30.3907
G01 X-0.5757 Y-30.3949
G01 X-0.6981 Y-30.4111
G01 X-0.7269 Y-30.4139
G01 X-0.7446 Y-30.4150
G01 X-0.7639 Y-30.4154
G01 X-43.9379 Y-30.4154
G01 X-43.9669 Y-30.4145
G01 X-43.9943 Y-30.4122
G01 X-44.1267 Y-30.3948
G01 X-44.1495 Y-30.3905
G01 X-44.1608 Y-30.3880
G01 X-44.2145 Y-30.3736
G01 X-44.2366 Y-30.3664
G01 X-44.2475 Y-30.3624
G01 X-44.3613 Y-30.3153
G01 X-44.3822 Y-30.3053
G01 X-44.3925 Y-30.2999
G01 X-44.4406 Y-30.2721
G01 X-44.4504 Y-30.2659
G01 X-44.4696 Y-30.2527
G01 X-44.5673 Y-30.1777
G01 X-44.5850 Y-30.1627
G01 X-44.5935 Y-30.1548
G01 X-44.6328 Y-30.1155
G01 X-44.6483 Y-30.0982
G01 X-44.6557 Y-30.0893
G01 X-44.7307 Y-29.9916
G01 X-44.7439 Y-29.9724
G01 X-44.7501 Y-29.9626
G01 X-44.7779 Y-29.9145
G01 X-44.7833 Y-29.9042
G01 X-44.7933 Y-29.8833
G01 X-44.8404 Y-29.7695
G01 X-44.8444 Y-29.7586
G01 X-44.8516 Y-29.7365
G01 X-44.8631 Y-29.6941
G01 X-44.8685 Y-29.6715
G01 X-44.8728 Y-29.6487
G01 X-44.8886 Y-29.5297
G01 X-44.8914 Y-29.5008
G01 X-44.8925 Y-29.4831
G01 X-44.8929 Y-29.4637
G01 X-44.8928 Y-0.4986
G01 X-44.8914 Y-0.4712
G01 X-44.8897 Y-0.4519
G01 X-44.8728 Y-0.3233
G01 X-44.8708 Y-0.3119
G01 X-44.8660 Y-0.2892
G01 X-44.8516 Y-0.2355
G01 X-44.8481 Y-0.2244
G01 X-44.8404 Y-0.2025
G01 X-44.7933 Y-0.0887
G01 X-44.7884 Y-0.0782
G01 X-44.7779 Y-0.0575
G01 X-44.7501 Y-0.0094
G01 X-44.7374 Y0.0101
G01 X-44.7307 Y0.0196
G01 X-44.6557 Y0.1173
G01 X-44.6483 Y0.1262
G01 X-44.6328 Y0.1435
G01 X-44.5935 Y0.1828
G01 X-44.5850 Y0.1907
G01 X-44.5673 Y0.2057
G01 X-44.4696 Y0.2807
G01 X-44.4601 Y0.2874
G01 X-44.4406 Y0.3001
G01 X-44.3925 Y0.3279
G01 X-44.3822 Y0.3333
G01 X-44.3613 Y0.3433
G01 X-44.2475 Y0.3904
G01 X-44.2366 Y0.3944
G01 X-44.2145 Y0.4016
G01 X-44.1721 Y0.4131
G01 X-44.1495 Y0.4185
G01 X-44.1267 Y0.4228
G01 X-44.0039 Y0.4391
G01 X-43.9750 Y0.4419
G01 X-43.9572 Y0.4430
G01 X-43.9379 Y0.4434
G01 X-0.6412 Y0.4434
G01 X-0.6122 Y0.4425
G01 X-0.5847 Y0.4402
G01 X-0.4635 Y0.4243
G01 X-0.4405 Y0.4207
G01 X-0.4178 Y0.4158
G01 X-0.3640 Y0.4014
G01 X-0.3418 Y0.3942
G01 X-0.3201 Y0.3858
G01 X-0.2275 Y0.3473
G01 X-0.2063 Y0.3378
G01 X-0.1856 Y0.3273
G01 X-0.1373 Y0.2993
G01 X-0.1178 Y0.2866
G01 X-0.0990 Y0.2729
G01 X-0.0196 Y0.2117
G01 X-0.0015 Y0.1971
G01 X0.0157 Y0.1814
G01 X0.0469 Y0.1503
G01 X0.0629 Y0.1334
G01 X0.0780 Y0.1157
G01 X0.0852 Y0.1065
G01 X0.1460 Y0.0268
G01 X0.1597 Y0.0080
G01 X0.1723 Y-0.0116
G01 X0.2000 Y-0.0599
G01 X0.2105 Y-0.0807
G01 X0.2199 Y-0.1020
G01 X0.2580 Y-0.1947
G01 X0.2662 Y-0.2165
G01 X0.2734 Y-0.2387
G01 X0.2848 Y-0.2812
G01 X0.2901 Y-0.3039
G01 X0.2943 Y-0.3268
G01 X0.3113 Y-0.4596
G01 X0.3134 Y-0.4870
G01 X0.3142 Y-0.5161
G01 X0.2906 Y-6.0979
G00 Z2.0000
G00 X0.4129 Y-6.0984
G01 F60.00
G01 Z-0.1500
G01 F240.00
G01 X0.3824 Y-13.2874
G01 X0.3817 Y-13.3145
G01 X0.3796 Y-13.3416
G01 X0.3762 Y-13.3685
G01 X0.3716 Y-13.3952
G01 X0.3688 Y-13.4085
G01 X0.3622 Y-13.4348
G01 X0.3451 Y-13.4972
G01 X0.3370 Y-13.5242
G01 X0.3324 Y-13.5376
G01 X0.3222 Y-13.5639
G01 X0.3167 Y-13.5769
G01 X0.3045 Y-13.6024
G01 X0.2912 Y-13.6273
G01 X0.2840 Y-13.6395
G01 X0.2689 Y-13.6633
G01 X0.2608 Y-13.6749
G01 X0.2439 Y-13.6976
G01 X0.2350 Y-13.7085
G01 X0.2259 Y-13.7193
G01 X0.2068 Y-13.7401
G01 X0.1866 Y-13.7600
G01 X0.1357 Y-13.8078
G01 X0.1147 Y-13.8265
G01 X0.1039 Y-13.8354
G01 X0.0929 Y-13.8441
G01 X0.0701 Y-13.8606
G01 X0.0585 Y-13.8685
G01 X0.0346 Y-13.8833
G01 X0.0100 Y-13.8969
G01 X-0.0025 Y-13.9032
G01 X-0.0152 Y-13.9092
G01 X-0.0367 Y-13.9185
G01 X-0.0272 Y-13.9570
G01 X-0.0218 Y-13.9842
G01 X-0.0033 Y-14.1087
G01 X-0.0018 Y-14.1225
G01 X0.0002 Y-14.1502
G01 X0.0050 Y-14.2482
G01 X0.0057 Y-14.2760
G01 X0.0050 Y-14.3038
G01 X0.0002 Y-14.4018
G01 X-0.0018 Y-14.4295
G01 X-0.0033 Y-14.4433
G01 X-0.0218 Y-14.5678
G01 X-0.0272 Y-14.5950
G01 X-0.0376 Y-14.6372
G01 X-0.0159 Y-14.6473
G01 X-0.0037 Y-14.6534
G01 X0.0202 Y-14.6665
G01 X0.0319 Y-14.6734
G01 X0.0547 Y-14.6882
G01 X0.0659 Y-14.6960
G01 X0.0769 Y-14.7041
G01 X0.0982 Y-14.7210
G01 X0.1716 Y-14.7852
G01 X0.1919 Y-14.8047
G01 X0.2016 Y-14.8148
G01 X0.2203 Y-14.8358
G01 X0.2379 Y-14.8577
G01 X0.2545 Y-14.8804
G01 X0.2623 Y-14.8920
G01 X0.2771 Y-14.9159
G01 X0.2907 Y-14.9405
G01 X0.2970 Y-14.9531
G01 X0.3030 Y-14.9658
G01 X0.3141 Y-14.9916
G01 X0.3192 Y-15.0047
G01 X0.3283 Y-15.0313
G01 X0.3518 Y-15.1118
G01 X0.3554 Y-15.1248
G01 X0.3616 Y-15.1510
G01 X0.3666 Y-15.1775
G01 X0.3703 Y-15.2041
G01 X0.3728 Y-15.2309
G01 X0.3739 Y-15.2578
G01 X0.3549 Y-19.7846
G01 X0.3547 Y-19.7981
G01 X0.3533 Y-19.8252
G01 X0.3506 Y-19.8522
G01 X0.3487 Y-19.8656
G01 X0.3466 Y-19.8790
G01 X0.3413 Y-19.9056
G01 X0.3347 Y-19.9320
G01 X0.3176 Y-19.9943
G01 X0.3094 Y-20.0214
G01 X0.2999 Y-20.0480
G01 X0.2947 Y-20.0611
G01 X0.2891 Y-20.0741
G01 X0.2770 Y-20.0996
G01 X0.2705 Y-20.1121
G01 X0.2565 Y-20.1367
G01 X0.2413 Y-20.1605
G01 X0.2333 Y-20.1721
G01 X0.2164 Y-20.1947
G01 X0.2075 Y-20.2057
G01 X0.1889 Y-20.2270
G01 X0.1693 Y-20.2473
G01 X0.1591 Y-20.2571
G01 X0.0978 Y-20.3144
G01 X0.0872 Y-20.3236
G01 X0.0653 Y-20.3413
G01 X0.0426 Y-20.3578
G01 X0.0310 Y-20.3656
G01 X0.0071 Y-20.3804
G01 X-0.0175 Y-20.3940
G01 X-0.0314 Y-20.4010
G01 X-0.0391 Y-20.4087
G01 X-0.0272 Y-20.4570
G01 X-0.0218 Y-20.4842
G01 X-0.0033 Y-20.6087
G01 X-0.0018 Y-20.6225
G01 X0.0002 Y-20.6502
G01 X0.0050 Y-20.7482
G01 X0.0057 Y-20.7760
G01 X0.0050 Y-20.8038
G01 X0.0002 Y-20.9018
G01 X-0.0018 Y-20.9295
G01 X-0.0033 Y-20.9433
G01 X-0.0218 Y-21.0678
G01 X-0.0272 Y-21.0950
G01 X-0.0391 Y-21.1433
G01 X-0.0203 Y-21.1620
G01 X-0.0074 Y-21.1693
G01 X0.0158 Y-21.1835
G01 X0.0383 Y-21.1989
G01 X0.0601 Y-21.2153
G01 X0.0810 Y-21.2327
G01 X0.1441 Y-21.2880
G01 X0.1643 Y-21.3076
G01 X0.1740 Y-21.3177
G01 X0.1927 Y-21.3387
G01 X0.2104 Y-21.3605
G01 X0.2269 Y-21.3832
G01 X0.2347 Y-21.3949
G01 X0.2495 Y-21.4188
G01 X0.2565 Y-21.4310
G01 X0.2631 Y-21.4434
G01 X0.2755 Y-21.4686
G01 X0.2812 Y-21.4815
G01 X0.2916 Y-21.5075
G01 X0.3008 Y-21.5341
G01 X0.3242 Y-21.6147
G01 X0.3278 Y-21.6277
G01 X0.3341 Y-21.6538
G01 X0.3390 Y-21.6803
G01 X0.3428 Y-21.7070
G01 X0.3452 Y-21.7338
G01 X0.3459 Y-21.7472
G01 X0.3465 Y-21.7742
G01 X0.3137 Y-29.4768
G01 X0.3125 Y-29.5015
G01 X0.3097 Y-29.5340
G01 X0.2910 Y-29.6717
G01 X0.2884 Y-29.6863
G01 X0.2822 Y-29.7151
G01 X0.2660 Y-29.7748
G01 X0.2615 Y-29.7889
G01 X0.2516 Y-29.8167
G01 X0.2018 Y-29.9359
G01 X0.1890 Y-29.9626
G01 X0.1820 Y-29.9756
G01 X0.1510 Y-30.0291
G01 X0.1431 Y-30.0415
G01 X0.1263 Y-30.0658
G01 X0.0473 Y-30.1682
G01 X0.0379 Y-30.1795
G01 X0.0181 Y-30.2014
G01 X-0.0257 Y-30.2450
G01 X-0.0477 Y-30.2647
G01 X-0.0591 Y-30.2742
G01 X-0.1618 Y-30.3527
G01 X-0.1862 Y-30.3694
G01 X-0.1987 Y-30.3772
G01 X-0.2523 Y-30.4081
G01 X-0.2786 Y-30.4214
G01 X-0.2920 Y-30.4276
G01 X-0.4115 Y-30.4769
G01 X-0.4393 Y-30.4868
G01 X-0.4534 Y-30.4911
G01 X-0.4988 Y-30.5035
G01 X-0.5275 Y-30.5103
G01 X-0.5566 Y-30.5157
G01 X-0.6822 Y-30.5324
G01 X-0.7067 Y-30.5351
G01 X-0.7189 Y-30.5360
G01 X-0.7393 Y-30.5372
G01 X-0.7639 Y-30.5377
G01 X-43.9379 Y-30.5377
G01 X-43.9503 Y-30.5376
G01 X-43.9749 Y-30.5365
G01 X-44.0076 Y-30.5338
G01 X-44.1458 Y-30.5156
G01 X-44.1749 Y-30.5102
G01 X-44.1894 Y-30.5069
G01 X-44.2492 Y-30.4909
G01 X-44.2634 Y-30.4865
G01 X-44.2913 Y-30.4766
G01 X-44.4110 Y-30.4270
G01 X-44.4245 Y-30.4208
G01 X-44.4509 Y-30.4074
G01 X-44.5045 Y-30.3764
G01 X-44.5171 Y-30.3685
G01 X-44.5415 Y-30.3517
G01 X-44.6443 Y-30.2728
G01 X-44.6557 Y-30.2633
G01 X-44.6777 Y-30.2435
G01 X-44.7215 Y-30.1997
G01 X-44.7413 Y-30.1777
G01 X-44.7508 Y-30.1663
G01 X-44.8297 Y-30.0635
G01 X-44.8382 Y-30.0514
G01 X-44.8544 Y-30.0265
G01 X-44.8854 Y-29.9729
G01 X-44.8988 Y-29.9465
G01 X-44.9050 Y-29.9330
G01 X-44.9546 Y-29.8133
G01 X-44.9597 Y-29.7994
G01 X-44.9689 Y-29.7712
G01 X-44.9813 Y-29.7257
G01 X-44.9882 Y-29.6969
G01 X-44.9936 Y-29.6678
G01 X-45.0099 Y-29.5457
G01 X-45.0113 Y-29.5334
G01 X-45.0135 Y-29.5088
G01 X-45.0147 Y-29.4884
G01 X-45.0152 Y-29.4637
G01 X-45.0151 Y-0.4959
G01 X-45.0135 Y-0.4632
G01 X-45.0113 Y-0.4386
G01 X-44.9936 Y-0.3042
G01 X-44.9882 Y-0.2751
G01 X-44.9849 Y-0.2606
G01 X-44.9689 Y-0.2008
G01 X-44.9645 Y-0.1866
G01 X-44.9546 Y-0.1587
G01 X-44.9050 Y-0.0390
G01 X-44.8988 Y-0.0255
G01 X-44.8854 Y0.0009
G01 X-44.8544 Y0.0545
G01 X-44.8382 Y0.0794
G01 X-44.8297 Y0.0915
G01 X-44.7508 Y0.1943
G01 X-44.7316 Y0.2168
G01 X-44.7215 Y0.2277
G01 X-44.6777 Y0.2715
G01 X-44.6668 Y0.2816
G01 X-44.6443 Y0.3008
G01 X-44.5415 Y0.3797
G01 X-44.5294 Y0.3882
G01 X-44.5045 Y0.4044
G01 X-44.4509 Y0.4354
G01 X-44.4378 Y0.4423
G01 X-44.4110 Y0.4550
G01 X-44.2913 Y0.5046
G01 X-44.2774 Y0.5097
G01 X-44.2492 Y0.5189
G01 X-44.2037 Y0.5313
G01 X-44.1749 Y0.5382
G01 X-44.1458 Y0.5436
G01 X-44.0199 Y0.5604
G01 X-43.9953 Y0.5631
G01 X-43.9830 Y0.5640
G01 X-43.9626 Y0.5652
G01 X-43.9379 Y0.5657
G01 X-0.6412 Y0.5657
G01 X-0.6289 Y0.5656
G01 X-0.6042 Y0.5645
G01 X-0.5714 Y0.5618
G01 X-0.4328 Y0.5435
G01 X-0.4036 Y0.5380
G01 X-0.3748 Y0.5311
G01 X-0.3291 Y0.5186
G01 X-0.3009 Y0.5094
G01 X-0.2732 Y0.4988
G01 X-0.1806 Y0.4603
G01 X-0.1535 Y0.4482
G01 X-0.1270 Y0.4347
G01 X-0.0733 Y0.4035
G01 X-0.0484 Y0.3873
G01 X-0.0244 Y0.3698
G01 X0.0550 Y0.3086
G01 X0.0781 Y0.2899
G01 X0.1001 Y0.2700
G01 X0.1336 Y0.2366
G01 X0.1540 Y0.2150
G01 X0.1732 Y0.1924
G01 X0.1824 Y0.1807
G01 X0.2432 Y0.1010
G01 X0.2606 Y0.0770
G01 X0.2768 Y0.0520
G01 X0.3005 Y0.0111
G01 X0.3146 Y-0.0151
G01 X0.3273 Y-0.0419
G01 X0.3766 Y-0.1621
G01 X0.3864 Y-0.1901
G01 X0.3947 Y-0.2186
G01 X0.4066 Y-0.2644
G01 X0.4127 Y-0.2935
G01 X0.4172 Y-0.3228
G01 X0.4315 Y-0.4345
G01 X0.4341 Y-0.4591
G01 X0.4350 Y-0.4714
G01 X0.4361 Y-0.4919
G01 X0.4365 Y-0.5166
G01 X0.4129 Y-6.0984
G00 Z2.0000
G00 X-2.0963 Y-6.0960
G01 F60.00
G01 Z-0.1500
G01 F240.00
G01 X-2.1147 Y-6.2942
G01 X-2.1692 Y-6.4857
G01 X-2.2579 Y-6.6638
G01 X-2.3779 Y-6.8227
G01 X-2.5250 Y-6.9568
G01 X-2.6942 Y-7.0616
G01 X-2.8798 Y-7.1335
G01 X-3.0755 Y-7.1701
G01 X-3.2745 Y-7.1701
G01 X-3.4702 Y-7.1335
G01 X-3.6676 Y-7.0568
G01 X-3.6780 Y-7.0538
G01 X-3.7186 Y-7.0443
G01 X-3.7205 Y-7.0017
G01 X-3.7263 Y-6.9627
G01 X-3.7358 Y-6.9245
G01 X-3.7478 Y-6.8909
G01 X-3.7506 Y-6.8839
G01 X-3.7643 Y-6.8551
G01 X-3.7678 Y-6.8485
G01 X-3.7862 Y-6.8180
G01 X-3.8074 Y-6.7893
G01 X-3.8121 Y-6.7835
G01 X-3.8361 Y-6.7571
G01 X-3.8653 Y-6.7307
G01 X-3.8970 Y-6.7072
G01 X-3.9308 Y-6.6870
G01 X-3.9664 Y-6.6701
G01 X-4.0035 Y-6.6568
G01 X-4.0417 Y-6.6473
G01 X-4.0807 Y-6.6415
G01 X-4.1200 Y-6.6396
G01 X-4.7719 Y-6.6396
G01 X-4.8093 Y-6.6415
G01 X-4.8483 Y-6.6473
G01 X-4.8865 Y-6.6568
G01 X-4.9201 Y-6.6688
G01 X-4.9271 Y-6.6716
G01 X-4.9559 Y-6.6853
G01 X-4.9625 Y-6.6888
G01 X-4.9930 Y-6.7072
G01 X-5.0247 Y-6.7307
G01 X-5.0512 Y-6.7545
G01 X-5.0565 Y-6.7598
G01 X-5.0803 Y-6.7863
G01 X-5.1038 Y-6.8180
G01 X-5.1222 Y-6.8485
G01 X-5.1257 Y-6.8551
G01 X-5.1409 Y-6.8874
G01 X-5.1542 Y-6.9245
G01 X-5.1629 Y-6.9590
G01 X-5.1644 Y-6.9664
G01 X-5.1695 Y-7.0017
G01 X-5.1714 Y-7.0396
G01 X-5.5186 Y-7.0396
G01 X-5.5186 Y-6.9887
G01 X-5.5191 Y-6.9814
G01 X-5.5203 Y-6.9742
G01 X-5.5425 Y-6.8983
G01 X-5.5446 Y-6.8930
G01 X-5.5479 Y-6.8862
G01 X-5.5542 Y-6.8767
G01 X-5.5591 Y-6.8709
G01 X-5.5632 Y-6.8669
G01 X-5.6174 Y-6.8199
G01 X-5.6234 Y-6.8152
G01 X-5.6299 Y-6.8111
G01 X-5.6385 Y-6.8070
G01 X-5.6475 Y-6.8039
G01 X-5.7081 Y-6.7908
G01 X-5.7190 Y-6.7901
G01 X-6.5610 Y-6.7901
G01 X-6.5700 Y-6.7908
G01 X-6.5789 Y-6.7927
G01 X-6.6477 Y-6.8128
G01 X-6.6566 Y-6.8161
G01 X-6.6667 Y-6.8214
G01 X-6.6759 Y-6.8281
G01 X-6.6827 Y-6.8347
G01 X-6.7297 Y-6.8889
G01 X-6.7355 Y-6.8965
G01 X-6.7394 Y-6.9030
G01 X-6.7419 Y-6.9082
G01 X-6.7495 Y-6.9278
G01 X-6.7717 Y-6.9990
G01 X-6.8502 Y-7.1287
G01 X-6.9457 Y-7.2243
G01 X-6.9529 Y-7.2325
G01 X-6.9588 Y-7.2417
G01 X-6.9940 Y-7.3064
G01 X-6.9969 Y-7.3134
G01 X-6.9987 Y-7.3188
G01 X-7.0004 Y-7.3262
G01 X-7.0012 Y-7.3318
G01 X-7.0016 Y-7.3375
G01 X-7.0014 Y-7.3451
G01 X-6.9960 Y-7.4186
G01 X-6.9951 Y-7.4242
G01 X-6.9933 Y-7.4317
G01 X-6.9907 Y-7.4388
G01 X-6.9883 Y-7.4440
G01 X-6.9845 Y-7.4507
G01 X-6.9560 Y-7.4950
G01 X-6.9494 Y-7.5037
G01 X-6.8502 Y-7.6033
G01 X-6.7717 Y-7.7330
G01 X-6.7263 Y-7.8788
G01 X-6.7209 Y-7.9379
G01 X-6.7209 Y-8.4441
G01 X-6.7263 Y-8.5032
G01 X-6.7717 Y-8.6490
G01 X-6.8502 Y-8.7787
G01 X-6.9573 Y-8.8858
G01 X-7.0870 Y-8.9643
G01 X-7.2328 Y-9.0097
G01 X-7.2919 Y-9.0151
G01 X-7.3019 Y-9.0154
G01 X-7.3091 Y-9.0164
G01 X-7.3162 Y-9.0181
G01 X-7.3832 Y-9.0378
G01 X-7.3937 Y-9.0418
G01 X-7.4036 Y-9.0472
G01 X-7.4096 Y-9.0517
G01 X-7.4319 Y-9.0696
G01 X-8.8307 Y-10.4681
G01 X-8.9265 Y-10.5451
G01 X-9.0732 Y-10.6179
G01 X-9.0799 Y-10.6216
G01 X-9.0876 Y-10.6272
G01 X-9.1356 Y-10.6684
G01 X-9.1411 Y-10.6736
G01 X-9.1472 Y-10.6809
G01 X-9.1803 Y-10.7281
G01 X-9.3379 Y-10.8857
G01 X-9.5205 Y-11.0136
G01 X-9.7226 Y-11.1078
G01 X-9.9379 Y-11.1655
G01 X-10.1600 Y-11.1849
G01 X-10.3821 Y-11.1655
G01 X-10.5974 Y-11.1078
G01 X-10.7995 Y-11.0136
G01 X-10.9821 Y-10.8857
G01 X-11.1397 Y-10.7281
G01 X-11.2658 Y-10.5480
G01 X-11.2714 Y-10.5409
G01 X-11.2793 Y-10.5333
G01 X-11.3368 Y-10.4873
G01 X-11.3447 Y-10.4821
G01 X-11.3549 Y-10.4771
G01 X-11.3639 Y-10.4742
G01 X-11.3732 Y-10.4724
G01 X-11.4446 Y-10.4650
G01 X-11.4522 Y-10.4646
G01 X-11.4617 Y-10.4651
G01 X-11.4692 Y-10.4664
G01 X-11.4765 Y-10.4684
G01 X-11.4836 Y-10.4712
G01 X-11.5510 Y-10.5052
G01 X-11.5589 Y-10.5101
G01 X-11.5661 Y-10.5158
G01 X-11.5726 Y-10.5225
G01 X-11.5930 Y-10.5464
G01 X-11.7201 Y-10.7278
G01 X-11.8779 Y-10.8857
G01 X-12.0605 Y-11.0136
G01 X-12.2626 Y-11.1078
G01 X-12.4779 Y-11.1655
G01 X-12.7000 Y-11.1849
G01 X-12.9221 Y-11.1655
G01 X-13.1374 Y-11.1078
G01 X-13.3395 Y-11.0136
G01 X-13.5221 Y-10.8857
G01 X-13.6797 Y-10.7281
G01 X-13.8058 Y-10.5480
G01 X-13.8114 Y-10.5409
G01 X-13.8193 Y-10.5333
G01 X-13.8768 Y-10.4873
G01 X-13.8863 Y-10.4811
G01 X-13.8949 Y-10.4771
G01 X-13.9039 Y-10.4742
G01 X-13.9132 Y-10.4724
G01 X-13.9846 Y-10.4650
G01 X-13.9922 Y-10.4646
G01 X-13.9998 Y-10.4649
G01 X-14.0073 Y-10.4660
G01 X-14.0147 Y-10.4679
G01 X-14.0236 Y-10.4712
G01 X-14.0910 Y-10.5052
G01 X-14.0989 Y-10.5101
G01 X-14.1061 Y-10.5158
G01 X-14.1126 Y-10.5225
G01 X-14.1330 Y-10.5464
G01 X-14.2601 Y-10.7278
G01 X-14.4179 Y-10.8857
G01 X-14.6005 Y-11.0136
G01 X-14.8026 Y-11.1078
G01 X-15.0179 Y-11.1655
G01 X-15.2400 Y-11.1849
G01 X-15.4621 Y-11.1655
G01 X-15.6774 Y-11.1078
G01 X-15.8795 Y-11.0136
G01 X-16.0621 Y-10.8857
G01 X-16.2197 Y-10.7281
G01 X-16.3458 Y-10.5480
G01 X-16.3514 Y-10.5409
G01 X-16.3593 Y-10.5333
G01 X-16.4168 Y-10.4873
G01 X-16.4263 Y-10.4811
G01 X-16.4349 Y-10.4771
G01 X-16.4439 Y-10.4742
G01 X-16.4532 Y-10.4724
G01 X-16.5246 Y-10.4650
G01 X-16.5322 Y-10.4646
G01 X-16.5398 Y-10.4649
G01 X-16.5473 Y-10.4660
G01 X-16.5547 Y-10.4679
G01 X-16.5636 Y-10.4712
G01 X-16.6310 Y-10.5052
G01 X-16.6389 Y-10.5101
G01 X-16.6461 Y-10.5158
G01 X-16.6526 Y-10.5225
G01 X-16.6730 Y-10.5464
G01 X-16.8001 Y-10.7278
G01 X-16.9579 Y-10.8857
G01 X-17.1405 Y-11.0136
G01 X-17.3426 Y-11.1078
G01 X-17.5579 Y-11.1655
G01 X-17.7800 Y-11.1849
G01 X-18.0021 Y-11.1655
G01 X-18.2174 Y-11.1078
G01 X-18.4195 Y-11.0136
G01 X-18.6021 Y-10.8857
G01 X-18.7597 Y-10.7281
G01 X-18.8858 Y-10.5480
G01 X-18.8914 Y-10.5409
G01 X-18.8993 Y-10.5333
G01 X-18.9568 Y-10.4873
G01 X-18.9647 Y-10.4821
G01 X-18.9749 Y-10.4771
G01 X-18.9839 Y-10.4742
G01 X-18.9932 Y-10.4724
G01 X-19.0646 Y-10.4650
G01 X-19.0722 Y-10.4646
G01 X-19.0798 Y-10.4649
G01 X-19.0873 Y-10.4660
G01 X-19.0947 Y-10.4679
G01 X-19.1036 Y-10.4712
G01 X-19.1710 Y-10.5052
G01 X-19.1789 Y-10.5101
G01 X-19.1861 Y-10.5158
G01 X-19.1926 Y-10.5225
G01 X-19.2130 Y-10.5464
G01 X-19.3401 Y-10.7278
G01 X-19.4979 Y-10.8857
G01 X-19.6805 Y-11.0136
G01 X-19.8826 Y-11.1078
G01 X-20.0979 Y-11.1655
G01 X-20.3200 Y-11.1849
G01 X-20.5421 Y-11.1655
G01 X-20.7574 Y-11.1078
G01 X-20.9595 Y-11.0136
G01 X-21.1421 Y-10.8857
G01 X-21.2997 Y-10.7281
G01 X-21.4258 Y-10.5480
G01 X-21.4314 Y-10.5409
G01 X-21.4393 Y-10.5333
G01 X-21.4968 Y-10.4873
G01 X-21.5063 Y-10.4811
G01 X-21.5149 Y-10.4771
G01 X-21.5239 Y-10.4742
G01 X-21.5332 Y-10.4724
G01 X-21.6046 Y-10.4650
G01 X-21.6122 Y-10.4646
G01 X-21.6198 Y-10.4649
G01 X-21.6273 Y-10.4660
G01 X-21.6347 Y-10.4679
G01 X-21.6436 Y-10.4712
G01 X-21.7110 Y-10.5052
G01 X-21.7189 Y-10.5101
G01 X-21.7261 Y-10.5158
G01 X-21.7326 Y-10.5225
G01 X-21.7530 Y-10.5464
G01 X-21.8801 Y-10.7278
G01 X-22.0379 Y-10.8857
G01 X-22.2205 Y-11.0136
G01 X-22.4226 Y-11.1078
G01 X-22.6379 Y-11.1655
G01 X-22.8600 Y-11.1849
G01 X-23.0821 Y-11.1655
G01 X-23.2974 Y-11.1078
G01 X-23.4995 Y-11.0136
G01 X-23.6821 Y-10.8857
G01 X-23.8397 Y-10.7281
G01 X-23.9658 Y-10.5480
G01 X-23.9714 Y-10.5409
G01 X-23.9793 Y-10.5333
G01 X-24.0368 Y-10.4873
G01 X-24.0463 Y-10.4811
G01 X-24.0549 Y-10.4771
G01 X-24.0639 Y-10.4742
G01 X-24.0732 Y-10.4724
G01 X-24.1446 Y-10.4650
G01 X-24.1522 Y-10.4646
G01 X-24.1598 Y-10.4649
G01 X-24.1673 Y-10.4660
G01 X-24.1747 Y-10.4679
G01 X-24.1836 Y-10.4712
G01 X-24.2510 Y-10.5052
G01 X-24.2589 Y-10.5101
G01 X-24.2661 Y-10.5158
G01 X-24.2726 Y-10.5225
G01 X-24.2930 Y-10.5464
G01 X-24.4201 Y-10.7278
G01 X-24.5779 Y-10.8857
G01 X-24.7605 Y-11.0136
G01 X-24.9626 Y-11.1078
G01 X-25.1779 Y-11.1655
G01 X-25.4000 Y-11.1849
G01 X-25.6221 Y-11.1655
G01 X-25.8374 Y-11.1078
G01 X-26.0395 Y-11.0136
G01 X-26.2221 Y-10.8857
G01 X-26.3797 Y-10.7281
G01 X-26.5058 Y-10.5480
G01 X-26.5114 Y-10.5409
G01 X-26.5179 Y-10.5345
G01 X-26.5768 Y-10.4873
G01 X-26.5863 Y-10.4811
G01 X-26.5949 Y-10.4771
G01 X-26.6039 Y-10.4742
G01 X-26.6132 Y-10.4724
G01 X-26.6846 Y-10.4650
G01 X-26.6922 Y-10.4646
G01 X-26.6998 Y-10.4649
G01 X-26.7073 Y-10.4660
G01 X-26.7147 Y-10.4679
G01 X-26.7236 Y-10.4712
G01 X-26.7910 Y-10.5052
G01 X-26.7989 Y-10.5101
G01 X-26.8061 Y-10.5158
G01 X-26.8126 Y-10.5225
G01 X-26.8330 Y-10.5464
G01 X-26.9601 Y-10.7278
G01 X-27.1179 Y-10.8857
G01 X-27.3005 Y-11.0136
G01 X-27.5026 Y-11.1078
G01 X-27.7179 Y-11.1655
G01 X-27.9400 Y-11.1849
G01 X-28.1621 Y-11.1655
G01 X-28.3774 Y-11.1078
G01 X-28.5795 Y-11.0136
G01 X-28.7621 Y-10.8857
G01 X-28.9197 Y-10.7281
G01 X-29.0461 Y-10.5476
G01 X-29.0518 Y-10.5404
G01 X-29.0582 Y-10.5340
G01 X-29.1171 Y-10.4869
G01 X-29.1266 Y-10.4807
G01 X-29.1352 Y-10.4767
G01 X-29.1442 Y-10.4737
G01 X-29.1535 Y-10.4720
G01 X-29.2249 Y-10.4645
G01 X-29.2325 Y-10.4641
G01 X-29.2420 Y-10.4647
G01 X-29.2495 Y-10.4660
G01 X-29.2586 Y-10.4686
G01 X-29.2656 Y-10.4715
G01 X-29.3329 Y-10.5056
G01 X-29.3407 Y-10.5107
G01 X-29.3491 Y-10.5180
G01 X-29.3734 Y-10.5460
G01 X-29.5007 Y-10.7277
G01 X-29.6582 Y-10.8853
G01 X-29.8408 Y-11.0131
G01 X-30.0428 Y-11.1073
G01 X-30.1535 Y-11.1370
G01 X-30.1536 Y-10.7721
G01 X-30.1237 Y-10.7612
G01 X-30.0416 Y-10.7222
G01 X-29.9653 Y-10.6763
G01 X-29.8937 Y-10.6233
G01 X-29.8276 Y-10.5637
G01 X-29.8223 Y-10.5584
G01 X-29.7638 Y-10.4937
G01 X-29.7107 Y-10.4223
G01 X-29.6648 Y-10.3460
G01 X-29.6613 Y-10.3394
G01 X-29.6241 Y-10.2605
G01 X-29.5934 Y-10.1749
G01 X-29.5714 Y-10.0867
G01 X-29.5585 Y-10.0005
G01 X-29.5577 Y-9.9931
G01 X-29.5536 Y-9.9060
G01 X-29.5577 Y-9.8189
G01 X-29.5585 Y-9.8115
G01 X-29.5714 Y-9.7253
G01 X-29.5934 Y-9.6371
G01 X-29.6241 Y-9.5515
G01 X-29.6613 Y-9.4726
G01 X-29.6648 Y-9.4660
G01 X-29.7107 Y-9.3897
G01 X-29.7638 Y-9.3183
G01 X-29.8223 Y-9.2536
G01 X-29.8276 Y-9.2483
G01 X-29.8937 Y-9.1887
G01 X-29.9653 Y-9.1357
G01 X-30.0416 Y-9.0898
G01 X-30.1237 Y-9.0508
G01 X-30.1536 Y-9.0399
G01 X-30.1536 Y-8.6750
G01 X-30.0428 Y-8.7047
G01 X-29.8363 Y-8.8010
G01 X-29.8278 Y-8.8043
G01 X-29.8208 Y-8.8062
G01 X-29.8155 Y-8.8073
G01 X-29.7407 Y-8.8184
G01 X-29.7331 Y-8.8186
G01 X-29.7256 Y-8.8180
G01 X-29.7181 Y-8.8167
G01 X-29.7108 Y-8.8147
G01 X-29.7037 Y-8.8120
G01 X-29.6382 Y-8.7826
G01 X-29.6283 Y-8.7770
G01 X-29.6194 Y-8.7699
G01 X-29.6128 Y-8.7631
G01 X-29.6071 Y-8.7555
G01 X-29.5679 Y-8.6954
G01 X-29.5642 Y-8.6888
G01 X-29.5606 Y-8.6800
G01 X-29.5577 Y-8.6690
G01 X-29.5565 Y-8.6577
G01 X-29.5559 Y-8.5840
G01 X-29.5564 Y-8.5766
G01 X-29.5576 Y-8.5692
G01 X-29.5608 Y-8.5584
G01 X-29.5655 Y-8.5482
G01 X-29.5980 Y-8.4929
G01 X-29.6023 Y-8.4864
G01 X-29.6098 Y-8.4776
G01 X-29.7636 Y-8.3238
G01 X-29.7704 Y-8.3177
G01 X-29.7779 Y-8.3125
G01 X-29.8440 Y-8.2764
G01 X-29.8509 Y-8.2733
G01 X-29.8580 Y-8.2708
G01 X-29.8690 Y-8.2685
G01 X-29.8972 Y-8.2655
G01 X-29.9081 Y-8.2651
G01 X-29.9672 Y-8.2597
G01 X-30.1130 Y-8.2143
G01 X-30.2427 Y-8.1358
G01 X-30.3383 Y-8.0403
G01 X-30.3436 Y-8.0354
G01 X-30.3495 Y-8.0310
G01 X-30.3557 Y-8.0272
G01 X-30.4204 Y-7.9920
G01 X-30.4310 Y-7.9878
G01 X-30.4383 Y-7.9860
G01 X-30.4439 Y-7.9850
G01 X-30.4515 Y-7.9844
G01 X-30.4572 Y-7.9845
G01 X-30.5326 Y-7.9900
G01 X-30.5382 Y-7.9909
G01 X-30.5457 Y-7.9927
G01 X-30.5511 Y-7.9946
G01 X-30.5580 Y-7.9977
G01 X-30.5647 Y-8.0015
G01 X-30.6090 Y-8.0300
G01 X-30.6177 Y-8.0366
G01 X-30.7173 Y-8.1358
G01 X-30.8470 Y-8.2143
G01 X-30.9928 Y-8.2597
G01 X-31.0519 Y-8.2651
G01 X-31.5581 Y-8.2651
G01 X-31.6172 Y-8.2597
G01 X-31.7630 Y-8.2143
G01 X-31.8927 Y-8.1358
G01 X-31.9998 Y-8.0287
G01 X-32.0783 Y-7.8990
G01 X-32.1237 Y-7.7532
G01 X-32.1291 Y-7.6941
G01 X-32.1294 Y-7.6841
G01 X-32.1304 Y-7.6769
G01 X-32.1321 Y-7.6698
G01 X-32.1524 Y-7.6010
G01 X-32.1566 Y-7.5906
G01 X-32.1623 Y-7.5809
G01 X-32.1863 Y-7.5511
G01 X-33.5276 Y-6.2098
G01 X-33.5358 Y-6.2022
G01 X-33.5707 Y-6.1726
G01 X-33.6147 Y-6.1147
G01 X-33.6254 Y-6.1014
G01 X-33.6317 Y-6.0948
G01 X-33.6402 Y-6.0880
G01 X-33.6991 Y-6.0470
G01 X-33.7073 Y-6.0423
G01 X-33.7161 Y-6.0386
G01 X-33.7271 Y-6.0357
G01 X-33.7365 Y-6.0345
G01 X-33.8101 Y-6.0318
G01 X-33.8177 Y-6.0321
G01 X-33.8271 Y-6.0335
G01 X-33.8362 Y-6.0360
G01 X-33.8449 Y-6.0397
G01 X-33.9117 Y-6.0790
G01 X-33.9179 Y-6.0833
G01 X-33.9251 Y-6.0896
G01 X-33.9314 Y-6.0967
G01 X-33.9377 Y-6.1061
G01 X-33.9708 Y-6.1719
G01 X-33.9732 Y-6.1772
G01 X-33.9758 Y-6.1844
G01 X-33.9776 Y-6.1918
G01 X-33.9784 Y-6.1975
G01 X-33.9809 Y-6.2284
G01 X-33.9808 Y-6.7513
G01 X-33.9792 Y-6.7620
G01 X-33.9670 Y-6.8181
G01 X-33.9631 Y-6.8285
G01 X-33.9163 Y-6.9788
G01 X-33.9109 Y-7.0379
G01 X-33.9109 Y-7.6941
G01 X-33.9163 Y-7.7532
G01 X-33.9617 Y-7.8990
G01 X-34.0402 Y-8.0287
G01 X-34.1473 Y-8.1358
G01 X-34.2770 Y-8.2143
G01 X-34.4228 Y-8.2597
G01 X-34.4819 Y-8.2651
G01 X-34.9881 Y-8.2651
G01 X-35.0472 Y-8.2597
G01 X-35.1930 Y-8.2143
G01 X-35.3268 Y-8.1334
G01 X-35.3332 Y-8.1299
G01 X-35.3399 Y-8.1271
G01 X-35.3468 Y-8.1249
G01 X-35.4199 Y-8.1058
G01 X-35.4275 Y-8.1048
G01 X-35.4370 Y-8.1046
G01 X-35.4445 Y-8.1052
G01 X-35.4538 Y-8.1071
G01 X-35.5257 Y-8.1303
G01 X-35.5361 Y-8.1349
G01 X-35.5442 Y-8.1399
G01 X-35.5517 Y-8.1458
G01 X-35.5583 Y-8.1526
G01 X-35.6050 Y-8.2095
G01 X-35.6092 Y-8.2156
G01 X-35.6120 Y-8.2204
G01 X-35.6159 Y-8.2288
G01 X-35.6192 Y-8.2395
G01 X-35.6294 Y-8.2897
G01 X-35.6307 Y-8.2992
G01 X-35.6309 Y-8.4372
G01 X-35.6306 Y-8.4445
G01 X-35.6299 Y-8.4499
G01 X-35.6283 Y-8.4570
G01 X-35.6076 Y-8.5276
G01 X-35.6033 Y-8.5381
G01 X-35.5986 Y-8.5464
G01 X-35.5929 Y-8.5539
G01 X-35.5849 Y-8.5620
G01 X-35.5307 Y-8.6090
G01 X-35.5248 Y-8.6133
G01 X-35.5169 Y-8.6180
G01 X-35.5102 Y-8.6210
G01 X-35.5033 Y-8.6234
G01 X-35.4608 Y-8.6346
G01 X-35.4535 Y-8.6362
G01 X-35.3379 Y-8.6465
G01 X-35.1226 Y-8.7042
G01 X-34.9205 Y-8.7984
G01 X-34.7379 Y-8.9263
G01 X-34.5803 Y-9.0839
G01 X-34.4539 Y-9.2644
G01 X-34.4470 Y-9.2729
G01 X-34.4404 Y-9.2792
G01 X-34.3829 Y-9.3251
G01 X-34.3750 Y-9.3304
G01 X-34.3665 Y-9.3346
G01 X-34.3576 Y-9.3378
G01 X-34.3464 Y-9.3400
G01 X-34.2751 Y-9.3475
G01 X-34.2656 Y-9.3478
G01 X-34.2561 Y-9.3471
G01 X-34.2468 Y-9.3451
G01 X-34.2379 Y-9.3420
G01 X-34.1687 Y-9.3073
G01 X-34.1593 Y-9.3013
G01 X-34.1522 Y-9.2953
G01 X-34.1471 Y-9.2900
G01 X-34.1266 Y-9.2660
G01 X-33.9993 Y-9.0843
G01 X-33.8418 Y-8.9267
G01 X-33.6592 Y-8.7989
G01 X-33.4572 Y-8.7047
G01 X-33.3465 Y-8.6750
G01 X-33.3464 Y-9.0399
G01 X-33.3763 Y-9.0508
G01 X-33.4584 Y-9.0898
G01 X-33.5347 Y-9.1357
G01 X-33.6063 Y-9.1887
G01 X-33.6724 Y-9.2483
G01 X-33.6777 Y-9.2536
G01 X-33.7362 Y-9.3183
G01 X-33.7893 Y-9.3897
G01 X-33.8352 Y-9.4660
G01 X-33.8387 Y-9.4726
G01 X-33.8759 Y-9.5515
G01 X-33.9066 Y-9.6371
G01 X-33.9286 Y-9.7253
G01 X-33.9415 Y-9.8115
G01 X-33.9423 Y-9.8189
G01 X-33.9464 Y-9.9060
G01 X-33.9420 Y-9.9968
G01 X-33.9293 Y-10.0830
G01 X-33.9278 Y-10.0904
G01 X-33.9066 Y-10.1749
G01 X-33.8759 Y-10.2605
G01 X-33.8387 Y-10.3394
G01 X-33.8352 Y-10.3460
G01 X-33.7893 Y-10.4223
G01 X-33.7362 Y-10.4937
G01 X-33.6777 Y-10.5584
G01 X-33.6724 Y-10.5637
G01 X-33.6063 Y-10.6233
G01 X-33.5347 Y-10.6763
G01 X-33.4584 Y-10.7222
G01 X-33.3763 Y-10.7612
G01 X-33.3464 Y-10.7721
G01 X-33.3464 Y-11.1370
G01 X-33.4572 Y-11.1073
G01 X-33.6592 Y-11.0131
G01 X-33.8418 Y-10.8853
G01 X-33.9993 Y-10.7278
G01 X-34.1255 Y-10.5476
G01 X-34.1324 Y-10.5391
G01 X-34.1390 Y-10.5328
G01 X-34.1965 Y-10.4869
G01 X-34.2060 Y-10.4807
G01 X-34.2146 Y-10.4767
G01 X-34.2236 Y-10.4737
G01 X-34.2329 Y-10.4720
G01 X-34.3043 Y-10.4645
G01 X-34.3119 Y-10.4641
G01 X-34.3195 Y-10.4645
G01 X-34.3270 Y-10.4656
G01 X-34.3362 Y-10.4680
G01 X-34.3433 Y-10.4707
G01 X-34.4107 Y-10.5047
G01 X-34.4186 Y-10.5096
G01 X-34.4258 Y-10.5154
G01 X-34.4323 Y-10.5220
G01 X-34.4527 Y-10.5460
G01 X-34.5803 Y-10.7281
G01 X-34.7379 Y-10.8857
G01 X-34.9205 Y-11.0136
G01 X-35.1226 Y-11.1078
G01 X-35.3379 Y-11.1655
G01 X-35.5600 Y-11.1849
G01 X-35.7821 Y-11.1655
G01 X-35.9974 Y-11.1078
G01 X-36.1995 Y-11.0136
G01 X-36.3821 Y-10.8857
G01 X-36.4993 Y-10.7685
G01 X-36.5033 Y-10.7648
G01 X-36.5090 Y-10.7603
G01 X-36.5167 Y-10.7555
G01 X-36.5831 Y-10.7194
G01 X-36.5902 Y-10.7167
G01 X-36.5993 Y-10.7142
G01 X-36.6068 Y-10.7130
G01 X-36.6144 Y-10.7126
G01 X-36.6917 Y-10.7180
G01 X-36.7011 Y-10.7195
G01 X-36.7102 Y-10.7221
G01 X-36.7189 Y-10.7259
G01 X-36.7286 Y-10.7317
G01 X-36.7891 Y-10.7771
G01 X-36.7974 Y-10.7852
G01 X-36.8044 Y-10.7943
G01 X-36.8267 Y-10.8352
G01 X-36.8740 Y-10.9613
G01 X-36.9471 Y-11.0589
G01 X-37.0447 Y-11.1320
G01 X-37.1602 Y-11.1751
G01 X-37.2062 Y-11.1801
G01 X-38.9938 Y-11.1800
G01 X-39.0398 Y-11.1751
G01 X-39.1553 Y-11.1320
G01 X-39.2529 Y-11.0589
G01 X-39.3260 Y-10.9613
G01 X-39.3691 Y-10.8458
G01 X-39.3741 Y-10.7998
G01 X-39.3741 Y-9.7795
G01 X-39.3748 Y-9.7705
G01 X-39.3767 Y-9.7616
G01 X-39.3974 Y-9.6910
G01 X-39.4016 Y-9.6806
G01 X-39.4052 Y-9.6740
G01 X-39.4095 Y-9.6678
G01 X-39.4273 Y-9.6457
G01 X-39.4328 Y-9.6396
G01 X-40.0676 Y-9.0048
G01 X-40.0758 Y-8.9972
G01 X-40.1107 Y-8.9676
G01 X-40.1548 Y-8.9097
G01 X-40.2016 Y-8.8514
G01 X-40.2082 Y-8.8407
G01 X-40.2396 Y-8.7728
G01 X-40.2737 Y-8.7040
G01 X-40.2779 Y-8.6921
G01 X-40.2940 Y-8.6191
G01 X-40.3125 Y-8.5445
G01 X-40.3141 Y-8.5320
G01 X-40.3141 Y-8.4552
G01 X-40.3161 Y-8.3805
G01 X-40.3140 Y-8.3553
G01 X-40.3140 Y-7.9861
G01 X-40.3146 Y-7.9771
G01 X-40.3158 Y-7.9700
G01 X-40.3280 Y-7.9139
G01 X-40.3319 Y-7.9034
G01 X-40.3787 Y-7.7532
G01 X-40.3841 Y-7.6941
G01 X-40.3841 Y-7.0379
G01 X-40.3787 Y-6.9788
G01 X-40.3333 Y-6.8330
G01 X-40.2548 Y-6.7033
G01 X-40.1477 Y-6.5962
G01 X-40.0180 Y-6.5177
G01 X-39.8722 Y-6.4723
G01 X-39.8131 Y-6.4669
G01 X-39.3068 Y-6.4669
G01 X-39.2478 Y-6.4723
G01 X-39.1020 Y-6.5177
G01 X-38.9682 Y-6.5986
G01 X-38.9602 Y-6.6029
G01 X-38.9499 Y-6.6066
G01 X-38.8788 Y-6.6254
G01 X-38.8675 Y-6.6272
G01 X-38.8562 Y-6.6273
G01 X-38.8486 Y-6.6265
G01 X-38.8394 Y-6.6243
G01 X-38.7711 Y-6.6023
G01 X-38.7605 Y-6.5980
G01 X-38.7508 Y-6.5921
G01 X-38.7433 Y-6.5862
G01 X-38.7367 Y-6.5794
G01 X-38.6900 Y-6.5225
G01 X-38.6868 Y-6.5180
G01 X-38.6830 Y-6.5116
G01 X-38.6798 Y-6.5049
G01 X-38.6778 Y-6.4997
G01 X-38.6754 Y-6.4907
G01 X-38.6656 Y-6.4423
G01 X-38.6643 Y-6.4328
G01 X-38.6642 Y-6.2950
G01 X-38.6651 Y-6.2878
G01 X-38.6667 Y-6.2807
G01 X-38.6880 Y-6.2083
G01 X-38.6908 Y-6.2013
G01 X-38.6944 Y-6.1946
G01 X-38.6986 Y-6.1882
G01 X-38.7034 Y-6.1823
G01 X-38.7101 Y-6.1757
G01 X-38.7659 Y-6.1275
G01 X-38.7721 Y-6.1231
G01 X-38.7771 Y-6.1202
G01 X-38.7840 Y-6.1170
G01 X-38.7912 Y-6.1144
G01 X-38.8482 Y-6.1018
G01 X-38.8590 Y-6.1002
G01 X-38.9938 Y-6.1000
G01 X-39.0398 Y-6.0951
G01 X-39.1553 Y-6.0520
G01 X-39.2529 Y-5.9789
G01 X-39.3260 Y-5.8813
G01 X-39.3691 Y-5.7658
G01 X-39.3741 Y-5.7198
G01 X-39.3740 Y-3.9322
G01 X-39.3691 Y-3.8862
G01 X-39.3260 Y-3.7707
G01 X-39.2529 Y-3.6731
G01 X-39.1553 Y-3.6000
G01 X-39.0398 Y-3.5569
G01 X-38.9938 Y-3.5520
G01 X-37.2062 Y-3.5519
G01 X-37.1602 Y-3.5569
G01 X-37.0447 Y-3.6000
G01 X-36.9471 Y-3.6731
G01 X-36.8740 Y-3.7707
G01 X-36.8288 Y-3.8918
G01 X-36.8251 Y-3.9001
G01 X-36.8225 Y-3.9049
G01 X-36.8184 Y-3.9109
G01 X-36.7742 Y-3.9698
G01 X-36.7677 Y-3.9767
G01 X-36.7604 Y-3.9828
G01 X-36.7540 Y-3.9869
G01 X-36.7456 Y-3.9912
G01 X-36.6730 Y-4.0183
G01 X-36.6619 Y-4.0209
G01 X-36.6506 Y-4.0219
G01 X-36.6430 Y-4.0216
G01 X-36.6355 Y-4.0205
G01 X-36.5635 Y-4.0049
G01 X-36.5525 Y-4.0013
G01 X-36.5422 Y-3.9961
G01 X-36.5358 Y-3.9918
G01 X-36.5075 Y-3.9706
G01 X-36.5006 Y-3.9648
G01 X-36.3821 Y-3.8463
G01 X-36.1995 Y-3.7184
G01 X-35.9974 Y-3.6242
G01 X-35.7821 Y-3.5665
G01 X-35.5600 Y-3.5471
G01 X-35.3379 Y-3.5665
G01 X-35.1226 Y-3.6242
G01 X-34.9205 Y-3.7184
G01 X-34.7379 Y-3.8463
G01 X-34.5803 Y-4.0039
G01 X-34.4542 Y-4.1840
G01 X-34.4473 Y-4.1925
G01 X-34.4407 Y-4.1987
G01 X-34.3832 Y-4.2447
G01 X-34.3753 Y-4.2499
G01 X-34.3651 Y-4.2549
G01 X-34.3561 Y-4.2578
G01 X-34.3468 Y-4.2596
G01 X-34.2754 Y-4.2670
G01 X-34.2678 Y-4.2674
G01 X-34.2583 Y-4.2669
G01 X-34.2508 Y-4.2656
G01 X-34.2435 Y-4.2636
G01 X-34.2364 Y-4.2608
G01 X-34.1690 Y-4.2268
G01 X-34.1611 Y-4.2219
G01 X-34.1539 Y-4.2162
G01 X-34.1474 Y-4.2095
G01 X-34.1270 Y-4.1856
G01 X-33.9997 Y-4.0039
G01 X-33.8421 Y-3.8463
G01 X-33.6595 Y-3.7184
G01 X-33.4574 Y-3.6242
G01 X-33.2421 Y-3.5665
G01 X-33.0200 Y-3.5471
G01 X-32.7979 Y-3.5665
G01 X-32.5826 Y-3.6242
G01 X-32.3805 Y-3.7184
G01 X-32.1979 Y-3.8463
G01 X-32.0403 Y-4.0039
G01 X-31.9142 Y-4.1840
G01 X-31.9073 Y-4.1925
G01 X-31.9007 Y-4.1987
G01 X-31.8432 Y-4.2447
G01 X-31.8353 Y-4.2499
G01 X-31.8251 Y-4.2549
G01 X-31.8161 Y-4.2578
G01 X-31.8068 Y-4.2596
G01 X-31.7354 Y-4.2670
G01 X-31.7278 Y-4.2674
G01 X-31.7183 Y-4.2669
G01 X-31.7108 Y-4.2656
G01 X-31.7035 Y-4.2636
G01 X-31.6964 Y-4.2608
G01 X-31.6290 Y-4.2268
G01 X-31.6211 Y-4.2219
G01 X-31.6139 Y-4.2162
G01 X-31.6074 Y-4.2095
G01 X-31.5870 Y-4.1856
G01 X-31.4597 Y-4.0039
G01 X-31.3021 Y-3.8463
G01 X-31.1195 Y-3.7184
G01 X-30.9174 Y-3.6242
G01 X-30.7021 Y-3.5665
G01 X-30.4800 Y-3.5471
G01 X-30.2579 Y-3.5665
G01 X-30.0426 Y-3.6242
G01 X-29.8405 Y-3.7184
G01 X-29.6579 Y-3.8463
G01 X-29.5003 Y-4.0039
G01 X-29.3742 Y-4.1840
G01 X-29.3673 Y-4.1925
G01 X-29.3607 Y-4.1987
G01 X-29.3032 Y-4.2447
G01 X-29.2953 Y-4.2499
G01 X-29.2851 Y-4.2549
G01 X-29.2761 Y-4.2578
G01 X-29.2668 Y-4.2596
G01 X-29.1954 Y-4.2670
G01 X-29.1878 Y-4.2674
G01 X-29.1783 Y-4.2669
G01 X-29.1708 Y-4.2656
G01 X-29.1635 Y-4.2636
G01 X-29.1564 Y-4.2608
G01 X-29.0890 Y-4.2268
G01 X-29.0811 Y-4.2219
G01 X-29.0739 Y-4.2162
G01 X-29.0674 Y-4.2095
G01 X-29.0470 Y-4.1856
G01 X-28.9197 Y-4.0039
G01 X-28.7621 Y-3.8463
G01 X-28.5795 Y-3.7184
G01 X-28.3774 Y-3.6242
G01 X-28.1621 Y-3.5665
G01 X-27.9400 Y-3.5471
G01 X-27.7179 Y-3.5665
G01 X-27.5026 Y-3.6242
G01 X-27.3005 Y-3.7184
G01 X-27.1179 Y-3.8463
G01 X-26.9603 Y-4.0039
G01 X-26.8342 Y-4.1840
G01 X-26.8273 Y-4.1925
G01 X-26.8207 Y-4.1987
G01 X-26.7632 Y-4.2447
G01 X-26.7553 Y-4.2499
G01 X-26.7451 Y-4.2549
G01 X-26.7361 Y-4.2578
G01 X-26.7268 Y-4.2596
G01 X-26.6554 Y-4.2670
G01 X-26.6478 Y-4.2674
G01 X-26.6402 Y-4.2671
G01 X-26.6308 Y-4.2656
G01 X-26.6235 Y-4.2636
G01 X-26.6164 Y-4.2608
G01 X-26.5490 Y-4.2268
G01 X-26.5411 Y-4.2219
G01 X-26.5339 Y-4.2162
G01 X-26.5274 Y-4.2095
G01 X-26.5070 Y-4.1856
G01 X-26.3797 Y-4.0039
G01 X-26.2221 Y-3.8463
G01 X-26.0395 Y-3.7184
G01 X-25.8374 Y-3.6242
G01 X-25.6221 Y-3.5665
G01 X-25.4000 Y-3.5471
G01 X-25.1779 Y-3.5665
G01 X-24.9626 Y-3.6242
G01 X-24.7605 Y-3.7184
G01 X-24.5779 Y-3.8463
G01 X-24.4203 Y-4.0039
G01 X-24.2942 Y-4.1840
G01 X-24.2873 Y-4.1925
G01 X-24.2807 Y-4.1987
G01 X-24.2232 Y-4.2447
G01 X-24.2153 Y-4.2499
G01 X-24.2051 Y-4.2549
G01 X-24.1961 Y-4.2578
G01 X-24.1868 Y-4.2596
G01 X-24.1154 Y-4.2670
G01 X-24.1078 Y-4.2674
G01 X-24.1002 Y-4.2671
G01 X-24.0908 Y-4.2656
G01 X-24.0835 Y-4.2636
G01 X-24.0764 Y-4.2608
G01 X-24.0090 Y-4.2268
G01 X-24.0011 Y-4.2219
G01 X-23.9939 Y-4.2162
G01 X-23.9874 Y-4.2095
G01 X-23.9670 Y-4.1856
G01 X-23.8397 Y-4.0039
G01 X-23.6821 Y-3.8463
G01 X-23.4995 Y-3.7184
G01 X-23.2974 Y-3.6242
G01 X-23.0821 Y-3.5665
G01 X-22.8600 Y-3.5471
G01 X-22.6379 Y-3.5665
G01 X-22.4226 Y-3.6242
G01 X-22.2205 Y-3.7184
G01 X-22.0379 Y-3.8463
G01 X-21.8803 Y-4.0039
G01 X-21.7542 Y-4.1840
G01 X-21.7473 Y-4.1925
G01 X-21.7407 Y-4.1987
G01 X-21.6832 Y-4.2447
G01 X-21.6753 Y-4.2499
G01 X-21.6651 Y-4.2549
G01 X-21.6561 Y-4.2578
G01 X-21.6468 Y-4.2596
G01 X-21.5754 Y-4.2670
G01 X-21.5678 Y-4.2674
G01 X-21.5602 Y-4.2671
G01 X-21.5508 Y-4.2656
G01 X-21.5435 Y-4.2636
G01 X-21.5364 Y-4.2608
G01 X-21.4690 Y-4.2268
G01 X-21.4611 Y-4.2219
G01 X-21.4539 Y-4.2162
G01 X-21.4474 Y-4.2095
G01 X-21.4270 Y-4.1856
G01 X-21.2997 Y-4.0039
G01 X-21.1421 Y-3.8463
G01 X-20.9595 Y-3.7184
G01 X-20.7574 Y-3.6242
G01 X-20.5421 Y-3.5665
G01 X-20.3200 Y-3.5471
G01 X-20.0979 Y-3.5665
G01 X-19.8826 Y-3.6242
G01 X-19.6805 Y-3.7184
G01 X-19.4979 Y-3.8463
G01 X-19.3403 Y-4.0039
G01 X-19.2142 Y-4.1840
G01 X-19.2073 Y-4.1925
G01 X-19.2007 Y-4.1987
G01 X-19.1432 Y-4.2447
G01 X-19.1353 Y-4.2499
G01 X-19.1251 Y-4.2549
G01 X-19.1161 Y-4.2578
G01 X-19.1068 Y-4.2596
G01 X-19.0354 Y-4.2670
G01 X-19.0278 Y-4.2674
G01 X-19.0202 Y-4.2671
G01 X-19.0108 Y-4.2656
G01 X-19.0035 Y-4.2636
G01 X-18.9964 Y-4.2608
G01 X-18.9290 Y-4.2268
G01 X-18.9211 Y-4.2219
G01 X-18.9139 Y-4.2162
G01 X-18.9074 Y-4.2095
G01 X-18.8870 Y-4.1856
G01 X-18.7597 Y-4.0039
G01 X-18.6021 Y-3.8463
G01 X-18.4195 Y-3.7184
G01 X-18.2174 Y-3.6242
G01 X-18.0021 Y-3.5665
G01 X-17.7800 Y-3.5471
G01 X-17.5579 Y-3.5665
G01 X-17.3426 Y-3.6242
G01 X-17.1405 Y-3.7184
G01 X-16.9579 Y-3.8463
G01 X-16.8003 Y-4.0039
G01 X-16.6742 Y-4.1840
G01 X-16.6673 Y-4.1925
G01 X-16.6607 Y-4.1987
G01 X-16.6032 Y-4.2447
G01 X-16.5953 Y-4.2499
G01 X-16.5851 Y-4.2549
G01 X-16.5761 Y-4.2578
G01 X-16.5668 Y-4.2596
G01 X-16.4954 Y-4.2670
G01 X-16.4878 Y-4.2674
G01 X-16.4802 Y-4.2671
G01 X-16.4708 Y-4.2656
G01 X-16.4635 Y-4.2636
G01 X-16.4564 Y-4.2608
G01 X-16.3890 Y-4.2268
G01 X-16.3811 Y-4.2219
G01 X-16.3739 Y-4.2162
G01 X-16.3674 Y-4.2095
G01 X-16.3470 Y-4.1856
G01 X-16.2197 Y-4.0039
G01 X-16.0621 Y-3.8463
G01 X-15.8795 Y-3.7184
G01 X-15.6774 Y-3.6242
G01 X-15.4621 Y-3.5665
G01 X-15.2400 Y-3.5471
G01 X-15.0179 Y-3.5665
G01 X-14.8026 Y-3.6242
G01 X-14.6005 Y-3.7184
G01 X-14.4179 Y-3.8463
G01 X-14.2603 Y-4.0039
G01 X-14.1342 Y-4.1840
G01 X-14.1273 Y-4.1925
G01 X-14.1207 Y-4.1987
G01 X-14.0632 Y-4.2447
G01 X-14.0553 Y-4.2499
G01 X-14.0451 Y-4.2549
G01 X-14.0361 Y-4.2578
G01 X-14.0268 Y-4.2596
G01 X-13.9497 Y-4.2674
G01 X-13.9402 Y-4.2671
G01 X-13.9327 Y-4.2660
G01 X-13.9253 Y-4.2641
G01 X-13.9164 Y-4.2608
G01 X-13.8490 Y-4.2268
G01 X-13.8411 Y-4.2219
G01 X-13.8339 Y-4.2162
G01 X-13.8274 Y-4.2095
G01 X-13.8070 Y-4.1856
G01 X-13.6797 Y-4.0039
G01 X-13.5221 Y-3.8463
G01 X-13.3395 Y-3.7184
G01 X-13.1374 Y-3.6242
G01 X-12.9221 Y-3.5665
G01 X-12.7000 Y-3.5471
G01 X-12.4779 Y-3.5665
G01 X-12.2626 Y-3.6242
G01 X-12.0605 Y-3.7184
G01 X-11.8779 Y-3.8463
G01 X-11.7203 Y-4.0039
G01 X-11.5942 Y-4.1840
G01 X-11.5886 Y-4.1911
G01 X-11.5807 Y-4.1987
G01 X-11.5232 Y-4.2447
G01 X-11.5153 Y-4.2499
G01 X-11.5051 Y-4.2549
G01 X-11.4961 Y-4.2578
G01 X-11.4868 Y-4.2596
G01 X-11.4097 Y-4.2674
G01 X-11.4021 Y-4.2672
G01 X-11.3927 Y-4.2660
G01 X-11.3835 Y-4.2636
G01 X-11.3764 Y-4.2608
G01 X-11.3090 Y-4.2268
G01 X-11.3011 Y-4.2219
G01 X-11.2939 Y-4.2162
G01 X-11.2874 Y-4.2095
G01 X-11.2670 Y-4.1856
G01 X-11.1397 Y-4.0039
G01 X-10.9821 Y-3.8463
G01 X-10.7995 Y-3.7184
G01 X-10.5974 Y-3.6242
G01 X-10.3821 Y-3.5665
G01 X-10.1600 Y-3.5471
G01 X-9.9379 Y-3.5665
G01 X-9.7226 Y-3.6242
G01 X-9.5205 Y-3.7184
G01 X-9.3379 Y-3.8463
G01 X-9.1717 Y-4.0125
G01 X-9.1662 Y-4.0175
G01 X-9.1617 Y-4.0209
G01 X-9.1520 Y-4.0267
G01 X-9.1432 Y-4.0305
G01 X-9.1069 Y-4.0546
G01 X-9.1005 Y-4.0582
G01 X-9.0937 Y-4.0612
G01 X-9.0867 Y-4.0636
G01 X-9.0794 Y-4.0652
G01 X-9.0408 Y-4.0711
G01 X-9.0313 Y-4.0719
G01 X-5.2843 Y-4.0718
G01 X-5.2771 Y-4.0709
G01 X-5.2700 Y-4.0693
G01 X-5.2012 Y-4.0492
G01 X-5.1923 Y-4.0460
G01 X-5.1839 Y-4.0417
G01 X-5.1777 Y-4.0376
G01 X-5.1563 Y-4.0211
G01 X-5.0950 Y-3.9652
G01 X-4.9258 Y-3.8604
G01 X-4.7402 Y-3.7885
G01 X-4.5445 Y-3.7519
G01 X-4.3455 Y-3.7519
G01 X-4.1498 Y-3.7885
G01 X-3.9642 Y-3.8604
G01 X-3.7950 Y-3.9652
G01 X-3.6479 Y-4.0993
G01 X-3.5279 Y-4.2582
G01 X-3.4392 Y-4.4363
G01 X-3.3847 Y-4.6278
G01 X-3.3652 Y-4.8388
G01 X-3.3637 Y-4.8480
G01 X-3.3618 Y-4.8553
G01 X-3.3583 Y-4.8640
G01 X-3.3548 Y-4.8707
G01 X-3.3414 Y-4.9155
G01 X-3.3375 Y-4.9241
G01 X-3.3326 Y-4.9322
G01 X-3.3280 Y-4.9382
G01 X-3.3214 Y-4.9451
G01 X-3.2657 Y-4.9933
G01 X-3.2596 Y-4.9979
G01 X-3.2530 Y-5.0018
G01 X-3.2461 Y-5.0050
G01 X-3.2407 Y-5.0070
G01 X-3.2333 Y-5.0090
G01 X-3.1782 Y-5.0209
G01 X-3.1728 Y-5.0216
G01 X-3.1656 Y-5.0219
G01 X-3.0755 Y-5.0219
G01 X-2.8798 Y-5.0585
G01 X-2.6942 Y-5.1304
G01 X-2.5250 Y-5.2352
G01 X-2.3779 Y-5.3693
G01 X-2.2579 Y-5.5282
G01 X-2.1692 Y-5.7063
G01 X-2.1147 Y-5.8978
G01 X-2.0963 Y-6.0960
G00 Z2.0000
G00 X-2.2192 Y-6.0960
G01 F60.00
G01 Z-0.1500
G01 F240.00
G01 X-2.2355 Y-6.2716
G01 X-2.2837 Y-6.4413
G01 X-2.3624 Y-6.5992
G01 X-2.4686 Y-6.7399
G01 X-2.5990 Y-6.8588
G01 X-2.7490 Y-6.9516
G01 X-2.9134 Y-7.0153
G01 X-3.0868 Y-7.0477
G01 X-3.2632 Y-7.0477
G01 X-3.4366 Y-7.0153
G01 X-3.6043 Y-6.9503
G01 X-3.6063 Y-6.9388
G01 X-3.6084 Y-6.9293
G01 X-3.6174 Y-6.8936
G01 X-3.6218 Y-6.8797
G01 X-3.6361 Y-6.8406
G01 X-3.6537 Y-6.8028
G01 X-3.6587 Y-6.7930
G01 X-3.6466 Y-6.8017
G01 X-3.6383 Y-6.8069
G01 X-3.5836 Y-6.8397
G01 X-3.5664 Y-6.8489
G01 X-3.4998 Y-6.8802
G01 X-3.4214 Y-6.9082
G01 X-3.3406 Y-6.9285
G01 X-3.2679 Y-6.9395
G01 X-3.2485 Y-6.9414
G01 X-3.1848 Y-6.9445
G01 X-3.1652 Y-6.9445
G01 X-3.0918 Y-6.9407
G01 X-3.0094 Y-6.9285
G01 X-2.9286 Y-6.9082
G01 X-2.8593 Y-6.8837
G01 X-2.8413 Y-6.8762
G01 X-2.7836 Y-6.8489
G01 X-2.7664 Y-6.8397
G01 X-2.7034 Y-6.8017
G01 X-2.6365 Y-6.7521
G01 X-2.5819 Y-6.7029
G01 X-2.5681 Y-6.6891
G01 X-2.5189 Y-6.6345
G01 X-2.4749 Y-6.5755
G01 X-2.4641 Y-6.5593
G01 X-2.4265 Y-6.4961
G01 X-2.3948 Y-6.4297
G01 X-2.3873 Y-6.4117
G01 X-2.3628 Y-6.3424
G01 X-2.3447 Y-6.2711
G01 X-2.3409 Y-6.2520
G01 X-2.3303 Y-6.1792
G01 X-2.3262 Y-6.0960
G01 X-2.3296 Y-6.0225
G01 X-2.3315 Y-6.0031
G01 X-2.3425 Y-5.9304
G01 X-2.3628 Y-5.8496
G01 X-2.3873 Y-5.7803
G01 X-2.3948 Y-5.7623
G01 X-2.4265 Y-5.6959
G01 X-2.4693 Y-5.6244
G01 X-2.5129 Y-5.5652
G01 X-2.5253 Y-5.5502
G01 X-2.5748 Y-5.4958
G01 X-2.6292 Y-5.4463
G01 X-2.6442 Y-5.4339
G01 X-2.7034 Y-5.3903
G01 X-2.7749 Y-5.3475
G01 X-2.8502 Y-5.3118
G01 X-2.9194 Y-5.2868
G01 X-2.9380 Y-5.2812
G01 X-2.9999 Y-5.2657
G01 X-3.0142 Y-5.2626
G01 X-3.0821 Y-5.2525
G01 X-3.1015 Y-5.2506
G01 X-3.1750 Y-5.2472
G01 X-3.2485 Y-5.2506
G01 X-3.2679 Y-5.2525
G01 X-3.3406 Y-5.2635
G01 X-3.4214 Y-5.2838
G01 X-3.4998 Y-5.3118
G01 X-3.5751 Y-5.3475
G01 X-3.6466 Y-5.3903
G01 X-3.7058 Y-5.4339
G01 X-3.7208 Y-5.4463
G01 X-3.7681 Y-5.4891
G01 X-3.7819 Y-5.5029
G01 X-3.8311 Y-5.5575
G01 X-3.8751 Y-5.6165
G01 X-3.8824 Y-5.6271
G01 X-4.1668 Y-5.6271
G01 X-4.1293 Y-5.6137
G01 X-4.1157 Y-5.6082
G01 X-4.0536 Y-5.5789
G01 X-4.0406 Y-5.5722
G01 X-3.9734 Y-5.5317
G01 X-3.9104 Y-5.4852
G01 X-3.8992 Y-5.4757
G01 X-3.8519 Y-5.4329
G01 X-3.8381 Y-5.4191
G01 X-3.7889 Y-5.3645
G01 X-3.7420 Y-5.3016
G01 X-3.7341 Y-5.2893
G01 X-3.7013 Y-5.2346
G01 X-3.6921 Y-5.2174
G01 X-3.6608 Y-5.1508
G01 X-3.6328 Y-5.0724
G01 X-3.6125 Y-4.9916
G01 X-3.6015 Y-4.9189
G01 X-3.5996 Y-4.8995
G01 X-3.5965 Y-4.8358
G01 X-3.5963 Y-4.8211
G01 X-3.6003 Y-4.7428
G01 X-3.6109 Y-4.6700
G01 X-3.6147 Y-4.6509
G01 X-3.6302 Y-4.5890
G01 X-3.6358 Y-4.5704
G01 X-3.6608 Y-4.5012
G01 X-3.6965 Y-4.4259
G01 X-3.7393 Y-4.3544
G01 X-3.7829 Y-4.2952
G01 X-3.7953 Y-4.2802
G01 X-3.8381 Y-4.2329
G01 X-3.8519 Y-4.2191
G01 X-3.9065 Y-4.1699
G01 X-3.9734 Y-4.1203
G01 X-4.0449 Y-4.0775
G01 X-4.1113 Y-4.0458
G01 X-4.1293 Y-4.0383
G01 X-4.1894 Y-4.0168
G01 X-4.2080 Y-4.0112
G01 X-4.2794 Y-3.9935
G01 X-4.3521 Y-3.9825
G01 X-4.3715 Y-3.9806
G01 X-4.4450 Y-3.9772
G01 X-4.5282 Y-3.9813
G01 X-4.6010 Y-3.9919
G01 X-4.6201 Y-3.9957
G01 X-4.6820 Y-4.0112
G01 X-4.6960 Y-4.0153
G01 X-4.7698 Y-4.0418
G01 X-4.8364 Y-4.0731
G01 X-4.8536 Y-4.0823
G01 X-4.9166 Y-4.1203
G01 X-4.9835 Y-4.1699
G01 X-5.0381 Y-4.2191
G01 X-5.0519 Y-4.2329
G01 X-5.0947 Y-4.2802
G01 X-5.1011 Y-4.2875
G01 X-5.1085 Y-4.2971
G01 X-9.2555 Y-4.2971
G01 X-9.2880 Y-4.2433
G01 X-9.3462 Y-4.1645
G01 X-9.3557 Y-4.1533
G01 X-9.4150 Y-4.0879
G01 X-9.4255 Y-4.0777
G01 X-9.4947 Y-4.0153
G01 X-9.5733 Y-3.9567
G01 X-9.5856 Y-3.9488
G01 X-9.6656 Y-3.9011
G01 X-9.7587 Y-3.8571
G01 X-9.8556 Y-3.8224
G01 X-9.9506 Y-3.7984
G01 X-9.9650 Y-3.7957
G01 X-10.0572 Y-3.7823
G01 X-10.1600 Y-3.7772
G01 X-10.2628 Y-3.7823
G01 X-10.3646 Y-3.7974
G01 X-10.4644 Y-3.8224
G01 X-10.5613 Y-3.8571
G01 X-10.6544 Y-3.9011
G01 X-10.7386 Y-3.9513
G01 X-10.7506 Y-3.9596
G01 X-10.8176 Y-4.0093
G01 X-10.8327 Y-4.0217
G01 X-10.9016 Y-4.0844
G01 X-10.9707 Y-4.1607
G01 X-11.0264 Y-4.2354
G01 X-11.0372 Y-4.2516
G01 X-11.0849 Y-4.3316
G01 X-11.1250 Y-4.4157
G01 X-11.1324 Y-4.4338
G01 X-11.1636 Y-4.5216
G01 X-11.1865 Y-4.6119
G01 X-11.1903 Y-4.6310
G01 X-11.2037 Y-4.7232
G01 X-11.2085 Y-4.8162
G01 X-11.2085 Y-4.8358
G01 X-11.2044 Y-4.9191
G01 X-11.2025 Y-4.9385
G01 X-11.1886 Y-5.0306
G01 X-11.1662 Y-5.1210
G01 X-11.1605 Y-5.1397
G01 X-11.1289 Y-5.2273
G01 X-11.0893 Y-5.3117
G01 X-11.0801 Y-5.3289
G01 X-11.0320 Y-5.4087
G01 X-10.9707 Y-5.4913
G01 X-10.9016 Y-5.5676
G01 X-10.8327 Y-5.6303
G01 X-10.8176 Y-5.6427
G01 X-10.7427 Y-5.6980
G01 X-10.6544 Y-5.7509
G01 X-10.5703 Y-5.7910
G01 X-10.5522 Y-5.7984
G01 X-10.4737 Y-5.8265
G01 X-10.4598 Y-5.8310
G01 X-10.3646 Y-5.8546
G01 X-10.2628 Y-5.8697
G01 X-10.1600 Y-5.8748
G01 X-10.0669 Y-5.8704
G01 X-10.0475 Y-5.8685
G01 X-9.9650 Y-5.8563
G01 X-9.9459 Y-5.8525
G01 X-9.8556 Y-5.8296
G01 X-9.7632 Y-5.7967
G01 X-9.7497 Y-5.7910
G01 X-9.6743 Y-5.7553
G01 X-9.6571 Y-5.7461
G01 X-9.5773 Y-5.6980
G01 X-9.5024 Y-5.6427
G01 X-9.4909 Y-5.6336
G01 X-9.4184 Y-5.5676
G01 X-9.3524 Y-5.4951
G01 X-9.3433 Y-5.4836
G01 X-9.2907 Y-5.4127
G01 X-9.2828 Y-5.4004
G01 X-9.2555 Y-5.3549
G01 X-5.1085 Y-5.3549
G01 X-5.1011 Y-5.3645
G01 X-5.0947 Y-5.3718
G01 X-5.0519 Y-5.4191
G01 X-5.0381 Y-5.4329
G01 X-4.9835 Y-5.4821
G01 X-4.9206 Y-5.5290
G01 X-4.9083 Y-5.5369
G01 X-4.8536 Y-5.5697
G01 X-4.8408 Y-5.5768
G01 X-4.7698 Y-5.6102
G01 X-4.7232 Y-5.6271
G01 X-7.1750 Y-5.6271
G01 X-7.2112 Y-5.6286
G01 X-7.2258 Y-5.6299
G01 X-7.2617 Y-5.6352
G01 X-7.2760 Y-5.6382
G01 X-7.3111 Y-5.6473
G01 X-7.3453 Y-5.6593
G01 X-7.3589 Y-5.6647
G01 X-7.3960 Y-5.6825
G01 X-7.4355 Y-5.7061
G01 X-7.4725 Y-5.7335
G01 X-7.5031 Y-5.7610
G01 X-7.6844 Y-5.9422
G01 X-7.8999 Y-5.9423
G01 X-7.9341 Y-5.9442
G01 X-7.9632 Y-5.9482
G01 X-7.9776 Y-5.9509
G01 X-8.0108 Y-5.9594
G01 X-8.0385 Y-5.9691
G01 X-8.0521 Y-5.9745
G01 X-8.0830 Y-5.9893
G01 X-8.1165 Y-6.0094
G01 X-8.1403 Y-6.0267
G01 X-8.1517 Y-6.0359
G01 X-8.1770 Y-6.0590
G01 X-8.2033 Y-6.0880
G01 X-8.2238 Y-6.1154
G01 X-8.2292 Y-6.1235
G01 X-8.2419 Y-6.1445
G01 X-8.2511 Y-6.1617
G01 X-8.2634 Y-6.1884
G01 X-8.2766 Y-6.2252
G01 X-8.2861 Y-6.2632
G01 X-8.2907 Y-6.2922
G01 X-8.2923 Y-6.3068
G01 X-8.2938 Y-6.3410
G01 X-8.2938 Y-6.7410
G01 X-8.2918 Y-6.7801
G01 X-8.2861 Y-6.8188
G01 X-8.2766 Y-6.8568
G01 X-8.2669 Y-6.8845
G01 X-8.2615 Y-6.8981
G01 X-8.2467 Y-6.9290
G01 X-8.2266 Y-6.9625
G01 X-8.2093 Y-6.9863
G01 X-8.1969 Y-7.0014
G01 X-8.1804 Y-7.0195
G01 X-8.1735 Y-7.0264
G01 X-8.1480 Y-7.0493
G01 X-8.1245 Y-7.0669
G01 X-8.1083 Y-7.0778
G01 X-8.0873 Y-7.0903
G01 X-8.0786 Y-7.0949
G01 X-8.0476 Y-7.1094
G01 X-8.0154 Y-7.1211
G01 X-8.0061 Y-7.1240
G01 X-7.9823 Y-7.1300
G01 X-7.9632 Y-7.1338
G01 X-7.9341 Y-7.1378
G01 X-7.8950 Y-7.1398
G01 X-7.3450 Y-7.1398
G01 X-7.3156 Y-7.1386
G01 X-7.3011 Y-7.1373
G01 X-7.2720 Y-7.1330
G01 X-7.2577 Y-7.1300
G01 X-7.2292 Y-7.1226
G01 X-7.1924 Y-7.1094
G01 X-7.1657 Y-7.0971
G01 X-7.1527 Y-7.0903
G01 X-7.1235 Y-7.0726
G01 X-7.0920 Y-7.0493
G01 X-7.0630 Y-7.0230
G01 X-7.0431 Y-7.0014
G01 X-7.0307 Y-6.9863
G01 X-7.0162 Y-6.9666
G01 X-7.0082 Y-6.9543
G01 X-6.9957 Y-6.9333
G01 X-6.9911 Y-6.9246
G01 X-6.9805 Y-6.9025
G01 X-6.9748 Y-6.8891
G01 X-6.9634 Y-6.8568
G01 X-6.9560 Y-6.8283
G01 X-6.9530 Y-6.8140
G01 X-6.9482 Y-6.7801
G01 X-6.9462 Y-6.7410
G01 X-6.9462 Y-6.5649
G01 X-4.9875 Y-6.5649
G01 X-5.0169 Y-6.5791
G01 X-5.0527 Y-6.6003
G01 X-5.0650 Y-6.6083
G01 X-5.0985 Y-6.6331
G01 X-5.1097 Y-6.6425
G01 X-5.1404 Y-6.6706
G01 X-5.1749 Y-6.7087
G01 X-5.2055 Y-6.7500
G01 X-5.2271 Y-6.7856
G01 X-5.2342 Y-6.7984
G01 X-5.2499 Y-6.8316
G01 X-5.2557 Y-6.8451
G01 X-5.2712 Y-6.8890
G01 X-5.2785 Y-6.9172
G01 X-5.4094 Y-6.9172
G01 X-5.4270 Y-6.8581
G01 X-5.4324 Y-6.8443
G01 X-5.4388 Y-6.8309
G01 X-5.4488 Y-6.8139
G01 X-5.4574 Y-6.8019
G01 X-5.4703 Y-6.7869
G01 X-5.4845 Y-6.7732
G01 X-5.5450 Y-6.7212
G01 X-5.5612 Y-6.7097
G01 X-5.5785 Y-6.7000
G01 X-5.5967 Y-6.6920
G01 X-5.6156 Y-6.6858
G01 X-5.6767 Y-6.6723
G01 X-5.6954 Y-6.6691
G01 X-5.7048 Y-6.6682
G01 X-5.7190 Y-6.6677
G01 X-6.5591 Y-6.6677
G01 X-6.5733 Y-6.6682
G01 X-6.5921 Y-6.6705
G01 X-6.6106 Y-6.6745
G01 X-6.6822 Y-6.6955
G01 X-6.6962 Y-6.7002
G01 X-6.7099 Y-6.7059
G01 X-6.7273 Y-6.7151
G01 X-6.7398 Y-6.7231
G01 X-6.7554 Y-6.7352
G01 X-6.7628 Y-6.7418
G01 X-6.7731 Y-6.7523
G01 X-6.8222 Y-6.8088
G01 X-6.8315 Y-6.8204
G01 X-6.8425 Y-6.8369
G01 X-6.8473 Y-6.8455
G01 X-6.8538 Y-6.8588
G01 X-6.8632 Y-6.8826
G01 X-6.8673 Y-6.8945
G01 X-6.8841 Y-6.9484
G01 X-6.9471 Y-7.0527
G01 X-7.0355 Y-7.1412
G01 X-7.0479 Y-7.1554
G01 X-7.0589 Y-7.1709
G01 X-7.0661 Y-7.1831
G01 X-7.0996 Y-7.2444
G01 X-7.1082 Y-7.2622
G01 X-7.1134 Y-7.2760
G01 X-7.1177 Y-7.2902
G01 X-7.1208 Y-7.3047
G01 X-7.1229 Y-7.3193
G01 X-7.1238 Y-7.3341
G01 X-7.1237 Y-7.3489
G01 X-7.1175 Y-7.4334
G01 X-7.1141 Y-7.4530
G01 X-7.1103 Y-7.4674
G01 X-7.1054 Y-7.4814
G01 X-7.0995 Y-7.4951
G01 X-7.0950 Y-7.5040
G01 X-7.0874 Y-7.5168
G01 X-7.0563 Y-7.5651
G01 X-7.0449 Y-7.5802
G01 X-7.0322 Y-7.5942
G01 X-6.9471 Y-7.6793
G01 X-6.8841 Y-7.7836
G01 X-6.8470 Y-7.9028
G01 X-6.8433 Y-7.9434
G01 X-6.8433 Y-8.4386
G01 X-6.8470 Y-8.4792
G01 X-6.8841 Y-8.5984
G01 X-6.9471 Y-8.7027
G01 X-7.0333 Y-8.7889
G01 X-7.1376 Y-8.8519
G01 X-7.2568 Y-8.8890
G01 X-7.2978 Y-8.8928
G01 X-7.3135 Y-8.8936
G01 X-7.3323 Y-8.8963
G01 X-7.3506 Y-8.9008
G01 X-7.4223 Y-8.9219
G01 X-7.4361 Y-8.9269
G01 X-7.4451 Y-8.9307
G01 X-7.4581 Y-8.9374
G01 X-7.4665 Y-8.9423
G01 X-7.4826 Y-8.9534
G01 X-7.5111 Y-8.9764
G01 X-7.5229 Y-8.9873
G01 X-8.9125 Y-10.3769
G01 X-8.9928 Y-10.4414
G01 X-9.1320 Y-10.5105
G01 X-9.1491 Y-10.5207
G01 X-9.1650 Y-10.5324
G01 X-9.2153 Y-10.5756
G01 X-9.2297 Y-10.5893
G01 X-9.2396 Y-10.6004
G01 X-9.2457 Y-10.6083
G01 X-9.2744 Y-10.6491
G01 X-9.4169 Y-10.7916
G01 X-9.5819 Y-10.9072
G01 X-9.7646 Y-10.9924
G01 X-9.9592 Y-11.0446
G01 X-10.1600 Y-11.0621
G01 X-10.3608 Y-11.0446
G01 X-10.5554 Y-10.9924
G01 X-10.7381 Y-10.9072
G01 X-10.9031 Y-10.7916
G01 X-11.0456 Y-10.6491
G01 X-11.1656 Y-10.4778
G01 X-11.1741 Y-10.4665
G01 X-11.1803 Y-10.4593
G01 X-11.1901 Y-10.4491
G01 X-11.2007 Y-10.4396
G01 X-11.2589 Y-10.3930
G01 X-11.2749 Y-10.3814
G01 X-11.2833 Y-10.3762
G01 X-11.2964 Y-10.3693
G01 X-11.3146 Y-10.3616
G01 X-11.3334 Y-10.3557
G01 X-11.3479 Y-10.3526
G01 X-11.3625 Y-10.3505
G01 X-11.4320 Y-10.3433
G01 X-11.4517 Y-10.3423
G01 X-11.4715 Y-10.3432
G01 X-11.4910 Y-10.3460
G01 X-11.5101 Y-10.3508
G01 X-11.5287 Y-10.3574
G01 X-11.5422 Y-10.3636
G01 X-11.6130 Y-10.3997
G01 X-11.6293 Y-10.4101
G01 X-11.6446 Y-10.4219
G01 X-11.6517 Y-10.4284
G01 X-11.6619 Y-10.4388
G01 X-11.6818 Y-10.4617
G01 X-11.6914 Y-10.4737
G01 X-11.8141 Y-10.6489
G01 X-11.9569 Y-10.7917
G01 X-12.1219 Y-10.9072
G01 X-12.3046 Y-10.9924
G01 X-12.4992 Y-11.0446
G01 X-12.7000 Y-11.0621
G01 X-12.9008 Y-11.0446
G01 X-13.0954 Y-10.9924
G01 X-13.2781 Y-10.9072
G01 X-13.4431 Y-10.7916
G01 X-13.5856 Y-10.6491
G01 X-13.7056 Y-10.4778
G01 X-13.7141 Y-10.4665
G01 X-13.7203 Y-10.4593
G01 X-13.7301 Y-10.4491
G01 X-13.7407 Y-10.4396
G01 X-13.7989 Y-10.3930
G01 X-13.8068 Y-10.3870
G01 X-13.8191 Y-10.3788
G01 X-13.8364 Y-10.3693
G01 X-13.8546 Y-10.3616
G01 X-13.8734 Y-10.3557
G01 X-13.8879 Y-10.3526
G01 X-13.9025 Y-10.3505
G01 X-13.9720 Y-10.3433
G01 X-13.9917 Y-10.3423
G01 X-14.0115 Y-10.3432
G01 X-14.0310 Y-10.3460
G01 X-14.0501 Y-10.3508
G01 X-14.0687 Y-10.3574
G01 X-14.0822 Y-10.3636
G01 X-14.1530 Y-10.3997
G01 X-14.1693 Y-10.4101
G01 X-14.1846 Y-10.4219
G01 X-14.1952 Y-10.4318
G01 X-14.2019 Y-10.4388
G01 X-14.2218 Y-10.4617
G01 X-14.2314 Y-10.4737
G01 X-14.3541 Y-10.6489
G01 X-14.4969 Y-10.7917
G01 X-14.6619 Y-10.9072
G01 X-14.8446 Y-10.9924
G01 X-15.0392 Y-11.0446
G01 X-15.2400 Y-11.0621
G01 X-15.4408 Y-11.0446
G01 X-15.6354 Y-10.9924
G01 X-15.8181 Y-10.9072
G01 X-15.9831 Y-10.7916
G01 X-16.1256 Y-10.6491
G01 X-16.2456 Y-10.4778
G01 X-16.2541 Y-10.4665
G01 X-16.2603 Y-10.4593
G01 X-16.2701 Y-10.4491
G01 X-16.2807 Y-10.4396
G01 X-16.3389 Y-10.3930
G01 X-16.3468 Y-10.3870
G01 X-16.3591 Y-10.3788
G01 X-16.3764 Y-10.3693
G01 X-16.3946 Y-10.3616
G01 X-16.4134 Y-10.3557
G01 X-16.4279 Y-10.3526
G01 X-16.4425 Y-10.3505
G01 X-16.5120 Y-10.3433
G01 X-16.5317 Y-10.3423
G01 X-16.5515 Y-10.3432
G01 X-16.5710 Y-10.3460
G01 X-16.5901 Y-10.3508
G01 X-16.6087 Y-10.3574
G01 X-16.6222 Y-10.3636
G01 X-16.6930 Y-10.3997
G01 X-16.7093 Y-10.4101
G01 X-16.7246 Y-10.4219
G01 X-16.7317 Y-10.4284
G01 X-16.7419 Y-10.4388
G01 X-16.7618 Y-10.4617
G01 X-16.7714 Y-10.4737
G01 X-16.8941 Y-10.6489
G01 X-17.0369 Y-10.7917
G01 X-17.2019 Y-10.9072
G01 X-17.3846 Y-10.9924
G01 X-17.5792 Y-11.0446
G01 X-17.7800 Y-11.0621
G01 X-17.9808 Y-11.0446
G01 X-18.1754 Y-10.9924
G01 X-18.3581 Y-10.9072
G01 X-18.5231 Y-10.7916
G01 X-18.6656 Y-10.6491
G01 X-18.7856 Y-10.4778
G01 X-18.7912 Y-10.4702
G01 X-18.8003 Y-10.4593
G01 X-18.8101 Y-10.4491
G01 X-18.8207 Y-10.4396
G01 X-18.8789 Y-10.3930
G01 X-18.8949 Y-10.3814
G01 X-18.9120 Y-10.3715
G01 X-18.9209 Y-10.3672
G01 X-18.9346 Y-10.3616
G01 X-18.9534 Y-10.3557
G01 X-18.9679 Y-10.3526
G01 X-18.9825 Y-10.3505
G01 X-19.0520 Y-10.3433
G01 X-19.0717 Y-10.3423
G01 X-19.0915 Y-10.3432
G01 X-19.1110 Y-10.3460
G01 X-19.1301 Y-10.3508
G01 X-19.1487 Y-10.3574
G01 X-19.1622 Y-10.3636
G01 X-19.2330 Y-10.3997
G01 X-19.2493 Y-10.4101
G01 X-19.2646 Y-10.4219
G01 X-19.2752 Y-10.4318
G01 X-19.2819 Y-10.4388
G01 X-19.3018 Y-10.4617
G01 X-19.3114 Y-10.4737
G01 X-19.4341 Y-10.6489
G01 X-19.5769 Y-10.7917
G01 X-19.7419 Y-10.9072
G01 X-19.9246 Y-10.9924
G01 X-20.1192 Y-11.0446
G01 X-20.3200 Y-11.0621
G01 X-20.5208 Y-11.0446
G01 X-20.7154 Y-10.9924
G01 X-20.8981 Y-10.9072
G01 X-21.0631 Y-10.7916
G01 X-21.2056 Y-10.6491
G01 X-21.3256 Y-10.4778
G01 X-21.3341 Y-10.4665
G01 X-21.3403 Y-10.4593
G01 X-21.3501 Y-10.4491
G01 X-21.3607 Y-10.4396
G01 X-21.4189 Y-10.3930
G01 X-21.4268 Y-10.3870
G01 X-21.4391 Y-10.3788
G01 X-21.4564 Y-10.3693
G01 X-21.4746 Y-10.3616
G01 X-21.4934 Y-10.3557
G01 X-21.5079 Y-10.3526
G01 X-21.5225 Y-10.3505
G01 X-21.5920 Y-10.3433
G01 X-21.6117 Y-10.3423
G01 X-21.6315 Y-10.3432
G01 X-21.6510 Y-10.3460
G01 X-21.6701 Y-10.3508
G01 X-21.6887 Y-10.3574
G01 X-21.7022 Y-10.3636
G01 X-21.7730 Y-10.3997
G01 X-21.7893 Y-10.4101
G01 X-21.8046 Y-10.4219
G01 X-21.8152 Y-10.4318
G01 X-21.8219 Y-10.4388
G01 X-21.8418 Y-10.4617
G01 X-21.8514 Y-10.4737
G01 X-21.9741 Y-10.6489
G01 X-22.1169 Y-10.7917
G01 X-22.2819 Y-10.9072
G01 X-22.4646 Y-10.9924
G01 X-22.6592 Y-11.0446
G01 X-22.8600 Y-11.0621
G01 X-23.0608 Y-11.0446
G01 X-23.2554 Y-10.9924
G01 X-23.4381 Y-10.9072
G01 X-23.6031 Y-10.7916
G01 X-23.7456 Y-10.6491
G01 X-23.8656 Y-10.4778
G01 X-23.8741 Y-10.4665
G01 X-23.8803 Y-10.4593
G01 X-23.8901 Y-10.4491
G01 X-23.9007 Y-10.4396
G01 X-23.9589 Y-10.3930
G01 X-23.9668 Y-10.3870
G01 X-23.9791 Y-10.3788
G01 X-23.9964 Y-10.3693
G01 X-24.0146 Y-10.3616
G01 X-24.0334 Y-10.3557
G01 X-24.0479 Y-10.3526
G01 X-24.0625 Y-10.3505
G01 X-24.1320 Y-10.3433
G01 X-24.1517 Y-10.3423
G01 X-24.1715 Y-10.3432
G01 X-24.1910 Y-10.3460
G01 X-24.2101 Y-10.3508
G01 X-24.2287 Y-10.3574
G01 X-24.2422 Y-10.3636
G01 X-24.3130 Y-10.3997
G01 X-24.3293 Y-10.4101
G01 X-24.3446 Y-10.4219
G01 X-24.3552 Y-10.4318
G01 X-24.3619 Y-10.4388
G01 X-24.3818 Y-10.4617
G01 X-24.3914 Y-10.4737
G01 X-24.5141 Y-10.6489
G01 X-24.6569 Y-10.7917
G01 X-24.8219 Y-10.9072
G01 X-25.0046 Y-10.9924
G01 X-25.1992 Y-11.0446
G01 X-25.4000 Y-11.0621
G01 X-25.6008 Y-11.0446
G01 X-25.7954 Y-10.9924
G01 X-25.9781 Y-10.9072
G01 X-26.1431 Y-10.7916
G01 X-26.2856 Y-10.6491
G01 X-26.4056 Y-10.4778
G01 X-26.4141 Y-10.4665
G01 X-26.4203 Y-10.4593
G01 X-26.4301 Y-10.4491
G01 X-26.4407 Y-10.4396
G01 X-26.4989 Y-10.3930
G01 X-26.5068 Y-10.3870
G01 X-26.5191 Y-10.3788
G01 X-26.5364 Y-10.3693
G01 X-26.5546 Y-10.3616
G01 X-26.5734 Y-10.3557
G01 X-26.5879 Y-10.3526
G01 X-26.6025 Y-10.3505
G01 X-26.6720 Y-10.3433
G01 X-26.6917 Y-10.3423
G01 X-26.7115 Y-10.3432
G01 X-26.7310 Y-10.3460
G01 X-26.7501 Y-10.3508
G01 X-26.7687 Y-10.3574
G01 X-26.7822 Y-10.3636
G01 X-26.8530 Y-10.3997
G01 X-26.8693 Y-10.4101
G01 X-26.8846 Y-10.4219
G01 X-26.8952 Y-10.4318
G01 X-26.9019 Y-10.4388
G01 X-26.9218 Y-10.4617
G01 X-26.9314 Y-10.4737
G01 X-27.0541 Y-10.6489
G01 X-27.1969 Y-10.7917
G01 X-27.3619 Y-10.9072
G01 X-27.5446 Y-10.9924
G01 X-27.7392 Y-11.0446
G01 X-27.9400 Y-11.0621
G01 X-28.1408 Y-11.0446
G01 X-28.3354 Y-10.9924
G01 X-28.5181 Y-10.9072
G01 X-28.6831 Y-10.7916
G01 X-28.8256 Y-10.6491
G01 X-28.9459 Y-10.4774
G01 X-28.9515 Y-10.4698
G01 X-28.9606 Y-10.4589
G01 X-28.9704 Y-10.4486
G01 X-28.9810 Y-10.4391
G01 X-29.0392 Y-10.3925
G01 X-29.0552 Y-10.3810
G01 X-29.0723 Y-10.3711
G01 X-29.0903 Y-10.3629
G01 X-29.1042 Y-10.3580
G01 X-29.1137 Y-10.3553
G01 X-29.1282 Y-10.3521
G01 X-29.1379 Y-10.3506
G01 X-29.2123 Y-10.3429
G01 X-29.2271 Y-10.3419
G01 X-29.2468 Y-10.3423
G01 X-29.2664 Y-10.3447
G01 X-29.2857 Y-10.3490
G01 X-29.3044 Y-10.3552
G01 X-29.3225 Y-10.3632
G01 X-29.3891 Y-10.3970
G01 X-29.4016 Y-10.4043
G01 X-29.4174 Y-10.4154
G01 X-29.4285 Y-10.4247
G01 X-29.4389 Y-10.4348
G01 X-29.4621 Y-10.4612
G01 X-29.4686 Y-10.4692
G01 X-29.4747 Y-10.4774
G01 X-29.5947 Y-10.6488
G01 X-29.7372 Y-10.7913
G01 X-29.9022 Y-10.9068
G01 X-30.0312 Y-10.9670
G01 X-30.0312 Y-10.8528
G01 X-29.9943 Y-10.8353
G01 X-29.9813 Y-10.8286
G01 X-29.9056 Y-10.7832
G01 X-29.8933 Y-10.7753
G01 X-29.8147 Y-10.7167
G01 X-29.7419 Y-10.6510
G01 X-29.7317 Y-10.6405
G01 X-29.6757 Y-10.5787
G01 X-29.6633 Y-10.5636
G01 X-29.6080 Y-10.4887
G01 X-29.5574 Y-10.4047
G01 X-29.5507 Y-10.3917
G01 X-29.5111 Y-10.3073
G01 X-29.4795 Y-10.2197
G01 X-29.4738 Y-10.2010
G01 X-29.4514 Y-10.1106
G01 X-29.4375 Y-10.0185
G01 X-29.4356 Y-9.9991
G01 X-29.4312 Y-9.9060
G01 X-29.4356 Y-9.8129
G01 X-29.4375 Y-9.7935
G01 X-29.4514 Y-9.7014
G01 X-29.4738 Y-9.6110
G01 X-29.4795 Y-9.5923
G01 X-29.5111 Y-9.5047
G01 X-29.5507 Y-9.4203
G01 X-29.5574 Y-9.4073
G01 X-29.6080 Y-9.3233
G01 X-29.6633 Y-9.2484
G01 X-29.6757 Y-9.2333
G01 X-29.7317 Y-9.1715
G01 X-29.7419 Y-9.1610
G01 X-29.8147 Y-9.0953
G01 X-29.8933 Y-9.0367
G01 X-29.9056 Y-9.0288
G01 X-29.9813 Y-8.9834
G01 X-29.9943 Y-8.9767
G01 X-30.0312 Y-8.9592
G01 X-30.0312 Y-8.8450
G01 X-29.8880 Y-8.9118
G01 X-29.8793 Y-8.9156
G01 X-29.8660 Y-8.9205
G01 X-29.8524 Y-8.9245
G01 X-29.8385 Y-8.9274
G01 X-29.7648 Y-8.9387
G01 X-29.7451 Y-8.9407
G01 X-29.7254 Y-8.9407
G01 X-29.7057 Y-8.9388
G01 X-29.6864 Y-8.9349
G01 X-29.6675 Y-8.9292
G01 X-29.6538 Y-8.9236
G01 X-29.5811 Y-8.8908
G01 X-29.5639 Y-8.8810
G01 X-29.5518 Y-8.8726
G01 X-29.5440 Y-8.8665
G01 X-29.5330 Y-8.8566
G01 X-29.5261 Y-8.8496
G01 X-29.5195 Y-8.8422
G01 X-29.5104 Y-8.8306
G01 X-29.4665 Y-8.7640
G01 X-29.4589 Y-8.7513
G01 X-29.4502 Y-8.7335
G01 X-29.4433 Y-8.7150
G01 X-29.4383 Y-8.6959
G01 X-29.4358 Y-8.6813
G01 X-29.4348 Y-8.6715
G01 X-29.4341 Y-8.6567
G01 X-29.4337 Y-8.5771
G01 X-29.4355 Y-8.5577
G01 X-29.4371 Y-8.5481
G01 X-29.4403 Y-8.5339
G01 X-29.4463 Y-8.5153
G01 X-29.4519 Y-8.5018
G01 X-29.4562 Y-8.4931
G01 X-29.4925 Y-8.4309
G01 X-29.4979 Y-8.4223
G01 X-29.5036 Y-8.4140
G01 X-29.5131 Y-8.4022
G01 X-29.5233 Y-8.3911
G01 X-29.6771 Y-8.2373
G01 X-29.6875 Y-8.2276
G01 X-29.6948 Y-8.2216
G01 X-29.7024 Y-8.2159
G01 X-29.7142 Y-8.2081
G01 X-29.7881 Y-8.1676
G01 X-29.8013 Y-8.1614
G01 X-29.8196 Y-8.1546
G01 X-29.8385 Y-8.1497
G01 X-29.8529 Y-8.1473
G01 X-29.8894 Y-8.1434
G01 X-29.9021 Y-8.1428
G01 X-29.9432 Y-8.1390
G01 X-30.0624 Y-8.1019
G01 X-30.1667 Y-8.0389
G01 X-30.2552 Y-7.9505
G01 X-30.2694 Y-7.9381
G01 X-30.2849 Y-7.9271
G01 X-30.2971 Y-7.9199
G01 X-30.3584 Y-7.8864
G01 X-30.3716 Y-7.8798
G01 X-30.3807 Y-7.8759
G01 X-30.3947 Y-7.8710
G01 X-30.4090 Y-7.8672
G01 X-30.4235 Y-7.8644
G01 X-30.4382 Y-7.8627
G01 X-30.4580 Y-7.8621
G01 X-30.5474 Y-7.8685
G01 X-30.5621 Y-7.8709
G01 X-30.5766 Y-7.8743
G01 X-30.5908 Y-7.8789
G01 X-30.6046 Y-7.8844
G01 X-30.6180 Y-7.8910
G01 X-30.6308 Y-7.8986
G01 X-30.6791 Y-7.9297
G01 X-30.6942 Y-7.9411
G01 X-30.7082 Y-7.9538
G01 X-30.7933 Y-8.0389
G01 X-30.8976 Y-8.1019
G01 X-31.0168 Y-8.1390
G01 X-31.0574 Y-8.1427
G01 X-31.5526 Y-8.1427
G01 X-31.5932 Y-8.1390
G01 X-31.7124 Y-8.1019
G01 X-31.8167 Y-8.0389
G01 X-31.9029 Y-7.9527
G01 X-31.9659 Y-7.8484
G01 X-32.0030 Y-7.7292
G01 X-32.0068 Y-7.6882
G01 X-32.0076 Y-7.6725
G01 X-32.0095 Y-7.6584
G01 X-32.0113 Y-7.6491
G01 X-32.0148 Y-7.6354
G01 X-32.0345 Y-7.5683
G01 X-32.0409 Y-7.5499
G01 X-32.0491 Y-7.5322
G01 X-32.0563 Y-7.5195
G01 X-32.0617 Y-7.5113
G01 X-32.0674 Y-7.5034
G01 X-32.0870 Y-7.4790
G01 X-32.0976 Y-7.4669
G01 X-33.4411 Y-6.1233
G01 X-33.4536 Y-6.1116
G01 X-33.4813 Y-6.0880
G01 X-33.5161 Y-6.0423
G01 X-33.5289 Y-6.0262
G01 X-33.5382 Y-6.0155
G01 X-33.5517 Y-6.0022
G01 X-33.5627 Y-5.9932
G01 X-33.5703 Y-5.9876
G01 X-33.6359 Y-5.9422
G01 X-33.6531 Y-5.9326
G01 X-33.6666 Y-5.9266
G01 X-33.6759 Y-5.9231
G01 X-33.6853 Y-5.9201
G01 X-33.6996 Y-5.9164
G01 X-33.7191 Y-5.9133
G01 X-33.7339 Y-5.9122
G01 X-33.8086 Y-5.9095
G01 X-33.8234 Y-5.9098
G01 X-33.8332 Y-5.9107
G01 X-33.8527 Y-5.9139
G01 X-33.8718 Y-5.9190
G01 X-33.8903 Y-5.9259
G01 X-33.9079 Y-5.9347
G01 X-33.9766 Y-5.9753
G01 X-33.9888 Y-5.9836
G01 X-34.0041 Y-5.9961
G01 X-34.0148 Y-6.0064
G01 X-34.0277 Y-6.0213
G01 X-34.0364 Y-6.0333
G01 X-34.0465 Y-6.0502
G01 X-34.0801 Y-6.1171
G01 X-34.0863 Y-6.1306
G01 X-34.0930 Y-6.1494
G01 X-34.0967 Y-6.1638
G01 X-34.0986 Y-6.1736
G01 X-34.1000 Y-6.1835
G01 X-34.1025 Y-6.2106
G01 X-34.1033 Y-6.2284
G01 X-34.1031 Y-6.7553
G01 X-34.1019 Y-6.7692
G01 X-34.0998 Y-6.7831
G01 X-34.0857 Y-6.8476
G01 X-34.0817 Y-6.8610
G01 X-34.0782 Y-6.8705
G01 X-34.0370 Y-7.0028
G01 X-34.0333 Y-7.0434
G01 X-34.0333 Y-7.6886
G01 X-34.0370 Y-7.7292
G01 X-34.0741 Y-7.8484
G01 X-34.1371 Y-7.9527
G01 X-34.2233 Y-8.0389
G01 X-34.3276 Y-8.1019
G01 X-34.4468 Y-8.1390
G01 X-34.4874 Y-8.1427
G01 X-34.9826 Y-8.1427
G01 X-35.0232 Y-8.1390
G01 X-35.1424 Y-8.1019
G01 X-35.2676 Y-8.0263
G01 X-35.2802 Y-8.0197
G01 X-35.2888 Y-8.0158
G01 X-35.3065 Y-8.0092
G01 X-35.3879 Y-7.9876
G01 X-35.3976 Y-7.9855
G01 X-35.4123 Y-7.9834
G01 X-35.4320 Y-7.9822
G01 X-35.4517 Y-7.9830
G01 X-35.4712 Y-7.9857
G01 X-35.4904 Y-7.9904
G01 X-35.5616 Y-8.0134
G01 X-35.5755 Y-8.0184
G01 X-35.5890 Y-8.0245
G01 X-35.5977 Y-8.0292
G01 X-35.6062 Y-8.0342
G01 X-35.6184 Y-8.0426
G01 X-35.6337 Y-8.0550
G01 X-35.6443 Y-8.0654
G01 X-35.6509 Y-8.0727
G01 X-35.7014 Y-8.1343
G01 X-35.7099 Y-8.1460
G01 X-35.7175 Y-8.1584
G01 X-35.7221 Y-8.1669
G01 X-35.7281 Y-8.1800
G01 X-35.7316 Y-8.1890
G01 X-35.7361 Y-8.2028
G01 X-35.7395 Y-8.2169
G01 X-35.7493 Y-8.2653
G01 X-35.7517 Y-8.2801
G01 X-35.7530 Y-8.2949
G01 X-35.7533 Y-8.3049
G01 X-35.7533 Y-8.4372
G01 X-35.7528 Y-8.4514
G01 X-35.7505 Y-8.4702
G01 X-35.7477 Y-8.4841
G01 X-35.7255 Y-8.5602
G01 X-35.7208 Y-8.5743
G01 X-35.7171 Y-8.5834
G01 X-35.7130 Y-8.5924
G01 X-35.7059 Y-8.6054
G01 X-35.7007 Y-8.6138
G01 X-35.6921 Y-8.6258
G01 X-35.6858 Y-8.6335
G01 X-35.6758 Y-8.6444
G01 X-35.6650 Y-8.6545
G01 X-35.6122 Y-8.7002
G01 X-35.6010 Y-8.7092
G01 X-35.5893 Y-8.7173
G01 X-35.5769 Y-8.7246
G01 X-35.5685 Y-8.7290
G01 X-35.5553 Y-8.7347
G01 X-35.5373 Y-8.7409
G01 X-35.4920 Y-8.7529
G01 X-35.4778 Y-8.7561
G01 X-35.4635 Y-8.7583
G01 X-35.3592 Y-8.7674
G01 X-35.1646 Y-8.8196
G01 X-34.9819 Y-8.9048
G01 X-34.8169 Y-9.0204
G01 X-34.6744 Y-9.1628
G01 X-34.5513 Y-9.3384
G01 X-34.5394 Y-9.3531
G01 X-34.5261 Y-9.3666
G01 X-34.5154 Y-9.3759
G01 X-34.4608 Y-9.4195
G01 X-34.4529 Y-9.4255
G01 X-34.4406 Y-9.4337
G01 X-34.4233 Y-9.4431
G01 X-34.4051 Y-9.4508
G01 X-34.3863 Y-9.4567
G01 X-34.3718 Y-9.4599
G01 X-34.3572 Y-9.4619
G01 X-34.2778 Y-9.4699
G01 X-34.2630 Y-9.4701
G01 X-34.2531 Y-9.4697
G01 X-34.2384 Y-9.4681
G01 X-34.2287 Y-9.4664
G01 X-34.2191 Y-9.4643
G01 X-34.2048 Y-9.4602
G01 X-34.1864 Y-9.4530
G01 X-34.1152 Y-9.4173
G01 X-34.1067 Y-9.4127
G01 X-34.0943 Y-9.4051
G01 X-34.0788 Y-9.3936
G01 X-34.0645 Y-9.3807
G01 X-34.0546 Y-9.3701
G01 X-34.0314 Y-9.3428
G01 X-34.0253 Y-9.3346
G01 X-33.9053 Y-9.1632
G01 X-33.7628 Y-9.0207
G01 X-33.5978 Y-8.9052
G01 X-33.4688 Y-8.8450
G01 X-33.4688 Y-8.9592
G01 X-33.5057 Y-8.9767
G01 X-33.5187 Y-8.9834
G01 X-33.5944 Y-9.0288
G01 X-33.6067 Y-9.0367
G01 X-33.6853 Y-9.0953
G01 X-33.7581 Y-9.1610
G01 X-33.7683 Y-9.1715
G01 X-33.8243 Y-9.2333
G01 X-33.8367 Y-9.2484
G01 X-33.8920 Y-9.3233
G01 X-33.9426 Y-9.4073
G01 X-33.9493 Y-9.4203
G01 X-33.9889 Y-9.5047
G01 X-34.0205 Y-9.5923
G01 X-34.0262 Y-9.6110
G01 X-34.0486 Y-9.7014
G01 X-34.0625 Y-9.7935
G01 X-34.0644 Y-9.8129
G01 X-34.0688 Y-9.9060
G01 X-34.0644 Y-9.9991
G01 X-34.0625 Y-10.0185
G01 X-34.0486 Y-10.1106
G01 X-34.0262 Y-10.2010
G01 X-34.0205 Y-10.2197
G01 X-33.9889 Y-10.3073
G01 X-33.9493 Y-10.3917
G01 X-33.9426 Y-10.4047
G01 X-33.8920 Y-10.4887
G01 X-33.8367 Y-10.5636
G01 X-33.8243 Y-10.5787
G01 X-33.7683 Y-10.6405
G01 X-33.7581 Y-10.6510
G01 X-33.6853 Y-10.7167
G01 X-33.6067 Y-10.7753
G01 X-33.5944 Y-10.7832
G01 X-33.5187 Y-10.8286
G01 X-33.5057 Y-10.8353
G01 X-33.4688 Y-10.8528
G01 X-33.4688 Y-10.9670
G01 X-33.5978 Y-10.9068
G01 X-33.7628 Y-10.7913
G01 X-33.9053 Y-10.6488
G01 X-34.0253 Y-10.4774
G01 X-34.0338 Y-10.4661
G01 X-34.0400 Y-10.4589
G01 X-34.0498 Y-10.4486
G01 X-34.0604 Y-10.4391
G01 X-34.1265 Y-10.3865
G01 X-34.1430 Y-10.3758
G01 X-34.1606 Y-10.3668
G01 X-34.1789 Y-10.3595
G01 X-34.1979 Y-10.3541
G01 X-34.2173 Y-10.3506
G01 X-34.2917 Y-10.3429
G01 X-34.3065 Y-10.3419
G01 X-34.3164 Y-10.3419
G01 X-34.3361 Y-10.3433
G01 X-34.3507 Y-10.3456
G01 X-34.3698 Y-10.3504
G01 X-34.3884 Y-10.3570
G01 X-34.4019 Y-10.3632
G01 X-34.4727 Y-10.3993
G01 X-34.4890 Y-10.4096
G01 X-34.5043 Y-10.4215
G01 X-34.5114 Y-10.4280
G01 X-34.5216 Y-10.4383
G01 X-34.5415 Y-10.4612
G01 X-34.5511 Y-10.4732
G01 X-34.6744 Y-10.6491
G01 X-34.8169 Y-10.7916
G01 X-34.9819 Y-10.9072
G01 X-35.1646 Y-10.9924
G01 X-35.3592 Y-11.0446
G01 X-35.5600 Y-11.0621
G01 X-35.7608 Y-11.0446
G01 X-35.9554 Y-10.9924
G01 X-36.1381 Y-10.9072
G01 X-36.3031 Y-10.7916
G01 X-36.4162 Y-10.6787
G01 X-36.4305 Y-10.6663
G01 X-36.4419 Y-10.6580
G01 X-36.4499 Y-10.6528
G01 X-36.5238 Y-10.6123
G01 X-36.5417 Y-10.6042
G01 X-36.5604 Y-10.5979
G01 X-36.5748 Y-10.5943
G01 X-36.5943 Y-10.5914
G01 X-36.6140 Y-10.5903
G01 X-36.6288 Y-10.5908
G01 X-36.7083 Y-10.5968
G01 X-36.7181 Y-10.5982
G01 X-36.7326 Y-10.6012
G01 X-36.7515 Y-10.6070
G01 X-36.7607 Y-10.6105
G01 X-36.7741 Y-10.6167
G01 X-36.7913 Y-10.6265
G01 X-36.8035 Y-10.6349
G01 X-36.8634 Y-10.6799
G01 X-36.8711 Y-10.6863
G01 X-36.8784 Y-10.6930
G01 X-36.8888 Y-10.7039
G01 X-36.8953 Y-10.7115
G01 X-36.9014 Y-10.7195
G01 X-36.9070 Y-10.7278
G01 X-36.9123 Y-10.7363
G01 X-36.9339 Y-10.7758
G01 X-36.9399 Y-10.7887
G01 X-36.9825 Y-10.9021
G01 X-37.0344 Y-10.9715
G01 X-37.1039 Y-11.0235
G01 X-37.1886 Y-11.0551
G01 X-37.2128 Y-11.0577
G01 X-38.9872 Y-11.0577
G01 X-39.0114 Y-11.0551
G01 X-39.0961 Y-11.0235
G01 X-39.1655 Y-10.9715
G01 X-39.2175 Y-10.9021
G01 X-39.2491 Y-10.8174
G01 X-39.2517 Y-10.7932
G01 X-39.2520 Y-9.7719
G01 X-39.2531 Y-9.7578
G01 X-39.2545 Y-9.7484
G01 X-39.2585 Y-9.7299
G01 X-39.2809 Y-9.6537
G01 X-39.2859 Y-9.6399
G01 X-39.2918 Y-9.6265
G01 X-39.3013 Y-9.6095
G01 X-39.3095 Y-9.5973
G01 X-39.3354 Y-9.5649
G01 X-39.3463 Y-9.5531
G01 X-39.9811 Y-8.9183
G01 X-39.9936 Y-8.9066
G01 X-40.0213 Y-8.8830
G01 X-40.0594 Y-8.8330
G01 X-40.1009 Y-8.7815
G01 X-40.1286 Y-8.7215
G01 X-40.1603 Y-8.6574
G01 X-40.1745 Y-8.5928
G01 X-40.1917 Y-8.5234
G01 X-40.1918 Y-8.4519
G01 X-40.1936 Y-8.3846
G01 X-40.1922 Y-8.3694
G01 X-40.1917 Y-8.3553
G01 X-40.1917 Y-7.9861
G01 X-40.1926 Y-7.9674
G01 X-40.1952 Y-7.9489
G01 X-40.2093 Y-7.8844
G01 X-40.2133 Y-7.8710
G01 X-40.2168 Y-7.8615
G01 X-40.2580 Y-7.7292
G01 X-40.2617 Y-7.6886
G01 X-40.2617 Y-7.0434
G01 X-40.2580 Y-7.0028
G01 X-40.2209 Y-6.8836
G01 X-40.1579 Y-6.7793
G01 X-40.0717 Y-6.6931
G01 X-39.9674 Y-6.6301
G01 X-39.8482 Y-6.5930
G01 X-39.8076 Y-6.5893
G01 X-39.3124 Y-6.5893
G01 X-39.2718 Y-6.5930
G01 X-39.1526 Y-6.6301
G01 X-39.0274 Y-6.7057
G01 X-39.0106 Y-6.7143
G01 X-38.9930 Y-6.7213
G01 X-38.9794 Y-6.7254
G01 X-38.9118 Y-6.7432
G01 X-38.8974 Y-6.7465
G01 X-38.8827 Y-6.7486
G01 X-38.8680 Y-6.7497
G01 X-38.8532 Y-6.7497
G01 X-38.8384 Y-6.7485
G01 X-38.8189 Y-6.7453
G01 X-38.8046 Y-6.7416
G01 X-38.7241 Y-6.7154
G01 X-38.7105 Y-6.7096
G01 X-38.6973 Y-6.7028
G01 X-38.6847 Y-6.6951
G01 X-38.6726 Y-6.6865
G01 X-38.6577 Y-6.6736
G01 X-38.6473 Y-6.6630
G01 X-38.5907 Y-6.5939
G01 X-38.5825 Y-6.5819
G01 X-38.5729 Y-6.5651
G01 X-38.5669 Y-6.5520
G01 X-38.5603 Y-6.5338
G01 X-38.5566 Y-6.5198
G01 X-38.5457 Y-6.4667
G01 X-38.5433 Y-6.4519
G01 X-38.5423 Y-6.4420
G01 X-38.5417 Y-6.4271
G01 X-38.5417 Y-6.3005
G01 X-38.5422 Y-6.2863
G01 X-38.5431 Y-6.2769
G01 X-38.5453 Y-6.2629
G01 X-38.5485 Y-6.2491
G01 X-38.5695 Y-6.1775
G01 X-38.5742 Y-6.1634
G01 X-38.5799 Y-6.1498
G01 X-38.5891 Y-6.1323
G01 X-38.5971 Y-6.1198
G01 X-38.6092 Y-6.1042
G01 X-38.6192 Y-6.0933
G01 X-38.6263 Y-6.0865
G01 X-38.6828 Y-6.0375
G01 X-38.6944 Y-6.0282
G01 X-38.7067 Y-6.0197
G01 X-38.7196 Y-6.0122
G01 X-38.7376 Y-6.0038
G01 X-38.7516 Y-5.9987
G01 X-38.7659 Y-5.9946
G01 X-38.8222 Y-5.9823
G01 X-38.8315 Y-5.9805
G01 X-38.8456 Y-5.9786
G01 X-38.8645 Y-5.9777
G01 X-38.9872 Y-5.9777
G01 X-39.0114 Y-5.9751
G01 X-39.0961 Y-5.9435
G01 X-39.1655 Y-5.8915
G01 X-39.2175 Y-5.8221
G01 X-39.2491 Y-5.7374
G01 X-39.2517 Y-5.7132
G01 X-39.2517 Y-3.9388
G01 X-39.2491 Y-3.9146
G01 X-39.2175 Y-3.8299
G01 X-39.1655 Y-3.7605
G01 X-39.0961 Y-3.7085
G01 X-39.0114 Y-3.6769
G01 X-38.9872 Y-3.6743
G01 X-37.2128 Y-3.6743
G01 X-37.1886 Y-3.6769
G01 X-37.1039 Y-3.7085
G01 X-37.0345 Y-3.7604
G01 X-36.9825 Y-3.8299
G01 X-36.9417 Y-3.9390
G01 X-36.9360 Y-3.9519
G01 X-36.9269 Y-3.9685
G01 X-36.9163 Y-3.9842
G01 X-36.8714 Y-4.0441
G01 X-36.8585 Y-4.0589
G01 X-36.8441 Y-4.0724
G01 X-36.8324 Y-4.0816
G01 X-36.8243 Y-4.0872
G01 X-36.8117 Y-4.0949
G01 X-36.7984 Y-4.1016
G01 X-36.7848 Y-4.1073
G01 X-36.7193 Y-4.1317
G01 X-36.7005 Y-4.1376
G01 X-36.6861 Y-4.1409
G01 X-36.6665 Y-4.1435
G01 X-36.6517 Y-4.1442
G01 X-36.6320 Y-4.1434
G01 X-36.6173 Y-4.1415
G01 X-36.5344 Y-4.1237
G01 X-36.5200 Y-4.1196
G01 X-36.5059 Y-4.1144
G01 X-36.4967 Y-4.1103
G01 X-36.4834 Y-4.1034
G01 X-36.4706 Y-4.0955
G01 X-36.4625 Y-4.0897
G01 X-36.4305 Y-4.0657
G01 X-36.4196 Y-4.0565
G01 X-36.3031 Y-3.9404
G01 X-36.1381 Y-3.8248
G01 X-35.9554 Y-3.7396
G01 X-35.7608 Y-3.6874
G01 X-35.5600 Y-3.6699
G01 X-35.3592 Y-3.6874
G01 X-35.1646 Y-3.7396
G01 X-34.9819 Y-3.8248
G01 X-34.8169 Y-3.9404
G01 X-34.6744 Y-4.0829
G01 X-34.5544 Y-4.2542
G01 X-34.5488 Y-4.2618
G01 X-34.5397 Y-4.2727
G01 X-34.5299 Y-4.2829
G01 X-34.5193 Y-4.2924
G01 X-34.4611 Y-4.3390
G01 X-34.4451 Y-4.3506
G01 X-34.4280 Y-4.3605
G01 X-34.4191 Y-4.3648
G01 X-34.4054 Y-4.3704
G01 X-34.3866 Y-4.3763
G01 X-34.3721 Y-4.3794
G01 X-34.3575 Y-4.3815
G01 X-34.2880 Y-4.3887
G01 X-34.2683 Y-4.3897
G01 X-34.2485 Y-4.3888
G01 X-34.2290 Y-4.3860
G01 X-34.2099 Y-4.3812
G01 X-34.1913 Y-4.3746
G01 X-34.1778 Y-4.3684
G01 X-34.1070 Y-4.3323
G01 X-34.0907 Y-4.3219
G01 X-34.0754 Y-4.3101
G01 X-34.0683 Y-4.3036
G01 X-34.0581 Y-4.2932
G01 X-34.0382 Y-4.2703
G01 X-34.0286 Y-4.2583
G01 X-33.9056 Y-4.0829
G01 X-33.7631 Y-3.9404
G01 X-33.5981 Y-3.8248
G01 X-33.4154 Y-3.7396
G01 X-33.2208 Y-3.6874
G01 X-33.0200 Y-3.6699
G01 X-32.8192 Y-3.6874
G01 X-32.6246 Y-3.7396
G01 X-32.4419 Y-3.8248
G01 X-32.2769 Y-3.9404
G01 X-32.1344 Y-4.0829
G01 X-32.0144 Y-4.2542
G01 X-32.0088 Y-4.2618
G01 X-31.9997 Y-4.2727
G01 X-31.9899 Y-4.2829
G01 X-31.9793 Y-4.2924
G01 X-31.9211 Y-4.3390
G01 X-31.9051 Y-4.3506
G01 X-31.8880 Y-4.3605
G01 X-31.8791 Y-4.3648
G01 X-31.8654 Y-4.3704
G01 X-31.8466 Y-4.3763
G01 X-31.8321 Y-4.3794
G01 X-31.8175 Y-4.3815
G01 X-31.7480 Y-4.3887
G01 X-31.7283 Y-4.3897
G01 X-31.7085 Y-4.3888
G01 X-31.6890 Y-4.3860
G01 X-31.6699 Y-4.3812
G01 X-31.6513 Y-4.3746
G01 X-31.6378 Y-4.3684
G01 X-31.5670 Y-4.3323
G01 X-31.5507 Y-4.3219
G01 X-31.5354 Y-4.3101
G01 X-31.5283 Y-4.3036
G01 X-31.5181 Y-4.2932
G01 X-31.4982 Y-4.2703
G01 X-31.4886 Y-4.2583
G01 X-31.3656 Y-4.0829
G01 X-31.2231 Y-3.9404
G01 X-31.0581 Y-3.8248
G01 X-30.8754 Y-3.7396
G01 X-30.6808 Y-3.6874
G01 X-30.4800 Y-3.6699
G01 X-30.2792 Y-3.6874
G01 X-30.0846 Y-3.7396
G01 X-29.9019 Y-3.8248
G01 X-29.7369 Y-3.9404
G01 X-29.5944 Y-4.0829
G01 X-29.4744 Y-4.2542
G01 X-29.4658 Y-4.2655
G01 X-29.4597 Y-4.2727
G01 X-29.4499 Y-4.2829
G01 X-29.4393 Y-4.2924
G01 X-29.3811 Y-4.3390
G01 X-29.3651 Y-4.3506
G01 X-29.3480 Y-4.3605
G01 X-29.3346 Y-4.3668
G01 X-29.3254 Y-4.3704
G01 X-29.3066 Y-4.3763
G01 X-29.2921 Y-4.3794
G01 X-29.2775 Y-4.3815
G01 X-29.2080 Y-4.3887
G01 X-29.1883 Y-4.3897
G01 X-29.1685 Y-4.3888
G01 X-29.1490 Y-4.3860
G01 X-29.1299 Y-4.3812
G01 X-29.1113 Y-4.3746
G01 X-29.0978 Y-4.3684
G01 X-29.0270 Y-4.3323
G01 X-29.0107 Y-4.3219
G01 X-28.9954 Y-4.3101
G01 X-28.9883 Y-4.3036
G01 X-28.9781 Y-4.2932
G01 X-28.9582 Y-4.2703
G01 X-28.9486 Y-4.2583
G01 X-28.8256 Y-4.0829
G01 X-28.6831 Y-3.9404
G01 X-28.5181 Y-3.8248
G01 X-28.3354 Y-3.7396
G01 X-28.1408 Y-3.6874
G01 X-27.9400 Y-3.6699
G01 X-27.7392 Y-3.6874
G01 X-27.5446 Y-3.7396
G01 X-27.3619 Y-3.8248
G01 X-27.1969 Y-3.9404
G01 X-27.0544 Y-4.0829
G01 X-26.9344 Y-4.2542
G01 X-26.9258 Y-4.2655
G01 X-26.9197 Y-4.2727
G01 X-26.9099 Y-4.2829
G01 X-26.8993 Y-4.2924
G01 X-26.8411 Y-4.3390
G01 X-26.8251 Y-4.3506
G01 X-26.8080 Y-4.3605
G01 X-26.7991 Y-4.3648
G01 X-26.7854 Y-4.3704
G01 X-26.7666 Y-4.3763
G01 X-26.7521 Y-4.3794
G01 X-26.7375 Y-4.3815
G01 X-26.6680 Y-4.3887
G01 X-26.6483 Y-4.3897
G01 X-26.6285 Y-4.3888
G01 X-26.6090 Y-4.3860
G01 X-26.5899 Y-4.3812
G01 X-26.5713 Y-4.3746
G01 X-26.5578 Y-4.3684
G01 X-26.4870 Y-4.3323
G01 X-26.4707 Y-4.3219
G01 X-26.4554 Y-4.3101
G01 X-26.4483 Y-4.3036
G01 X-26.4381 Y-4.2932
G01 X-26.4182 Y-4.2703
G01 X-26.4086 Y-4.2583
G01 X-26.2856 Y-4.0829
G01 X-26.1431 Y-3.9404
G01 X-25.9781 Y-3.8248
G01 X-25.7954 Y-3.7396
G01 X-25.6008 Y-3.6874
G01 X-25.4000 Y-3.6699
G01 X-25.1992 Y-3.6874
G01 X-25.0046 Y-3.7396
G01 X-24.8219 Y-3.8248
G01 X-24.6569 Y-3.9404
G01 X-24.5144 Y-4.0829
G01 X-24.3944 Y-4.2542
G01 X-24.3858 Y-4.2655
G01 X-24.3797 Y-4.2727
G01 X-24.3699 Y-4.2829
G01 X-24.3593 Y-4.2924
G01 X-24.3011 Y-4.3390
G01 X-24.2851 Y-4.3506
G01 X-24.2680 Y-4.3605
G01 X-24.2591 Y-4.3648
G01 X-24.2454 Y-4.3704
G01 X-24.2266 Y-4.3763
G01 X-24.2121 Y-4.3794
G01 X-24.1975 Y-4.3815
G01 X-24.1280 Y-4.3887
G01 X-24.1083 Y-4.3897
G01 X-24.0885 Y-4.3888
G01 X-24.0690 Y-4.3860
G01 X-24.0499 Y-4.3812
G01 X-24.0313 Y-4.3746
G01 X-24.0178 Y-4.3684
G01 X-23.9470 Y-4.3323
G01 X-23.9307 Y-4.3219
G01 X-23.9154 Y-4.3101
G01 X-23.9083 Y-4.3036
G01 X-23.8981 Y-4.2932
G01 X-23.8782 Y-4.2703
G01 X-23.8686 Y-4.2583
G01 X-23.7456 Y-4.0829
G01 X-23.6031 Y-3.9404
G01 X-23.4381 Y-3.8248
G01 X-23.2554 Y-3.7396
G01 X-23.0608 Y-3.6874
G01 X-22.8600 Y-3.6699
G01 X-22.6592 Y-3.6874
G01 X-22.4646 Y-3.7396
G01 X-22.2819 Y-3.8248
G01 X-22.1169 Y-3.9404
G01 X-21.9744 Y-4.0829
G01 X-21.8544 Y-4.2542
G01 X-21.8458 Y-4.2655
G01 X-21.8397 Y-4.2727
G01 X-21.8299 Y-4.2829
G01 X-21.8193 Y-4.2924
G01 X-21.7611 Y-4.3390
G01 X-21.7451 Y-4.3506
G01 X-21.7280 Y-4.3605
G01 X-21.7191 Y-4.3648
G01 X-21.7054 Y-4.3704
G01 X-21.6866 Y-4.3763
G01 X-21.6721 Y-4.3794
G01 X-21.6575 Y-4.3815
G01 X-21.5880 Y-4.3887
G01 X-21.5683 Y-4.3897
G01 X-21.5485 Y-4.3888
G01 X-21.5290 Y-4.3860
G01 X-21.5099 Y-4.3812
G01 X-21.4913 Y-4.3746
G01 X-21.4778 Y-4.3684
G01 X-21.4070 Y-4.3323
G01 X-21.3907 Y-4.3219
G01 X-21.3754 Y-4.3101
G01 X-21.3683 Y-4.3036
G01 X-21.3581 Y-4.2932
G01 X-21.3382 Y-4.2703
G01 X-21.3286 Y-4.2583
G01 X-21.2056 Y-4.0829
G01 X-21.0631 Y-3.9404
G01 X-20.8981 Y-3.8248
G01 X-20.7154 Y-3.7396
G01 X-20.5208 Y-3.6874
G01 X-20.3200 Y-3.6699
G01 X-20.1192 Y-3.6874
G01 X-19.9246 Y-3.7396
G01 X-19.7419 Y-3.8248
G01 X-19.5769 Y-3.9404
G01 X-19.4344 Y-4.0829
G01 X-19.3144 Y-4.2542
G01 X-19.3088 Y-4.2618
G01 X-19.2997 Y-4.2727
G01 X-19.2899 Y-4.2829
G01 X-19.2793 Y-4.2924
G01 X-19.2211 Y-4.3390
G01 X-19.2092 Y-4.3479
G01 X-19.2009 Y-4.3532
G01 X-19.1836 Y-4.3627
G01 X-19.1654 Y-4.3704
G01 X-19.1466 Y-4.3763
G01 X-19.1321 Y-4.3794
G01 X-19.1175 Y-4.3815
G01 X-19.0480 Y-4.3887
G01 X-19.0283 Y-4.3897
G01 X-19.0085 Y-4.3888
G01 X-18.9890 Y-4.3860
G01 X-18.9699 Y-4.3812
G01 X-18.9513 Y-4.3746
G01 X-18.9378 Y-4.3684
G01 X-18.8670 Y-4.3323
G01 X-18.8507 Y-4.3219
G01 X-18.8354 Y-4.3101
G01 X-18.8283 Y-4.3036
G01 X-18.8181 Y-4.2932
G01 X-18.7982 Y-4.2703
G01 X-18.7886 Y-4.2583
G01 X-18.6656 Y-4.0829
G01 X-18.5231 Y-3.9404
G01 X-18.3581 Y-3.8248
G01 X-18.1754 Y-3.7396
G01 X-17.9808 Y-3.6874
G01 X-17.7800 Y-3.6699
G01 X-17.5792 Y-3.6874
G01 X-17.3846 Y-3.7396
G01 X-17.2019 Y-3.8248
G01 X-17.0369 Y-3.9404
G01 X-16.8944 Y-4.0829
G01 X-16.7744 Y-4.2542
G01 X-16.7688 Y-4.2618
G01 X-16.7597 Y-4.2727
G01 X-16.7499 Y-4.2829
G01 X-16.7393 Y-4.2924
G01 X-16.6811 Y-4.3390
G01 X-16.6692 Y-4.3479
G01 X-16.6609 Y-4.3532
G01 X-16.6436 Y-4.3627
G01 X-16.6254 Y-4.3704
G01 X-16.6066 Y-4.3763
G01 X-16.5921 Y-4.3794
G01 X-16.5775 Y-4.3815
G01 X-16.5080 Y-4.3887
G01 X-16.4883 Y-4.3897
G01 X-16.4685 Y-4.3888
G01 X-16.4490 Y-4.3860
G01 X-16.4299 Y-4.3812
G01 X-16.4113 Y-4.3746
G01 X-16.3978 Y-4.3684
G01 X-16.3270 Y-4.3323
G01 X-16.3107 Y-4.3219
G01 X-16.2954 Y-4.3101
G01 X-16.2883 Y-4.3036
G01 X-16.2781 Y-4.2932
G01 X-16.2582 Y-4.2703
G01 X-16.2486 Y-4.2583
G01 X-16.1256 Y-4.0829
G01 X-15.9831 Y-3.9404
G01 X-15.8181 Y-3.8248
G01 X-15.6354 Y-3.7396
G01 X-15.4408 Y-3.6874
G01 X-15.2400 Y-3.6699
G01 X-15.0392 Y-3.6874
G01 X-14.8446 Y-3.7396
G01 X-14.6619 Y-3.8248
G01 X-14.4969 Y-3.9404
G01 X-14.3544 Y-4.0829
G01 X-14.2344 Y-4.2542
G01 X-14.2258 Y-4.2655
G01 X-14.2197 Y-4.2727
G01 X-14.2099 Y-4.2829
G01 X-14.1993 Y-4.2924
G01 X-14.1411 Y-4.3390
G01 X-14.1251 Y-4.3506
G01 X-14.1080 Y-4.3605
G01 X-14.0991 Y-4.3648
G01 X-14.0854 Y-4.3704
G01 X-14.0666 Y-4.3763
G01 X-14.0521 Y-4.3794
G01 X-14.0424 Y-4.3809
G01 X-13.9680 Y-4.3887
G01 X-13.9532 Y-4.3897
G01 X-13.9335 Y-4.3893
G01 X-13.9139 Y-4.3869
G01 X-13.8946 Y-4.3826
G01 X-13.8759 Y-4.3764
G01 X-13.8578 Y-4.3684
G01 X-13.7912 Y-4.3346
G01 X-13.7746 Y-4.3247
G01 X-13.7591 Y-4.3132
G01 X-13.7483 Y-4.3036
G01 X-13.7381 Y-4.2932
G01 X-13.7182 Y-4.2703
G01 X-13.7086 Y-4.2583
G01 X-13.5856 Y-4.0829
G01 X-13.4431 Y-3.9404
G01 X-13.2781 Y-3.8248
G01 X-13.0954 Y-3.7396
G01 X-12.9008 Y-3.6874
G01 X-12.7000 Y-3.6699
G01 X-12.4992 Y-3.6874
G01 X-12.3046 Y-3.7396
G01 X-12.1219 Y-3.8248
G01 X-11.9569 Y-3.9404
G01 X-11.8144 Y-4.0829
G01 X-11.6944 Y-4.2542
G01 X-11.6858 Y-4.2655
G01 X-11.6797 Y-4.2727
G01 X-11.6699 Y-4.2829
G01 X-11.6593 Y-4.2924
G01 X-11.6011 Y-4.3390
G01 X-11.5851 Y-4.3506
