(G-CODE GENERATED BY FLATCAM v8.994 - www.flatcam.org - Version Date: 2020/11/7)

(Name: SAL-FP_Keyboard-LogicBoard-PTH.drl_cnc)
(Type: G-code from Geometry)
(Units: MM)

(Created on Sunday, 15 October 2023 at 03:41)

(This preprocessor is the default preprocessor used by FlatCAM.)
(It is made to work with MACH3 compatible motion controllers.)


(TOOLS DIAMETER: )
(Tool: 1 -> Dia: 0.7493)
(Tool: 2 -> Dia: 1.0007599999999999)
(Tool: 3 -> Dia: 1.0998199999999998)

(FEEDRATE Z: )
(Tool: 1 -> Feedrate: 300)
(Tool: 2 -> Feedrate: 300)
(Tool: 3 -> Feedrate: 233.0)

(FEEDRATE RAPIDS: )
(Tool: 1 -> Feedrate Rapids: 1500)
(Tool: 2 -> Feedrate Rapids: 1500)
(Tool: 3 -> Feedrate Rapids: 1500)

(Z_CUT: )
(Tool: 1 -> Z_Cut: -1.7)
(Tool: 2 -> Z_Cut: -1.7)
(Tool: 3 -> Z_Cut: -1.878)

(Tools Offset: )
(Tool: 3 -> Offset Z: 0.0)

(Z_MOVE: )
(Tool: 1 -> Z_Move: 2)
(Tool: 2 -> Z_Move: 2)
(Tool: 3 -> Z_Move: 2)

(Z Toolchange: 15 mm)
(X,Y Toolchange: 0.0000, 0.0000 mm)
(Z Start: None mm)
(Z End: 0.5 mm)
(X,Y End: None mm)
(Steps per circle: 64)
(Preprocessor Excellon: default)

(X range:  -38.6004 ...   -1.0096  mm)
(Y range:  -25.6464 ...   -4.3256  mm)

(Spindle Speed: 0 RPM)
G21
G90
G94

G01 F233.00

M5
G00 Z15.0000
T3
G00 X0.0000 Y0.0000                
M6
(MSG, Change to Tool Dia = 1.0998 ||| Total drills for tool T3 = 4)
M0
G00 Z15.0000

G01 F233.00
M03
G00 X-1.5596 Y-14.2748
G01 Z-1.8780
G01 Z0
G00 Z2.0000
G00 X-6.0604 Y-14.2748
G01 Z-1.8780
G01 Z0
G00 Z2.0000
G00 X-6.0604 Y-20.7772
G01 Z-1.8780
G01 Z0
G00 Z2.0000
G00 X-1.5596 Y-20.7772
G01 Z-1.8780
G01 Z0
G00 Z2.0000
M05
G00 Z0.50


M30
