(G-CODE GENERATED BY FLATCAM v8.994 - www.flatcam.org - Version Date: 2020/11/7)

(Name: ch552g_bob-Edge_Cuts.gbr_edit_noncopper_cnc)
(Type: G-code from Geometry)
(Units: MM)

(Created on Sunday, 31 December 2023 at 03:48)

(This preprocessor is the default preprocessor used by FlatCAM.)
(It is made to work with MACH3 compatible motion controllers.)

(TOOL DIAMETER: 1.5 mm)
(Feedrate_XY: 200.0 mm/min)
(Feedrate_Z: 72.0 mm/min)
(Feedrate rapids 1500.0 mm/min)

(Z_Cut: -1.65 mm)
(Z_Move: 2.0 mm)
(Z Start: None mm)
(Z End: 15.0 mm)
(X,Y End: None mm)
(Steps per circle: 64)
(Preprocessor Geometry: default)

(X range:   -0.7500 ...   36.3100  mm)
(Y range:  -24.8800 ...    0.7500  mm)

(Spindle Speed: 7200.0 RPM)
G21
G90
G94

G01 F200.00

M5
G00 Z15.0000
G00 X0.0000 Y0.0000
T1
M6    
(MSG, Change to Tool Dia = 1.5000)
M0
G00 Z15.0000

M03 S7200.0
G01 F200.00
G00 X-0.7491 Y0.0364
G01 F72.00
G01 Z-1.6500
G01 F200.00
G01 X-0.7473 Y0.0736
G01 X-0.7304 Y0.1870
G01 X-0.7305 Y0.1704
G01 X-0.7185 Y0.2180
G01 X-0.6925 Y0.2908
G01 X-0.6923 Y0.2904
G01 X-0.6622 Y0.3540
G01 X-0.6171 Y0.4292
G01 X-0.6171 Y0.4269
G01 X-0.5852 Y0.4700
G01 X-0.5852 Y0.4711
G01 X-0.5151 Y0.5484
G01 X-0.5118 Y0.5483
G01 X-0.4498 Y0.6045
G01 X-0.4667 Y0.5876
G01 X-0.4292 Y0.6154
G01 X-0.4258 Y0.6192
G01 X-0.3258 Y0.6791
G01 X-0.3441 Y0.6669
G01 X-0.2743 Y0.6999
G01 X-0.2700 Y0.6999
G01 X-0.1851 Y0.7303
G01 X-0.1962 Y0.7240
G01 X-0.1537 Y0.7346
G01 X-0.1520 Y0.7356
G01 X-0.0796 Y0.7464
G01 X-0.0920 Y0.7464
G01 X-0.0172 Y0.7500
G01 X35.5772 Y0.7500
G01 X35.6336 Y0.7473
G01 X35.7065 Y0.7364
G01 X35.7780 Y0.7185
G01 X35.8473 Y0.6937
G01 X35.9140 Y0.6622
G01 X35.9772 Y0.6243
G01 X36.0363 Y0.5804
G01 X36.0909 Y0.5309
G01 X36.1404 Y0.4763
G01 X36.1843 Y0.4172
G01 X36.2222 Y0.3540
G01 X36.2537 Y0.2873
G01 X36.2785 Y0.2180
G01 X36.2964 Y0.1465
G01 X36.3073 Y0.0736
G01 X36.3100 Y0.0172
G01 X36.3100 Y-24.1472
G01 X36.3073 Y-24.2036
G01 X36.2964 Y-24.2765
G01 X36.2785 Y-24.3480
G01 X36.2537 Y-24.4173
G01 X36.2222 Y-24.4840
G01 X36.1843 Y-24.5472
G01 X36.1404 Y-24.6063
G01 X36.0909 Y-24.6609
G01 X36.0363 Y-24.7104
G01 X35.9772 Y-24.7543
G01 X35.9140 Y-24.7922
G01 X35.8473 Y-24.8237
G01 X35.7780 Y-24.8485
G01 X35.7065 Y-24.8664
G01 X35.6336 Y-24.8773
G01 X35.5772 Y-24.8800
G01 X-0.0172 Y-24.8800
G01 X-0.0736 Y-24.8773
G01 X-0.1465 Y-24.8664
G01 X-0.2180 Y-24.8485
G01 X-0.2873 Y-24.8237
G01 X-0.3540 Y-24.7922
G01 X-0.4172 Y-24.7543
G01 X-0.4763 Y-24.7104
G01 X-0.5309 Y-24.6609
G01 X-0.5804 Y-24.6063
G01 X-0.6243 Y-24.5472
G01 X-0.6622 Y-24.4840
G01 X-0.6937 Y-24.4173
G01 X-0.7185 Y-24.3480
G01 X-0.7364 Y-24.2765
G01 X-0.7473 Y-24.2036
G01 X-0.7500 Y-24.1472
G01 X-0.7500 Y0.0172
G01 X-0.7491 Y0.0364
G00 Z2.0000
M05
G00 Z2.0000
G00 Z15.00


M30
