(G-CODE GENERATED BY FLATCAM v8.994 - www.flatcam.org - Version Date: 2020/11/7)

(Name: ch552g_bob-B_Cu.gbr_iso_combined_cnc)
(Type: G-code from Geometry)
(Units: MM)

(Created on Sunday, 31 December 2023 at 04:02)

(This preprocessor is the default preprocessor used by FlatCAM.)
(It is made to work with MACH3 compatible motion controllers.)

(TOOL DIAMETER: 0.1969 mm)
(Feedrate_XY: 240.0 mm/min)
(Feedrate_Z: 60.0 mm/min)
(Feedrate rapids 1500.0 mm/min)

(Z_Cut: -0.15 mm)
(Z_Move: 2.0 mm)
(Z Start: None mm)
(Z End: 40.0 mm)
(X,Y End: None mm)
(Steps per circle: 64)
(Preprocessor Geometry: default)

(X range:   -0.5705 ...   36.1305  mm)
(Y range:  -24.7011 ...    0.5705  mm)

(Spindle Speed: 12000.0 RPM)
G21
G90
G94

G01 F240.00

M5
G00 Z15.0000
G00 X0.0000 Y0.0000
T2
M6    
(MSG, Change to Tool Dia = 0.1969)
M0
G00 Z15.0000

M03 S12000.0
G01 F240.00
G00 X2.6554 Y-4.8671
G01 F60.00
G01 Z-0.1500
G01 F240.00
G01 X3.7570 Y-4.8671
G01 X3.7863 Y-4.8684
G01 X3.7959 Y-4.8694
G01 X3.8250 Y-4.8738
G01 X3.8558 Y-4.8814
G01 X3.8903 Y-4.8936
G01 X3.9213 Y-4.9083
G01 X3.9506 Y-4.9258
G01 X3.9781 Y-4.9462
G01 X4.0034 Y-4.9692
G01 X4.0264 Y-4.9945
G01 X4.0467 Y-5.0220
G01 X4.0654 Y-5.0534
G01 X4.0789 Y-5.0822
G01 X4.0904 Y-5.1144
G01 X4.0988 Y-5.1476
G01 X4.1035 Y-5.1790
G01 X4.1054 Y-5.2156
G01 X4.1054 Y-5.3671
G01 X4.4085 Y-5.3671
G01 X4.4085 Y-5.1706
G01 X4.3997 Y-5.0836
G01 X4.3515 Y-4.9383
G01 X4.2716 Y-4.8087
G01 X4.1639 Y-4.7010
G01 X4.0342 Y-4.6210
G01 X3.8890 Y-4.5729
G01 X3.8020 Y-4.5640
G01 X2.6554 Y-4.5640
G01 X2.6554 Y-4.8671
G00 Z2.0000
G00 X4.1054 Y-6.0640
G01 F60.00
G01 Z-0.1500
G01 F240.00
G01 X4.1054 Y-6.2156
G01 X4.1038 Y-6.2497
G01 X4.0996 Y-6.2788
G01 X4.0977 Y-6.2883
G01 X4.0904 Y-6.3167
G01 X4.0798 Y-6.3467
G01 X4.0643 Y-6.3798
G01 X4.0493 Y-6.4051
G01 X4.0439 Y-6.4131
G01 X4.0279 Y-6.4347
G01 X4.0232 Y-6.4403
G01 X4.0034 Y-6.4620
G01 X3.9781 Y-6.4849
G01 X3.9506 Y-6.5053
G01 X3.9234 Y-6.5217
G01 X3.8903 Y-6.5375
G01 X3.8627 Y-6.5475
G01 X3.8535 Y-6.5503
G01 X3.8250 Y-6.5573
G01 X3.7959 Y-6.5617
G01 X3.7863 Y-6.5627
G01 X3.7594 Y-6.5640
G01 X2.6554 Y-6.5640
G01 X2.6554 Y-6.8671
G01 X3.8020 Y-6.8671
G01 X3.8890 Y-6.8582
G01 X4.0342 Y-6.8101
G01 X4.1639 Y-6.7301
G01 X4.2716 Y-6.6224
G01 X4.3515 Y-6.4928
G01 X4.3997 Y-6.3475
G01 X4.4086 Y-6.2605
G01 X4.4086 Y-6.0640
G01 X4.1054 Y-6.0640
G00 Z2.0000
G00 X5.9109 Y-7.7171
G01 F60.00
G01 Z-0.1500
G01 F240.00
G01 X6.2228 Y-7.7171
G01 X6.2333 Y-7.6867
G01 X6.2370 Y-7.6778
G01 X6.2497 Y-7.6513
G01 X6.2673 Y-7.6220
G01 X6.2876 Y-7.5945
G01 X6.3073 Y-7.5727
G01 X6.3141 Y-7.5658
G01 X6.3359 Y-7.5462
G01 X6.3595 Y-7.5286
G01 X6.3675 Y-7.5233
G01 X6.3927 Y-7.5083
G01 X6.4237 Y-7.4936
G01 X6.4513 Y-7.4836
G01 X6.4605 Y-7.4808
G01 X6.4890 Y-7.4738
G01 X6.5181 Y-7.4694
G01 X6.5277 Y-7.4684
G01 X6.5570 Y-7.4671
G01 X7.7085 Y-7.4671
G01 X7.7085 Y-7.1640
G01 X6.5120 Y-7.1640
G01 X6.4250 Y-7.1729
G01 X6.2798 Y-7.2210
G01 X6.1501 Y-7.3010
G01 X6.0424 Y-7.4087
G01 X5.9625 Y-7.5383
G01 X5.9143 Y-7.6836
G01 X5.9109 Y-7.7171
G00 Z2.0000
G00 X6.5570 Y-9.4671
G01 F60.00
G01 Z-0.1500
G01 F240.00
G01 X6.5228 Y-9.4688
G01 X6.4890 Y-9.4738
G01 X6.4559 Y-9.4821
G01 X6.4282 Y-9.4919
G01 X6.4192 Y-9.4956
G01 X6.3949 Y-9.5071
G01 X6.3675 Y-9.5233
G01 X6.3595 Y-9.5286
G01 X6.3378 Y-9.5447
G01 X6.3323 Y-9.5494
G01 X6.3106 Y-9.5692
G01 X6.2876 Y-9.5945
G01 X6.2673 Y-9.6220
G01 X6.2497 Y-9.6513
G01 X6.2351 Y-9.6822
G01 X6.2236 Y-9.7144
G01 X6.2152 Y-9.7476
G01 X6.2108 Y-9.7766
G01 X6.2099 Y-9.7862
G01 X6.2086 Y-9.8156
G01 X6.2086 Y-10.3156
G01 X6.2102 Y-10.3497
G01 X6.2157 Y-10.3859
G01 X6.2236 Y-10.4167
G01 X6.2333 Y-10.4444
G01 X6.2370 Y-10.4533
G01 X6.2497 Y-10.4798
G01 X6.2647 Y-10.5051
G01 X6.2686 Y-10.5111
G01 X6.2847 Y-10.5328
G01 X6.2908 Y-10.5403
G01 X6.3106 Y-10.5620
G01 X6.3359 Y-10.5849
G01 X6.3634 Y-10.6053
G01 X6.3949 Y-10.6240
G01 X6.4192 Y-10.6355
G01 X6.4282 Y-10.6392
G01 X6.4559 Y-10.6490
G01 X6.4843 Y-10.6563
G01 X6.4938 Y-10.6581
G01 X6.5228 Y-10.6623
G01 X6.5546 Y-10.6640
G01 X9.4085 Y-10.6640
G01 X10.0535 Y-11.3090
G01 X10.0789 Y-11.3320
G01 X10.1043 Y-11.3510
G01 X10.1357 Y-11.3700
G01 X10.1666 Y-11.3846
G01 X10.1988 Y-11.3961
G01 X10.2273 Y-11.4034
G01 X10.2368 Y-11.4053
G01 X10.2658 Y-11.4095
G01 X10.2976 Y-11.4111
G01 X10.5001 Y-11.4111
G01 X10.5137 Y-11.4400
G01 X10.5275 Y-11.4632
G01 X10.5328 Y-11.4712
G01 X10.5490 Y-11.4928
G01 X10.5670 Y-11.5128
G01 X10.5738 Y-11.5196
G01 X10.5938 Y-11.5376
G01 X10.6154 Y-11.5537
G01 X10.6234 Y-11.5591
G01 X10.6465 Y-11.5728
G01 X10.6708 Y-11.5844
G01 X10.6797 Y-11.5881
G01 X10.7051 Y-11.5971
G01 X10.7312 Y-11.6037
G01 X10.7407 Y-11.6056
G01 X10.7673 Y-11.6095
G01 X10.7990 Y-11.6110
G01 X11.2990 Y-11.6110
G01 X11.3307 Y-11.6095
G01 X11.3645 Y-11.6043
G01 X11.3906 Y-11.5978
G01 X11.3975 Y-11.5956
G01 X11.4228 Y-11.5864
G01 X11.4472 Y-11.5750
G01 X11.4557 Y-11.5704
G01 X11.4787 Y-11.5565
G01 X11.5042 Y-11.5376
G01 X11.5242 Y-11.5196
G01 X11.5310 Y-11.5128
G01 X11.5490 Y-11.4928
G01 X11.5652 Y-11.4712
G01 X11.5705 Y-11.4632
G01 X11.5843 Y-11.4400
G01 X11.5979 Y-11.4111
G01 X13.3220 Y-11.4111
G01 X13.3513 Y-11.4098
G01 X13.3610 Y-11.4089
G01 X13.3900 Y-11.4044
G01 X13.4209 Y-11.3968
G01 X13.4554 Y-11.3846
G01 X13.4820 Y-11.3722
G01 X13.4905 Y-11.3676
G01 X13.5157 Y-11.3524
G01 X13.5393 Y-11.3350
G01 X13.5468 Y-11.3289
G01 X13.5668 Y-11.3107
G01 X14.2165 Y-10.6610
G01 X14.2395 Y-10.6357
G01 X14.2570 Y-10.6122
G01 X14.2611 Y-10.6062
G01 X14.2750 Y-10.5831
G01 X14.2796 Y-10.5746
G01 X14.2920 Y-10.5480
G01 X14.3026 Y-10.5188
G01 X14.3136 Y-10.5063
G01 X14.3279 Y-10.4866
G01 X14.3391 Y-10.4677
G01 X14.3486 Y-10.4479
G01 X14.3570 Y-10.4250
G01 X14.3626 Y-10.4037
G01 X14.3645 Y-10.3943
G01 X14.3670 Y-10.3773
G01 X14.3676 Y-10.3701
G01 X14.3684 Y-10.3506
G01 X14.3684 Y-8.6981
G01 X14.3673 Y-8.6762
G01 X14.3645 Y-8.6569
G01 X14.3626 Y-8.6474
G01 X14.3578 Y-8.6284
G01 X14.3495 Y-8.6055
G01 X14.3402 Y-8.5856
G01 X14.3279 Y-8.5646
G01 X14.3186 Y-8.5515
G01 X14.3186 Y-8.5269
G01 X14.3732 Y-8.4723
G01 X14.3929 Y-8.4505
G01 X14.4148 Y-8.4212
G01 X14.4313 Y-8.3940
G01 X14.4470 Y-8.3610
G01 X14.4586 Y-8.3287
G01 X14.4669 Y-8.2956
G01 X14.4719 Y-8.2617
G01 X14.4736 Y-8.2276
G01 X14.4736 Y-7.9060
G01 X14.4775 Y-7.8987
G01 X14.4853 Y-7.8818
G01 X14.4939 Y-7.8575
G01 X14.4984 Y-7.8394
G01 X14.4997 Y-7.8323
G01 X14.5023 Y-7.8139
G01 X14.5033 Y-7.7954
G01 X14.5034 Y-7.4506
G01 X14.5025 Y-7.4296
G01 X14.5017 Y-7.4224
G01 X14.4989 Y-7.4040
G01 X14.4945 Y-7.3860
G01 X14.4925 Y-7.3790
G01 X14.4853 Y-7.3593
G01 X14.4775 Y-7.3425
G01 X14.4736 Y-7.3351
G01 X14.4735 Y-7.1381
G01 X14.4719 Y-7.1064
G01 X14.4673 Y-7.0749
G01 X14.4599 Y-7.0440
G01 X14.4570 Y-7.0348
G01 X14.4470 Y-7.0072
G01 X14.4346 Y-6.9806
G01 X14.4300 Y-6.9720
G01 X14.4148 Y-6.9469
G01 X14.3974 Y-6.9232
G01 X14.3913 Y-6.9158
G01 X14.3715 Y-6.8941
G01 X13.6836 Y-6.2062
G01 X13.6836 Y-3.8106
G01 X13.6819 Y-3.7764
G01 X13.6764 Y-3.7402
G01 X13.6699 Y-3.7140
G01 X13.6670 Y-3.7048
G01 X13.6570 Y-3.6772
G01 X13.6446 Y-3.6506
G01 X13.6400 Y-3.6420
G01 X13.6248 Y-3.6169
G01 X13.6029 Y-3.5876
G01 X13.5815 Y-3.5641
G01 X13.1171 Y-3.0997
G01 X13.0134 Y-1.9024
G01 X13.0089 Y-1.8126
G01 X12.9952 Y-1.7205
G01 X12.9739 Y-1.6349
G01 X12.9711 Y-1.6257
G01 X12.9430 Y-1.5471
G01 X12.9393 Y-1.5382
G01 X12.9015 Y-1.4585
G01 X12.8562 Y-1.3827
G01 X12.8508 Y-1.3747
G01 X12.7982 Y-1.3039
G01 X12.7357 Y-1.2349
G01 X12.6667 Y-1.1724
G01 X12.5959 Y-1.1197
G01 X12.5878 Y-1.1144
G01 X12.5121 Y-1.0691
G01 X12.4324 Y-1.0313
G01 X12.4234 Y-1.0276
G01 X12.3403 Y-0.9980
G01 X12.2547 Y-0.9764
G01 X12.2453 Y-0.9745
G01 X12.1628 Y-0.9623
G01 X12.1531 Y-0.9613
G01 X12.0650 Y-0.9571
G01 X11.9769 Y-0.9613
G01 X11.9672 Y-0.9623
G01 X11.8800 Y-0.9753
G01 X11.7897 Y-0.9980
G01 X11.7066 Y-1.0276
G01 X11.6976 Y-1.0313
G01 X11.6222 Y-1.0669
G01 X11.6137 Y-1.0715
G01 X11.5381 Y-1.1170
G01 X11.4671 Y-1.1694
G01 X11.4597 Y-1.1756
G01 X11.3943 Y-1.2349
G01 X11.3318 Y-1.3039
G01 X11.2792 Y-1.3747
G01 X11.2738 Y-1.3827
G01 X11.2285 Y-1.4585
G01 X11.1887 Y-1.5426
G01 X11.1589 Y-1.6257
G01 X11.1561 Y-1.6349
G01 X11.1348 Y-1.7205
G01 X11.1211 Y-1.8126
G01 X11.1167 Y-1.9007
G01 X11.1167 Y-1.9104
G01 X11.1211 Y-1.9985
G01 X11.1348 Y-2.0906
G01 X11.1561 Y-2.1762
G01 X11.1589 Y-2.1855
G01 X11.1870 Y-2.2640
G01 X11.1907 Y-2.2729
G01 X11.2285 Y-2.3527
G01 X11.2764 Y-2.4325
G01 X11.3318 Y-2.5073
G01 X11.3927 Y-2.5745
G01 X11.3978 Y-2.5795
G01 X11.4633 Y-2.6387
G01 X11.5288 Y-2.6875
G01 X12.6008 Y-3.5693
G01 X12.9864 Y-3.9549
G01 X12.9864 Y-6.3506
G01 X12.9881 Y-6.3847
G01 X12.9936 Y-6.4209
G01 X13.0001 Y-6.4471
G01 X13.0030 Y-6.4563
G01 X13.0130 Y-6.4840
G01 X13.0254 Y-6.5106
G01 X13.0300 Y-6.5191
G01 X13.0452 Y-6.5442
G01 X13.0626 Y-6.5679
G01 X13.0687 Y-6.5754
G01 X13.0885 Y-6.5970
G01 X13.7764 Y-7.2849
G01 X13.7764 Y-7.3351
G01 X13.7725 Y-7.3425
G01 X13.7647 Y-7.3593
G01 X13.7568 Y-7.3813
G01 X13.7511 Y-7.4040
G01 X13.7480 Y-7.4248
G01 X13.7473 Y-7.4320
G01 X13.7466 Y-7.4506
G01 X13.7466 Y-7.7906
G01 X13.7475 Y-7.8115
G01 X13.7483 Y-7.8187
G01 X13.7511 Y-7.8371
G01 X13.7555 Y-7.8551
G01 X13.7575 Y-7.8621
G01 X13.7647 Y-7.8818
G01 X13.7725 Y-7.8987
G01 X13.7764 Y-7.9060
G01 X13.7764 Y-8.0832
G01 X13.7202 Y-8.1396
G01 X13.7005 Y-8.1614
G01 X13.6815 Y-8.1869
G01 X13.6650 Y-8.2140
G01 X13.6604 Y-8.2226
G01 X13.6480 Y-8.2492
G01 X13.6372 Y-8.2791
G01 X13.6281 Y-8.3146
G01 X13.6237 Y-8.3436
G01 X13.6227 Y-8.3532
G01 X13.6214 Y-8.3826
G01 X13.6214 Y-8.5515
G01 X13.6121 Y-8.5646
G01 X13.6021 Y-8.5813
G01 X13.5924 Y-8.6011
G01 X13.5896 Y-8.6077
G01 X13.5822 Y-8.6284
G01 X13.5774 Y-8.6474
G01 X13.5755 Y-8.6569
G01 X13.5725 Y-8.6786
G01 X13.5716 Y-8.7006
G01 X13.5716 Y-10.3201
G01 X13.1776 Y-10.7140
G01 X11.5979 Y-10.7140
G01 X11.5843 Y-10.6851
G01 X11.5705 Y-10.6619
G01 X11.5652 Y-10.6539
G01 X11.5490 Y-10.6324
G01 X11.5310 Y-10.6123
G01 X11.5242 Y-10.6055
G01 X11.5042 Y-10.5875
G01 X11.4787 Y-10.5686
G01 X11.4557 Y-10.5547
G01 X11.4472 Y-10.5501
G01 X11.4250 Y-10.5397
G01 X11.4183 Y-10.5370
G01 X11.3929 Y-10.5280
G01 X11.3668 Y-10.5214
G01 X11.3573 Y-10.5195
G01 X11.3307 Y-10.5157
G01 X11.3014 Y-10.5141
G01 X10.7990 Y-10.5141
G01 X10.7721 Y-10.5153
G01 X10.7625 Y-10.5163
G01 X10.7359 Y-10.5203
G01 X10.7098 Y-10.5268
G01 X10.7005 Y-10.5296
G01 X10.6752 Y-10.5387
G01 X10.6444 Y-10.5535
G01 X10.6193 Y-10.5686
G01 X10.5938 Y-10.5875
G01 X10.5703 Y-10.6088
G01 X10.5521 Y-10.6287
G01 X10.5475 Y-10.6343
G01 X10.5328 Y-10.6539
G01 X10.5275 Y-10.6619
G01 X10.5137 Y-10.6851
G01 X10.5001 Y-10.7140
G01 X10.4444 Y-10.7140
G01 X9.9054 Y-10.1751
G01 X9.9054 Y-9.8131
G01 X9.9038 Y-9.7814
G01 X9.8996 Y-9.7523
G01 X9.8983 Y-9.7452
G01 X9.8917 Y-9.7191
G01 X9.8889 Y-9.7098
G01 X9.8798 Y-9.6845
G01 X9.8770 Y-9.6778
G01 X9.8643 Y-9.6513
G01 X9.8493 Y-9.6261
G01 X9.8439 Y-9.6180
G01 X9.8264 Y-9.5945
G01 X9.8034 Y-9.5692
G01 X9.7781 Y-9.5462
G01 X9.7545 Y-9.5286
G01 X9.7465 Y-9.5233
G01 X9.7213 Y-9.5083
G01 X9.6948 Y-9.4956
G01 X9.6858 Y-9.4919
G01 X9.6605 Y-9.4828
G01 X9.6297 Y-9.4749
G01 X9.6202 Y-9.4730
G01 X9.5912 Y-9.4688
G01 X9.5570 Y-9.4671
G01 X6.5570 Y-9.4671
G00 Z2.0000
G00 X6.3545 Y-10.7791
G01 F60.00
G01 Z-0.1500
G01 F240.00
G01 X6.3798 Y-10.8015
G01 X6.3888 Y-10.8105
G01 X6.4014 Y-10.8249
G01 X6.4091 Y-10.8349
G01 X6.4198 Y-10.8507
G01 X6.4263 Y-10.8616
G01 X6.4322 Y-10.8729
G01 X6.4376 Y-10.8844
G01 X6.4679 Y-10.9543
G01 X6.4724 Y-10.9662
G01 X6.4763 Y-10.9783
G01 X6.4809 Y-10.9968
G01 X6.4842 Y-11.0156
G01 X6.4861 Y-11.0346
G01 X6.4866 Y-11.0536
G01 X6.4861 Y-11.0663
G01 X6.4843 Y-11.0853
G01 X6.4710 Y-11.1668
G01 X6.4668 Y-11.1854
G01 X6.4632 Y-11.1976
G01 X6.4590 Y-11.2096
G01 X6.4542 Y-11.2214
G01 X6.4489 Y-11.2329
G01 X6.4398 Y-11.2497
G01 X6.4295 Y-11.2657
G01 X6.4220 Y-11.2760
G01 X6.4098 Y-11.2906
G01 X6.3630 Y-11.3426
G01 X6.3537 Y-11.3523
G01 X6.3692 Y-11.3458
G01 X6.4041 Y-11.3333
G01 X6.4162 Y-11.3296
G01 X6.4521 Y-11.3206
G01 X6.4645 Y-11.3182
G01 X6.5012 Y-11.3127
G01 X6.5137 Y-11.3115
G01 X6.5507 Y-11.3097
G01 X9.5633 Y-11.3097
G01 X9.6066 Y-11.3120
G01 X9.6191 Y-11.3136
G01 X9.6557 Y-11.3193
G01 X9.6680 Y-11.3221
G01 X9.7039 Y-11.3314
G01 X9.7389 Y-11.3436
G01 X9.7564 Y-11.3506
G01 X9.7899 Y-11.3664
G01 X9.8064 Y-11.3755
G01 X9.8381 Y-11.3949
G01 X9.8681 Y-11.4167
G01 X9.8828 Y-11.4285
G01 X9.9103 Y-11.4534
G01 X9.9258 Y-11.4695
G01 X9.9996 Y-11.4695
G01 X9.9838 Y-11.4577
G01 X9.9741 Y-11.4497
G01 X9.9421 Y-11.4204
G01 X9.3432 Y-10.8215
G01 X6.5507 Y-10.8215
G01 X6.5137 Y-10.8196
G01 X6.5012 Y-10.8184
G01 X6.4645 Y-10.8130
G01 X6.4521 Y-10.8105
G01 X6.4162 Y-10.8015
G01 X6.4041 Y-10.7978
G01 X6.3692 Y-10.7854
G01 X6.3545 Y-10.7791
G00 Z2.0000
G00 X6.6379 Y-10.9791
G01 F60.00
G01 Z-0.1500
G01 F240.00
G01 X6.6416 Y-11.0043
G01 X6.6434 Y-11.0248
G01 X6.6441 Y-11.0453
G01 X6.6439 Y-11.0658
G01 X6.6426 Y-11.0863
G01 X6.6403 Y-11.1067
G01 X6.6331 Y-11.1521
G01 X9.4510 Y-11.1521
G01 X9.2780 Y-10.9791
G01 X6.6379 Y-10.9791
G00 Z2.0000
G00 X6.6330 Y-13.1521
G01 F60.00
G01 Z-0.1500
G01 F240.00
G01 X9.4761 Y-13.1521
G01 X9.4724 Y-13.1268
G01 X9.4706 Y-13.1063
G01 X9.4699 Y-13.0858
G01 X9.4701 Y-13.0653
G01 X9.4714 Y-13.0448
G01 X9.4737 Y-13.0244
G01 X9.4809 Y-12.9791
G01 X6.6380 Y-12.9791
G01 X6.6416 Y-13.0037
G01 X6.6434 Y-13.0242
G01 X6.6441 Y-13.0447
G01 X6.6439 Y-13.0653
G01 X6.6426 Y-13.0858
G01 X6.6403 Y-13.1062
G01 X6.6330 Y-13.1521
G00 Z2.0000
G00 X6.3526 Y-13.3529
G01 F60.00
G01 Z-0.1500
G01 F240.00
G01 X6.3692 Y-13.3458
G01 X6.4041 Y-13.3333
G01 X6.4222 Y-13.3280
G01 X6.4583 Y-13.3193
G01 X6.4707 Y-13.3172
G01 X6.5074 Y-13.3120
G01 X6.5444 Y-13.3099
G01 X6.5570 Y-13.3096
G01 X9.5633 Y-13.3097
G01 X9.6003 Y-13.3115
G01 X9.6128 Y-13.3127
G01 X9.6495 Y-13.3182
G01 X9.6619 Y-13.3206
G01 X9.6978 Y-13.3296
G01 X9.7099 Y-13.3333
G01 X9.7448 Y-13.3458
G01 X9.7595 Y-13.3520
G01 X9.7342 Y-13.3296
G01 X9.7252 Y-13.3206
G01 X9.7126 Y-13.3063
G01 X9.7049 Y-13.2962
G01 X9.6976 Y-13.2858
G01 X9.6908 Y-13.2750
G01 X9.6818 Y-13.2583
G01 X9.6764 Y-13.2467
G01 X9.6461 Y-13.1768
G01 X9.6416 Y-13.1649
G01 X9.6377 Y-13.1528
G01 X9.6331 Y-13.1343
G01 X9.6298 Y-13.1155
G01 X9.6279 Y-13.0966
G01 X9.6274 Y-13.0775
G01 X9.6283 Y-13.0585
G01 X9.6297 Y-13.0458
G01 X9.6430 Y-12.9643
G01 X9.6457 Y-12.9519
G01 X9.6508 Y-12.9335
G01 X9.6550 Y-12.9215
G01 X9.6598 Y-12.9097
G01 X9.6680 Y-12.8925
G01 X9.6742 Y-12.8814
G01 X9.6809 Y-12.8707
G01 X9.6920 Y-12.8551
G01 X9.7042 Y-12.8405
G01 X9.7510 Y-12.7886
G01 X9.7603 Y-12.7788
G01 X9.7448 Y-12.7854
G01 X9.7039 Y-12.7997
G01 X9.6918 Y-12.8031
G01 X9.6557 Y-12.8118
G01 X9.6433 Y-12.8140
G01 X9.6066 Y-12.8191
G01 X9.5696 Y-12.8212
G01 X9.5570 Y-12.8215
G01 X6.5507 Y-12.8215
G01 X6.5137 Y-12.8196
G01 X6.5012 Y-12.8184
G01 X6.4645 Y-12.8130
G01 X6.4521 Y-12.8105
G01 X6.4162 Y-12.8015
G01 X6.4041 Y-12.7978
G01 X6.3692 Y-12.7854
G01 X6.3559 Y-12.7798
G01 X6.3798 Y-12.8009
G01 X6.3888 Y-12.8099
G01 X6.4014 Y-12.8243
G01 X6.4091 Y-12.8343
G01 X6.4198 Y-12.8501
G01 X6.4293 Y-12.8666
G01 X6.4350 Y-12.8780
G01 X6.4679 Y-12.9538
G01 X6.4724 Y-12.9657
G01 X6.4763 Y-12.9778
G01 X6.4809 Y-12.9962
G01 X6.4842 Y-13.0150
G01 X6.4861 Y-13.0340
G01 X6.4866 Y-13.0531
G01 X6.4857 Y-13.0721
G01 X6.4843 Y-13.0847
G01 X6.4710 Y-13.1662
G01 X6.4668 Y-13.1848
G01 X6.4632 Y-13.1970
G01 X6.4590 Y-13.2090
G01 X6.4542 Y-13.2208
G01 X6.4460 Y-13.2380
G01 X6.4398 Y-13.2491
G01 X6.4331 Y-13.2599
G01 X6.4220 Y-13.2754
G01 X6.4098 Y-13.2900
G01 X6.3630 Y-13.3420
G01 X6.3526 Y-13.3529
G00 Z2.0000
G00 X6.0339 Y-13.5597
G01 F60.00
G01 Z-0.1500
G01 F240.00
G01 X6.1210 Y-13.5595
G01 X6.1363 Y-13.5345
G01 X6.1577 Y-13.5051
G01 X6.1432 Y-13.5135
G01 X6.1319 Y-13.5191
G01 X6.0677 Y-13.5476
G01 X6.0514 Y-13.5541
G01 X6.0339 Y-13.5597
G00 Z2.0000
G00 X6.5570 Y-15.4671
G01 F60.00
G01 Z-0.1500
G01 F240.00
G01 X6.5228 Y-15.4688
G01 X6.4890 Y-15.4738
G01 X6.4559 Y-15.4821
G01 X6.4282 Y-15.4919
G01 X6.4192 Y-15.4956
G01 X6.3949 Y-15.5071
G01 X6.3675 Y-15.5233
G01 X6.3595 Y-15.5286
G01 X6.3378 Y-15.5447
G01 X6.3323 Y-15.5494
G01 X6.3106 Y-15.5692
G01 X6.2876 Y-15.5945
G01 X6.2673 Y-15.6220
G01 X6.2497 Y-15.6513
G01 X6.2351 Y-15.6822
G01 X6.2236 Y-15.7144
G01 X6.2152 Y-15.7476
G01 X6.2105 Y-15.7790
G01 X6.2086 Y-15.8156
G01 X6.2086 Y-16.3180
G01 X6.2099 Y-16.3449
G01 X6.2108 Y-16.3545
G01 X6.2152 Y-16.3835
G01 X6.2223 Y-16.4121
G01 X6.2251 Y-16.4213
G01 X6.2351 Y-16.4489
G01 X6.2497 Y-16.4798
G01 X6.2673 Y-16.5092
G01 X6.2847 Y-16.5328
G01 X6.2908 Y-16.5403
G01 X6.3106 Y-16.5620
G01 X6.3323 Y-16.5818
G01 X6.3378 Y-16.5864
G01 X6.3595 Y-16.6025
G01 X6.3675 Y-16.6079
G01 X6.3927 Y-16.6229
G01 X6.4259 Y-16.6384
G01 X6.4559 Y-16.6490
G01 X6.4890 Y-16.6573
G01 X6.5228 Y-16.6623
G01 X6.5570 Y-16.6640
G01 X9.5570 Y-16.6640
G01 X9.5863 Y-16.6627
G01 X9.5959 Y-16.6617
G01 X9.6250 Y-16.6573
G01 X9.6558 Y-16.6497
G01 X9.6903 Y-16.6375
G01 X9.7213 Y-16.6229
G01 X9.7506 Y-16.6053
G01 X9.7742 Y-16.5879
G01 X9.7817 Y-16.5818
G01 X9.8017 Y-16.5636
G01 X9.8067 Y-16.5585
G01 X9.8264 Y-16.5366
G01 X9.8439 Y-16.5131
G01 X9.8493 Y-16.5051
G01 X9.8643 Y-16.4798
G01 X9.8798 Y-16.4467
G01 X9.8904 Y-16.4167
G01 X9.8977 Y-16.3883
G01 X9.8992 Y-16.3812
G01 X9.9032 Y-16.3545
G01 X9.9041 Y-16.3449
G01 X9.9054 Y-16.3156
G01 X9.9054 Y-15.9881
G01 X11.4225 Y-14.4710
G01 X11.4455 Y-14.4457
G01 X11.4671 Y-14.4162
G01 X11.4834 Y-14.3889
G01 X11.4980 Y-14.3580
G01 X11.5096 Y-14.3257
G01 X11.5168 Y-14.2973
G01 X11.5183 Y-14.2902
G01 X11.5223 Y-14.2635
G01 X11.5233 Y-14.2539
G01 X11.5246 Y-14.2246
G01 X11.5231 Y-14.1928
G01 X11.5179 Y-14.1566
G01 X11.5109 Y-14.1280
G01 X11.5088 Y-14.1211
G01 X11.5005 Y-14.0976
G01 X11.3995 Y-13.7121
G01 X11.3995 Y-13.5537
G01 X12.1142 Y-12.8391
G01 X16.5100 Y-12.8391
G01 X16.5295 Y-12.8382
G01 X16.5367 Y-12.8374
G01 X16.5536 Y-12.8348
G01 X16.5749 Y-12.8295
G01 X16.5955 Y-12.8221
G01 X16.6110 Y-12.8149
G01 X16.6175 Y-12.8115
G01 X16.6342 Y-12.8014
G01 X16.6499 Y-12.7898
G01 X16.6555 Y-12.7852
G01 X16.6680 Y-12.7736
G01 X16.6796 Y-12.7610
G01 X16.6843 Y-12.7555
G01 X16.6958 Y-12.7397
G01 X16.7082 Y-12.7188
G01 X16.7165 Y-12.7011
G01 X16.7239 Y-12.6804
G01 X16.7292 Y-12.6592
G01 X16.7317 Y-12.6433
G01 X16.8046 Y-12.5055
G01 X16.8174 Y-12.4839
G01 X16.8320 Y-12.4530
G01 X16.8436 Y-12.4207
G01 X16.8508 Y-12.3923
G01 X16.8523 Y-12.3852
G01 X16.8563 Y-12.3585
G01 X16.8573 Y-12.3489
G01 X16.8586 Y-12.3196
G01 X16.8586 Y-10.4996
G01 X16.8679 Y-10.4866
G01 X16.8802 Y-10.4655
G01 X16.8895 Y-10.4456
G01 X16.8970 Y-10.4250
G01 X16.9026 Y-10.4037
G01 X16.9045 Y-10.3943
G01 X16.9073 Y-10.3749
G01 X16.9084 Y-10.3506
G01 X16.9084 Y-8.6981
G01 X16.9073 Y-8.6762
G01 X16.9045 Y-8.6569
G01 X16.9026 Y-8.6474
G01 X16.8978 Y-8.6284
G01 X16.8895 Y-8.6055
G01 X16.8813 Y-8.5878
G01 X16.8767 Y-8.5792
G01 X16.8666 Y-8.5625
G01 X16.8521 Y-8.5429
G01 X16.8357 Y-8.5249
G01 X16.8176 Y-8.5085
G01 X16.7980 Y-8.4940
G01 X16.7771 Y-8.4814
G01 X16.7551 Y-8.4710
G01 X16.7321 Y-8.4628
G01 X16.7085 Y-8.4569
G01 X16.6844 Y-8.4533
G01 X16.6600 Y-8.4521
G01 X16.3600 Y-8.4521
G01 X16.3332 Y-8.4536
G01 X16.3115 Y-8.4569
G01 X16.2902 Y-8.4621
G01 X16.2694 Y-8.4693
G01 X16.2605 Y-8.4730
G01 X16.2429 Y-8.4814
G01 X16.2220 Y-8.4940
G01 X16.2024 Y-8.5085
G01 X16.1878 Y-8.5215
G01 X16.1810 Y-8.5284
G01 X16.1695 Y-8.5411
G01 X16.1650 Y-8.5468
G01 X16.1534 Y-8.5625
G01 X16.1409 Y-8.5834
G01 X16.1305 Y-8.6055
G01 X16.1238 Y-8.6239
G01 X16.1210 Y-8.6331
G01 X16.1159 Y-8.6545
G01 X16.1127 Y-8.6762
G01 X16.1116 Y-8.7006
G01 X16.1116 Y-10.3530
G01 X16.1127 Y-10.3749
G01 X16.1155 Y-10.3943
G01 X16.1174 Y-10.4037
G01 X16.1230 Y-10.4250
G01 X16.1305 Y-10.4456
G01 X16.1398 Y-10.4655
G01 X16.1521 Y-10.4866
G01 X16.1614 Y-10.4996
G01 X16.1614 Y-12.3196
G01 X16.1631 Y-12.3537
G01 X16.1673 Y-12.3828
G01 X16.1691 Y-12.3920
G01 X12.0216 Y-12.3921
G01 X11.9997 Y-12.3931
G01 X11.9828 Y-12.3955
G01 X11.9733 Y-12.3974
G01 X11.9544 Y-12.4024
G01 X11.9383 Y-12.4082
G01 X11.9317 Y-12.4110
G01 X11.9162 Y-12.4184
G01 X11.9015 Y-12.4271
G01 X11.8954 Y-12.4311
G01 X11.8817 Y-12.4413
G01 X11.8653 Y-12.4558
G01 X11.0180 Y-13.3031
G01 X11.0032 Y-13.3194
G01 X10.9902 Y-13.3370
G01 X10.9789 Y-13.3558
G01 X10.9705 Y-13.3734
G01 X10.9678 Y-13.3801
G01 X10.9621 Y-13.3963
G01 X10.9578 Y-13.4128
G01 X10.9563 Y-13.4199
G01 X10.9536 Y-13.4393
G01 X10.9525 Y-13.4612
G01 X10.9525 Y-13.7121
G01 X10.8662 Y-14.0414
G01 X9.4405 Y-15.4671
G01 X6.5570 Y-15.4671
G00 Z2.0000
G00 X5.1126 Y-16.3896
G01 F60.00
G01 Z-0.1500
G01 F240.00
G01 X5.1141 Y-16.4177
G01 X5.1191 Y-16.4516
G01 X5.1274 Y-16.4847
G01 X5.1390 Y-16.5170
G01 X5.1536 Y-16.5479
G01 X5.1712 Y-16.5772
G01 X5.1915 Y-16.6047
G01 X5.2128 Y-16.6283
G01 X5.9800 Y-17.3954
G01 X6.0019 Y-17.4150
G01 X6.0254 Y-17.4326
G01 X6.0334 Y-17.4380
G01 X6.0587 Y-17.4530
G01 X6.0852 Y-17.4656
G01 X6.0941 Y-17.4693
G01 X6.1218 Y-17.4791
G01 X6.1526 Y-17.4869
G01 X6.1888 Y-17.4925
G01 X6.2230 Y-17.4941
G01 X9.7790 Y-17.4941
G01 X9.8132 Y-17.4925
G01 X9.8446 Y-17.4879
G01 X9.8755 Y-17.4804
G01 X9.8848 Y-17.4776
G01 X9.9124 Y-17.4676
G01 X9.9433 Y-17.4530
G01 X9.9686 Y-17.4380
G01 X9.9766 Y-17.4326
G01 X10.0001 Y-17.4150
G01 X10.0238 Y-17.3937
G01 X12.0575 Y-15.3600
G01 X12.0805 Y-15.3347
G01 X12.1021 Y-15.3052
G01 X12.1184 Y-15.2779
G01 X12.1311 Y-15.2514
G01 X12.1348 Y-15.2424
G01 X12.1446 Y-15.2147
G01 X12.1529 Y-15.1816
G01 X12.1573 Y-15.1525
G01 X12.1581 Y-15.1453
G01 X12.1595 Y-15.1184
G01 X12.1595 Y-15.1087
G01 X12.1576 Y-15.0770
G01 X12.1537 Y-15.0503
G01 X12.1518 Y-15.0408
G01 X12.1446 Y-15.0124
G01 X12.1355 Y-14.9866
G01 X12.0345 Y-14.6011
G01 X12.0345 Y-13.8062
G01 X12.5357 Y-13.3051
G01 X17.2720 Y-13.3051
G01 X17.2939 Y-13.3040
G01 X17.3108 Y-13.3016
G01 X17.3203 Y-13.2997
G01 X17.3392 Y-13.2947
G01 X17.3575 Y-13.2881
G01 X17.3752 Y-13.2798
G01 X17.3816 Y-13.2763
G01 X17.3982 Y-13.2660
G01 X17.4138 Y-13.2543
G01 X17.4265 Y-13.2429
G01 X17.7686 Y-12.9011
G01 X17.7786 Y-12.8962
G01 X17.7889 Y-12.8897
G01 X17.7965 Y-12.8836
G01 X17.8073 Y-12.8735
G01 X18.2667 Y-12.4141
G01 X24.9374 Y-12.4141
G01 X24.9675 Y-12.4173
G01 X24.9820 Y-12.4180
G01 X25.2216 Y-12.4180
G01 X25.2287 Y-12.4178
G01 X25.2356 Y-12.4170
G01 X25.2426 Y-12.4158
G01 X25.2494 Y-12.4140
G01 X25.3164 Y-12.3943
G01 X25.3278 Y-12.3902
G01 X25.3364 Y-12.3860
G01 X25.3446 Y-12.3809
G01 X25.3731 Y-12.3582
G01 X25.3789 Y-12.3529
G01 X25.7748 Y-11.9570
G01 X25.7794 Y-11.9517
G01 X25.7837 Y-11.9462
G01 X25.7899 Y-11.9362
G01 X25.8245 Y-11.8728
G01 X25.8286 Y-11.8639
G01 X25.8317 Y-11.8546
G01 X25.8343 Y-11.8427
G01 X25.8351 Y-11.8354
G01 X25.8354 Y-11.8280
G01 X25.8310 Y-11.7623
G01 X26.1055 Y-11.4878
G01 X26.1746 Y-11.5204
G01 X26.2715 Y-11.5552
G01 X26.2808 Y-11.5580
G01 X26.3783 Y-11.5824
G01 X26.3855 Y-11.5837
G01 X26.4873 Y-11.5987
G01 X26.5950 Y-11.6040
G01 X26.7027 Y-11.5987
G01 X26.8045 Y-11.5837
G01 X26.8117 Y-11.5824
G01 X26.9092 Y-11.5580
G01 X26.9185 Y-11.5552
G01 X27.0154 Y-11.5204
G01 X27.0845 Y-11.4878
G01 X27.4147 Y-11.8183
G01 X27.4699 Y-11.8721
G01 X27.4774 Y-11.8779
G01 X27.4854 Y-11.8829
G01 X27.4939 Y-11.8871
G01 X27.5028 Y-11.8905
G01 X27.5703 Y-11.9076
G01 X27.5774 Y-11.9089
G01 X27.5846 Y-11.9097
G01 X27.5919 Y-11.9100
G01 X32.0981 Y-11.9100
G01 X32.1098 Y-11.9093
G01 X32.1168 Y-11.9082
G01 X32.1236 Y-11.9067
G01 X32.1929 Y-11.8863
G01 X32.1998 Y-11.8840
G01 X32.2088 Y-11.8801
G01 X32.2153 Y-11.8766
G01 X32.2214 Y-11.8727
G01 X32.2292 Y-11.8667
G01 X32.2379 Y-11.8582
G01 X32.2562 Y-11.8371
G01 X32.6055 Y-11.4878
G01 X32.6746 Y-11.5204
G01 X32.7761 Y-11.5567
G01 X32.8807 Y-11.5829
G01 X32.9873 Y-11.5987
G01 X33.0950 Y-11.6040
G01 X33.2027 Y-11.5987
G01 X33.3093 Y-11.5829
G01 X33.4115 Y-11.5574
G01 X33.4185 Y-11.5552
G01 X33.5154 Y-11.5204
G01 X33.6085 Y-11.4765
G01 X33.6170 Y-11.4719
G01 X33.7012 Y-11.4215
G01 X33.7092 Y-11.4161
G01 X33.7918 Y-11.3547
G01 X33.8717 Y-11.2823
G01 X33.9441 Y-11.2024
G01 X34.0070 Y-11.1178
G01 X34.0614 Y-11.0276
G01 X34.0659 Y-11.0191
G01 X34.1098 Y-10.9259
G01 X34.1446 Y-10.8290
G01 X34.1474 Y-10.8198
G01 X34.1723 Y-10.7199
G01 X34.1876 Y-10.6180
G01 X34.1884 Y-10.6108
G01 X34.1934 Y-10.5056
G01 X34.1885 Y-10.4027
G01 X34.1876 Y-10.3931
G01 X34.1723 Y-10.2913
G01 X34.1474 Y-10.1914
G01 X34.1446 Y-10.1821
G01 X34.1098 Y-10.0852
G01 X34.0773 Y-10.0161
G01 X34.3376 Y-9.7554
G01 X34.3434 Y-9.7480
G01 X34.3484 Y-9.7402
G01 X34.3842 Y-9.6747
G01 X34.3873 Y-9.6681
G01 X34.3906 Y-9.6590
G01 X34.3925 Y-9.6520
G01 X34.3939 Y-9.6449
G01 X34.3974 Y-9.6138
G01 X34.3979 Y-9.6033
G01 X34.3979 Y-8.6336
G01 X34.3973 Y-8.6219
G01 X34.3962 Y-8.6149
G01 X34.3946 Y-8.6081
G01 X34.3743 Y-8.5388
G01 X34.3701 Y-8.5273
G01 X34.3658 Y-8.5185
G01 X34.3606 Y-8.5102
G01 X34.3546 Y-8.5025
G01 X34.3461 Y-8.4937
G01 X34.2896 Y-8.4448
G01 X34.2817 Y-8.4389
G01 X34.2711 Y-8.4327
G01 X34.2598 Y-8.4279
G01 X34.2503 Y-8.4251
G01 X34.1941 Y-8.4129
G01 X34.1849 Y-8.4116
G01 X34.1778 Y-8.4111
G01 X26.7214 Y-8.4111
G01 X26.7120 Y-8.4116
G01 X26.7027 Y-8.4129
G01 X26.6936 Y-8.4151
G01 X26.6266 Y-8.4348
G01 X26.6152 Y-8.4389
G01 X26.6066 Y-8.4432
G01 X26.5984 Y-8.4483
G01 X26.5719 Y-8.4692
G01 X26.5641 Y-8.4763
G01 X26.3161 Y-8.7243
G01 X26.3113 Y-8.7294
G01 X26.3069 Y-8.7349
G01 X26.3029 Y-8.7407
G01 X26.2993 Y-8.7467
G01 X26.2636 Y-8.8124
G01 X26.2606 Y-8.8191
G01 X26.2582 Y-8.8260
G01 X26.2557 Y-8.8355
G01 X26.2545 Y-8.8427
G01 X26.2539 Y-8.8500
G01 X26.2539 Y-8.8598
G01 X26.2590 Y-8.9319
G01 X26.2598 Y-8.9392
G01 X26.2623 Y-8.9512
G01 X26.2654 Y-8.9604
G01 X26.2705 Y-8.9715
G01 X26.2755 Y-8.9799
G01 X26.3217 Y-9.0418
G01 X26.3299 Y-9.0509
G01 X26.3391 Y-9.0589
G01 X26.3492 Y-9.0657
G01 X26.3601 Y-9.0713
G01 X26.4347 Y-9.0991
G01 X26.4441 Y-9.1016
G01 X26.4513 Y-9.1028
G01 X26.4586 Y-9.1035
G01 X26.4698 Y-9.1039
G01 X26.7111 Y-9.1040
G01 X26.9402 Y-9.1422
G01 X27.1599 Y-9.2177
G01 X27.3093 Y-9.2985
G01 X27.0845 Y-9.5233
G01 X27.0154 Y-9.4907
G01 X26.9139 Y-9.4544
G01 X26.8093 Y-9.4282
G01 X26.7075 Y-9.4130
G01 X26.6978 Y-9.4120
G01 X26.5998 Y-9.4072
G01 X26.5902 Y-9.4072
G01 X26.4873 Y-9.4124
G01 X26.3831 Y-9.4278
G01 X26.2808 Y-9.4531
G01 X26.2715 Y-9.4559
G01 X26.1746 Y-9.4907
G01 X26.0772 Y-9.5368
G01 X25.9888 Y-9.5896
G01 X25.9808 Y-9.5950
G01 X25.8982 Y-9.6564
G01 X25.8183 Y-9.7288
G01 X25.7490 Y-9.8051
G01 X25.7429 Y-9.8125
G01 X25.6817 Y-9.8953
G01 X25.6263 Y-9.9878
G01 X25.5802 Y-10.0852
G01 X25.5454 Y-10.1821
G01 X25.5426 Y-10.1914
G01 X25.5172 Y-10.2936
G01 X25.5018 Y-10.3979
G01 X25.4967 Y-10.5007
G01 X25.4967 Y-10.5104
G01 X25.5015 Y-10.6084
G01 X25.5024 Y-10.6180
G01 X25.5177 Y-10.7199
G01 X25.5438 Y-10.8244
G01 X25.5802 Y-10.9259
G01 X25.6127 Y-10.9951
G01 X25.3877 Y-11.2201
G01 X25.3581 Y-11.1749
G01 X25.2648 Y-10.9622
G01 X25.2078 Y-10.7370
G01 X25.1886 Y-10.5056
G01 X25.1976 Y-10.3974
G01 X25.1979 Y-10.3904
G01 X25.1978 Y-10.3833
G01 X25.1964 Y-10.3717
G01 X25.1818 Y-10.3010
G01 X25.1794 Y-10.2915
G01 X25.1770 Y-10.2846
G01 X25.1729 Y-10.2757
G01 X25.1680 Y-10.2672
G01 X25.1638 Y-10.2612
G01 X25.1575 Y-10.2538
G01 X25.1052 Y-10.2003
G01 X25.0960 Y-10.1923
G01 X25.0858 Y-10.1856
G01 X25.0748 Y-10.1801
G01 X25.0633 Y-10.1761
G01 X24.9905 Y-10.1593
G01 X24.9833 Y-10.1579
G01 X24.9760 Y-10.1571
G01 X24.9687 Y-10.1568
G01 X24.9613 Y-10.1570
G01 X24.9492 Y-10.1587
G01 X24.9374 Y-10.1618
G01 X24.8627 Y-10.1889
G01 X24.8522 Y-10.1944
G01 X24.8443 Y-10.1997
G01 X24.8204 Y-10.2199
G01 X23.5812 Y-11.4591
G01 X23.0790 Y-11.4592
G01 X23.0697 Y-11.4601
G01 X23.0582 Y-11.4625
G01 X22.9890 Y-11.4828
G01 X22.9821 Y-11.4851
G01 X22.9754 Y-11.4879
G01 X22.9689 Y-11.4912
G01 X22.9627 Y-11.4949
G01 X22.9549 Y-11.5006
G01 X22.9303 Y-11.5206
G01 X22.7337 Y-11.7170
G01 X18.1286 Y-11.7170
G01 X18.1286 Y-10.4996
G01 X18.1379 Y-10.4866
G01 X18.1502 Y-10.4655
G01 X18.1595 Y-10.4456
G01 X18.1670 Y-10.4250
G01 X18.1726 Y-10.4037
G01 X18.1745 Y-10.3943
G01 X18.1773 Y-10.3749
G01 X18.1784 Y-10.3530
G01 X18.1784 Y-8.7006
G01 X18.1773 Y-8.6762
G01 X18.1741 Y-8.6545
G01 X18.1690 Y-8.6331
G01 X18.1670 Y-8.6261
G01 X18.1595 Y-8.6055
G01 X18.1513 Y-8.5878
G01 X18.1467 Y-8.5792
G01 X18.1366 Y-8.5625
G01 X18.1250 Y-8.5468
G01 X18.1189 Y-8.5393
G01 X18.1057 Y-8.5249
G01 X18.0913 Y-8.5117
G01 X18.0838 Y-8.5055
G01 X18.0680 Y-8.4940
G01 X18.0513 Y-8.4838
G01 X18.0428 Y-8.4793
G01 X18.0251 Y-8.4710
G01 X18.0021 Y-8.4628
G01 X17.9785 Y-8.4569
G01 X17.9591 Y-8.4539
G01 X17.9495 Y-8.4530
G01 X17.9300 Y-8.4521
G01 X17.6276 Y-8.4521
G01 X17.6081 Y-8.4531
G01 X17.6009 Y-8.4539
G01 X17.5815 Y-8.4569
G01 X17.5602 Y-8.4621
G01 X17.5394 Y-8.4693
G01 X17.5305 Y-8.4730
G01 X17.5129 Y-8.4814
G01 X17.4920 Y-8.4940
G01 X17.4724 Y-8.5085
G01 X17.4578 Y-8.5215
G01 X17.4510 Y-8.5284
G01 X17.4395 Y-8.5411
G01 X17.4350 Y-8.5468
G01 X17.4234 Y-8.5625
G01 X17.4109 Y-8.5834
G01 X17.4005 Y-8.6055
G01 X17.3938 Y-8.6239
G01 X17.3910 Y-8.6331
G01 X17.3859 Y-8.6545
G01 X17.3827 Y-8.6762
G01 X17.3816 Y-8.6981
G01 X17.3816 Y-10.3530
G01 X17.3827 Y-10.3749
G01 X17.3855 Y-10.3943
G01 X17.3874 Y-10.4037
G01 X17.3930 Y-10.4250
G01 X17.4005 Y-10.4456
G01 X17.4098 Y-10.4655
G01 X17.4221 Y-10.4866
G01 X17.4314 Y-10.4996
G01 X17.4314 Y-12.0656
G01 X17.4331 Y-12.0997
G01 X17.4378 Y-12.1318
G01 X17.4293 Y-12.1709
G01 X17.4280 Y-12.1802
G01 X17.4276 Y-12.1872
G01 X17.4276 Y-12.6099
G01 X17.1794 Y-12.8581
G01 X12.4431 Y-12.8581
G01 X12.4212 Y-12.8591
G01 X12.4019 Y-12.8619
G01 X12.3948 Y-12.8634
G01 X12.3782 Y-12.8677
G01 X12.3621 Y-12.8733
G01 X12.3553 Y-12.8760
G01 X12.3377 Y-12.8844
G01 X12.3189 Y-12.8957
G01 X12.3051 Y-12.9058
G01 X12.2994 Y-12.9103
G01 X12.2850 Y-12.9235
G01 X11.6530 Y-13.5556
G01 X11.6382 Y-13.5719
G01 X11.6252 Y-13.5895
G01 X11.6139 Y-13.6083
G01 X11.6045 Y-13.6281
G01 X11.5971 Y-13.6488
G01 X11.5918 Y-13.6700
G01 X11.5886 Y-13.6917
G01 X11.5875 Y-13.7112
G01 X11.5875 Y-14.6011
G01 X11.5012 Y-14.9304
G01 X9.6346 Y-16.7970
G01 X6.3674 Y-16.7970
G01 X5.8096 Y-16.2392
G01 X5.8096 Y-14.7939
G01 X6.1894 Y-14.4141
G01 X6.2228 Y-14.4141
G01 X6.2251 Y-14.4213
G01 X6.2351 Y-14.4489
G01 X6.2475 Y-14.4755
G01 X6.2509 Y-14.4819
G01 X6.2647 Y-14.5051
G01 X6.2701 Y-14.5131
G01 X6.2876 Y-14.5366
G01 X6.3106 Y-14.5620
G01 X6.3359 Y-14.5849
G01 X6.3595 Y-14.6025
G01 X6.3675 Y-14.6079
G01 X6.3927 Y-14.6229
G01 X6.4192 Y-14.6355
G01 X6.4282 Y-14.6392
G01 X6.4559 Y-14.6490
G01 X6.4843 Y-14.6563
G01 X6.4938 Y-14.6581
G01 X6.5253 Y-14.6625
G01 X6.5570 Y-14.6640
G01 X9.5570 Y-14.6640
G01 X9.5912 Y-14.6623
G01 X9.6202 Y-14.6581
G01 X9.6273 Y-14.6568
G01 X9.6535 Y-14.6503
G01 X9.6627 Y-14.6475
G01 X9.6903 Y-14.6375
G01 X9.7213 Y-14.6229
G01 X9.7506 Y-14.6053
G01 X9.7781 Y-14.5849
G01 X9.8034 Y-14.5620
G01 X9.8232 Y-14.5403
G01 X9.8279 Y-14.5347
G01 X9.8439 Y-14.5131
G01 X9.8493 Y-14.5051
G01 X9.8643 Y-14.4798
G01 X9.8789 Y-14.4489
G01 X9.8904 Y-14.4167
G01 X9.8983 Y-14.3859
G01 X9.9038 Y-14.3497
G01 X9.9054 Y-14.3180
G01 X9.9054 Y-13.8156
G01 X9.9041 Y-13.7862
G01 X9.9032 Y-13.7766
G01 X9.8988 Y-13.7476
G01 X9.8911 Y-13.7167
G01 X9.8789 Y-13.6822
G01 X9.8665 Y-13.6556
G01 X9.8619 Y-13.6471
G01 X9.8467 Y-13.6220
G01 X9.8293 Y-13.5983
G01 X9.8232 Y-13.5908
G01 X9.8034 Y-13.5692
G01 X9.7817 Y-13.5494
G01 X9.7742 Y-13.5432
G01 X9.7506 Y-13.5258
G01 X9.7255 Y-13.5106
G01 X9.7169 Y-13.5061
G01 X9.6903 Y-13.4936
G01 X9.6627 Y-13.4836
G01 X9.6535 Y-13.4808
G01 X9.6250 Y-13.4738
G01 X9.5959 Y-13.4694
G01 X9.5863 Y-13.4684
G01 X9.5570 Y-13.4671
G01 X6.5570 Y-13.4671
G01 X6.5277 Y-13.4684
G01 X6.5181 Y-13.4694
G01 X6.4890 Y-13.4738
G01 X6.4559 Y-13.4821
G01 X6.4282 Y-13.4919
G01 X6.4192 Y-13.4956
G01 X6.3927 Y-13.5083
G01 X6.3675 Y-13.5233
G01 X6.3595 Y-13.5286
G01 X6.3359 Y-13.5462
G01 X6.3106 Y-13.5692
G01 X6.2908 Y-13.5908
G01 X6.2847 Y-13.5983
G01 X6.2673 Y-13.6220
G01 X6.2521 Y-13.6471
G01 X6.2475 Y-13.6556
G01 X6.2351 Y-13.6822
G01 X6.2251 Y-13.7098
G01 X6.2228 Y-13.7170
G01 X6.0426 Y-13.7170
G01 X6.0108 Y-13.7187
G01 X5.9770 Y-13.7237
G01 X5.9438 Y-13.7320
G01 X5.9161 Y-13.7418
G01 X5.9072 Y-13.7455
G01 X5.8807 Y-13.7581
G01 X5.8554 Y-13.7731
G01 X5.8474 Y-13.7785
G01 X5.8258 Y-13.7946
G01 X5.7985 Y-13.8191
G01 X5.2128 Y-14.4048
G01 X5.1915 Y-14.4284
G01 X5.1712 Y-14.4559
G01 X5.1536 Y-14.4852
G01 X5.1409 Y-14.5118
G01 X5.1372 Y-14.5207
G01 X5.1274 Y-14.5484
G01 X5.1191 Y-14.5816
G01 X5.1141 Y-14.6154
G01 X5.1125 Y-14.6471
G01 X5.1126 Y-16.3896
G00 Z2.0000
G00 X4.1054 Y-18.7640
G01 F60.00
G01 Z-0.1500
G01 F240.00
G01 X4.1054 Y-18.9156
G01 X4.1038 Y-18.9497
G01 X4.0996 Y-18.9788
G01 X4.0977 Y-18.9883
G01 X4.0904 Y-19.0167
G01 X4.0798 Y-19.0467
G01 X4.0643 Y-19.0798
G01 X4.0493 Y-19.1051
G01 X4.0439 Y-19.1131
G01 X4.0279 Y-19.1347
G01 X4.0232 Y-19.1403
G01 X4.0034 Y-19.1620
G01 X3.9781 Y-19.1849
G01 X3.9506 Y-19.2053
G01 X3.9234 Y-19.2217
G01 X3.8903 Y-19.2375
G01 X3.8627 Y-19.2475
G01 X3.8535 Y-19.2503
G01 X3.8250 Y-19.2573
G01 X3.7959 Y-19.2617
G01 X3.7863 Y-19.2627
G01 X3.7594 Y-19.2640
G01 X2.6554 Y-19.2640
G01 X2.6554 Y-19.5671
G01 X3.8020 Y-19.5671
G01 X3.8890 Y-19.5582
G01 X4.0342 Y-19.5101
G01 X4.1639 Y-19.4301
G01 X4.2716 Y-19.3224
G01 X4.3515 Y-19.1928
G01 X4.3997 Y-19.0475
G01 X4.4086 Y-18.9605
G01 X4.4086 Y-18.7640
G01 X4.1054 Y-18.7640
G00 Z2.0000
G00 X2.6554 Y-17.5671
G01 F60.00
G01 Z-0.1500
G01 F240.00
G01 X3.7570 Y-17.5671
G01 X3.7863 Y-17.5684
G01 X3.7959 Y-17.5694
G01 X3.8250 Y-17.5738
G01 X3.8558 Y-17.5814
G01 X3.8903 Y-17.5936
G01 X3.9213 Y-17.6083
G01 X3.9506 Y-17.6258
G01 X3.9781 Y-17.6462
G01 X4.0034 Y-17.6692
G01 X4.0264 Y-17.6945
G01 X4.0467 Y-17.7220
G01 X4.0654 Y-17.7534
G01 X4.0789 Y-17.7822
G01 X4.0904 Y-17.8144
G01 X4.0988 Y-17.8476
G01 X4.1035 Y-17.8790
G01 X4.1054 Y-17.9156
G01 X4.1054 Y-18.0671
G01 X4.4085 Y-18.0671
G01 X4.4085 Y-17.8706
G01 X4.3997 Y-17.7836
G01 X4.3515 Y-17.6383
G01 X4.2716 Y-17.5087
G01 X4.1639 Y-17.4010
G01 X4.0342 Y-17.3210
G01 X3.8890 Y-17.2729
G01 X3.8020 Y-17.2640
G01 X2.6554 Y-17.2640
G01 X2.6554 Y-17.5671
G00 Z2.0000
G00 X-0.0979 Y-17.4383
G01 F60.00
G01 Z-0.1500
G01 F240.00
G01 X-0.0977 Y-17.4453
G01 X-0.0969 Y-17.4523
G01 X-0.0946 Y-17.4638
G01 X-0.0743 Y-17.5331
G01 X-0.0720 Y-17.5400
G01 X-0.0669 Y-17.5512
G01 X-0.0620 Y-17.5596
G01 X-0.0546 Y-17.5693
G01 X-0.0461 Y-17.5781
G01 X0.0123 Y-17.6286
G01 X0.0182 Y-17.6329
G01 X0.0245 Y-17.6367
G01 X0.0355 Y-17.6421
G01 X0.0470 Y-17.6460
G01 X0.0590 Y-17.6485
G01 X0.1306 Y-17.6588
G01 X0.1403 Y-17.6595
G01 X0.1501 Y-17.6592
G01 X0.1574 Y-17.6583
G01 X0.1646 Y-17.6569
G01 X0.1740 Y-17.6542
G01 X0.1808 Y-17.6516
G01 X0.2509 Y-17.6195
G01 X0.2612 Y-17.6133
G01 X0.2706 Y-17.6060
G01 X0.2791 Y-17.5976
G01 X0.3097 Y-17.5613
G01 X0.3138 Y-17.5551
G01 X0.3424 Y-17.5087
G01 X0.4501 Y-17.4010
G01 X0.5798 Y-17.3210
G01 X0.7250 Y-17.2729
G01 X0.8120 Y-17.2640
G01 X1.9586 Y-17.2640
G01 X1.9586 Y-17.5671
G01 X0.8570 Y-17.5671
G01 X0.8228 Y-17.5688
G01 X0.7890 Y-17.5738
G01 X0.7559 Y-17.5821
G01 X0.7237 Y-17.5936
G01 X0.6927 Y-17.6083
G01 X0.6634 Y-17.6258
G01 X0.6359 Y-17.6462
G01 X0.6106 Y-17.6692
G01 X0.5892 Y-17.6927
G01 X0.5701 Y-17.7180
G01 X0.5647 Y-17.7261
G01 X0.5497 Y-17.7513
G01 X0.5351 Y-17.7822
G01 X0.5236 Y-17.8144
G01 X0.5163 Y-17.8429
G01 X0.5144 Y-17.8523
G01 X0.5100 Y-17.8838
G01 X0.5086 Y-17.9156
G01 X0.5086 Y-18.9156
G01 X0.5102 Y-18.9497
G01 X0.5144 Y-18.9788
G01 X0.5157 Y-18.9859
G01 X0.5223 Y-19.0121
G01 X0.5251 Y-19.0213
G01 X0.5351 Y-19.0489
G01 X0.5497 Y-19.0798
G01 X0.5673 Y-19.1092
G01 X0.5876 Y-19.1366
G01 X0.6106 Y-19.1620
G01 X0.6323 Y-19.1818
G01 X0.6398 Y-19.1879
G01 X0.6614 Y-19.2039
G01 X0.6675 Y-19.2079
G01 X0.6927 Y-19.2229
G01 X0.7237 Y-19.2375
G01 X0.7559 Y-19.2490
G01 X0.7843 Y-19.2563
G01 X0.7938 Y-19.2581
G01 X0.8228 Y-19.2623
G01 X0.8570 Y-19.2640
G01 X1.9586 Y-19.2640
G01 X1.9586 Y-19.5671
G01 X0.8120 Y-19.5671
G01 X0.7250 Y-19.5582
G01 X0.5798 Y-19.5101
G01 X0.4501 Y-19.4301
G01 X0.3424 Y-19.3224
G01 X0.3126 Y-19.2741
G01 X0.3071 Y-19.2665
G01 X0.3025 Y-19.2611
G01 X0.2959 Y-19.2545
G01 X0.2383 Y-19.2031
G01 X0.2303 Y-19.1975
G01 X0.2217 Y-19.1928
G01 X0.2128 Y-19.1889
G01 X0.2035 Y-19.1859
G01 X0.1939 Y-19.1838
G01 X0.1201 Y-19.1720
G01 X0.1103 Y-19.1714
G01 X0.0981 Y-19.1720
G01 X0.0861 Y-19.1741
G01 X0.0767 Y-19.1768
G01 X0.0699 Y-19.1795
G01 X0.0036 Y-19.2083
G01 X-0.0051 Y-19.2129
G01 X-0.0132 Y-19.2183
G01 X-0.0190 Y-19.2228
G01 X-0.0261 Y-19.2296
G01 X-0.0325 Y-19.2369
G01 X-0.0368 Y-19.2429
G01 X-0.0782 Y-19.3050
G01 X-0.0837 Y-19.3156
G01 X-0.0864 Y-19.3223
G01 X-0.0886 Y-19.3291
G01 X-0.0907 Y-19.3384
G01 X-0.0968 Y-19.3779
G01 X-0.0977 Y-19.3854
G01 X-0.0979 Y-19.3928
G01 X-0.0979 Y-24.0061
G01 X-0.0973 Y-24.0178
G01 X-0.0952 Y-24.0293
G01 X-0.0736 Y-24.1032
G01 X-0.0711 Y-24.1101
G01 X-0.0669 Y-24.1189
G01 X-0.0633 Y-24.1253
G01 X-0.0577 Y-24.1333
G01 X-0.0530 Y-24.1389
G01 X-0.0461 Y-24.1459
G01 X0.0085 Y-24.1933
G01 X0.0163 Y-24.1993
G01 X0.0267 Y-24.2058
G01 X0.0379 Y-24.2109
G01 X0.0497 Y-24.2145
G01 X0.1059 Y-24.2267
G01 X0.1151 Y-24.2281
G01 X0.1222 Y-24.2285
G01 X5.0315 Y-24.2285
G01 X5.0431 Y-24.2275
G01 X5.0546 Y-24.2252
G01 X5.1262 Y-24.2041
G01 X5.1330 Y-24.2017
G01 X5.1418 Y-24.1976
G01 X5.1501 Y-24.1927
G01 X5.1580 Y-24.1870
G01 X5.1806 Y-24.1687
G01 X5.1864 Y-24.1634
G01 X5.4798 Y-23.8699
G01 X5.4863 Y-23.8629
G01 X5.4920 Y-23.8552
G01 X5.5235 Y-23.8057
G01 X5.5290 Y-23.7951
G01 X5.5337 Y-23.7830
G01 X5.5599 Y-23.7338
G01 X5.6367 Y-23.6291
G01 X7.6777 Y-21.5489
G01 X7.6988 Y-21.5294
G01 X7.8071 Y-21.4598
G01 X7.8578 Y-21.4366
G01 X7.8841 Y-21.4289
G01 X7.8910 Y-21.4264
G01 X7.8977 Y-21.4233
G01 X7.9042 Y-21.4198
G01 X7.9590 Y-21.3872
G01 X7.9651 Y-21.3831
G01 X7.9709 Y-21.3785
G01 X7.9763 Y-21.3735
G01 X8.6381 Y-20.7117
G01 X8.6445 Y-20.7046
G01 X8.6502 Y-20.6969
G01 X8.6804 Y-20.6495
G01 X8.6852 Y-20.6412
G01 X8.6899 Y-20.6302
G01 X8.7268 Y-20.5285
G01 X8.7530 Y-20.4793
G01 X8.7823 Y-20.4393
G01 X8.7879 Y-20.4309
G01 X8.8090 Y-20.3905
G01 X8.8129 Y-20.3812
G01 X8.8171 Y-20.3691
G01 X8.8222 Y-20.3584
G01 X8.8639 Y-20.2930
G01 X8.9051 Y-20.2246
G01 X8.9124 Y-20.2153
G01 X8.9672 Y-20.1604
G01 X9.0221 Y-20.1025
G01 X9.0376 Y-20.0897
G01 X9.0427 Y-20.0849
G01 X9.2026 Y-19.9250
G01 X9.2114 Y-19.9155
G01 X9.2415 Y-19.8801
G01 X9.3014 Y-19.8345
G01 X9.3616 Y-19.7861
G01 X9.3716 Y-19.7799
G01 X9.4135 Y-19.7604
G01 X9.4224 Y-19.7555
G01 X9.4651 Y-19.7255
G01 X9.4710 Y-19.7207
G01 X9.4766 Y-19.7155
G01 X11.8515 Y-17.2947
G01 X11.8574 Y-17.2874
G01 X11.8637 Y-17.2776
G01 X11.8978 Y-17.2139
G01 X11.9018 Y-17.2053
G01 X11.9051 Y-17.1963
G01 X11.9079 Y-17.1847
G01 X11.9117 Y-17.1499
G01 X11.9119 Y-17.1423
G01 X11.9119 Y-16.4718
G01 X11.9117 Y-16.4648
G01 X11.9106 Y-16.4555
G01 X11.9080 Y-16.4441
G01 X11.8876 Y-16.3747
G01 X11.8831 Y-16.3633
G01 X11.8773 Y-16.3526
G01 X11.8702 Y-16.3426
G01 X11.8619 Y-16.3336
G01 X11.8036 Y-16.2830
G01 X11.7937 Y-16.2758
G01 X11.7830 Y-16.2700
G01 X11.7717 Y-16.2654
G01 X11.7622 Y-16.2629
G01 X11.7550 Y-16.2616
G01 X11.6834 Y-16.2513
G01 X11.6737 Y-16.2506
G01 X11.6639 Y-16.2509
G01 X11.6566 Y-16.2518
G01 X11.6494 Y-16.2532
G01 X11.6424 Y-16.2551
G01 X11.6355 Y-16.2576
G01 X11.5652 Y-16.2896
G01 X11.5567 Y-16.2943
G01 X11.5506 Y-16.2983
G01 X11.5430 Y-16.3044
G01 X11.5347 Y-16.3121
G01 X10.2851 Y-17.5616
G01 X10.2669 Y-17.5823
G01 X10.2565 Y-17.5961
G01 X10.2237 Y-17.6237
G01 X10.2132 Y-17.6335
G01 X10.1898 Y-17.6521
G01 X10.1353 Y-17.6978
G01 X10.1310 Y-17.7006
G01 X10.1289 Y-17.7019
G01 X10.0619 Y-17.7332
G01 X9.9984 Y-17.7651
G01 X9.9911 Y-17.7676
G01 X9.9215 Y-17.7819
G01 X9.8496 Y-17.7989
G01 X9.8420 Y-17.7997
G01 X9.7681 Y-17.7976
G01 X6.2867 Y-17.7976
G01 X6.2592 Y-17.7994
G01 X6.2421 Y-17.8018
G01 X6.1994 Y-17.7981
G01 X6.1850 Y-17.7976
G01 X6.1553 Y-17.7942
G01 X6.0834 Y-17.7878
G01 X6.0770 Y-17.7863
G01 X6.0102 Y-17.7620
G01 X5.9401 Y-17.7387
G01 X5.9332 Y-17.7354
G01 X5.8738 Y-17.6963
G01 X5.8109 Y-17.6575
G01 X5.8050 Y-17.6527
G01 X5.7542 Y-17.5989
G01 X5.0450 Y-16.8897
G01 X5.0243 Y-16.8715
G01 X5.0105 Y-16.8611
G01 X4.9829 Y-16.8283
G01 X4.9731 Y-16.8178
G01 X4.9545 Y-16.7943
G01 X4.9082 Y-16.7389
G01 X4.9047 Y-16.7334
G01 X4.8746 Y-16.6690
G01 X4.8415 Y-16.6029
G01 X4.8398 Y-16.5980
G01 X4.8390 Y-16.5957
G01 X4.8240 Y-16.5233
G01 X4.8076 Y-16.4542
G01 X4.8068 Y-16.4465
G01 X4.8089 Y-16.3726
G01 X4.8089 Y-14.7133
G01 X4.8072 Y-14.6858
G01 X4.8048 Y-14.6687
G01 X4.8085 Y-14.6259
G01 X4.8089 Y-14.6116
G01 X4.8124 Y-14.5819
G01 X4.8186 Y-14.5111
G01 X4.8202 Y-14.5036
G01 X4.8445 Y-14.4368
G01 X4.8678 Y-14.3666
G01 X4.8701 Y-14.3619
G01 X4.8712 Y-14.3598
G01 X4.9102 Y-14.3004
G01 X4.9491 Y-14.2375
G01 X4.9523 Y-14.2334
G01 X4.9539 Y-14.2315
G01 X5.0076 Y-14.1808
G01 X5.5389 Y-13.6495
G01 X5.5571 Y-13.6288
G01 X5.5675 Y-13.6151
G01 X5.6003 Y-13.5875
G01 X5.6108 Y-13.5776
G01 X5.6342 Y-13.5590
G01 X5.6896 Y-13.5127
G01 X5.6951 Y-13.5093
G01 X5.7621 Y-13.4780
G01 X5.8256 Y-13.4461
G01 X5.8329 Y-13.4436
G01 X5.9053 Y-13.4286
G01 X5.9812 Y-13.4107
G01 X5.9935 Y-13.4074
G01 X6.0041 Y-13.4035
G01 X6.0625 Y-13.3777
G01 X6.0733 Y-13.3721
G01 X6.0794 Y-13.3681
G01 X6.0852 Y-13.3637
G01 X6.0996 Y-13.3507
G01 X6.1498 Y-13.3006
G01 X6.2264 Y-13.2533
G01 X6.2321 Y-13.2493
G01 X6.2376 Y-13.2449
G01 X6.2459 Y-13.2366
G01 X6.2943 Y-13.1829
G01 X6.3016 Y-13.1731
G01 X6.3066 Y-13.1647
G01 X6.3097 Y-13.1581
G01 X6.3124 Y-13.1512
G01 X6.3146 Y-13.1442
G01 X6.3162 Y-13.1371
G01 X6.3282 Y-13.0633
G01 X6.3290 Y-13.0536
G01 X6.3289 Y-13.0438
G01 X6.3282 Y-13.0365
G01 X6.3269 Y-13.0293
G01 X6.3251 Y-13.0222
G01 X6.3228 Y-13.0152
G01 X6.2931 Y-12.9466
G01 X6.2899 Y-12.9400
G01 X6.2863 Y-12.9336
G01 X6.2822 Y-12.9275
G01 X6.2776 Y-12.9218
G01 X6.2727 Y-12.9164
G01 X6.2337 Y-12.8824
G01 X6.2244 Y-12.8759
G01 X6.1501 Y-12.8301
G01 X6.0424 Y-12.7224
G01 X5.9625 Y-12.5928
G01 X5.9143 Y-12.4475
G01 X5.9109 Y-12.4140
G01 X6.2228 Y-12.4140
G01 X6.2333 Y-12.4444
G01 X6.2370 Y-12.4533
G01 X6.2497 Y-12.4798
G01 X6.2673 Y-12.5092
G01 X6.2847 Y-12.5328
G01 X6.2908 Y-12.5403
G01 X6.3106 Y-12.5620
G01 X6.3359 Y-12.5849
G01 X6.3634 Y-12.6053
G01 X6.3885 Y-12.6205
G01 X6.3971 Y-12.6250
G01 X6.4237 Y-12.6375
G01 X6.4559 Y-12.6490
G01 X6.4843 Y-12.6563
G01 X6.4938 Y-12.6581
G01 X6.5253 Y-12.6625
G01 X6.5570 Y-12.6640
G01 X9.5570 Y-12.6640
G01 X9.5912 Y-12.6623
G01 X9.6202 Y-12.6581
G01 X9.6273 Y-12.6568
G01 X9.6535 Y-12.6503
G01 X9.6627 Y-12.6475
G01 X9.6903 Y-12.6375
G01 X9.7213 Y-12.6229
G01 X9.7506 Y-12.6053
G01 X9.7742 Y-12.5879
G01 X9.7799 Y-12.5834
G01 X9.7999 Y-12.5653
G01 X9.8067 Y-12.5585
G01 X9.8264 Y-12.5366
G01 X9.8467 Y-12.5092
G01 X9.8643 Y-12.4798
G01 X9.8770 Y-12.4533
G01 X9.8807 Y-12.4444
G01 X9.8912 Y-12.4140
G01 X10.2031 Y-12.4140
G01 X10.1997 Y-12.4475
G01 X10.1515 Y-12.5928
G01 X10.0716 Y-12.7224
G01 X9.9639 Y-12.8301
G01 X9.8876 Y-12.8772
G01 X9.8819 Y-12.8812
G01 X9.8747 Y-12.8872
G01 X9.8681 Y-12.8939
G01 X9.8214 Y-12.9458
G01 X9.8152 Y-12.9534
G01 X9.8111 Y-12.9595
G01 X9.8063 Y-12.9680
G01 X9.8033 Y-12.9747
G01 X9.8001 Y-12.9840
G01 X9.7978 Y-12.9935
G01 X9.7855 Y-13.0697
G01 X9.7849 Y-13.0819
G01 X9.7853 Y-13.0892
G01 X9.7862 Y-13.0965
G01 X9.7882 Y-13.1060
G01 X9.7921 Y-13.1176
G01 X9.8219 Y-13.1862
G01 X9.8252 Y-13.1927
G01 X9.8290 Y-13.1990
G01 X9.8333 Y-13.2049
G01 X9.8380 Y-13.2106
G01 X9.8467 Y-13.2191
G01 X9.8768 Y-13.2452
G01 X9.8839 Y-13.2508
G01 X9.9642 Y-13.3006
G01 X10.0720 Y-13.4084
G01 X10.1520 Y-13.5381
G01 X10.2019 Y-13.6886
G01 X10.2039 Y-13.6970
G01 X10.2062 Y-13.7039
G01 X10.2100 Y-13.7128
G01 X10.2156 Y-13.7226
G01 X10.2351 Y-13.7696
G01 X10.2412 Y-13.7802
G01 X10.2486 Y-13.7899
G01 X10.2571 Y-13.7987
G01 X10.2666 Y-13.8063
G01 X10.3258 Y-13.8479
G01 X10.3342 Y-13.8529
G01 X10.3454 Y-13.8579
G01 X10.3570 Y-13.8615
G01 X10.3642 Y-13.8630
G01 X10.3715 Y-13.8640
G01 X10.4462 Y-13.8671
G01 X10.4535 Y-13.8672
G01 X10.4657 Y-13.8660
G01 X10.4752 Y-13.8640
G01 X10.4846 Y-13.8610
G01 X10.4935 Y-13.8572
G01 X10.5000 Y-13.8537
G01 X10.5623 Y-13.8171
G01 X10.5683 Y-13.8131
G01 X10.5739 Y-13.8087
G01 X10.5793 Y-13.8039
G01 X10.5858 Y-13.7969
G01 X10.5902 Y-13.7912
G01 X10.5942 Y-13.7853
G01 X10.6263 Y-13.7276
G01 X10.6315 Y-13.7165
G01 X10.6347 Y-13.7072
G01 X10.6428 Y-13.6758
G01 X10.6441 Y-13.6684
G01 X10.6487 Y-13.6319
G01 X10.6489 Y-13.6244
G01 X10.6489 Y-13.5412
G01 X10.6469 Y-13.5174
G01 X10.6489 Y-13.4544
G01 X10.6489 Y-13.4280
G01 X10.6501 Y-13.4145
G01 X10.6513 Y-13.3781
G01 X10.6547 Y-13.3658
G01 X10.6592 Y-13.3442
G01 X10.6615 Y-13.3291
G01 X10.6756 Y-13.2929
G01 X10.6789 Y-13.2830
G01 X10.6885 Y-13.2502
G01 X10.6960 Y-13.2368
G01 X10.7057 Y-13.2170
G01 X10.7105 Y-13.2052
G01 X10.7332 Y-13.1738
G01 X10.7388 Y-13.1650
G01 X10.7562 Y-13.1356
G01 X10.7652 Y-13.1265
G01 X10.7795 Y-13.1097
G01 X10.7887 Y-13.0975
G01 X10.8168 Y-13.0742
G01 X10.8262 Y-13.0656
G01 X11.5677 Y-12.3241
G01 X11.9424 Y-12.3241
G01 X11.9742 Y-12.3225
G01 X12.0080 Y-12.3174
G01 X12.0412 Y-12.3091
G01 X12.0689 Y-12.2993
G01 X12.0778 Y-12.2956
G01 X12.1022 Y-12.2841
G01 X12.1085 Y-12.2806
G01 X12.1337 Y-12.2654
G01 X12.1611 Y-12.2450
G01 X12.1848 Y-12.2237
G01 X12.2094 Y-12.1991
G01 X13.8924 Y-12.1991
G01 X13.9242 Y-12.1975
G01 X13.9580 Y-12.1924
G01 X13.9912 Y-12.1841
G01 X14.0256 Y-12.1717
G01 X14.0543 Y-12.1580
G01 X14.0856 Y-12.1390
G01 X14.1130 Y-12.1185
G01 X14.1347 Y-12.0987
G01 X14.1450 Y-12.0885
G01 X15.6425 Y-12.0883
G01 X15.6518 Y-12.0871
G01 X15.6610 Y-12.0852
G01 X15.7303 Y-12.0648
G01 X15.7418 Y-12.0607
G01 X15.7526 Y-12.0551
G01 X15.7588 Y-12.0512
G01 X15.7647 Y-12.0467
G01 X15.7736 Y-12.0385
G01 X15.8227 Y-11.9820
G01 X15.8273 Y-11.9763
G01 X15.8328 Y-11.9681
G01 X15.8374 Y-11.9594
G01 X15.8411 Y-11.9503
G01 X15.8433 Y-11.9433
G01 X15.8562 Y-11.8847
G01 X15.8573 Y-11.8778
G01 X15.8579 Y-11.8684
G01 X15.8579 Y-11.0852
G01 X15.8575 Y-11.0759
G01 X15.8557 Y-11.0643
G01 X15.8328 Y-10.9858
G01 X15.8281 Y-10.9745
G01 X15.8220 Y-10.9640
G01 X15.8146 Y-10.9542
G01 X15.8061 Y-10.9454
G01 X15.7515 Y-10.8980
G01 X15.7458 Y-10.8935
G01 X15.7355 Y-10.8868
G01 X15.7268 Y-10.8824
G01 X15.7153 Y-10.8782
G01 X15.7034 Y-10.8754
G01 X15.6319 Y-10.8651
G01 X15.6244 Y-10.8643
G01 X15.6169 Y-10.8641
G01 X15.6069 Y-10.8647
G01 X15.5995 Y-10.8658
G01 X15.5884 Y-10.8681
G01 X15.5886 Y-10.4996
G01 X15.5979 Y-10.4866
G01 X15.6102 Y-10.4655
G01 X15.6195 Y-10.4456
G01 X15.6270 Y-10.4250
G01 X15.6326 Y-10.4037
G01 X15.6345 Y-10.3943
G01 X15.6373 Y-10.3749
G01 X15.6384 Y-10.3530
G01 X15.6384 Y-8.6981
G01 X15.6373 Y-8.6762
G01 X15.6345 Y-8.6569
G01 X15.6326 Y-8.6474
G01 X15.6270 Y-8.6261
G01 X15.6195 Y-8.6055
G01 X15.6102 Y-8.5856
G01 X15.5979 Y-8.5646
G01 X15.5884 Y-8.5514
G01 X15.5884 Y-8.5071
G01 X15.5874 Y-8.4951
G01 X15.5855 Y-8.4856
G01 X15.5827 Y-8.4764
G01 X15.5790 Y-8.4675
G01 X15.5744 Y-8.4589
G01 X15.5705 Y-8.4529
G01 X15.5661 Y-8.4471
G01 X15.5613 Y-8.4417
G01 X15.5561 Y-8.4366
G01 X15.5506 Y-8.4319
G01 X15.5427 Y-8.4264
G01 X15.5364 Y-8.4227
G01 X15.5299 Y-8.4196
G01 X15.5232 Y-8.4169
G01 X15.5163 Y-8.4147
G01 X15.5092 Y-8.4130
G01 X15.5021 Y-8.4119
G01 X15.4924 Y-8.4111
G01 X15.4654 Y-8.4111
G01 X15.4654 Y-8.0757
G01 X15.4650 Y-8.0658
G01 X15.4635 Y-8.0563
G01 X15.4635 Y-4.9906
G01 X15.4910 Y-4.9632
G01 X15.6161 Y-4.8875
G01 X15.7571 Y-4.8436
G01 X15.7806 Y-4.8412
G01 X15.7875 Y-4.8398
G01 X15.7943 Y-4.8379
G01 X15.8681 Y-4.8090
G01 X15.8748 Y-4.8059
G01 X15.8812 Y-4.8023
G01 X15.8892 Y-4.7968
G01 X15.8967 Y-4.7905
G01 X15.9019 Y-4.7853
G01 X15.9082 Y-4.7778
G01 X15.9531 Y-4.7152
G01 X15.9567 Y-4.7092
G01 X15.9599 Y-4.7029
G01 X15.9642 Y-4.6919
G01 X15.9671 Y-4.6805
G01 X15.9745 Y-4.6371
G01 X15.9755 Y-4.6300
G01 X15.9759 Y-4.6205
G01 X15.9759 Y-3.2386
G01 X15.9809 Y-3.1719
G01 X15.9851 Y-3.1432
G01 X15.9982 Y-3.0848
G01 X16.0515 Y-2.9704
G01 X16.0820 Y-2.9238
G01 X16.1073 Y-2.8949
G01 X16.1140 Y-2.8853
G01 X16.1186 Y-2.8772
G01 X16.1491 Y-2.8117
G01 X16.1528 Y-2.8027
G01 X16.1556 Y-2.7933
G01 X16.1577 Y-2.7813
G01 X16.1583 Y-2.7715
G01 X16.1580 Y-2.7617
G01 X16.1480 Y-2.6876
G01 X16.1458 Y-2.6761
G01 X16.1430 Y-2.6672
G01 X16.1394 Y-2.6586
G01 X16.1233 Y-2.6298
G01 X16.0569 Y-2.5345
G01 X16.0496 Y-2.5253
G01 X16.0448 Y-2.5203
G01 X16.0377 Y-2.5141
G01 X15.9773 Y-2.4661
G01 X15.9689 Y-2.4610
G01 X15.9579 Y-2.4558
G01 X15.9486 Y-2.4526
G01 X15.9367 Y-2.4500
G01 X15.8599 Y-2.4420
G01 X15.8477 Y-2.4418
G01 X15.8355 Y-2.4431
G01 X15.8236 Y-2.4459
G01 X15.8122 Y-2.4502
G01 X15.7412 Y-2.4861
G01 X15.7331 Y-2.4912
G01 X15.7238 Y-2.4987
G01 X15.7170 Y-2.5054
G01 X15.7081 Y-2.5157
G01 X15.4748 Y-2.2824
G01 X15.4803 Y-2.2707
G01 X15.4830 Y-2.2640
G01 X15.5111 Y-2.1855
G01 X15.5139 Y-2.1762
G01 X15.5352 Y-2.0906
G01 X15.5483 Y-2.0033
G01 X15.5492 Y-1.9937
G01 X15.5534 Y-1.9056
G01 X15.5489 Y-1.8126
G01 X15.5352 Y-1.7205
G01 X15.5139 Y-1.6349
G01 X15.5119 Y-1.6279
G01 X15.4813 Y-1.5426
G01 X15.4436 Y-1.4628
G01 X15.4391 Y-1.4543
G01 X15.3936 Y-1.3786
G01 X15.3411 Y-1.3077
G01 X15.3350 Y-1.3002
G01 X15.2790 Y-1.2384
G01 X15.2722 Y-1.2316
G01 X15.2067 Y-1.1724
G01 X15.1319 Y-1.1170
G01 X15.0521 Y-1.0691
G01 X14.9702 Y-1.0303
G01 X14.9534 Y-1.0240
G01 X14.9534 Y-0.7032
G01 X15.0347 Y-0.7250
G01 X15.2332 Y-0.8175
G01 X15.4126 Y-0.9432
G01 X15.5674 Y-1.0980
G01 X15.6925 Y-1.2766
G01 X15.6997 Y-1.2858
G01 X15.7081 Y-1.2940
G01 X15.7701 Y-1.3436
G01 X15.7805 Y-1.3502
G01 X15.7915 Y-1.3553
G01 X15.8031 Y-1.3591
G01 X15.8151 Y-1.3614
G01 X15.8871 Y-1.3689
G01 X15.8993 Y-1.3694
G01 X15.9090 Y-1.3687
G01 X15.9187 Y-1.3671
G01 X15.9281 Y-1.3645
G01 X15.9372 Y-1.3609
G01 X16.0061 Y-1.3262
G01 X16.0163 Y-1.3199
G01 X16.0256 Y-1.3125
G01 X16.0340 Y-1.3039
G01 X16.0554 Y-1.2787
G01 X16.1822 Y-1.0977
G01 X16.3371 Y-0.9428
G01 X16.5166 Y-0.8171
G01 X16.7151 Y-0.7245
G01 X16.9268 Y-0.6678
G01 X17.1450 Y-0.6487
G01 X17.3632 Y-0.6678
G01 X17.5749 Y-0.7245
G01 X17.7734 Y-0.8171
G01 X17.9529 Y-0.9428
G01 X18.1078 Y-1.0977
G01 X18.2341 Y-1.2781
G01 X18.2416 Y-1.2871
G01 X18.2501 Y-1.2951
G01 X18.3104 Y-1.3432
G01 X18.3208 Y-1.3497
G01 X18.3318 Y-1.3549
G01 X18.3434 Y-1.3587
G01 X18.3554 Y-1.3610
G01 X18.4274 Y-1.3685
G01 X18.4371 Y-1.3690
G01 X18.4469 Y-1.3685
G01 X18.4566 Y-1.3671
G01 X18.4661 Y-1.3648
G01 X18.4775 Y-1.3605
G01 X18.5464 Y-1.3258
G01 X18.5566 Y-1.3195
G01 X18.5659 Y-1.3120
G01 X18.5743 Y-1.3035
G01 X18.5957 Y-1.2782
G01 X18.7222 Y-1.0977
G01 X18.8771 Y-0.9428
G01 X19.0566 Y-0.8171
G01 X19.2551 Y-0.7245
G01 X19.4668 Y-0.6678
G01 X19.6850 Y-0.6487
G01 X19.9032 Y-0.6678
G01 X20.1149 Y-0.7245
G01 X20.3134 Y-0.8171
G01 X20.4929 Y-0.9428
G01 X20.6478 Y-1.0977
G01 X20.7741 Y-1.2781
G01 X20.7816 Y-1.2871
G01 X20.7901 Y-1.2951
G01 X20.8504 Y-1.3432
G01 X20.8608 Y-1.3497
G01 X20.8718 Y-1.3549
G01 X20.8834 Y-1.3587
G01 X20.8954 Y-1.3610
G01 X20.9674 Y-1.3685
G01 X20.9771 Y-1.3690
G01 X20.9869 Y-1.3685
G01 X20.9966 Y-1.3671
G01 X21.0061 Y-1.3648
G01 X21.0175 Y-1.3605
G01 X21.0864 Y-1.3258
G01 X21.0966 Y-1.3195
G01 X21.1059 Y-1.3120
G01 X21.1143 Y-1.3035
G01 X21.1357 Y-1.2782
G01 X21.2622 Y-1.0977
G01 X21.4171 Y-0.9428
G01 X21.5966 Y-0.8171
G01 X21.7951 Y-0.7245
G01 X22.0068 Y-0.6678
G01 X22.2250 Y-0.6487
G01 X22.4432 Y-0.6678
G01 X22.6549 Y-0.7245
G01 X22.8534 Y-0.8171
G01 X23.0329 Y-0.9428
G01 X23.1878 Y-1.0977
G01 X23.3141 Y-1.2781
G01 X23.3216 Y-1.2871
G01 X23.3301 Y-1.2951
G01 X23.3904 Y-1.3432
G01 X23.4008 Y-1.3497
G01 X23.4118 Y-1.3549
G01 X23.4234 Y-1.3587
G01 X23.4354 Y-1.3610
G01 X23.5074 Y-1.3685
G01 X23.5171 Y-1.3690
G01 X23.5269 Y-1.3685
G01 X23.5366 Y-1.3671
G01 X23.5461 Y-1.3648
G01 X23.5575 Y-1.3605
G01 X23.6264 Y-1.3258
G01 X23.6366 Y-1.3195
G01 X23.6459 Y-1.3120
G01 X23.6543 Y-1.3035
G01 X23.6757 Y-1.2782
G01 X23.8022 Y-1.0977
G01 X23.9571 Y-0.9428
G01 X24.1366 Y-0.8171
G01 X24.3351 Y-0.7245
G01 X24.5468 Y-0.6678
G01 X24.7650 Y-0.6487
G01 X24.9832 Y-0.6678
G01 X25.1949 Y-0.7245
G01 X25.3934 Y-0.8171
G01 X25.5729 Y-0.9428
G01 X25.7278 Y-1.0977
G01 X25.8541 Y-1.2781
G01 X25.8616 Y-1.2871
G01 X25.8701 Y-1.2951
G01 X25.9304 Y-1.3432
G01 X25.9408 Y-1.3497
G01 X25.9518 Y-1.3549
G01 X25.9634 Y-1.3587
G01 X25.9754 Y-1.3610
G01 X26.0474 Y-1.3685
G01 X26.0571 Y-1.3690
G01 X26.0669 Y-1.3685
G01 X26.0766 Y-1.3671
G01 X26.0861 Y-1.3648
G01 X26.0975 Y-1.3605
G01 X26.1664 Y-1.3258
G01 X26.1766 Y-1.3195
G01 X26.1859 Y-1.3120
G01 X26.1943 Y-1.3035
G01 X26.2157 Y-1.2782
G01 X26.3422 Y-1.0977
G01 X26.4971 Y-0.9428
G01 X26.6766 Y-0.8171
G01 X26.8751 Y-0.7245
G01 X27.0868 Y-0.6678
G01 X27.3050 Y-0.6487
G01 X27.5232 Y-0.6678
G01 X27.7349 Y-0.7245
G01 X27.9334 Y-0.8171
G01 X28.1129 Y-0.9428
G01 X28.2678 Y-1.0977
G01 X28.3934 Y-1.2771
G01 X28.4860 Y-1.4757
G01 X28.5427 Y-1.6873
G01 X28.5618 Y-1.9056
G01 X28.5427 Y-2.1238
G01 X28.4835 Y-2.3450
G01 X28.4816 Y-2.3552
G01 X28.4771 Y-2.3898
G01 X28.4766 Y-2.4001
G01 X28.4768 Y-2.8046
G01 X28.4779 Y-2.8139
G01 X28.4799 Y-2.8230
G01 X28.5009 Y-2.8947
G01 X28.5054 Y-2.9061
G01 X28.5087 Y-2.9126
G01 X28.5125 Y-2.9189
G01 X28.5199 Y-2.9286
G01 X28.5249 Y-2.9340
G01 X28.5302 Y-2.9390
G01 X28.5849 Y-2.9863
G01 X28.5928 Y-2.9922
G01 X28.6012 Y-2.9973
G01 X28.6124 Y-3.0024
G01 X28.6242 Y-3.0060
G01 X28.6804 Y-3.0182
G01 X28.6896 Y-3.0196
G01 X28.6990 Y-3.0200
G01 X31.8362 Y-3.0200
G01 X33.4326 Y-4.6163
G01 X33.4382 Y-4.6212
G01 X33.4462 Y-4.6271
G01 X33.4957 Y-4.6581
G01 X33.5044 Y-4.6629
G01 X33.5158 Y-4.6677
G01 X33.5846 Y-4.6913
G01 X34.4128 Y-5.5194
G01 X34.4256 Y-5.5488
G01 X34.4325 Y-5.5752
G01 X34.4348 Y-5.5821
G01 X34.4377 Y-5.5887
G01 X34.4735 Y-5.6523
G01 X34.4773 Y-5.6585
G01 X34.4815 Y-5.6643
G01 X34.4895 Y-5.6733
G01 X34.7015 Y-5.8853
G01 X34.7015 Y-11.2991
G01 X34.6152 Y-11.6284
G01 X33.9995 Y-12.2441
G01 X33.9879 Y-12.2480
G01 X33.9769 Y-12.2533
G01 X33.9666 Y-12.2599
G01 X33.9572 Y-12.2677
G01 X33.9521 Y-12.2729
G01 X33.9338 Y-12.2940
G01 X33.5845 Y-12.6433
G01 X33.5154 Y-12.6107
G01 X33.4185 Y-12.5759
G01 X33.4092 Y-12.5731
G01 X33.3117 Y-12.5487
G01 X33.3045 Y-12.5474
G01 X33.2027 Y-12.5324
G01 X33.0950 Y-12.5271
G01 X32.9873 Y-12.5324
G01 X32.8855 Y-12.5474
G01 X32.8783 Y-12.5487
G01 X32.7808 Y-12.5731
G01 X32.7715 Y-12.5759
G01 X32.6746 Y-12.6107
G01 X32.6055 Y-12.6433
G01 X32.2753 Y-12.3128
G01 X32.2201 Y-12.2590
G01 X32.2126 Y-12.2532
G01 X32.2046 Y-12.2482
G01 X32.1961 Y-12.2440
G01 X32.1850 Y-12.2399
G01 X32.1197 Y-12.2235
G01 X32.1102 Y-12.2219
G01 X32.0981 Y-12.2211
G01 X27.5919 Y-12.2211
G01 X27.5849 Y-12.2214
G01 X27.5756 Y-12.2225
G01 X27.5664 Y-12.2245
G01 X27.4924 Y-12.2463
G01 X27.4856 Y-12.2489
G01 X27.4769 Y-12.2533
G01 X27.4686 Y-12.2585
G01 X27.4608 Y-12.2644
G01 X27.4521 Y-12.2729
G01 X27.4338 Y-12.2940
G01 X27.0845 Y-12.6433
G01 X27.0154 Y-12.6107
G01 X26.9185 Y-12.5759
G01 X26.9092 Y-12.5731
G01 X26.8140 Y-12.5493
G01 X26.8045 Y-12.5474
G01 X26.7027 Y-12.5324
G01 X26.5998 Y-12.5272
G01 X26.5902 Y-12.5272
G01 X26.4873 Y-12.5324
G01 X26.3807 Y-12.5482
G01 X26.2761 Y-12.5744
G01 X26.1769 Y-12.6098
G01 X26.1702 Y-12.6127
G01 X26.0772 Y-12.6568
G01 X25.9847 Y-12.7122
G01 X25.8982 Y-12.7764
G01 X25.8183 Y-12.8488
G01 X25.7459 Y-12.9287
G01 X25.6817 Y-13.0153
G01 X25.6263 Y-13.1078
G01 X25.5821 Y-13.2008
G01 X25.5784 Y-13.2097
G01 X25.5454 Y-13.3021
G01 X25.5426 Y-13.3114
G01 X25.5177 Y-13.4113
G01 X25.5024 Y-13.5131
G01 X25.5015 Y-13.5227
G01 X25.4966 Y-13.6256
G01 X25.5015 Y-13.7284
G01 X25.5024 Y-13.7380
G01 X25.5177 Y-13.8399
G01 X25.5438 Y-13.9444
G01 X25.5802 Y-14.0459
G01 X25.6251 Y-14.1412
G01 X25.6286 Y-14.1476
G01 X25.6817 Y-14.2358
G01 X25.7429 Y-14.3186
G01 X25.7490 Y-14.3261
G01 X25.8149 Y-14.3988
G01 X25.8218 Y-14.4056
G01 X25.8982 Y-14.4747
G01 X25.9847 Y-14.5389
G01 X26.0772 Y-14.5943
G01 X26.1746 Y-14.6404
G01 X26.2761 Y-14.6767
G01 X26.3807 Y-14.7029
G01 X26.4873 Y-14.7187
G01 X26.5902 Y-14.7239
G01 X26.5974 Y-14.7240
G01 X26.7027 Y-14.7187
G01 X26.8045 Y-14.7037
G01 X26.8140 Y-14.7018
G01 X26.9092 Y-14.6780
G01 X26.9185 Y-14.6752
G01 X27.0154 Y-14.6404
G01 X27.0845 Y-14.6078
G01 X27.3093 Y-14.8326
G01 X27.1599 Y-14.9135
G01 X26.9402 Y-14.9889
G01 X26.7111 Y-15.0271
G01 X26.4789 Y-15.0271
G01 X26.2498 Y-14.9889
G01 X26.0301 Y-14.9135
G01 X25.9857 Y-14.8895
G01 X25.9793 Y-14.8865
G01 X25.9705 Y-14.8833
G01 X25.9615 Y-14.8809
G01 X25.8883 Y-14.8654
G01 X25.8811 Y-14.8645
G01 X25.8713 Y-14.8641
G01 X25.8615 Y-14.8647
G01 X25.8543 Y-14.8658
G01 X25.8471 Y-14.8674
G01 X25.8401 Y-14.8696
G01 X25.7702 Y-14.8960
G01 X25.7592 Y-14.9013
G01 X25.7489 Y-14.9079
G01 X25.7395 Y-14.9157
G01 X25.7312 Y-14.9247
G01 X25.6837 Y-14.9886
G01 X25.6775 Y-14.9992
G01 X25.6728 Y-15.0104
G01 X25.6699 Y-15.0198
G01 X25.6678 Y-15.0318
G01 X25.6624 Y-15.1112
G01 X25.6625 Y-15.1185
G01 X25.6632 Y-15.1258
G01 X25.6644 Y-15.1330
G01 X25.6662 Y-15.1401
G01 X25.6693 Y-15.1493
G01 X25.6734 Y-15.1582
G01 X25.7079 Y-15.2212
G01 X25.7141 Y-15.2311
G01 X25.7214 Y-15.2401
G01 X26.1376 Y-15.6565
G01 X26.1466 Y-15.6641
G01 X26.1563 Y-15.6705
G01 X26.2197 Y-15.7051
G01 X26.2284 Y-15.7093
G01 X26.2375 Y-15.7127
G01 X26.2492 Y-15.7156
G01 X26.2880 Y-15.7199
G01 X35.4355 Y-15.7200
G01 X35.4425 Y-15.7198
G01 X35.4495 Y-15.7190
G01 X35.4610 Y-15.7167
G01 X35.5326 Y-15.6956
G01 X35.5395 Y-15.6931
G01 X35.5462 Y-15.6901
G01 X35.5526 Y-15.6866
G01 X35.5608 Y-15.6812
G01 X35.5684 Y-15.6751
G01 X35.5736 Y-15.6700
G01 X35.6243 Y-15.6117
G01 X35.6288 Y-15.6058
G01 X35.6340 Y-15.5975
G01 X35.6374 Y-15.5909
G01 X35.6403 Y-15.5841
G01 X35.6439 Y-15.5724
G01 X35.6562 Y-15.5162
G01 X35.6575 Y-15.5069
G01 X35.6579 Y-15.4976
G01 X35.6579 Y-0.1251
G01 X35.6577 Y-0.1180
G01 X35.6569 Y-0.1111
G01 X35.6546 Y-0.0996
G01 X35.6336 Y-0.0279
G01 X35.6311 Y-0.0211
G01 X35.6281 Y-0.0144
G01 X35.6246 Y-0.0079
G01 X35.6192 Y0.0002
G01 X35.6146 Y0.0060
G01 X35.6079 Y0.0131
G01 X35.5496 Y0.0637
G01 X35.5437 Y0.0682
G01 X35.5354 Y0.0735
G01 X35.5244 Y0.0788
G01 X35.5174 Y0.0814
G01 X35.5103 Y0.0834
G01 X35.4541 Y0.0956
G01 X35.4449 Y0.0969
G01 X35.4355 Y0.0974
G01 X29.3489 Y0.0974
G01 X29.3350 Y0.0979
G01 X14.6050 Y0.0979
G01 X14.5911 Y0.0974
G01 X13.2504 Y0.0974
G01 X13.2387 Y0.0967
G01 X13.2318 Y0.0956
G01 X13.2249 Y0.0940
G01 X13.1556 Y0.0737
G01 X13.1464 Y0.0705
G01 X13.1375 Y0.0664
G01 X13.1312 Y0.0627
G01 X13.1232 Y0.0571
G01 X13.1157 Y0.0508
G01 X13.1090 Y0.0437
G01 X13.0632 Y-0.0091
G01 X13.0558 Y-0.0188
G01 X13.0496 Y-0.0293
G01 X13.0457 Y-0.0383
G01 X13.0420 Y-0.0499
G01 X13.0402 Y-0.0595
G01 X13.0299 Y-0.1311
G01 X13.0292 Y-0.1430
G01 X13.0300 Y-0.1550
G01 X13.0311 Y-0.1621
G01 X13.0328 Y-0.1691
G01 X13.0367 Y-0.1804
G01 X13.0648 Y-0.2440
G01 X13.0692 Y-0.2527
G01 X13.0731 Y-0.2590
G01 X13.0774 Y-0.2649
G01 X13.0869 Y-0.2764
G01 X13.0956 Y-0.2858
G01 X13.6393 Y-0.8295
G01 X13.6462 Y-0.8358
G01 X13.6518 Y-0.8401
G01 X13.6617 Y-0.8463
G01 X13.7252 Y-0.8809
G01 X13.7364 Y-0.8858
G01 X13.7434 Y-0.8881
G01 X13.7505 Y-0.8898
G01 X13.7626 Y-0.8915
G01 X13.7748 Y-0.8917
G01 X13.8469 Y-0.8866
G01 X13.8541 Y-0.8858
G01 X13.8611 Y-0.8845
G01 X13.8726 Y-0.8812
G01 X13.8814 Y-0.8776
G01 X13.9179 Y-0.8585
G01 X13.9242 Y-0.8544
G01 X13.9768 Y-0.8176
G01 X14.1753 Y-0.7250
G01 X14.2566 Y-0.7032
G01 X14.2566 Y-1.0240
G01 X14.2398 Y-1.0303
G01 X14.1579 Y-1.0691
G01 X14.0781 Y-1.1170
G01 X14.0033 Y-1.1724
G01 X13.9378 Y-1.2316
G01 X13.9310 Y-1.2384
G01 X13.8718 Y-1.3039
G01 X13.8192 Y-1.3747
G01 X13.8138 Y-1.3827
G01 X13.7709 Y-1.4543
G01 X13.7664 Y-1.4628
G01 X13.7287 Y-1.5426
G01 X13.6989 Y-1.6257
G01 X13.6961 Y-1.6349
G01 X13.6758 Y-1.7158
G01 X13.6739 Y-1.7253
G01 X13.6611 Y-1.8126
G01 X13.6567 Y-1.9007
G01 X13.6567 Y-1.9104
G01 X13.6611 Y-1.9985
G01 X13.6739 Y-2.0858
G01 X13.6758 Y-2.0953
G01 X13.6974 Y-2.1809
G01 X13.7287 Y-2.2685
G01 X13.7685 Y-2.3527
G01 X13.8164 Y-2.4325
G01 X13.8718 Y-2.5073
G01 X13.9310 Y-2.5727
G01 X13.9378 Y-2.5795
G01 X14.0033 Y-2.6387
G01 X14.0781 Y-2.6942
G01 X14.1537 Y-2.7396
G01 X14.1622 Y-2.7442
G01 X14.2420 Y-2.7818
G01 X14.3297 Y-2.8132
G01 X14.4200 Y-2.8358
G01 X14.5120 Y-2.8494
G01 X14.6050 Y-2.8540
G01 X14.6980 Y-2.8494
G01 X14.7900 Y-2.8358
G01 X14.8803 Y-2.8132
G01 X14.9657 Y-2.7827
G01 X14.9819 Y-2.7754
G01 X15.2106 Y-3.0041
G01 X15.1139 Y-3.0492
G01 X15.1036 Y-3.0548
G01 X15.0977 Y-3.0587
G01 X15.0904 Y-3.0645
G01 X15.0380 Y-3.1107
G01 X15.0310 Y-3.1175
G01 X15.0232 Y-3.1270
G01 X15.0179 Y-3.1352
G01 X15.0134 Y-3.1439
G01 X15.0098 Y-3.1529
G01 X14.9886 Y-3.2271
G01 X14.9866 Y-3.2366
G01 X14.9856 Y-3.2462
G01 X14.9857 Y-3.2582
G01 X14.9872 Y-3.2702
G01 X15.0020 Y-3.3320
G01 X15.0042 Y-3.3391
G01 X15.0070 Y-3.3461
G01 X15.0165 Y-3.3653
G01 X15.0165 Y-6.4405
G01 X14.9890 Y-6.4680
G01 X14.8443 Y-6.5552
G01 X14.8340 Y-6.5633
G01 X14.7837 Y-6.6065
G01 X14.7767 Y-6.6132
G01 X14.7703 Y-6.6206
G01 X14.7634 Y-6.6306
G01 X14.7588 Y-6.6392
G01 X14.7551 Y-6.6482
G01 X14.7329 Y-6.7222
G01 X14.7304 Y-6.7341
G01 X14.7295 Y-6.7439
G01 X14.7296 Y-6.7536
G01 X14.7306 Y-6.7634
G01 X14.7326 Y-6.7729
G01 X14.7366 Y-6.7867
G01 X14.7366 Y-6.8610
G01 X14.7375 Y-6.8744
G01 X14.7449 Y-6.9201
G01 X14.7469 Y-6.9279
G01 X14.7614 Y-6.9980
G01 X14.7784 Y-7.0700
G01 X14.7790 Y-7.0751
G01 X14.7792 Y-7.0776
G01 X14.7771 Y-7.1515
G01 X14.7771 Y-7.2408
G01 X14.7777 Y-7.2501
G01 X14.7816 Y-7.2771
G01 X14.7731 Y-7.2855
G01 X14.7622 Y-7.2974
G01 X14.7577 Y-7.3031
G01 X14.7454 Y-7.3201
G01 X14.7336 Y-7.3403
G01 X14.7247 Y-7.3593
G01 X14.7168 Y-7.3813
G01 X14.7111 Y-7.4040
G01 X14.7083 Y-7.4224
G01 X14.7075 Y-7.4296
G01 X14.7066 Y-7.4506
G01 X14.7066 Y-7.7906
G01 X14.7077 Y-7.8139
G01 X14.7111 Y-7.8371
G01 X14.7168 Y-7.8598
G01 X14.7247 Y-7.8818
G01 X14.7336 Y-7.9008
G01 X14.7454 Y-7.9210
G01 X14.7577 Y-7.9380
G01 X14.7622 Y-7.9437
G01 X14.7731 Y-7.9557
G01 X14.7816 Y-7.9640
G01 X14.7777 Y-7.9911
G01 X14.7771 Y-8.0026
G01 X14.7771 Y-8.1662
G01 X14.7788 Y-8.1914
G01 X14.7812 Y-8.2085
G01 X14.7775 Y-8.2512
G01 X14.7771 Y-8.2655
G01 X14.7736 Y-8.2953
G01 X14.7708 Y-8.3272
G01 X14.7705 Y-8.3365
G01 X14.7708 Y-8.3436
G01 X14.7719 Y-8.3529
G01 X14.7872 Y-8.4284
G01 X14.7910 Y-8.4401
G01 X14.7950 Y-8.4490
G01 X14.8012 Y-8.4595
G01 X14.8086 Y-8.4692
G01 X14.8606 Y-8.5229
G01 X14.8658 Y-8.5280
G01 X14.8715 Y-8.5326
G01 X14.8774 Y-8.5368
G01 X14.8837 Y-8.5406
G01 X14.8916 Y-8.5445
G01 X14.8916 Y-8.5514
G01 X14.8821 Y-8.5646
G01 X14.8698 Y-8.5856
G01 X14.8605 Y-8.6055
G01 X14.8530 Y-8.6261
G01 X14.8474 Y-8.6474
G01 X14.8455 Y-8.6569
G01 X14.8427 Y-8.6762
G01 X14.8416 Y-8.6981
G01 X14.8416 Y-10.3506
G01 X14.8427 Y-10.3749
G01 X14.8467 Y-10.4009
G01 X13.7456 Y-11.5020
G01 X12.0650 Y-11.5020
G01 X12.0332 Y-11.5035
G01 X11.9970 Y-11.5087
G01 X11.9638 Y-11.5170
G01 X11.9316 Y-11.5285
G01 X11.9007 Y-11.5431
G01 X11.8713 Y-11.5607
G01 X11.8458 Y-11.5796
G01 X11.8202 Y-11.6024
G01 X11.7956 Y-11.6270
G01 X9.9040 Y-11.6270
G01 X9.8722 Y-11.6285
G01 X9.8524 Y-11.6311
G01 X9.8454 Y-11.6200
G01 X9.8279 Y-11.5964
G01 X9.8034 Y-11.5692
G01 X9.7781 Y-11.5462
G01 X9.7545 Y-11.5286
G01 X9.7465 Y-11.5233
G01 X9.7213 Y-11.5083
G01 X9.6948 Y-11.4956
G01 X9.6858 Y-11.4919
G01 X9.6605 Y-11.4828
G01 X9.6250 Y-11.4738
G01 X9.5959 Y-11.4694
G01 X9.5863 Y-11.4684
G01 X9.5570 Y-11.4671
G01 X6.5546 Y-11.4671
G01 X6.5228 Y-11.4688
G01 X6.4938 Y-11.4730
G01 X6.4843 Y-11.4749
G01 X6.4582 Y-11.4814
G01 X6.4513 Y-11.4836
G01 X6.4237 Y-11.4936
G01 X6.3927 Y-11.5083
G01 X6.3634 Y-11.5258
G01 X6.3398 Y-11.5432
G01 X6.3341 Y-11.5478
G01 X6.3141 Y-11.5658
G01 X6.3073 Y-11.5727
G01 X6.2876 Y-11.5945
G01 X6.2673 Y-11.6220
G01 X6.2497 Y-11.6513
G01 X6.2370 Y-11.6778
G01 X6.2333 Y-11.6867
G01 X6.2228 Y-11.7171
G01 X5.9109 Y-11.7171
G01 X5.9143 Y-11.6836
G01 X5.9625 Y-11.5383
G01 X6.0424 Y-11.4087
G01 X6.1501 Y-11.3010
G01 X6.2264 Y-11.2539
G01 X6.2321 Y-11.2499
G01 X6.2376 Y-11.2455
G01 X6.2459 Y-11.2372
G01 X6.2958 Y-11.1816
G01 X6.3016 Y-11.1737
G01 X6.3066 Y-11.1653
G01 X6.3116 Y-11.1541
G01 X6.3146 Y-11.1448
G01 X6.3166 Y-11.1353
G01 X6.3278 Y-11.0663
G01 X6.3287 Y-11.0590
G01 X6.3291 Y-11.0517
G01 X6.3287 Y-11.0419
G01 X6.3274 Y-11.0322
G01 X6.3251 Y-11.0227
G01 X6.3219 Y-11.0135
G01 X6.2911 Y-10.9427
G01 X6.2850 Y-10.9321
G01 X6.2776 Y-10.9224
G01 X6.2727 Y-10.9170
G01 X6.2673 Y-10.9120
G01 X6.2372 Y-10.8859
G01 X6.2301 Y-10.8803
G01 X6.1498 Y-10.8305
G01 X6.0420 Y-10.7227
G01 X5.9620 Y-10.5930
G01 X5.9138 Y-10.4476
G01 X5.9049 Y-10.3606
G01 X5.9049 Y-9.7706
G01 X5.9138 Y-9.6835
G01 X5.9620 Y-9.5381
G01 X6.0420 Y-9.4084
G01 X6.1498 Y-9.3006
G01 X6.2264 Y-9.2533
G01 X6.2321 Y-9.2493
G01 X6.2393 Y-9.2433
G01 X6.2459 Y-9.2366
G01 X6.2926 Y-9.1847
G01 X6.2973 Y-9.1791
G01 X6.3016 Y-9.1731
G01 X6.3066 Y-9.1647
G01 X6.3107 Y-9.1558
G01 X6.3139 Y-9.1466
G01 X6.3157 Y-9.1395
G01 X6.3278 Y-9.0657
G01 X6.3287 Y-9.0584
G01 X6.3291 Y-9.0511
G01 X6.3287 Y-9.0413
G01 X6.3274 Y-9.0317
G01 X6.3251 Y-9.0222
G01 X6.3219 Y-9.0129
G01 X6.2911 Y-8.9421
G01 X6.2850 Y-8.9316
G01 X6.2776 Y-8.9218
G01 X6.2727 Y-8.9164
G01 X6.2673 Y-8.9114
G01 X6.2372 Y-8.8853
G01 X6.2301 Y-8.8797
G01 X6.1501 Y-8.8301
G01 X6.0424 Y-8.7224
G01 X5.9625 Y-8.5928
G01 X5.9143 Y-8.4475
G01 X5.9109 Y-8.4140
G01 X6.2228 Y-8.4140
G01 X6.2333 Y-8.4444
G01 X6.2370 Y-8.4533
G01 X6.2497 Y-8.4798
G01 X6.2673 Y-8.5092
G01 X6.2847 Y-8.5328
G01 X6.2908 Y-8.5403
G01 X6.3106 Y-8.5620
G01 X6.3359 Y-8.5849
G01 X6.3634 Y-8.6053
G01 X6.3885 Y-8.6205
G01 X6.3971 Y-8.6250
G01 X6.4237 Y-8.6375
G01 X6.4559 Y-8.6490
G01 X6.4843 Y-8.6563
G01 X6.4938 Y-8.6581
G01 X6.5253 Y-8.6625
G01 X6.5570 Y-8.6640
G01 X9.5570 Y-8.6640
G01 X9.5912 Y-8.6623
G01 X9.6202 Y-8.6581
G01 X9.6273 Y-8.6568
G01 X9.6535 Y-8.6503
G01 X9.6627 Y-8.6475
G01 X9.6903 Y-8.6375
G01 X9.7213 Y-8.6229
G01 X9.7506 Y-8.6053
G01 X9.7742 Y-8.5879
G01 X9.7799 Y-8.5834
G01 X9.7999 Y-8.5653
G01 X9.8067 Y-8.5585
G01 X9.8264 Y-8.5366
G01 X9.8467 Y-8.5092
G01 X9.8643 Y-8.4798
G01 X9.8770 Y-8.4533
G01 X9.8807 Y-8.4444
G01 X9.8912 Y-8.4140
G01 X10.1929 Y-8.4140
G01 X10.2021 Y-8.4233
G01 X10.1997 Y-8.4475
G01 X10.1927 Y-8.4693
G01 X10.1912 Y-8.4762
G01 X10.1900 Y-8.4855
G01 X10.1873 Y-8.5624
G01 X10.1877 Y-8.5722
G01 X10.1895 Y-8.5843
G01 X10.1913 Y-8.5914
G01 X10.1937 Y-8.5983
G01 X10.1965 Y-8.6051
G01 X10.1999 Y-8.6116
G01 X10.2381 Y-8.6759
G01 X10.2437 Y-8.6839
G01 X10.2518 Y-8.6930
G01 X10.2591 Y-8.6996
G01 X10.2649 Y-8.7040
G01 X10.2711 Y-8.7080
G01 X10.2775 Y-8.7115
G01 X10.3444 Y-8.7448
G01 X10.3513 Y-8.7475
G01 X10.3583 Y-8.7497
G01 X10.3702 Y-8.7521
G01 X10.3800 Y-8.7530
G01 X10.3922 Y-8.7527
G01 X10.4688 Y-8.7443
G01 X10.4782 Y-8.7423
G01 X10.4873 Y-8.7395
G01 X10.4962 Y-8.7357
G01 X10.5084 Y-8.7295
G01 X10.7006 Y-8.9217
G01 X10.7006 Y-8.9795
G01 X10.6752 Y-8.9887
G01 X10.6465 Y-9.0023
G01 X10.6193 Y-9.0186
G01 X10.5976 Y-9.0346
G01 X10.5920 Y-9.0391
G01 X10.5738 Y-9.0555
G01 X10.5670 Y-9.0623
G01 X10.5490 Y-9.0824
G01 X10.5301 Y-9.1079
G01 X10.5137 Y-9.1351
G01 X10.5021 Y-9.1594
G01 X10.4984 Y-9.1683
G01 X10.4895 Y-9.1937
G01 X10.4828 Y-9.2197
G01 X10.4813 Y-9.2268
G01 X10.4774 Y-9.2535
G01 X10.4756 Y-9.2876
G01 X10.4756 Y-9.7376
G01 X10.4774 Y-9.7717
G01 X10.4818 Y-9.8007
G01 X10.4895 Y-9.8315
G01 X10.5002 Y-9.8613
G01 X10.5116 Y-9.8857
G01 X10.5149 Y-9.8922
G01 X10.5275 Y-9.9132
G01 X10.5328 Y-9.9212
G01 X10.5490 Y-9.9428
G01 X10.5686 Y-9.9645
G01 X10.5938 Y-9.9876
G01 X10.6154 Y-10.0037
G01 X10.6213 Y-10.0078
G01 X10.6423 Y-10.0204
G01 X10.6508 Y-10.0250
G01 X10.6752 Y-10.0364
G01 X10.7051 Y-10.0471
G01 X10.7359 Y-10.0548
G01 X10.7649 Y-10.0592
G01 X10.7990 Y-10.0610
G01 X11.2990 Y-10.0610
G01 X11.3307 Y-10.0595
G01 X11.3621 Y-10.0548
G01 X11.3882 Y-10.0484
G01 X11.3975 Y-10.0456
G01 X11.4228 Y-10.0364
G01 X11.4472 Y-10.0250
G01 X11.4557 Y-10.0204
G01 X11.4787 Y-10.0065
G01 X11.5004 Y-9.9906
G01 X11.5079 Y-9.9844
G01 X11.5277 Y-9.9663
G01 X11.5459 Y-9.9464
G01 X11.5520 Y-9.9389
G01 X11.5679 Y-9.9173
G01 X11.5819 Y-9.8942
G01 X11.5864 Y-9.8857
G01 X11.5987 Y-9.8591
G01 X11.6085 Y-9.8315
G01 X11.6162 Y-9.8007
G01 X11.6209 Y-9.7693
G01 X11.6224 Y-9.7400
G01 X11.6224 Y-9.2876
G01 X11.6209 Y-9.2559
G01 X11.6171 Y-9.2292
G01 X11.6152 Y-9.2197
G01 X11.6085 Y-9.1937
G01 X11.5996 Y-9.1683
G01 X11.5959 Y-9.1594
G01 X11.5843 Y-9.1351
G01 X11.5705 Y-9.1119
G01 X11.5652 Y-9.1039
G01 X11.5475 Y-9.0805
G01 X11.5277 Y-9.0588
G01 X11.5079 Y-9.0407
G01 X11.5004 Y-9.0346
G01 X11.4787 Y-9.0186
G01 X11.4557 Y-9.0047
G01 X11.4472 Y-9.0001
G01 X11.4228 Y-8.9887
G01 X11.3974 Y-8.9795
G01 X11.3974 Y-8.5088
G01 X11.3964 Y-8.4968
G01 X11.3940 Y-8.4856
G01 X11.3913 Y-8.4509
G01 X11.3894 Y-8.4413
G01 X11.3865 Y-8.4319
G01 X11.3838 Y-8.4251
G01 X11.3806 Y-8.4185
G01 X11.3769 Y-8.4122
G01 X11.3727 Y-8.4062
G01 X11.3294 Y-8.3483
G01 X11.3230 Y-8.3410
G01 X11.3142 Y-8.3329
G01 X11.3064 Y-8.3272
G01 X11.2981 Y-8.3222
G01 X11.2540 Y-8.3002
G01 X11.2446 Y-8.2964
G01 X11.2282 Y-8.2915
G01 X11.1104 Y-8.2219
G01 X11.0137 Y-8.1251
G01 X10.9440 Y-8.0073
G01 X10.9329 Y-7.9690
G01 X11.2871 Y-7.9690
G01 X11.2956 Y-7.9764
G01 X11.3145 Y-7.9901
G01 X11.3326 Y-8.0009
G01 X11.3515 Y-8.0099
G01 X11.3712 Y-8.0172
G01 X11.3804 Y-8.0200
G01 X11.3985 Y-8.0244
G01 X11.4192 Y-8.0276
G01 X11.4450 Y-8.0290
G01 X11.7250 Y-8.0290
G01 X11.7484 Y-8.0279
G01 X11.7715 Y-8.0244
G01 X11.7896 Y-8.0200
G01 X11.7965 Y-8.0180
G01 X11.8163 Y-8.0109
G01 X11.8353 Y-8.0020
G01 X11.8416 Y-7.9985
G01 X11.8575 Y-7.9888
G01 X11.8763 Y-7.9749
G01 X11.8919 Y-7.9609
G01 X11.8969 Y-7.9557
G01 X11.9093 Y-7.9418
G01 X11.9233 Y-7.9230
G01 X11.9341 Y-7.9051
G01 X11.9375 Y-7.8987
G01 X11.9453 Y-7.8818
G01 X11.9517 Y-7.8644
G01 X11.9545 Y-7.8551
G01 X11.9593 Y-7.8347
G01 X11.9623 Y-7.8139
G01 X11.9634 Y-7.7930
G01 X11.9634 Y-7.4506
G01 X11.9627 Y-7.4320
G01 X11.9620 Y-7.4248
G01 X11.9593 Y-7.4064
G01 X11.9545 Y-7.3860
G01 X11.9517 Y-7.3768
G01 X11.9462 Y-7.3616
G01 X11.9433 Y-7.3549
G01 X11.9341 Y-7.3360
G01 X11.9219 Y-7.3161
G01 X11.9078 Y-7.2974
G01 X11.8953 Y-7.2837
G01 X11.8904 Y-7.2789
G01 X11.9104 Y-7.2096
G01 X11.9196 Y-7.1614
G01 X11.9205 Y-7.1546
G01 X11.9209 Y-7.1454
G01 X11.9209 Y-6.8257
G01 X11.9207 Y-6.8182
G01 X11.9194 Y-6.8082
G01 X11.9128 Y-6.7762
G01 X11.9119 Y-6.7688
G01 X11.9105 Y-6.7617
G01 X11.8904 Y-6.6922
G01 X11.8953 Y-6.6874
G01 X11.9062 Y-6.6755
G01 X11.9123 Y-6.6680
G01 X11.9246 Y-6.6510
G01 X11.9364 Y-6.6308
G01 X11.9453 Y-6.6118
G01 X11.9532 Y-6.5898
G01 X11.9589 Y-6.5671
G01 X11.9617 Y-6.5487
G01 X11.9625 Y-6.5415
G01 X11.9634 Y-6.5206
G01 X11.9634 Y-6.1781
G01 X11.9623 Y-6.1572
G01 X11.9589 Y-6.1340
G01 X11.9532 Y-6.1113
G01 X11.9443 Y-6.0871
G01 X11.9353 Y-6.0682
G01 X11.9219 Y-6.0461
G01 X11.9078 Y-6.0274
G01 X11.8953 Y-6.0137
G01 X11.8904 Y-6.0089
G01 X11.9104 Y-5.9396
G01 X11.9196 Y-5.8914
G01 X11.9207 Y-5.8823
G01 X11.9209 Y-5.8754
G01 X11.9208 Y-5.3111
G01 X11.9196 Y-5.2995
G01 X11.9176 Y-5.2903
G01 X11.8973 Y-5.2210
G01 X11.8950 Y-5.2141
G01 X11.8922 Y-5.2075
G01 X11.8877 Y-5.1989
G01 X11.8824 Y-5.1908
G01 X11.8628 Y-5.1663
G01 X11.8558 Y-5.1585
G01 X9.9201 Y-3.2228
G01 X9.9113 Y-3.2150
G01 X9.9037 Y-3.2096
G01 X9.8363 Y-3.1725
G01 X9.8254 Y-3.1674
G01 X9.8162 Y-3.1643
G01 X9.8044 Y-3.1616
G01 X9.7680 Y-3.1578
G01 X8.6324 Y-3.1576
G01 X8.5903 Y-3.1531
G01 X8.4803 Y-3.1121
G01 X8.3878 Y-3.0428
G01 X8.3185 Y-2.9502
G01 X8.2775 Y-2.8402
G01 X8.2730 Y-2.7982
G01 X8.2729 Y-1.0130
G01 X8.2775 Y-0.9709
G01 X8.3185 Y-0.8609
G01 X8.3878 Y-0.7683
G01 X8.4803 Y-0.6991
G01 X8.5903 Y-0.6580
G01 X8.6324 Y-0.6535
G01 X9.9419 Y-0.6535
G01 X9.9536 Y-0.6525
G01 X9.9650 Y-0.6502
G01 X10.0389 Y-0.6284
G01 X10.0457 Y-0.6257
G01 X10.0522 Y-0.6226
G01 X10.0626 Y-0.6164
G01 X10.0890 Y-0.5954
G01 X10.0950 Y-0.5902
G01 X10.3638 Y-0.3214
G01 X10.3693 Y-0.3154
G01 X10.3811 Y-0.3012
G01 X10.4010 Y-0.2822
G01 X10.4055 Y-0.2769
G01 X10.4097 Y-0.2713
G01 X10.4513 Y-0.2008
G01 X10.4544 Y-0.1942
G01 X10.4578 Y-0.1850
G01 X10.4598 Y-0.1780
G01 X10.4612 Y-0.1708
G01 X10.4623 Y-0.1611
G01 X10.4625 Y-0.1537
G01 X10.4593 Y-0.0766
G01 X10.4579 Y-0.0669
G01 X10.4556 Y-0.0574
G01 X10.4524 Y-0.0482
G01 X10.4494 Y-0.0415
G01 X10.4458 Y-0.0351
G01 X10.4419 Y-0.0289
G01 X10.3989 Y0.0322
G01 X10.3941 Y0.0379
G01 X10.3890 Y0.0431
G01 X10.3835 Y0.0480
G01 X10.3757 Y0.0538
G01 X10.3673 Y0.0588
G01 X10.3607 Y0.0620
G01 X10.2871 Y0.0919
G01 X10.2779 Y0.0944
G01 X10.2686 Y0.0960
G01 X10.2437 Y0.0974
G01 X0.1245 Y0.0974
G01 X0.1175 Y0.0971
G01 X0.1105 Y0.0964
G01 X0.0990 Y0.0940
G01 X0.0274 Y0.0730
G01 X0.0205 Y0.0705
G01 X0.0138 Y0.0675
G01 X0.0053 Y0.0627
G01 X-0.0008 Y0.0586
G01 X-0.0084 Y0.0524
G01 X-0.0136 Y0.0473
G01 X-0.0643 Y-0.0110
G01 X-0.0688 Y-0.0168
G01 X-0.0728 Y-0.0230
G01 X-0.0763 Y-0.0295
G01 X-0.0794 Y-0.0362
G01 X-0.0819 Y-0.0431
G01 X-0.0839 Y-0.0502
G01 X-0.0962 Y-0.1064
G01 X-0.0973 Y-0.1134
G01 X-0.0979 Y-0.1227
G01 X-0.0979 Y-4.7383
G01 X-0.0977 Y-4.7453
G01 X-0.0969 Y-4.7523
G01 X-0.0946 Y-4.7638
G01 X-0.0728 Y-4.8377
G01 X-0.0681 Y-4.8490
G01 X-0.0620 Y-4.8596
G01 X-0.0546 Y-4.8693
G01 X-0.0461 Y-4.8781
G01 X0.0123 Y-4.9286
G01 X0.0224 Y-4.9355
G01 X0.0310 Y-4.9401
G01 X0.0400 Y-4.9438
G01 X0.0518 Y-4.9472
G01 X0.0590 Y-4.9485
G01 X0.1306 Y-4.9588
G01 X0.1403 Y-4.9595
G01 X0.1525 Y-4.9589
G01 X0.1598 Y-4.9579
G01 X0.1669 Y-4.9563
G01 X0.1763 Y-4.9534
G01 X0.1830 Y-4.9506
G01 X0.2509 Y-4.9195
G01 X0.2612 Y-4.9133
G01 X0.2706 Y-4.9060
G01 X0.2791 Y-4.8976
G01 X0.3097 Y-4.8613
G01 X0.3138 Y-4.8551
G01 X0.3424 Y-4.8087
G01 X0.4501 Y-4.7010
G01 X0.5798 Y-4.6210
G01 X0.7250 Y-4.5729
G01 X0.8120 Y-4.5640
G01 X1.9586 Y-4.5640
G01 X1.9586 Y-4.8671
G01 X0.8570 Y-4.8671
G01 X0.8228 Y-4.8688
G01 X0.7890 Y-4.8738
G01 X0.7559 Y-4.8821
G01 X0.7237 Y-4.8936
G01 X0.6927 Y-4.9083
G01 X0.6634 Y-4.9258
G01 X0.6359 Y-4.9462
G01 X0.6106 Y-4.9692
G01 X0.5892 Y-4.9927
G01 X0.5701 Y-5.0180
G01 X0.5647 Y-5.0261
G01 X0.5497 Y-5.0513
G01 X0.5351 Y-5.0822
G01 X0.5236 Y-5.1144
G01 X0.5163 Y-5.1429
G01 X0.5144 Y-5.1523
G01 X0.5100 Y-5.1838
G01 X0.5086 Y-5.2156
G01 X0.5086 Y-6.2156
G01 X0.5102 Y-6.2497
G01 X0.5144 Y-6.2788
G01 X0.5163 Y-6.2883
G01 X0.5229 Y-6.3144
G01 X0.5251 Y-6.3213
G01 X0.5351 Y-6.3489
G01 X0.5497 Y-6.3798
G01 X0.5673 Y-6.4092
G01 X0.5876 Y-6.4366
G01 X0.6106 Y-6.4620
G01 X0.6323 Y-6.4818
G01 X0.6398 Y-6.4879
G01 X0.6614 Y-6.5039
G01 X0.6675 Y-6.5079
G01 X0.6927 Y-6.5229
G01 X0.7237 Y-6.5375
G01 X0.7559 Y-6.5490
G01 X0.7843 Y-6.5563
G01 X0.7938 Y-6.5581
G01 X0.8228 Y-6.5623
G01 X0.8570 Y-6.5640
G01 X1.9586 Y-6.5640
G01 X1.9586 Y-6.8671
G01 X0.8120 Y-6.8671
G01 X0.7250 Y-6.8582
G01 X0.5798 Y-6.8101
G01 X0.4501 Y-6.7301
G01 X0.3424 Y-6.6224
G01 X0.3126 Y-6.5741
G01 X0.3085 Y-6.5683
G01 X0.3025 Y-6.5611
G01 X0.2959 Y-6.5545
G01 X0.2383 Y-6.5031
G01 X0.2303 Y-6.4975
G01 X0.2217 Y-6.4928
G01 X0.2128 Y-6.4889
G01 X0.2035 Y-6.4859
G01 X0.1939 Y-6.4838
G01 X0.1201 Y-6.4720
G01 X0.1103 Y-6.4714
G01 X0.0981 Y-6.4720
G01 X0.0861 Y-6.4741
G01 X0.0767 Y-6.4768
G01 X0.0699 Y-6.4795
G01 X0.0036 Y-6.5083
G01 X-0.0072 Y-6.5142
G01 X-0.0152 Y-6.5198
G01 X-0.0208 Y-6.5245
G01 X-0.0261 Y-6.5296
G01 X-0.0340 Y-6.5389
G01 X-0.0769 Y-6.6030
G01 X-0.0817 Y-6.6113
G01 X-0.0847 Y-6.6178
G01 X-0.0879 Y-6.6268
G01 X-0.0903 Y-6.6361
G01 X-0.0972 Y-6.6804
G01 X-0.0979 Y-6.6928
G01 X-0.0979 Y-17.4383
G00 Z2.0000
G00 X5.8026 Y-23.9345
G01 F60.00
G01 Z-0.1500
G01 F240.00
G01 X5.7994 Y-23.9411
G01 X5.7967 Y-23.9479
G01 X5.7933 Y-23.9597
G01 X5.7920 Y-23.9669
G01 X5.7912 Y-23.9742
G01 X5.7912 Y-23.9864
G01 X5.7970 Y-24.0585
G01 X5.7982 Y-24.0682
G01 X5.8005 Y-24.0777
G01 X5.8046 Y-24.0892
G01 X5.8089 Y-24.0980
G01 X5.8140 Y-24.1063
G01 X5.8623 Y-24.1696
G01 X5.8673 Y-24.1750
G01 X5.8726 Y-24.1800
G01 X5.8783 Y-24.1847
G01 X5.8843 Y-24.1889
G01 X5.8928 Y-24.1937
G01 X5.9017 Y-24.1977
G01 X5.9719 Y-24.2232
G01 X5.9788 Y-24.2252
G01 X5.9859 Y-24.2267
G01 X5.9930 Y-24.2277
G01 X6.0002 Y-24.2282
G01 X6.0109 Y-24.2285
G01 X10.4193 Y-24.2285
G01 X10.4264 Y-24.2281
G01 X10.4333 Y-24.2271
G01 X10.4447 Y-24.2245
G01 X10.5141 Y-24.2041
G01 X10.5233 Y-24.2007
G01 X10.5341 Y-24.1951
G01 X10.5403 Y-24.1912
G01 X10.5462 Y-24.1867
G01 X10.5551 Y-24.1785
G01 X10.6042 Y-24.1220
G01 X10.6117 Y-24.1123
G01 X10.6167 Y-24.1038
G01 X10.6199 Y-24.0972
G01 X10.6226 Y-24.0903
G01 X10.6248 Y-24.0833
G01 X10.6377 Y-24.0247
G01 X10.6392 Y-24.0131
G01 X10.6394 Y-23.6996
G01 X10.6388 Y-23.6879
G01 X10.6377 Y-23.6809
G01 X10.6361 Y-23.6741
G01 X10.6151 Y-23.6024
G01 X10.6116 Y-23.5933
G01 X10.6061 Y-23.5824
G01 X10.5992 Y-23.5723
G01 X10.5945 Y-23.5667
G01 X10.5894 Y-23.5614
G01 X10.5330 Y-23.5124
G01 X10.5252 Y-23.5063
G01 X10.5169 Y-23.5010
G01 X10.5081 Y-23.4966
G01 X10.4989 Y-23.4931
G01 X10.4894 Y-23.4906
G01 X10.4379 Y-23.4794
G01 X10.4287 Y-23.4778
G01 X10.4217 Y-23.4772
G01 X9.8734 Y-23.4771
G01 X9.8734 Y-23.1740
G01 X10.3750 Y-23.1740
G01 X10.3822 Y-23.1737
G01 X10.3894 Y-23.1729
G01 X10.3966 Y-23.1716
G01 X10.4059 Y-23.1690
G01 X10.4127 Y-23.1665
G01 X10.4214 Y-23.1624
G01 X10.4297 Y-23.1574
G01 X10.4356 Y-23.1532
G01 X10.4411 Y-23.1485
G01 X10.4479 Y-23.1417
G01 X10.4541 Y-23.1342
G01 X10.4582 Y-23.1282
G01 X10.4618 Y-23.1220
G01 X10.4660 Y-23.1132
G01 X10.4685 Y-23.1064
G01 X10.4711 Y-23.0971
G01 X10.4724 Y-23.0900
G01 X10.4733 Y-23.0804
G01 X10.4734 Y-21.3756
G01 X10.4727 Y-21.3635
G01 X10.4711 Y-21.3540
G01 X10.4692 Y-21.3470
G01 X10.4669 Y-21.3401
G01 X10.4640 Y-21.3335
G01 X10.4607 Y-21.3270
G01 X10.4569 Y-21.3209
G01 X10.4526 Y-21.3150
G01 X10.4479 Y-21.3094
G01 X10.4429 Y-21.3043
G01 X10.4375 Y-21.2995
G01 X10.4317 Y-21.2951
G01 X10.4256 Y-21.2911
G01 X10.4193 Y-21.2876
G01 X10.4127 Y-21.2846
G01 X10.4059 Y-21.2821
G01 X10.3989 Y-21.2801
G01 X10.3918 Y-21.2786
G01 X10.3846 Y-21.2776
G01 X10.3750 Y-21.2771
G01 X9.9986 Y-21.2771
G01 X9.9986 Y-20.9740
G01 X10.4176 Y-20.9740
G01 X10.4596 Y-20.9785
G01 X10.5694 Y-21.0195
G01 X10.6619 Y-21.0887
G01 X10.7311 Y-21.1811
G01 X10.7752 Y-21.2994
G01 X10.7779 Y-21.3059
G01 X10.7810 Y-21.3122
G01 X10.7846 Y-21.3183
G01 X10.7886 Y-21.3240
G01 X10.8320 Y-21.3819
G01 X10.8384 Y-21.3893
G01 X10.8474 Y-21.3975
G01 X10.8533 Y-21.4019
G01 X10.8594 Y-21.4059
G01 X10.8659 Y-21.4093
G01 X10.8726 Y-21.4123
G01 X10.9427 Y-21.4385
G01 X10.9544 Y-21.4417
G01 X10.9641 Y-21.4433
G01 X10.9714 Y-21.4438
G01 X10.9787 Y-21.4438
G01 X10.9909 Y-21.4425
G01 X11.0640 Y-21.4267
G01 X11.0735 Y-21.4241
G01 X11.0851 Y-21.4196
G01 X11.0959 Y-21.4136
G01 X11.1020 Y-21.4093
G01 X11.1358 Y-21.3838
G01 X11.2571 Y-21.2628
G01 X11.4366 Y-21.1371
G01 X11.5276 Y-21.0945
G01 X11.5534 Y-21.0793
G01 X11.5617 Y-21.0738
G01 X12.7429 Y-20.4356
G01 X12.7530 Y-20.4293
G01 X12.7856 Y-20.4051
G01 X12.7928 Y-20.3988
G01 X13.1310 Y-20.0605
G01 X13.1370 Y-20.0532
G01 X13.1434 Y-20.0435
G01 X13.1781 Y-19.9801
G01 X13.1832 Y-19.9692
G01 X13.1856 Y-19.9623
G01 X13.1875 Y-19.9553
G01 X13.1896 Y-19.9434
G01 X13.1926 Y-19.9145
G01 X13.1929 Y-19.9066
G01 X13.1929 Y-16.0704
G01 X13.1923 Y-16.0587
G01 X13.1902 Y-16.0472
G01 X13.1736 Y-15.9905
G01 X13.1736 Y-14.4731
G01 X13.1714 Y-14.4291
G01 X13.1654 Y-14.3879
G01 X13.1635 Y-14.3784
G01 X13.1532 Y-14.3381
G01 X13.1393 Y-14.2988
G01 X13.1356 Y-14.2899
G01 X13.1177 Y-14.2523
G01 X13.0984 Y-14.2199
G01 X13.0984 Y-13.6506
G01 X13.0973 Y-13.6262
G01 X13.0941 Y-13.6045
G01 X13.0878 Y-13.5784
G01 X13.0795 Y-13.5555
G01 X13.0691 Y-13.5334
G01 X13.0566 Y-13.5125
G01 X13.0421 Y-13.4929
G01 X13.0257 Y-13.4749
G01 X13.0076 Y-13.4585
G01 X12.9880 Y-13.4440
G01 X12.9713 Y-13.4338
G01 X12.9628 Y-13.4293
G01 X12.9451 Y-13.4210
G01 X12.9267 Y-13.4143
G01 X12.9175 Y-13.4115
G01 X12.8985 Y-13.4069
G01 X12.8719 Y-13.4031
G01 X12.8500 Y-13.4021
G01 X12.5500 Y-13.4021
G01 X12.5256 Y-13.4033
G01 X12.4992 Y-13.4074
G01 X12.4779 Y-13.4128
G01 X12.4594 Y-13.4193
G01 X12.4505 Y-13.4230
G01 X12.4329 Y-13.4314
G01 X12.4161 Y-13.4414
G01 X12.4080 Y-13.4468
G01 X12.3924 Y-13.4585
G01 X12.3743 Y-13.4749
G01 X12.3579 Y-13.4929
G01 X12.3462 Y-13.5086
G01 X12.3408 Y-13.5166
G01 X12.3309 Y-13.5334
G01 X12.3224 Y-13.5511
G01 X12.3187 Y-13.5600
G01 X12.3122 Y-13.5784
G01 X12.3063 Y-13.6021
G01 X12.3027 Y-13.6262
G01 X12.3016 Y-13.6506
G01 X12.3016 Y-14.2199
G01 X12.2823 Y-14.2523
G01 X12.2644 Y-14.2899
G01 X12.2607 Y-14.2988
G01 X12.2468 Y-14.3381
G01 X12.2365 Y-14.3784
G01 X12.2346 Y-14.3879
G01 X12.2286 Y-14.4291
G01 X12.2264 Y-14.4731
G01 X12.2264 Y-16.0367
G01 X12.2231 Y-16.0494
G01 X12.2217 Y-16.0568
G01 X12.2208 Y-16.0642
G01 X12.2206 Y-16.0717
G01 X12.2206 Y-17.3593
G01 X9.6321 Y-19.9976
G01 X9.5977 Y-20.0100
G01 X9.5557 Y-20.0299
G01 X9.5159 Y-20.0537
G01 X9.4767 Y-20.0830
G01 X9.4441 Y-20.1127
G01 X9.1901 Y-20.3667
G01 X9.1589 Y-20.4011
G01 X9.1312 Y-20.4384
G01 X9.1073 Y-20.4783
G01 X9.0874 Y-20.5203
G01 X9.0733 Y-20.5595
G01 X9.0700 Y-20.5704
G01 X9.0420 Y-20.5992
G01 X9.0361 Y-20.6065
G01 X9.0297 Y-20.6163
G01 X8.9957 Y-20.6800
G01 X8.9925 Y-20.6866
G01 X8.9898 Y-20.6934
G01 X8.9876 Y-20.7004
G01 X8.9859 Y-20.7075
G01 X8.9848 Y-20.7148
G01 X8.9841 Y-20.7245
G01 X8.9843 Y-20.7319
G01 X8.9901 Y-20.8040
G01 X8.9918 Y-20.8161
G01 X8.9950 Y-20.8278
G01 X8.9997 Y-20.8391
G01 X9.0032 Y-20.8456
G01 X9.0071 Y-20.8518
G01 X9.0514 Y-20.9100
G01 X9.0514 Y-21.2771
G01 X8.6750 Y-21.2771
G01 X8.6678 Y-21.2774
G01 X8.6582 Y-21.2786
G01 X8.6464 Y-21.2814
G01 X8.6373 Y-21.2846
G01 X8.6286 Y-21.2887
G01 X8.6203 Y-21.2937
G01 X8.6125 Y-21.2995
G01 X8.6037 Y-21.3077
G01 X8.5974 Y-21.3150
G01 X8.5931 Y-21.3209
G01 X8.5893 Y-21.3270
G01 X8.5860 Y-21.3335
G01 X8.5831 Y-21.3401
G01 X8.5808 Y-21.3470
G01 X8.5784 Y-21.3564
G01 X8.5773 Y-21.3635
G01 X8.5767 Y-21.3707
G01 X8.5766 Y-21.8771
G01 X8.2630 Y-21.8771
G01 X8.2498 Y-21.8319
G01 X8.2466 Y-21.8227
G01 X8.2436 Y-21.8160
G01 X8.2388 Y-21.8075
G01 X8.2347 Y-21.8014
G01 X8.2285 Y-21.7938
G01 X8.2198 Y-21.7853
G01 X8.1670 Y-21.7395
G01 X8.1593 Y-21.7335
G01 X8.1510 Y-21.7282
G01 X8.1423 Y-21.7238
G01 X8.1308 Y-21.7196
G01 X8.1213 Y-21.7173
G01 X8.0425 Y-21.7059
G01 X8.0352 Y-21.7055
G01 X8.0279 Y-21.7057
G01 X8.0157 Y-21.7071
G01 X8.0039 Y-21.7100
G01 X7.9925 Y-21.7144
G01 X7.9267 Y-21.7445
G01 X7.9201 Y-21.7480
G01 X7.9119 Y-21.7534
G01 X7.9042 Y-21.7596
G01 X7.8922 Y-21.7709
G01 X5.8521 Y-23.8503
G01 X5.8444 Y-23.8591
G01 X5.8378 Y-23.8688
G01 X5.8026 Y-23.9345
G00 Z2.0000
G00 X8.5766 Y-23.0756
G01 F60.00
G01 Z-0.1500
G01 F240.00
G01 X8.5766 Y-22.5740
G01 X8.2734 Y-22.5740
G01 X8.2734 Y-23.1181
G01 X8.2780 Y-23.1601
G01 X8.3189 Y-23.2700
G01 X8.3881 Y-23.3624
G01 X8.4806 Y-23.4316
G01 X8.5904 Y-23.4726
G01 X8.6324 Y-23.4771
G01 X9.1766 Y-23.4771
G01 X9.1766 Y-23.1740
G01 X8.6750 Y-23.1740
G01 X8.6678 Y-23.1737
G01 X8.6582 Y-23.1726
G01 X8.6511 Y-23.1711
G01 X8.6418 Y-23.1683
G01 X8.6329 Y-23.1646
G01 X8.6265 Y-23.1612
G01 X8.6183 Y-23.1561
G01 X8.6107 Y-23.1501
G01 X8.6054 Y-23.1452
G01 X8.5989 Y-23.1380
G01 X8.5945 Y-23.1323
G01 X8.5893 Y-23.1241
G01 X8.5850 Y-23.1155
G01 X8.5823 Y-23.1087
G01 X8.5795 Y-23.0995
G01 X8.5780 Y-23.0924
G01 X8.5770 Y-23.0852
G01 X8.5766 Y-23.0756
G00 Z2.0000
G00 X7.9909 Y-21.5516
G01 F60.00
G01 Z-0.1500
G01 F240.00
G01 X8.0064 Y-21.5494
G01 X8.0254 Y-21.5481
G01 X8.0445 Y-21.5482
G01 X8.0635 Y-21.5498
G01 X8.1389 Y-21.5605
G01 X8.1515 Y-21.5627
G01 X8.1639 Y-21.5654
G01 X8.1762 Y-21.5688
G01 X8.1942 Y-21.5749
G01 X8.2059 Y-21.5798
G01 X8.2174 Y-21.5852
G01 X8.2341 Y-21.5944
G01 X8.2501 Y-21.6048
G01 X8.2653 Y-21.6164
G01 X8.3229 Y-21.6662
G01 X8.3369 Y-21.6792
G01 X8.3456 Y-21.6885
G01 X8.3539 Y-21.6981
G01 X8.3616 Y-21.7082
G01 X8.3695 Y-21.7196
G01 X8.4190 Y-21.7196
G01 X8.4190 Y-21.3756
G01 X8.4193 Y-21.3630
G01 X8.4203 Y-21.3505
G01 X8.4228 Y-21.3318
G01 X8.4267 Y-21.3134
G01 X8.4319 Y-21.2953
G01 X8.4385 Y-21.2776
G01 X8.4464 Y-21.2605
G01 X8.4523 Y-21.2494
G01 X8.4622 Y-21.2334
G01 X8.4732 Y-21.2181
G01 X8.4853 Y-21.2037
G01 X8.4940 Y-21.1946
G01 X8.5031 Y-21.1859
G01 X8.5126 Y-21.1777
G01 X8.5225 Y-21.1700
G01 X8.5381 Y-21.1593
G01 X8.5488 Y-21.1528
G01 X8.5599 Y-21.1469
G01 X8.5770 Y-21.1391
G01 X8.5888 Y-21.1346
G01 X8.6007 Y-21.1306
G01 X8.6189 Y-21.1258
G01 X8.6312 Y-21.1234
G01 X8.6437 Y-21.1215
G01 X8.6562 Y-21.1203
G01 X8.6687 Y-21.1197
G01 X8.8938 Y-21.1196
G01 X8.8938 Y-20.9632
G01 X8.8810 Y-20.9462
G01 X8.8738 Y-20.9358
G01 X8.8671 Y-20.9249
G01 X8.8610 Y-20.9138
G01 X8.8554 Y-20.9024
G01 X8.8504 Y-20.8907
G01 X8.8460 Y-20.8788
G01 X8.8405 Y-20.8605
G01 X8.8376 Y-20.8481
G01 X8.8353 Y-20.8356
G01 X8.8331 Y-20.8167
G01 X8.8270 Y-20.7407
G01 X8.8266 Y-20.7280
G01 X8.8271 Y-20.7094
G01 X8.8166 Y-20.7287
G01 X8.7810 Y-20.7847
G01 X8.7739 Y-20.7949
G01 X8.7662 Y-20.8047
G01 X8.7580 Y-20.8141
G01 X8.7495 Y-20.8231
G01 X8.0831 Y-21.4893
G01 X8.0687 Y-21.5020
G01 X8.0586 Y-21.5099
G01 X8.0482 Y-21.5172
G01 X8.0373 Y-21.5240
G01 X7.9909 Y-21.5516
G00 Z2.0000
G00 X10.7885 Y-23.0320
G01 F60.00
G01 Z-0.1500
G01 F240.00
G01 X10.8158 Y-23.0031
G01 X10.8231 Y-22.9959
G01 X10.8382 Y-22.9820
G01 X10.8540 Y-22.9689
G01 X10.8621 Y-22.9627
G01 X10.8789 Y-22.9508
G01 X10.8874 Y-22.9451
G01 X10.8962 Y-22.9397
G01 X10.9140 Y-22.9295
G01 X10.9231 Y-22.9247
G01 X10.9416 Y-22.9159
G01 X10.9606 Y-22.9080
G01 X10.9702 Y-22.9044
G01 X10.9952 Y-22.8964
G01 X10.9607 Y-22.8388
G01 X10.9507 Y-22.8212
G01 X10.9416 Y-22.8030
G01 X10.9059 Y-22.7276
G01 X10.8939 Y-22.6997
G01 X10.8590 Y-22.6020
G01 X10.8505 Y-22.5728
G01 X10.8302 Y-22.4919
G01 X10.8258 Y-22.4721
G01 X10.8223 Y-22.4521
G01 X10.8101 Y-22.3695
G01 X10.8076 Y-22.3494
G01 X10.8061 Y-22.3292
G01 X10.8020 Y-22.2459
G01 X10.8015 Y-22.2256
G01 X10.8020 Y-22.2053
G01 X10.8061 Y-22.1220
G01 X10.8076 Y-22.1017
G01 X10.8101 Y-22.0816
G01 X10.8223 Y-21.9991
G01 X10.8258 Y-21.9791
G01 X10.8302 Y-21.9593
G01 X10.8505 Y-21.8784
G01 X10.8590 Y-21.8491
G01 X10.8941 Y-21.7509
G01 X10.8694 Y-21.7452
G01 X10.8497 Y-21.7395
G01 X10.8303 Y-21.7328
G01 X10.7885 Y-21.7172
G01 X10.7885 Y-23.0320
G00 Z2.0000
G00 X10.7930 Y-23.6549
G01 F60.00
G01 Z-0.1500
G01 F240.00
G01 X10.7930 Y-23.4004
G01 X10.7937 Y-23.3824
G01 X10.7948 Y-23.3705
G01 X10.7965 Y-23.3587
G01 X10.8000 Y-23.3410
G01 X10.8149 Y-23.2790
G01 X10.8204 Y-23.2608
G01 X10.8273 Y-23.2431
G01 X10.8355 Y-23.2259
G01 X10.8416 Y-23.2148
G01 X10.8483 Y-23.2041
G01 X10.8555 Y-23.1937
G01 X10.8632 Y-23.1836
G01 X10.8757 Y-23.1693
G01 X10.9235 Y-23.1183
G01 X10.9371 Y-23.1049
G01 X10.9466 Y-23.0966
G01 X10.9617 Y-23.0849
G01 X10.9723 Y-23.0778
G01 X10.9832 Y-23.0713
G01 X10.9944 Y-23.0652
G01 X11.0058 Y-23.0598
G01 X11.0176 Y-23.0549
G01 X11.0295 Y-23.0506
G01 X11.0478 Y-23.0452
G01 X11.1218 Y-23.0268
G01 X11.1343 Y-23.0243
G01 X11.1468 Y-23.0224
G01 X11.1595 Y-23.0212
G01 X11.1722 Y-23.0206
G01 X11.1849 Y-23.0206
G01 X11.1976 Y-23.0213
G01 X11.2165 Y-23.0235
G01 X11.2353 Y-23.0270
G01 X11.2537 Y-23.0320
G01 X11.3259 Y-23.0563
G01 X11.3436 Y-23.0630
G01 X11.2921 Y-23.0163
G01 X11.2830 Y-23.0076
G01 X11.2743 Y-22.9985
G01 X11.2183 Y-22.9367
G01 X11.2101 Y-22.9272
G01 X11.2023 Y-22.9173
G01 X11.1527 Y-22.8503
G01 X11.1454 Y-22.8400
G01 X11.1387 Y-22.8294
G01 X11.0958 Y-22.7578
G01 X11.0896 Y-22.7469
G01 X11.0840 Y-22.7357
G01 X11.0483 Y-22.6603
G01 X11.0432 Y-22.6488
G01 X11.0387 Y-22.6371
G01 X11.0106 Y-22.5585
G01 X11.0067 Y-22.5466
G01 X11.0033 Y-22.5345
G01 X10.9830 Y-22.4536
G01 X10.9803 Y-22.4413
G01 X10.9781 Y-22.4289
G01 X10.9659 Y-22.3464
G01 X10.9644 Y-22.3340
G01 X10.9634 Y-22.3214
G01 X10.9593 Y-22.2381
G01 X10.9590 Y-22.2256
G01 X10.9593 Y-22.2130
G01 X10.9634 Y-22.1297
G01 X10.9644 Y-22.1172
G01 X10.9659 Y-22.1047
G01 X10.9781 Y-22.0222
G01 X10.9803 Y-22.0098
G01 X10.9830 Y-21.9975
G01 X11.0033 Y-21.9166
G01 X11.0067 Y-21.9045
G01 X11.0106 Y-21.8926
G01 X11.0387 Y-21.8140
G01 X11.0432 Y-21.8023
G01 X11.0483 Y-21.7908
G01 X11.0840 Y-21.7154
G01 X11.0896 Y-21.7042
G01 X11.0958 Y-21.6933
G01 X11.1387 Y-21.6217
G01 X11.1454 Y-21.6111
G01 X11.1527 Y-21.6008
G01 X11.2075 Y-21.5272
G01 X11.1859 Y-21.5429
G01 X11.1695 Y-21.5531
G01 X11.1523 Y-21.5620
G01 X11.1345 Y-21.5696
G01 X11.1223 Y-21.5739
G01 X11.1037 Y-21.5792
G01 X11.0292 Y-21.5955
G01 X11.0104 Y-21.5989
G01 X10.9978 Y-21.6003
G01 X10.9787 Y-21.6013
G01 X10.9660 Y-21.6012
G01 X10.9470 Y-21.5998
G01 X10.9344 Y-21.5982
G01 X10.9219 Y-21.5958
G01 X10.9034 Y-21.5912
G01 X10.8853 Y-21.5852
G01 X10.8198 Y-21.5608
G01 X10.8022 Y-21.5535
G01 X10.7908 Y-21.5479
G01 X10.7743 Y-21.5384
G01 X10.7584 Y-21.5278
G01 X10.7435 Y-21.5160
G01 X10.7340 Y-21.5075
G01 X10.7250 Y-21.4986
G01 X10.7122 Y-21.4843
G01 X10.7044 Y-21.4744
G01 X10.6625 Y-21.4184
G01 X10.6521 Y-21.4034
G01 X10.6457 Y-21.3930
G01 X10.6372 Y-21.3769
G01 X10.6306 Y-21.3622
G01 X10.6310 Y-21.3756
G01 X10.6310 Y-23.0756
G01 X10.6307 Y-23.0881
G01 X10.6297 Y-23.1007
G01 X10.6272 Y-23.1193
G01 X10.6233 Y-23.1378
G01 X10.6181 Y-23.1559
G01 X10.6115 Y-23.1735
G01 X10.6036 Y-23.1906
G01 X10.5946 Y-23.2072
G01 X10.5843 Y-23.2230
G01 X10.5729 Y-23.2379
G01 X10.5604 Y-23.2521
G01 X10.5469 Y-23.2652
G01 X10.5325 Y-23.2774
G01 X10.5172 Y-23.2884
G01 X10.5012 Y-23.2983
G01 X10.4844 Y-23.3070
G01 X10.4671 Y-23.3144
G01 X10.4465 Y-23.3213
G01 X10.4594 Y-23.3231
G01 X10.4714 Y-23.3254
G01 X10.5229 Y-23.3366
G01 X10.5354 Y-23.3397
G01 X10.5476 Y-23.3433
G01 X10.5597 Y-23.3476
G01 X10.5715 Y-23.3524
G01 X10.5831 Y-23.3579
G01 X10.5944 Y-23.3639
G01 X10.6054 Y-23.3705
G01 X10.6160 Y-23.3776
G01 X10.6263 Y-23.3852
G01 X10.6361 Y-23.3933
G01 X10.6889 Y-23.4391
G01 X10.6983 Y-23.4476
G01 X10.7073 Y-23.4567
G01 X10.7158 Y-23.4661
G01 X10.7238 Y-23.4760
G01 X10.7313 Y-23.4862
G01 X10.7384 Y-23.4968
G01 X10.7448 Y-23.5078
G01 X10.7535 Y-23.5247
G01 X10.7609 Y-23.5423
G01 X10.7669 Y-23.5604
G01 X10.7882 Y-23.6333
G01 X10.7930 Y-23.6549
G00 Z2.0000
G00 X10.9506 Y-24.0061
G01 F60.00
G01 Z-0.1500
G01 F240.00
G01 X10.9512 Y-24.0178
G01 X10.9533 Y-24.0293
G01 X10.9757 Y-24.1055
G01 X10.9804 Y-24.1168
G01 X10.9852 Y-24.1253
G01 X10.9923 Y-24.1352
G01 X10.9989 Y-24.1425
G01 X11.0042 Y-24.1475
G01 X11.0589 Y-24.1948
G01 X11.0689 Y-24.2021
G01 X11.0774 Y-24.2069
G01 X11.0887 Y-24.2117
G01 X11.0982 Y-24.2145
G01 X11.1544 Y-24.2267
G01 X11.1660 Y-24.2283
G01 X12.9618 Y-24.2285
G01 X12.9735 Y-24.2275
G01 X12.9850 Y-24.2252
G01 X13.0543 Y-24.2048
G01 X13.0612 Y-24.2025
G01 X13.0724 Y-24.1975
G01 X13.0808 Y-24.1925
G01 X13.0887 Y-24.1867
G01 X13.0976 Y-24.1785
G01 X13.1483 Y-24.1202
G01 X13.1542 Y-24.1123
G01 X13.1603 Y-24.1016
G01 X13.1651 Y-24.0903
G01 X13.1679 Y-24.0809
G01 X13.1802 Y-24.0247
G01 X13.1813 Y-24.0178
G01 X13.1818 Y-24.0107
G01 X13.1818 Y-23.3940
G01 X13.1809 Y-23.3846
G01 X13.1786 Y-23.3732
G01 X13.1583 Y-23.3039
G01 X13.1560 Y-23.2969
G01 X13.1531 Y-23.2902
G01 X13.1473 Y-23.2794
G01 X13.1402 Y-23.2695
G01 X13.1319 Y-23.2605
G01 X13.0755 Y-23.2115
G01 X13.0698 Y-23.2069
G01 X13.0637 Y-23.2027
G01 X13.0574 Y-23.1990
G01 X13.0508 Y-23.1958
G01 X13.0393 Y-23.1916
G01 X13.0274 Y-23.1888
G01 X12.9534 Y-23.1781
G01 X12.9462 Y-23.1776
G01 X12.9389 Y-23.1775
G01 X12.9292 Y-23.1783
G01 X12.9219 Y-23.1795
G01 X12.9148 Y-23.1812
G01 X12.9056 Y-23.1844
G01 X12.8500 Y-23.2064
G01 X12.8377 Y-23.2127
G01 X12.6932 Y-23.3136
G01 X12.4947 Y-23.4061
G01 X12.4134 Y-23.4279
G01 X12.4134 Y-23.1071
G01 X12.4302 Y-23.1009
G01 X12.5121 Y-23.0620
G01 X12.5878 Y-23.0168
G01 X12.5959 Y-23.0114
G01 X12.6667 Y-22.9587
G01 X12.7322 Y-22.8995
G01 X12.7390 Y-22.8927
G01 X12.7950 Y-22.8309
G01 X12.8011 Y-22.8234
G01 X12.8536 Y-22.7525
G01 X12.9015 Y-22.6727
G01 X12.9382 Y-22.5953
G01 X13.6117 Y-21.3487
G01 X14.3082 Y-20.6520
G01 X14.3330 Y-20.6247
G01 X14.3391 Y-20.6172
G01 X14.3638 Y-20.5837
G01 X14.3853 Y-20.5480
G01 X14.3899 Y-20.5395
G01 X14.4076 Y-20.5018
G01 X14.4232 Y-20.4581
G01 X14.4345 Y-20.4130
G01 X14.4408 Y-20.3718
G01 X14.4417 Y-20.3622
G01 X14.4436 Y-20.3206
G01 X14.4436 Y-14.4731
G01 X14.4414 Y-14.4291
G01 X14.4354 Y-14.3879
G01 X14.4335 Y-14.3784
G01 X14.4232 Y-14.3381
G01 X14.4093 Y-14.2988
G01 X14.4056 Y-14.2899
G01 X14.3877 Y-14.2523
G01 X14.3684 Y-14.2199
G01 X14.3684 Y-13.6506
G01 X14.3673 Y-13.6262
G01 X14.3632 Y-13.5997
G01 X14.3578 Y-13.5784
G01 X14.3513 Y-13.5600
G01 X14.3476 Y-13.5511
G01 X14.3391 Y-13.5334
G01 X14.3292 Y-13.5166
G01 X14.3238 Y-13.5086
G01 X14.3121 Y-13.4929
G01 X14.2990 Y-13.4784
G01 X14.2922 Y-13.4715
G01 X14.2776 Y-13.4585
G01 X14.2620 Y-13.4468
G01 X14.2539 Y-13.4414
G01 X14.2371 Y-13.4314
G01 X14.2195 Y-13.4230
G01 X14.2106 Y-13.4193
G01 X14.1921 Y-13.4128
G01 X14.1732 Y-13.4079
G01 X14.1637 Y-13.4061
G01 X14.1444 Y-13.4033
G01 X14.1224 Y-13.4021
G01 X13.8200 Y-13.4021
G01 X13.7956 Y-13.4033
G01 X13.7763 Y-13.4061
G01 X13.7692 Y-13.4074
G01 X13.7525 Y-13.4115
G01 X13.7433 Y-13.4143
G01 X13.7249 Y-13.4210
G01 X13.7072 Y-13.4293
G01 X13.6987 Y-13.4338
G01 X13.6820 Y-13.4440
G01 X13.6624 Y-13.4585
G01 X13.6478 Y-13.4715
G01 X13.6410 Y-13.4784
G01 X13.6279 Y-13.4929
G01 X13.6162 Y-13.5086
G01 X13.6108 Y-13.5166
G01 X13.6009 Y-13.5334
G01 X13.5905 Y-13.5555
G01 X13.5822 Y-13.5784
G01 X13.5774 Y-13.5974
G01 X13.5755 Y-13.6069
G01 X13.5727 Y-13.6262
G01 X13.5716 Y-13.6506
G01 X13.5716 Y-14.2199
G01 X13.5523 Y-14.2523
G01 X13.5344 Y-14.2899
G01 X13.5307 Y-14.2988
G01 X13.5168 Y-14.3381
G01 X13.5055 Y-14.3832
G01 X13.4992 Y-14.4243
G01 X13.4983 Y-14.4340
G01 X13.4964 Y-14.4756
G01 X13.4964 Y-20.1244
G01 X12.9419 Y-20.6788
G01 X11.6977 Y-21.3513
G01 X11.6179 Y-21.3891
G01 X11.5422 Y-21.4344
G01 X11.5341 Y-21.4397
G01 X11.4633 Y-21.4924
G01 X11.3943 Y-21.5549
G01 X11.3318 Y-21.6239
G01 X11.2764 Y-21.6986
G01 X11.2285 Y-21.7785
G01 X11.1887 Y-21.8626
G01 X11.1574 Y-21.9502
G01 X11.1358 Y-22.0358
G01 X11.1339 Y-22.0453
G01 X11.1211 Y-22.1326
G01 X11.1167 Y-22.2207
G01 X11.1167 Y-22.2304
G01 X11.1208 Y-22.3137
G01 X11.1217 Y-22.3233
G01 X11.1348 Y-22.4106
G01 X11.1561 Y-22.4962
G01 X11.1589 Y-22.5055
G01 X11.1887 Y-22.5885
G01 X11.2264 Y-22.6683
G01 X11.2309 Y-22.6769
G01 X11.2738 Y-22.7484
G01 X11.2792 Y-22.7564
G01 X11.3318 Y-22.8273
G01 X11.3910 Y-22.8927
G01 X11.3978 Y-22.8995
G01 X11.4633 Y-22.9587
G01 X11.5381 Y-23.0142
G01 X11.6179 Y-23.0620
G01 X11.6998 Y-23.1009
G01 X11.7166 Y-23.1071
G01 X11.7166 Y-23.4279
G01 X11.6353 Y-23.4061
G01 X11.4368 Y-23.3136
G01 X11.3006 Y-23.2182
G01 X11.2927 Y-23.2132
G01 X11.2843 Y-23.2089
G01 X11.2778 Y-23.2063
G01 X11.2071 Y-23.1825
G01 X11.1952 Y-23.1796
G01 X11.1830 Y-23.1782
G01 X11.1708 Y-23.1783
G01 X11.1587 Y-23.1799
G01 X11.0862 Y-23.1980
G01 X11.0791 Y-23.2001
G01 X11.0723 Y-23.2026
G01 X11.0656 Y-23.2057
G01 X11.0571 Y-23.2106
G01 X11.0511 Y-23.2147
G01 X11.0454 Y-23.2193
G01 X11.0401 Y-23.2244
G01 X10.9905 Y-23.2771
G01 X10.9828 Y-23.2865
G01 X10.9774 Y-23.2946
G01 X10.9719 Y-23.3055
G01 X10.9678 Y-23.3169
G01 X10.9532 Y-23.3776
G01 X10.9512 Y-23.3889
G01 X10.9506 Y-23.4004
G01 X10.9506 Y-24.0061
G00 Z2.0000
G00 X13.3364 Y-23.3591
G01 F60.00
G01 Z-0.1500
G01 F240.00
G01 X13.3400 Y-23.3410
G01 X13.3533 Y-23.2851
G01 X13.3566 Y-23.2729
G01 X13.3604 Y-23.2608
G01 X13.3649 Y-23.2489
G01 X13.3726 Y-23.2316
G01 X13.3785 Y-23.2203
G01 X13.3883 Y-23.2041
G01 X13.3993 Y-23.1886
G01 X13.4114 Y-23.1740
G01 X13.4635 Y-23.1183
G01 X13.4724 Y-23.1093
G01 X13.4818 Y-23.1007
G01 X13.4966 Y-23.0887
G01 X13.5123 Y-23.0778
G01 X13.5287 Y-23.0682
G01 X13.5458 Y-23.0598
G01 X13.5576 Y-23.0549
G01 X13.5756 Y-23.0486
G01 X13.5878 Y-23.0452
G01 X13.6556 Y-23.0282
G01 X13.6680 Y-23.0254
G01 X13.6805 Y-23.0233
G01 X13.6931 Y-23.0217
G01 X13.7122 Y-23.0206
G01 X13.7312 Y-23.0209
G01 X13.7502 Y-23.0226
G01 X13.7628 Y-23.0245
G01 X13.7814 Y-23.0285
G01 X13.7997 Y-23.0339
G01 X13.8659 Y-23.0563
G01 X13.8836 Y-23.0630
G01 X13.8321 Y-23.0163
G01 X13.8230 Y-23.0076
G01 X13.8143 Y-22.9985
G01 X13.7583 Y-22.9367
G01 X13.7501 Y-22.9272
G01 X13.7423 Y-22.9173
G01 X13.6927 Y-22.8503
G01 X13.6854 Y-22.8400
G01 X13.6787 Y-22.8294
G01 X13.6358 Y-22.7578
G01 X13.6296 Y-22.7469
G01 X13.6240 Y-22.7357
G01 X13.5883 Y-22.6603
G01 X13.5832 Y-22.6488
G01 X13.5787 Y-22.6371
G01 X13.5506 Y-22.5585
G01 X13.5467 Y-22.5466
G01 X13.5433 Y-22.5345
G01 X13.5230 Y-22.4536
G01 X13.5203 Y-22.4413
G01 X13.5181 Y-22.4289
G01 X13.5059 Y-22.3464
G01 X13.5044 Y-22.3340
G01 X13.5034 Y-22.3214
G01 X13.4993 Y-22.2381
G01 X13.4990 Y-22.2256
G01 X13.4993 Y-22.2130
G01 X13.5034 Y-22.1297
G01 X13.5044 Y-22.1172
G01 X13.5059 Y-22.1047
G01 X13.5181 Y-22.0222
G01 X13.5203 Y-22.0098
G01 X13.5230 Y-21.9975
G01 X13.5433 Y-21.9166
G01 X13.5467 Y-21.9045
G01 X13.5506 Y-21.8926
G01 X13.5787 Y-21.8140
G01 X13.5832 Y-21.8023
G01 X13.5883 Y-21.7908
G01 X13.6240 Y-21.7154
G01 X13.6296 Y-21.7042
G01 X13.6358 Y-21.6933
G01 X13.6787 Y-21.6217
G01 X13.6854 Y-21.6111
G01 X13.6927 Y-21.6008
G01 X13.7423 Y-21.5338
G01 X13.7501 Y-21.5239
G01 X13.7583 Y-21.5144
G01 X13.8180 Y-21.4486
G01 X14.6088 Y-20.6805
G01 X14.6089 Y-14.4693
G01 X14.6113 Y-14.4200
G01 X14.6134 Y-14.4012
G01 X14.6210 Y-14.3524
G01 X14.6327 Y-14.3045
G01 X14.6379 Y-14.2864
G01 X14.6524 Y-14.2458
G01 X14.6569 Y-14.2340
G01 X14.6777 Y-14.1893
G01 X14.6840 Y-14.1768
G01 X14.6840 Y-13.6506
G01 X14.6854 Y-13.6170
G01 X14.6867 Y-13.6045
G01 X14.6907 Y-13.5775
G01 X14.6931 Y-13.5652
G01 X14.6998 Y-13.5387
G01 X14.7034 Y-13.5267
G01 X14.7126 Y-13.5010
G01 X14.7174 Y-13.4894
G01 X14.7302 Y-13.4626
G01 X14.4798 Y-13.4626
G01 X14.4926 Y-13.4894
G01 X14.4974 Y-13.5010
G01 X14.5066 Y-13.5267
G01 X14.5102 Y-13.5387
G01 X14.5169 Y-13.5652
G01 X14.5193 Y-13.5775
G01 X14.5233 Y-13.6045
G01 X14.5246 Y-13.6170
G01 X14.5260 Y-13.6506
G01 X14.5260 Y-14.1768
G01 X14.5323 Y-14.1893
G01 X14.5531 Y-14.2340
G01 X14.5576 Y-14.2458
G01 X14.5721 Y-14.2864
G01 X14.5773 Y-14.3045
G01 X14.5890 Y-14.3524
G01 X14.5966 Y-14.4012
G01 X14.5987 Y-14.4200
G01 X14.6011 Y-14.4693
G01 X14.6012 Y-20.3206
G01 X14.6008 Y-20.3331
G01 X14.5987 Y-20.3762
G01 X14.5966 Y-20.3949
G01 X14.5890 Y-20.4437
G01 X14.5773 Y-20.4917
G01 X14.5721 Y-20.5098
G01 X14.5576 Y-20.5504
G01 X14.5531 Y-20.5621
G01 X14.5480 Y-20.5736
G01 X14.5266 Y-20.6181
G01 X14.5015 Y-20.6606
G01 X14.4912 Y-20.6764
G01 X14.4656 Y-20.7111
G01 X14.4579 Y-20.7210
G01 X14.4497 Y-20.7305
G01 X14.4163 Y-20.7669
G01 X13.7394 Y-21.4438
G01 X13.0788 Y-22.6665
G01 X13.0460 Y-22.7357
G01 X13.0404 Y-22.7469
G01 X13.0342 Y-22.7578
G01 X12.9913 Y-22.8294
G01 X12.9846 Y-22.8400
G01 X12.9773 Y-22.8503
G01 X12.9277 Y-22.9173
G01 X12.9199 Y-22.9272
G01 X12.9117 Y-22.9367
G01 X12.8557 Y-22.9985
G01 X12.8470 Y-23.0076
G01 X12.8379 Y-23.0163
G01 X12.7878 Y-23.0617
G01 X12.8536 Y-23.0356
G01 X12.8716 Y-23.0298
G01 X12.8901 Y-23.0252
G01 X12.9026 Y-23.0230
G01 X12.9214 Y-23.0208
G01 X12.9404 Y-23.0199
G01 X12.9594 Y-23.0205
G01 X12.9720 Y-23.0217
G01 X13.0474 Y-23.0325
G01 X13.0662 Y-23.0359
G01 X13.0785 Y-23.0390
G01 X13.0967 Y-23.0447
G01 X13.1144 Y-23.0517
G01 X13.1316 Y-23.0601
G01 X13.1426 Y-23.0663
G01 X13.1534 Y-23.0731
G01 X13.1688 Y-23.0843
G01 X13.1786 Y-23.0924
G01 X13.2314 Y-23.1382
G01 X13.2408 Y-23.1467
G01 X13.2541 Y-23.1604
G01 X13.2624 Y-23.1701
G01 X13.2738 Y-23.1853
G01 X13.2809 Y-23.1959
G01 X13.2904 Y-23.2124
G01 X13.2986 Y-23.2296
G01 X13.3055 Y-23.2474
G01 X13.3094 Y-23.2595
G01 X13.3307 Y-23.3324
G01 X13.3336 Y-23.3442
G01 X13.3364 Y-23.3591
G00 Z2.0000
G00 X13.3379 Y-23.0220
G01 F60.00
G01 Z-0.1500
G01 F240.00
G01 X13.3558 Y-23.0031
G01 X13.3705 Y-22.9889
G01 X13.3782 Y-22.9820
G01 X13.3940 Y-22.9689
G01 X13.4021 Y-22.9627
G01 X13.4104 Y-22.9566
G01 X13.4274 Y-22.9451
G01 X13.4450 Y-22.9345
G01 X13.4540 Y-22.9295
G01 X13.4631 Y-22.9247
G01 X13.4816 Y-22.9159
G01 X13.5006 Y-22.9080
G01 X13.5102 Y-22.9044
G01 X13.5352 Y-22.8964
G01 X13.5007 Y-22.8388
G01 X13.4860 Y-22.8122
G01 X13.4459 Y-22.7276
G01 X13.4339 Y-22.6997
G01 X13.4023 Y-22.6116
G01 X13.3959 Y-22.5923
G01 X13.3905 Y-22.5728
G01 X13.3702 Y-22.4919
G01 X13.3650 Y-22.4680
G01 X13.2193 Y-22.7377
G01 X13.1884 Y-22.8030
G01 X13.1793 Y-22.8212
G01 X13.1693 Y-22.8388
G01 X13.1373 Y-22.8922
G01 X13.1591 Y-22.8998
G01 X13.1781 Y-22.9076
G01 X13.1874 Y-22.9119
G01 X13.2058 Y-22.9211
G01 X13.2237 Y-22.9312
G01 X13.2324 Y-22.9366
G01 X13.2410 Y-22.9422
G01 X13.2578 Y-22.9541
G01 X13.2739 Y-22.9667
G01 X13.3379 Y-23.0220
G00 Z2.0000
G00 X13.4906 Y-24.0061
G01 F60.00
G01 Z-0.1500
G01 F240.00
G01 X13.4912 Y-24.0178
G01 X13.4933 Y-24.0293
G01 X13.5157 Y-24.1055
G01 X13.5204 Y-24.1168
G01 X13.5252 Y-24.1253
G01 X13.5323 Y-24.1352
G01 X13.5389 Y-24.1425
G01 X13.5442 Y-24.1475
G01 X13.5989 Y-24.1948
G01 X13.6089 Y-24.2021
G01 X13.6174 Y-24.2069
G01 X13.6287 Y-24.2117
G01 X13.6406 Y-24.2151
G01 X13.6944 Y-24.2267
G01 X13.7036 Y-24.2281
G01 X13.7130 Y-24.2285
G01 X15.4970 Y-24.2285
G01 X15.5064 Y-24.2281
G01 X15.5133 Y-24.2271
G01 X15.5225 Y-24.2252
G01 X15.5918 Y-24.2048
G01 X15.5987 Y-24.2025
G01 X15.6077 Y-24.1986
G01 X15.6162 Y-24.1939
G01 X15.6243 Y-24.1883
G01 X15.6317 Y-24.1819
G01 X15.6384 Y-24.1748
G01 X15.6858 Y-24.1202
G01 X15.6917 Y-24.1123
G01 X15.6967 Y-24.1038
G01 X15.7009 Y-24.0949
G01 X15.7048 Y-24.0833
G01 X15.7177 Y-24.0247
G01 X15.7190 Y-24.0154
G01 X15.7194 Y-24.0061
G01 X15.7194 Y-23.4004
G01 X15.7192 Y-23.3934
G01 X15.7184 Y-23.3864
G01 X15.7172 Y-23.3795
G01 X15.7155 Y-23.3727
G01 X15.6951 Y-23.3033
G01 X15.6906 Y-23.2919
G01 X15.6848 Y-23.2812
G01 X15.6777 Y-23.2712
G01 X15.6694 Y-23.2622
G01 X15.6092 Y-23.2101
G01 X15.5991 Y-23.2032
G01 X15.5883 Y-23.1976
G01 X15.5768 Y-23.1933
G01 X15.5649 Y-23.1905
G01 X15.4934 Y-23.1802
G01 X15.4837 Y-23.1793
G01 X15.4764 Y-23.1793
G01 X15.4667 Y-23.1800
G01 X15.4571 Y-23.1818
G01 X15.4477 Y-23.1844
G01 X15.3875 Y-23.2082
G01 X15.3752 Y-23.2144
G01 X15.2332 Y-23.3136
G01 X15.0347 Y-23.4061
G01 X14.9534 Y-23.4279
G01 X14.9534 Y-23.1071
G01 X14.9702 Y-23.1009
G01 X15.0521 Y-23.0620
