(G-CODE GENERATED BY FLATCAM v8.994 - www.flatcam.org - Version Date: 2020/11/7)

(Name: vmon-F_Cu.gbr_iso_combined_3_cnc)
(Type: G-code from Geometry)
(Units: MM)

(Created on Thursday, 08 May 2025 at 19:01)

(This preprocessor is the default preprocessor used by FlatCAM.)
(It is made to work with MACH3 compatible motion controllers.)

(TOOL DIAMETER: 0.1969 mm)
(Feedrate_XY: 240.0 mm/min)
(Feedrate_Z: 60.0 mm/min)
(Feedrate rapids 1500.0 mm/min)

(Z_Cut: -0.15 mm)
(Z_Move: 2.0 mm)
(Z Start: None mm)
(Z End: 15.0 mm)
(X,Y End: None mm)
(Steps per circle: 64)
(Preprocessor Geometry: default)

(X range:   -0.0410 ...   30.0410  mm)
(Y range:  -20.0410 ...    0.0410  mm)

(Spindle Speed: 12000.0 RPM)
G21
G90
G94

G01 F240.00

M5
G00 Z45.0000
G00 X0.0000 Y0.0000
T2
M6    
(MSG, Change to Tool Dia = 0.1969)
M0
G00 Z45.0000

M03 S12000.0
G01 F240.00
G00 X-0.0410 Y-0.6245
G01 F60.00
G01 Z-0.1500
G01 F240.00
G01 X-0.0408 Y-19.3884
G01 X-0.0396 Y-19.4141
G01 X-0.0385 Y-19.4270
G01 X-0.0371 Y-19.4398
G01 X-0.0335 Y-19.4653
G01 X-0.0286 Y-19.4906
G01 X-0.0174 Y-19.5421
G01 X-0.0110 Y-19.5684
G01 X-0.0033 Y-19.5943
G01 X0.0011 Y-19.6072
G01 X0.0107 Y-19.6324
G01 X0.0160 Y-19.6449
G01 X0.0275 Y-19.6694
G01 X0.0402 Y-19.6933
G01 X0.0541 Y-19.7165
G01 X0.0615 Y-19.7278
G01 X0.0771 Y-19.7500
G01 X0.0853 Y-19.7607
G01 X0.1025 Y-19.7816
G01 X0.1482 Y-19.8344
G01 X0.1664 Y-19.8543
G01 X0.1758 Y-19.8639
G01 X0.1953 Y-19.8824
G01 X0.2157 Y-19.8998
G01 X0.2370 Y-19.9163
G01 X0.2480 Y-19.9241
G01 X0.2704 Y-19.9389
G01 X0.2819 Y-19.9459
G01 X0.3054 Y-19.9590
G01 X0.3295 Y-19.9710
G01 X0.3541 Y-19.9817
G01 X0.3793 Y-19.9911
G01 X0.3921 Y-19.9954
G01 X0.4719 Y-20.0190
G01 X0.4968 Y-20.0257
G01 X0.5094 Y-20.0286
G01 X0.5220 Y-20.0312
G01 X0.5474 Y-20.0355
G01 X0.5602 Y-20.0371
G01 X0.5859 Y-20.0396
G01 X0.5987 Y-20.0404
G01 X0.6245 Y-20.0410
G01 X29.3755 Y-20.0410
G01 X29.3884 Y-20.0408
G01 X29.4141 Y-20.0396
G01 X29.4398 Y-20.0371
G01 X29.4526 Y-20.0355
G01 X29.4653 Y-20.0335
G01 X29.4906 Y-20.0286
G01 X29.5553 Y-20.0144
G01 X29.5814 Y-20.0073
G01 X29.6072 Y-19.9989
G01 X29.6199 Y-19.9943
G01 X29.6324 Y-19.9893
G01 X29.6572 Y-19.9784
G01 X29.6814 Y-19.9663
G01 X29.6933 Y-19.9598
G01 X29.7050 Y-19.9530
G01 X29.7278 Y-19.9385
G01 X29.7500 Y-19.9229
G01 X29.7607 Y-19.9147
G01 X29.7816 Y-19.8975
G01 X29.8344 Y-19.8518
G01 X29.8543 Y-19.8336
G01 X29.8732 Y-19.8146
G01 X29.8912 Y-19.7946
G01 X29.8998 Y-19.7843
G01 X29.9163 Y-19.7630
G01 X29.9317 Y-19.7409
G01 X29.9389 Y-19.7296
G01 X29.9526 Y-19.7065
G01 X29.9590 Y-19.6946
G01 X29.9710 Y-19.6705
G01 X29.9817 Y-19.6459
G01 X29.9911 Y-19.6207
G01 X29.9954 Y-19.6079
G01 X30.0190 Y-19.5281
G01 X30.0225 Y-19.5156
G01 X30.0286 Y-19.4906
G01 X30.0335 Y-19.4653
G01 X30.0355 Y-19.4526
G01 X30.0385 Y-19.4270
G01 X30.0396 Y-19.4141
G01 X30.0408 Y-19.3884
G01 X30.0410 Y-19.3755
G01 X30.0410 Y-0.6245
G01 X30.0408 Y-0.6116
G01 X30.0396 Y-0.5859
G01 X30.0385 Y-0.5730
G01 X30.0355 Y-0.5474
G01 X30.0335 Y-0.5347
G01 X30.0286 Y-0.5094
G01 X30.0144 Y-0.4447
G01 X30.0073 Y-0.4186
G01 X29.9989 Y-0.3928
G01 X29.9943 Y-0.3801
G01 X29.9893 Y-0.3676
G01 X29.9784 Y-0.3428
G01 X29.9663 Y-0.3186
G01 X29.9598 Y-0.3067
G01 X29.9530 Y-0.2950
G01 X29.9385 Y-0.2722
G01 X29.9229 Y-0.2500
G01 X29.9147 Y-0.2393
G01 X29.8975 Y-0.2184
G01 X29.8518 Y-0.1656
G01 X29.8336 Y-0.1457
G01 X29.8146 Y-0.1268
G01 X29.8047 Y-0.1176
G01 X29.7843 Y-0.1002
G01 X29.7737 Y-0.0918
G01 X29.7520 Y-0.0759
G01 X29.7296 Y-0.0611
G01 X29.7065 Y-0.0474
G01 X29.6946 Y-0.0410
G01 X29.6705 Y-0.0290
G01 X29.6459 Y-0.0183
G01 X29.6333 Y-0.0134
G01 X29.6079 Y-0.0046
G01 X29.5281 Y0.0190
G01 X29.5156 Y0.0225
G01 X29.4906 Y0.0286
G01 X29.4780 Y0.0312
G01 X29.4526 Y0.0355
G01 X29.4270 Y0.0385
G01 X29.4141 Y0.0396
G01 X29.3884 Y0.0408
G01 X29.3755 Y0.0410
G01 X0.6116 Y0.0408
G01 X0.5987 Y0.0404
G01 X0.5730 Y0.0385
G01 X0.5474 Y0.0355
G01 X0.5347 Y0.0335
G01 X0.5094 Y0.0286
G01 X0.4447 Y0.0144
G01 X0.4186 Y0.0073
G01 X0.3928 Y-0.0011
G01 X0.3676 Y-0.0107
G01 X0.3428 Y-0.0216
G01 X0.3186 Y-0.0337
G01 X0.2950 Y-0.0470
G01 X0.2722 Y-0.0615
G01 X0.2500 Y-0.0771
G01 X0.2393 Y-0.0853
G01 X0.2184 Y-0.1025
G01 X0.1555 Y-0.1572
G01 X0.1361 Y-0.1758
G01 X0.1176 Y-0.1953
G01 X0.1002 Y-0.2157
G01 X0.0837 Y-0.2370
G01 X0.0683 Y-0.2591
G01 X0.0541 Y-0.2819
G01 X0.0410 Y-0.3054
G01 X0.0290 Y-0.3295
G01 X0.0183 Y-0.3541
G01 X0.0089 Y-0.3793
G01 X0.0006 Y-0.4049
G01 X-0.0225 Y-0.4844
G01 X-0.0286 Y-0.5094
G01 X-0.0335 Y-0.5347
G01 X-0.0371 Y-0.5602
G01 X-0.0385 Y-0.5730
G01 X-0.0404 Y-0.5987
G01 X-0.0410 Y-0.6245
G00 Z2.0000
G00 X0.1067 Y-0.6245
G01 F60.00
G01 Z-0.1500
G01 F240.00
G01 X0.1068 Y-19.3849
G01 X0.1085 Y-19.4129
G01 X0.1122 Y-19.4408
G01 X0.1157 Y-19.4592
G01 X0.1269 Y-19.5107
G01 X0.1316 Y-19.5298
G01 X0.1372 Y-19.5487
G01 X0.1473 Y-19.5764
G01 X0.1553 Y-19.5944
G01 X0.1688 Y-19.6207
G01 X0.1843 Y-19.6458
G01 X0.2016 Y-19.6697
G01 X0.2141 Y-19.6849
G01 X0.2663 Y-19.7450
G01 X0.2869 Y-19.7659
G01 X0.3089 Y-19.7853
G01 X0.3244 Y-19.7973
G01 X0.3487 Y-19.8137
G01 X0.3655 Y-19.8237
G01 X0.3828 Y-19.8328
G01 X0.4006 Y-19.8410
G01 X0.4187 Y-19.8484
G01 X0.4465 Y-19.8577
G01 X0.5136 Y-19.8773
G01 X0.5408 Y-19.8843
G01 X0.5685 Y-19.8893
G01 X0.5964 Y-19.8923
G01 X0.6245 Y-19.8933
G01 X29.3755 Y-19.8933
G01 X29.4036 Y-19.8923
G01 X29.4315 Y-19.8893
G01 X29.4592 Y-19.8843
G01 X29.5203 Y-19.8709
G01 X29.5487 Y-19.8628
G01 X29.5764 Y-19.8527
G01 X29.6033 Y-19.8404
G01 X29.6207 Y-19.8312
G01 X29.6458 Y-19.8157
G01 X29.6697 Y-19.7984
G01 X29.6849 Y-19.7859
G01 X29.7450 Y-19.7337
G01 X29.7591 Y-19.7201
G01 X29.7790 Y-19.6986
G01 X29.7973 Y-19.6756
G01 X29.8137 Y-19.6513
G01 X29.8237 Y-19.6345
G01 X29.8328 Y-19.6172
G01 X29.8410 Y-19.5994
G01 X29.8484 Y-19.5813
G01 X29.8577 Y-19.5535
G01 X29.8773 Y-19.4864
G01 X29.8843 Y-19.4592
G01 X29.8893 Y-19.4315
G01 X29.8923 Y-19.4036
G01 X29.8933 Y-19.3755
G01 X29.8933 Y-0.6245
G01 X29.8923 Y-0.5964
G01 X29.8893 Y-0.5685
G01 X29.8843 Y-0.5408
G01 X29.8709 Y-0.4797
G01 X29.8628 Y-0.4513
G01 X29.8527 Y-0.4236
G01 X29.8447 Y-0.4056
G01 X29.8312 Y-0.3793
G01 X29.8157 Y-0.3542
G01 X29.7984 Y-0.3303
G01 X29.7859 Y-0.3151
G01 X29.7337 Y-0.2550
G01 X29.7201 Y-0.2409
G01 X29.6986 Y-0.2210
G01 X29.6756 Y-0.2027
G01 X29.6513 Y-0.1863
G01 X29.6345 Y-0.1763
G01 X29.6172 Y-0.1672
G01 X29.5994 Y-0.1590
G01 X29.5813 Y-0.1516
G01 X29.5535 Y-0.1423
G01 X29.4864 Y-0.1227
G01 X29.4592 Y-0.1157
G01 X29.4315 Y-0.1107
G01 X29.4036 Y-0.1077
G01 X29.3755 Y-0.1067
G01 X0.6151 Y-0.1068
G01 X0.5871 Y-0.1085
G01 X0.5592 Y-0.1122
G01 X0.5408 Y-0.1157
G01 X0.4797 Y-0.1291
G01 X0.4607 Y-0.1343
G01 X0.4420 Y-0.1403
G01 X0.4236 Y-0.1473
G01 X0.4056 Y-0.1553
G01 X0.3880 Y-0.1641
G01 X0.3708 Y-0.1738
G01 X0.3542 Y-0.1843
G01 X0.3381 Y-0.1956
G01 X0.3151 Y-0.2141
G01 X0.2623 Y-0.2598
G01 X0.2409 Y-0.2799
G01 X0.2274 Y-0.2941
G01 X0.2147 Y-0.3089
G01 X0.2027 Y-0.3244
G01 X0.1916 Y-0.3405
G01 X0.1812 Y-0.3570
G01 X0.1717 Y-0.3741
G01 X0.1630 Y-0.3916
G01 X0.1516 Y-0.4187
G01 X0.1423 Y-0.4465
G01 X0.1227 Y-0.5136
G01 X0.1157 Y-0.5408
G01 X0.1122 Y-0.5592
G01 X0.1085 Y-0.5871
G01 X0.1071 Y-0.6058
G01 X0.1067 Y-0.6245
G00 Z2.0000
G00 X0.2544 Y-0.6245
G01 F60.00
G01 Z-0.1500
G01 F240.00
G01 X0.2544 Y-19.3755
G01 X0.2550 Y-19.3931
G01 X0.2561 Y-19.4047
G01 X0.2578 Y-19.4163
G01 X0.2726 Y-19.4853
G01 X0.2776 Y-19.5031
G01 X0.2817 Y-19.5147
G01 X0.2864 Y-19.5260
G01 X0.2944 Y-19.5426
G01 X0.3037 Y-19.5586
G01 X0.3105 Y-19.5688
G01 X0.3179 Y-19.5787
G01 X0.3257 Y-19.5882
G01 X0.3755 Y-19.6456
G01 X0.3884 Y-19.6586
G01 X0.3974 Y-19.6668
G01 X0.4118 Y-19.6782
G01 X0.4218 Y-19.6852
G01 X0.4375 Y-19.6947
G01 X0.4538 Y-19.7031
G01 X0.4707 Y-19.7102
G01 X0.4881 Y-19.7160
G01 X0.5552 Y-19.7357
G01 X0.5722 Y-19.7400
G01 X0.5837 Y-19.7422
G01 X0.6011 Y-19.7445
G01 X0.6128 Y-19.7453
G01 X0.6245 Y-19.7456
G01 X29.3755 Y-19.7456
G01 X29.3872 Y-19.7453
G01 X29.3989 Y-19.7445
G01 X29.4163 Y-19.7422
G01 X29.4853 Y-19.7274
G01 X29.4972 Y-19.7242
G01 X29.5147 Y-19.7183
G01 X29.5316 Y-19.7111
G01 X29.5426 Y-19.7056
G01 X29.5586 Y-19.6963
G01 X29.5688 Y-19.6895
G01 X29.5787 Y-19.6821
G01 X29.5882 Y-19.6743
G01 X29.6456 Y-19.6245
G01 X29.6586 Y-19.6116
G01 X29.6668 Y-19.6026
G01 X29.6782 Y-19.5882
G01 X29.6852 Y-19.5782
G01 X29.6947 Y-19.5625
G01 X29.7031 Y-19.5462
G01 X29.7102 Y-19.5293
G01 X29.7160 Y-19.5119
G01 X29.7357 Y-19.4448
G01 X29.7400 Y-19.4278
G01 X29.7422 Y-19.4163
G01 X29.7439 Y-19.4047
G01 X29.7450 Y-19.3931
G01 X29.7456 Y-19.3755
G01 X29.7456 Y-0.6245
G01 X29.7450 Y-0.6069
G01 X29.7439 Y-0.5953
G01 X29.7422 Y-0.5837
G01 X29.7274 Y-0.5147
G01 X29.7242 Y-0.5028
G01 X29.7183 Y-0.4853
G01 X29.7136 Y-0.4740
G01 X29.7056 Y-0.4574
G01 X29.6963 Y-0.4414
G01 X29.6895 Y-0.4312
G01 X29.6821 Y-0.4213
G01 X29.6743 Y-0.4118
G01 X29.6245 Y-0.3544
G01 X29.6160 Y-0.3456
G01 X29.6026 Y-0.3332
G01 X29.5931 Y-0.3255
G01 X29.5782 Y-0.3148
G01 X29.5625 Y-0.3053
G01 X29.5462 Y-0.2969
G01 X29.5293 Y-0.2898
G01 X29.5119 Y-0.2840
G01 X29.4448 Y-0.2643
G01 X29.4278 Y-0.2600
G01 X29.4163 Y-0.2578
G01 X29.3989 Y-0.2555
G01 X29.3872 Y-0.2547
G01 X29.3755 Y-0.2544
G01 X0.6245 Y-0.2544
G01 X0.6128 Y-0.2547
G01 X0.6011 Y-0.2555
G01 X0.5837 Y-0.2578
G01 X0.5207 Y-0.2712
G01 X0.5087 Y-0.2741
G01 X0.4969 Y-0.2776
G01 X0.4796 Y-0.2840
G01 X0.4684 Y-0.2889
G01 X0.4574 Y-0.2944
G01 X0.4466 Y-0.3005
G01 X0.4312 Y-0.3105
G01 X0.4213 Y-0.3179
G01 X0.4118 Y-0.3257
G01 X0.3590 Y-0.3715
G01 X0.3456 Y-0.3840
G01 X0.3332 Y-0.3974
G01 X0.3255 Y-0.4069
G01 X0.3182 Y-0.4168
G01 X0.3115 Y-0.4270
G01 X0.3053 Y-0.4375
G01 X0.2996 Y-0.4483
G01 X0.2944 Y-0.4594
G01 X0.2898 Y-0.4707
G01 X0.2840 Y-0.4881
G01 X0.2613 Y-0.5665
G01 X0.2588 Y-0.5779
G01 X0.2561 Y-0.5953
G01 X0.2547 Y-0.6128
G01 X0.2544 Y-0.6245
G00 Z2.0000
G00 X0.4021 Y-0.6245
G01 F60.00
G01 Z-0.1500
G01 F240.00
G01 X0.4021 Y-19.3755
G01 X0.4025 Y-19.3849
G01 X0.4038 Y-19.3941
G01 X0.4161 Y-19.4503
G01 X0.4197 Y-19.4621
G01 X0.4248 Y-19.4733
G01 X0.4298 Y-19.4817
G01 X0.4357 Y-19.4896
G01 X0.4831 Y-19.5443
G01 X0.4881 Y-19.5496
G01 X0.4935 Y-19.5546
G01 X0.5032 Y-19.5620
G01 X0.5095 Y-19.5658
G01 X0.5160 Y-19.5691
G01 X0.5228 Y-19.5720
G01 X0.5297 Y-19.5743
G01 X0.6013 Y-19.5952
G01 X0.6128 Y-19.5973
G01 X0.6245 Y-19.5979
G01 X29.3755 Y-19.5979
G01 X29.3849 Y-19.5975
G01 X29.3941 Y-19.5962
G01 X29.4503 Y-19.5839
G01 X29.4621 Y-19.5803
G01 X29.4733 Y-19.5752
G01 X29.4817 Y-19.5702
G01 X29.4896 Y-19.5643
G01 X29.5443 Y-19.5169
G01 X29.5530 Y-19.5084
G01 X29.5577 Y-19.5028
G01 X29.5620 Y-19.4968
G01 X29.5658 Y-19.4905
G01 X29.5691 Y-19.4840
G01 X29.5720 Y-19.4772
G01 X29.5743 Y-19.4703
G01 X29.5952 Y-19.3987
G01 X29.5973 Y-19.3872
G01 X29.5979 Y-19.3755
G01 X29.5979 Y-0.6245
G01 X29.5975 Y-0.6151
G01 X29.5962 Y-0.6059
G01 X29.5839 Y-0.5497
G01 X29.5803 Y-0.5379
G01 X29.5752 Y-0.5267
G01 X29.5702 Y-0.5183
G01 X29.5643 Y-0.5104
G01 X29.5169 Y-0.4557
G01 X29.5119 Y-0.4504
G01 X29.5065 Y-0.4454
G01 X29.4968 Y-0.4380
G01 X29.4905 Y-0.4342
G01 X29.4840 Y-0.4309
G01 X29.4772 Y-0.4280
G01 X29.4703 Y-0.4257
G01 X29.3987 Y-0.4048
G01 X29.3872 Y-0.4027
G01 X29.3755 Y-0.4021
G01 X0.6245 Y-0.4021
G01 X0.6151 Y-0.4025
G01 X0.6059 Y-0.4038
G01 X0.5521 Y-0.4155
G01 X0.5402 Y-0.4189
G01 X0.5289 Y-0.4237
G01 X0.5183 Y-0.4298
G01 X0.5104 Y-0.4357
G01 X0.4557 Y-0.4831
G01 X0.4504 Y-0.4881
G01 X0.4423 Y-0.4972
G01 X0.4367 Y-0.5053
G01 X0.4309 Y-0.5160
G01 X0.4272 Y-0.5251
G01 X0.4048 Y-0.6013
G01 X0.4027 Y-0.6128
G01 X0.4021 Y-0.6245
G00 Z2.0000
G00 X1.6069 Y-1.6730
G01 F60.00
G01 Z-0.1500
G01 F240.00
G01 X1.6172 Y-1.6735
G01 X1.6752 Y-1.6798
G01 X1.6877 Y-1.6820
G01 X1.6998 Y-1.6857
G01 X1.7475 Y-1.7040
G01 X1.7563 Y-1.7081
G01 X1.7645 Y-1.7130
G01 X1.8081 Y-1.7465
G01 X1.8151 Y-1.7528
G01 X1.8230 Y-1.7616
G01 X1.8524 Y-1.8003
G01 X1.8579 Y-1.8083
G01 X1.8625 Y-1.8167
G01 X1.8814 Y-1.8583
G01 X1.9619 Y-1.8543
G01 X1.9549 Y-1.8396
G01 X1.9202 Y-1.7921
G01 X1.8760 Y-1.7509
G01 X1.8248 Y-1.7182
G01 X1.7657 Y-1.6939
G01 X1.6959 Y-1.6781
G01 X1.6135 Y-1.6724
G01 X1.6069 Y-1.6730
G00 Z2.0000
G00 X1.1807 Y-2.1571
G01 F60.00
G01 Z-0.1500
G01 F240.00
G01 X1.1893 Y-2.2770
G01 X1.2124 Y-2.3727
G01 X1.2470 Y-2.4490
G01 X1.2923 Y-2.5108
G01 X1.3490 Y-2.5604
G01 X1.4169 Y-2.5968
G01 X1.5016 Y-2.6207
G01 X1.5880 Y-2.6279
G01 X1.5296 Y-2.6195
G01 X1.5223 Y-2.6180
G01 X1.5151 Y-2.6160
G01 X1.5036 Y-2.6114
G01 X1.4451 Y-2.5816
G01 X1.4390 Y-2.5778
G01 X1.4333 Y-2.5736
G01 X1.4244 Y-2.5657
G01 X1.3783 Y-2.5175
G01 X1.3736 Y-2.5120
G01 X1.3680 Y-2.5040
G01 X1.3632 Y-2.4956
G01 X1.3290 Y-2.4278
G01 X1.3241 Y-2.4162
G01 X1.3212 Y-2.4065
G01 X1.2976 Y-2.3080
G01 X1.2962 Y-2.3010
G01 X1.2951 Y-2.2915
G01 X1.2860 Y-2.1523
G01 X1.2858 Y-2.1446
G01 X1.2949 Y-2.0047
G01 X1.2960 Y-1.9951
G01 X1.2974 Y-1.9880
G01 X1.3206 Y-1.8925
G01 X1.3235 Y-1.8827
G01 X1.3285 Y-1.8711
G01 X1.3619 Y-1.8052
G01 X1.3667 Y-1.7968
G01 X1.3724 Y-1.7888
G01 X1.3771 Y-1.7833
G01 X1.4224 Y-1.7362
G01 X1.4313 Y-1.7284
G01 X1.4371 Y-1.7243
G01 X1.4432 Y-1.7206
G01 X1.5008 Y-1.6914
G01 X1.5123 Y-1.6869
G01 X1.5194 Y-1.6848
G01 X1.5266 Y-1.6833
G01 X1.5889 Y-1.6745
G01 X1.5050 Y-1.6816
G01 X1.4197 Y-1.7059
G01 X1.3511 Y-1.7431
G01 X1.2937 Y-1.7940
G01 X1.2479 Y-1.8573
G01 X1.2128 Y-1.9357
G01 X1.1894 Y-2.0340
G01 X1.1807 Y-2.1571
G00 Z2.0000
G00 X1.6332 Y-2.6282
G01 F60.00
G01 Z-0.1500
G01 F240.00
G01 X1.6840 Y-2.6250
G01 X1.7504 Y-2.6113
G01 X1.8094 Y-2.5898
G01 X1.8633 Y-2.5599
G01 X1.9076 Y-2.5245
G01 X1.9446 Y-2.4824
G01 X1.9742 Y-2.4344
G01 X1.9760 Y-2.4299
G01 X1.8938 Y-2.4261
G01 X1.8684 Y-2.4822
G01 X1.8650 Y-2.4888
G01 X1.8612 Y-2.4952
G01 X1.8554 Y-2.5032
G01 X1.8230 Y-2.5432
G01 X1.8166 Y-2.5500
G01 X1.8078 Y-2.5576
G01 X1.7626 Y-2.5906
G01 X1.7544 Y-2.5954
G01 X1.7459 Y-2.5994
G01 X1.6985 Y-2.6176
G01 X1.6866 Y-2.6213
G01 X1.6769 Y-2.6232
G01 X1.6332 Y-2.6282
G00 Z2.0000
G00 X2.4115 Y-2.6066
G01 F60.00
G01 Z-0.1500
G01 F240.00
G01 X2.5026 Y-2.6066
G01 X2.5027 Y-2.1049
G01 X2.5107 Y-2.0102
G01 X2.5120 Y-2.0007
G01 X2.5142 Y-1.9913
G01 X2.5359 Y-1.9155
G01 X2.5382 Y-1.9085
G01 X2.5419 Y-1.8998
G01 X2.5326 Y-1.8934
G01 X2.5235 Y-1.8855
G01 X2.5155 Y-1.8766
G01 X2.5087 Y-1.8668
G01 X2.5031 Y-1.8562
G01 X2.4988 Y-1.8450
G01 X2.4959 Y-1.8333
G01 X2.4945 Y-1.8214
G01 X2.4944 Y-1.8118
G01 X2.5026 Y-1.5970
G01 X2.5026 Y-1.2852
G01 X2.4115 Y-1.2852
G01 X2.4115 Y-2.6066
G00 Z2.0000
G00 X2.8411 Y-1.6918
G01 F60.00
G01 Z-0.1500
G01 F240.00
G01 X2.9047 Y-1.6999
G01 X2.9121 Y-1.7011
G01 X2.9193 Y-1.7029
G01 X2.9310 Y-1.7071
G01 X2.9796 Y-1.7294
G01 X2.9883 Y-1.7340
G01 X2.9946 Y-1.7381
G01 X3.0043 Y-1.7458
G01 X3.0432 Y-1.7827
G01 X3.0484 Y-1.7880
G01 X3.0532 Y-1.7937
G01 X3.0575 Y-1.7998
G01 X3.0614 Y-1.8062
G01 X3.0902 Y-1.8581
G01 X3.0955 Y-1.8691
G01 X3.0993 Y-1.8806
G01 X3.1190 Y-1.9545
G01 X3.1209 Y-1.9635
G01 X3.1220 Y-1.9727
G01 X3.1296 Y-2.0779
G01 X3.1298 Y-2.6066
G01 X3.2198 Y-2.6066
G01 X3.2198 Y-2.0040
G01 X3.2136 Y-1.9087
G01 X3.1981 Y-1.8386
G01 X3.1761 Y-1.7864
G01 X3.1493 Y-1.7475
G01 X3.1154 Y-1.7164
G01 X3.0746 Y-1.6937
G01 X3.0223 Y-1.6784
G01 X2.9534 Y-1.6725
G01 X2.8914 Y-1.6777
G01 X2.8411 Y-1.6918
G00 Z2.0000
G00 X3.6192 Y-2.4025
G01 F60.00
G01 Z-0.1500
G01 F240.00
G01 X3.6378 Y-2.4480
G01 X3.6730 Y-2.5001
G01 X3.7187 Y-2.5439
G01 X3.7734 Y-2.5784
G01 X3.8407 Y-2.6052
G01 X3.9244 Y-2.6231
G01 X4.0277 Y-2.6298
G01 X4.1382 Y-2.6227
G01 X4.2247 Y-2.6038
G01 X4.2915 Y-2.5763
G01 X4.3432 Y-2.5418
G01 X4.3850 Y-2.4982
G01 X4.4146 Y-2.4474
G01 X4.4339 Y-2.3845
G01 X4.4411 Y-2.3053
G01 X4.4334 Y-2.2391
G01 X4.4133 Y-2.1885
G01 X4.3801 Y-2.1450
G01 X4.3348 Y-2.1101
G01 X4.2716 Y-2.0823
G01 X4.2541 Y-2.0787
G01 X4.2868 Y-2.1118
G01 X4.2927 Y-2.1191
G01 X4.2967 Y-2.1249
G01 X4.3024 Y-2.1351
G01 X4.3266 Y-2.1855
G01 X4.3300 Y-2.1943
G01 X4.3321 Y-2.2011
G01 X4.3344 Y-2.2128
G01 X4.3425 Y-2.2735
G01 X4.3434 Y-2.2852
G01 X4.3429 Y-2.2970
G01 X4.3357 Y-2.3650
G01 X4.3347 Y-2.3719
G01 X4.3326 Y-2.3811
G01 X4.3297 Y-2.3900
G01 X4.3101 Y-2.4409
G01 X4.3063 Y-2.4495
G01 X4.3029 Y-2.4557
G01 X4.2963 Y-2.4655
G01 X4.2642 Y-2.5053
G01 X4.2593 Y-2.5110
G01 X4.2539 Y-2.5162
G01 X4.2482 Y-2.5210
G01 X4.2422 Y-2.5254
G01 X4.1991 Y-2.5541
G01 X4.1886 Y-2.5599
G01 X4.1776 Y-2.5643
G01 X4.1250 Y-2.5818
G01 X4.1130 Y-2.5850
G01 X4.1032 Y-2.5864
G01 X4.0360 Y-2.5928
G01 X4.0232 Y-2.5932
G01 X4.0156 Y-2.5926
G01 X3.9334 Y-2.5832
G01 X3.9212 Y-2.5808
G01 X3.9117 Y-2.5777
G01 X3.8472 Y-2.5510
G01 X3.8363 Y-2.5453
G01 X3.8301 Y-2.5413
G01 X3.8242 Y-2.5368
G01 X3.7755 Y-2.4943
G01 X3.7702 Y-2.4891
G01 X3.7653 Y-2.4835
G01 X3.7582 Y-2.4734
G01 X3.7232 Y-2.4134
G01 X3.7188 Y-2.4043
G01 X3.7151 Y-2.3941
G01 X3.6192 Y-2.4025
G00 Z2.0000
G00 X4.1043 Y-2.0046
G01 F60.00
G01 Z-0.1500
G01 F240.00
G01 X4.1012 Y-1.9965
G01 X4.0987 Y-1.9872
G01 X4.0974 Y-1.9801
G01 X4.0965 Y-1.9706
G01 X4.0964 Y-1.9592
G01 X4.0968 Y-1.9520
G01 X4.0982 Y-1.9425
G01 X4.1002 Y-1.9345
G01 X4.0686 Y-1.9437
G01 X4.0564 Y-1.9461
G01 X3.9663 Y-1.9534
G01 X3.9663 Y-1.9892
G01 X3.9756 Y-1.9895
G01 X4.0707 Y-1.9967
G01 X4.0819 Y-1.9987
G01 X4.1043 Y-2.0046
G00 Z2.0000
G00 X4.2444 Y-1.8453
G01 F60.00
G01 Z-0.1500
G01 F240.00
G01 X4.2543 Y-1.8425
G01 X4.3104 Y-1.8135
G01 X4.3502 Y-1.7793
G01 X4.3791 Y-1.7380
G01 X4.3972 Y-1.6883
G01 X4.4042 Y-1.6232
G01 X4.3977 Y-1.5560
G01 X4.3804 Y-1.5026
G01 X4.3533 Y-1.4583
G01 X4.3134 Y-1.4185
G01 X4.2644 Y-1.3869
G01 X4.2019 Y-1.3617
G01 X4.1222 Y-1.3446
G01 X4.0218 Y-1.3382
G01 X3.9293 Y-1.3445
G01 X3.8534 Y-1.3616
G01 X3.7906 Y-1.3876
G01 X3.7379 Y-1.4219
G01 X3.6933 Y-1.4652
G01 X3.6595 Y-1.5149
G01 X3.6468 Y-1.5455
G01 X3.7341 Y-1.5517
G01 X3.7538 Y-1.5096
G01 X3.7573 Y-1.5032
G01 X3.7612 Y-1.4972
G01 X3.7671 Y-1.4895
G01 X3.7993 Y-1.4520
G01 X3.8043 Y-1.4468
G01 X3.8097 Y-1.4420
G01 X3.8173 Y-1.4362
G01 X3.8565 Y-1.4098
G01 X3.8685 Y-1.4028
G01 X3.8793 Y-1.3984
G01 X3.9265 Y-1.3819
G01 X3.9398 Y-1.3783
G01 X3.9489 Y-1.3770
G01 X4.0065 Y-1.3711
G01 X4.0165 Y-1.3706
G01 X4.0265 Y-1.3711
G01 X4.0905 Y-1.3777
G01 X4.1001 Y-1.3794
G01 X4.1119 Y-1.3829
G01 X4.1613 Y-1.4011
G01 X4.1679 Y-1.4039
G01 X4.1743 Y-1.4073
G01 X4.1824 Y-1.4125
G01 X4.2205 Y-1.4410
G01 X4.2297 Y-1.4489
G01 X4.2347 Y-1.4541
G01 X4.2394 Y-1.4596
G01 X4.2692 Y-1.5002
G01 X4.2745 Y-1.5087
G01 X4.2798 Y-1.5201
G01 X4.2984 Y-1.5704
G01 X4.3010 Y-1.5798
G01 X4.3024 Y-1.5870
G01 X4.3091 Y-1.6492
G01 X4.3096 Y-1.6617
G01 X4.3089 Y-1.6717
G01 X4.3014 Y-1.7315
G01 X4.2998 Y-1.7409
G01 X4.2979 Y-1.7479
G01 X4.2947 Y-1.7569
G01 X4.2697 Y-1.8129
G01 X4.2660 Y-1.8192
G01 X4.2605 Y-1.8271
G01 X4.2444 Y-1.8453
G00 Z2.0000
G00 X4.7865 Y-2.5307
G01 F60.00
G01 Z-0.1500
G01 F240.00
G01 X4.7865 Y-2.6066
G01 X5.5999 Y-2.6066
G01 X5.5999 Y-2.5668
G01 X5.0283 Y-2.5668
G01 X5.0186 Y-2.5663
G01 X5.0091 Y-2.5649
G01 X5.0021 Y-2.5632
G01 X4.9929 Y-2.5602
G01 X4.9863 Y-2.5574
G01 X4.9799 Y-2.5541
G01 X4.9737 Y-2.5503
G01 X4.9678 Y-2.5461
G01 X4.9605 Y-2.5398
G01 X4.9555 Y-2.5346
G01 X4.9508 Y-2.5291
G01 X4.9452 Y-2.5212
G01 X4.9416 Y-2.5150
G01 X4.9384 Y-2.5085
G01 X4.9357 Y-2.5018
G01 X4.9335 Y-2.4949
G01 X4.9318 Y-2.4879
G01 X4.9306 Y-2.4808
G01 X4.9300 Y-2.4736
G01 X4.9298 Y-2.4663
G01 X4.9305 Y-2.4567
G01 X4.9316 Y-2.4496
G01 X4.9333 Y-2.4426
G01 X4.9362 Y-2.4334
G01 X4.9390 Y-2.4267
G01 X4.9423 Y-2.4203
G01 X4.9778 Y-2.3568
G01 X4.9828 Y-2.3487
G01 X4.9886 Y-2.3412
G01 X5.0422 Y-2.2779
G01 X5.0505 Y-2.2696
G01 X5.1832 Y-2.1522
G01 X5.3318 Y-2.0338
G01 X5.4005 Y-1.9747
G01 X5.4593 Y-1.9149
G01 X5.5086 Y-1.8521
G01 X5.5459 Y-1.7877
G01 X5.5688 Y-1.7216
G01 X5.5769 Y-1.6446
G01 X5.5702 Y-1.5696
G01 X5.5522 Y-1.5103
G01 X5.5249 Y-1.4625
G01 X5.4863 Y-1.4214
G01 X5.4388 Y-1.3889
G01 X5.3769 Y-1.3629
G01 X5.2962 Y-1.3450
G01 X5.1924 Y-1.3382
G01 X5.0982 Y-1.3447
G01 X5.0230 Y-1.3618
G01 X4.9629 Y-1.3875
G01 X4.9141 Y-1.4207
G01 X4.8733 Y-1.4628
G01 X4.8405 Y-1.5146
G01 X4.8231 Y-1.5594
G01 X4.9144 Y-1.5646
G01 X4.9361 Y-1.5150
G01 X4.9407 Y-1.5059
G01 X4.9477 Y-1.4953
G01 X4.9779 Y-1.4555
G01 X4.9847 Y-1.4481
G01 X4.9943 Y-1.4400
G01 X5.0316 Y-1.4120
G01 X5.0397 Y-1.4068
G01 X5.0460 Y-1.4034
G01 X5.0548 Y-1.3997
G01 X5.1007 Y-1.3828
G01 X5.1125 Y-1.3793
G01 X5.1246 Y-1.3773
G01 X5.1841 Y-1.3711
G01 X5.1937 Y-1.3706
G01 X5.2034 Y-1.3710
G01 X5.2776 Y-1.3798
G01 X5.2873 Y-1.3814
G01 X5.2969 Y-1.3840
G01 X5.3061 Y-1.3876
G01 X5.3592 Y-1.4113
G01 X5.3656 Y-1.4146
G01 X5.3717 Y-1.4184
G01 X5.3794 Y-1.4241
G01 X5.3865 Y-1.4305
G01 X5.4238 Y-1.4677
G01 X5.4286 Y-1.4731
G01 X5.4330 Y-1.4788
G01 X5.4381 Y-1.4869
G01 X5.4425 Y-1.4954
G01 X5.4662 Y-1.5484
G01 X5.4702 Y-1.5601
G01 X5.4728 Y-1.5723
G01 X5.4816 Y-1.6460
G01 X5.4822 Y-1.6532
G01 X5.4821 Y-1.6628
G01 X5.4753 Y-1.7193
G01 X5.4732 Y-1.7307
G01 X5.4697 Y-1.7418
G01 X5.4502 Y-1.7936
G01 X5.4472 Y-1.8005
G01 X5.4425 Y-1.8094
G01 X5.4060 Y-1.8672
G01 X5.4004 Y-1.8751
G01 X5.3956 Y-1.8807
G01 X5.3162 Y-1.9677
G01 X5.1751 Y-2.0914
G01 X5.0292 Y-2.2186
G01 X4.9229 Y-2.3279
G01 X4.8373 Y-2.4391
G01 X4.7865 Y-2.5307
G00 Z2.0000
G00 X5.9298 Y-1.6956
G01 F60.00
G01 Z-0.1500
G01 F240.00
G01 X6.2559 Y-2.6066
G01 X6.4622 Y-2.6066
G01 X6.7984 Y-1.6956
G01 X6.7100 Y-1.6956
G01 X6.4970 Y-2.3537
G01 X6.4554 Y-2.4994
G01 X6.4523 Y-2.5085
G01 X6.4494 Y-2.5152
G01 X6.4460 Y-2.5216
G01 X6.4421 Y-2.5278
G01 X6.4378 Y-2.5337
G01 X6.4330 Y-2.5392
G01 X6.4279 Y-2.5443
G01 X6.4224 Y-2.5491
G01 X6.4166 Y-2.5534
G01 X6.4104 Y-2.5573
G01 X6.4040 Y-2.5608
G01 X6.3974 Y-2.5637
G01 X6.3905 Y-2.5662
G01 X6.3835 Y-2.5681
G01 X6.3764 Y-2.5696
G01 X6.3692 Y-2.5704
G01 X6.3619 Y-2.5708
G01 X6.3546 Y-2.5706
G01 X6.3474 Y-2.5699
G01 X6.3402 Y-2.5686
G01 X6.3332 Y-2.5669
G01 X6.3263 Y-2.5646
G01 X6.3195 Y-2.5618
G01 X6.3131 Y-2.5585
G01 X6.3068 Y-2.5547
G01 X6.3009 Y-2.5505
G01 X6.2953 Y-2.5459
G01 X6.2884 Y-2.5391
G01 X6.2836 Y-2.5336
G01 X6.2793 Y-2.5277
G01 X6.2755 Y-2.5216
G01 X6.2721 Y-2.5151
G01 X6.2691 Y-2.5085
G01 X6.2660 Y-2.4993
G01 X6.1937 Y-2.2446
G01 X6.0219 Y-1.6956
G01 X5.9298 Y-1.6956
G00 Z2.0000
G00 X7.1298 Y-1.9836
G01 F60.00
G01 Z-0.1500
G01 F240.00
G01 X7.1380 Y-2.1578
G01 X7.1599 Y-2.2939
G01 X7.1915 Y-2.3979
G01 X7.2299 Y-2.4755
G01 X7.2731 Y-2.5323
G01 X7.3211 Y-2.5737
G01 X7.3766 Y-2.6033
G01 X7.4438 Y-2.6225
G01 X7.5274 Y-2.6296
G01 X7.6092 Y-2.6229
G01 X7.6756 Y-2.6046
G01 X7.7308 Y-2.5765
G01 X7.7786 Y-2.5375
G01 X7.8213 Y-2.4849
G01 X7.8635 Y-2.4055
G01 X7.8980 Y-2.2999
G01 X7.9218 Y-2.1614
G01 X7.9308 Y-1.9838
G01 X7.9221 Y-1.8018
G01 X7.8993 Y-1.6613
G01 X7.8665 Y-1.5559
G01 X7.8272 Y-1.4788
G01 X7.7874 Y-1.4285
G01 X7.7418 Y-1.3910
G01 X7.6876 Y-1.3634
G01 X7.6202 Y-1.3452
G01 X7.5355 Y-1.3383
G01 X7.4365 Y-1.3465
G01 X7.3622 Y-1.3675
G01 X7.3063 Y-1.3982
G01 X7.2594 Y-1.4413
G01 X7.2168 Y-1.5033
G01 X7.1791 Y-1.5917
G01 X7.1539 Y-1.6898
G01 X7.1364 Y-1.8190
G01 X7.1298 Y-1.9836
G00 Z2.0000
G00 X7.2263 Y-1.7920
G01 F60.00
G01 Z-0.1500
G01 F240.00
G01 X7.2208 Y-1.9841
G01 X7.2269 Y-2.1801
G01 X7.2414 Y-2.3053
G01 X7.2435 Y-2.3172
G01 X7.2614 Y-2.3905
G01 X7.2635 Y-2.3980
G01 X7.2662 Y-2.4052
G01 X7.2877 Y-2.4568
G01 X7.2939 Y-2.4690
G01 X7.3230 Y-2.5116
G01 X7.3304 Y-2.5206
G01 X7.3388 Y-2.5287
G01 X7.3747 Y-2.5578
G01 X7.3850 Y-2.5648
G01 X7.3962 Y-2.5704
G01 X7.4398 Y-2.5877
G01 X7.4511 Y-2.5914
G01 X7.4581 Y-2.5929
G01 X7.4652 Y-2.5940
G01 X7.5184 Y-2.5999
G01 X7.5283 Y-2.6005
G01 X7.5407 Y-2.5998
G01 X7.5930 Y-2.5937
G01 X7.6052 Y-2.5915
G01 X7.6169 Y-2.5878
G01 X7.6627 Y-2.5689
G01 X7.6730 Y-2.5636
G01 X7.6845 Y-2.5557
G01 X7.7210 Y-2.5250
G01 X7.7281 Y-2.5181
G01 X7.7359 Y-2.5085
G01 X7.7621 Y-2.4699
G01 X7.7673 Y-2.4614
G01 X7.7716 Y-2.4524
G01 X7.7935 Y-2.3996
G01 X7.7961 Y-2.3925
G01 X7.7982 Y-2.3851
G01 X7.8175 Y-2.3044
G01 X7.8328 Y-2.1749
G01 X7.8388 Y-1.9841
G01 X7.8329 Y-1.7864
G01 X7.8187 Y-1.6615
G01 X7.8166 Y-1.6497
G01 X7.7992 Y-1.5767
G01 X7.7971 Y-1.5692
G01 X7.7944 Y-1.5620
G01 X7.7732 Y-1.5106
G01 X7.7676 Y-1.4991
G01 X7.7635 Y-1.4925
G01 X7.7397 Y-1.4577
G01 X7.7310 Y-1.4468
G01 X7.7227 Y-1.4388
G01 X7.6874 Y-1.4097
G01 X7.6778 Y-1.4031
G01 X7.6676 Y-1.3976
G01 X7.6225 Y-1.3795
G01 X7.6111 Y-1.3757
G01 X7.6041 Y-1.3741
G01 X7.5969 Y-1.3730
G01 X7.5444 Y-1.3671
G01 X7.5348 Y-1.3665
G01 X7.5228 Y-1.3671
G01 X7.4668 Y-1.3731
G01 X7.4553 Y-1.3750
G01 X7.4441 Y-1.3783
G01 X7.3990 Y-1.3957
G01 X7.3876 Y-1.4010
G01 X7.3812 Y-1.4048
G01 X7.3750 Y-1.4091
G01 X7.3384 Y-1.4383
G01 X7.3315 Y-1.4447
G01 X7.3238 Y-1.4536
G01 X7.2963 Y-1.4927
G01 X7.2902 Y-1.5026
G01 X7.2862 Y-1.5110
G01 X7.2647 Y-1.5625
G01 X7.2615 Y-1.5711
G01 X7.2597 Y-1.5777
G01 X7.2410 Y-1.6575
G01 X7.2268 Y-1.7840
G01 X7.2263 Y-1.7920
G00 Z2.0000
G00 X8.2963 Y-1.9836
G01 F60.00
G01 Z-0.1500
G01 F240.00
G01 X8.3045 Y-2.1578
G01 X8.3264 Y-2.2939
G01 X8.3580 Y-2.3979
G01 X8.3964 Y-2.4755
G01 X8.4396 Y-2.5323
G01 X8.4876 Y-2.5737
G01 X8.5431 Y-2.6033
G01 X8.6103 Y-2.6225
G01 X8.6939 Y-2.6296
G01 X8.7757 Y-2.6229
G01 X8.8421 Y-2.6046
G01 X8.8973 Y-2.5765
G01 X8.9451 Y-2.5375
G01 X8.9878 Y-2.4849
G01 X9.0300 Y-2.4055
G01 X9.0645 Y-2.2999
G01 X9.0883 Y-2.1614
G01 X9.0973 Y-1.9838
G01 X9.0886 Y-1.8018
G01 X9.0658 Y-1.6613
G01 X9.0330 Y-1.5559
G01 X8.9937 Y-1.4788
G01 X8.9539 Y-1.4285
G01 X8.9083 Y-1.3910
G01 X8.8541 Y-1.3634
G01 X8.7867 Y-1.3452
G01 X8.7020 Y-1.3383
G01 X8.6030 Y-1.3465
G01 X8.5287 Y-1.3675
G01 X8.4728 Y-1.3982
G01 X8.4259 Y-1.4413
G01 X8.3834 Y-1.5033
G01 X8.3456 Y-1.5917
G01 X8.3204 Y-1.6898
G01 X8.3029 Y-1.8190
G01 X8.2963 Y-1.9836
G00 Z2.0000
G00 X8.3928 Y-1.7920
G01 F60.00
G01 Z-0.1500
G01 F240.00
G01 X8.3873 Y-1.9841
G01 X8.3934 Y-2.1801
G01 X8.4079 Y-2.3053
G01 X8.4100 Y-2.3172
G01 X8.4279 Y-2.3905
G01 X8.4300 Y-2.3980
G01 X8.4327 Y-2.4052
G01 X8.4542 Y-2.4568
G01 X8.4604 Y-2.4690
G01 X8.4895 Y-2.5116
G01 X8.4969 Y-2.5206
G01 X8.5053 Y-2.5287
G01 X8.5412 Y-2.5578
G01 X8.5516 Y-2.5648
G01 X8.5627 Y-2.5704
G01 X8.6063 Y-2.5877
G01 X8.6176 Y-2.5914
G01 X8.6246 Y-2.5929
G01 X8.6317 Y-2.5940
G01 X8.6849 Y-2.5999
G01 X8.6948 Y-2.6005
G01 X8.7072 Y-2.5998
G01 X8.7595 Y-2.5937
G01 X8.7717 Y-2.5915
G01 X8.7834 Y-2.5878
G01 X8.8292 Y-2.5689
G01 X8.8395 Y-2.5636
G01 X8.8510 Y-2.5557
G01 X8.8875 Y-2.5250
G01 X8.8946 Y-2.5181
G01 X8.9024 Y-2.5085
G01 X8.9286 Y-2.4699
G01 X8.9338 Y-2.4614
G01 X8.9381 Y-2.4524
G01 X8.9600 Y-2.3996
G01 X8.9626 Y-2.3925
G01 X8.9647 Y-2.3851
G01 X8.9840 Y-2.3044
G01 X8.9993 Y-2.1749
G01 X9.0053 Y-1.9841
G01 X8.9994 Y-1.7864
G01 X8.9852 Y-1.6615
G01 X8.9831 Y-1.6497
G01 X8.9657 Y-1.5766
G01 X8.9636 Y-1.5692
G01 X8.9609 Y-1.5620
G01 X8.9397 Y-1.5106
G01 X8.9341 Y-1.4991
G01 X8.9300 Y-1.4925
G01 X8.9062 Y-1.4577
G01 X8.8975 Y-1.4468
G01 X8.8892 Y-1.4388
G01 X8.8539 Y-1.4097
G01 X8.8444 Y-1.4031
G01 X8.8341 Y-1.3976
G01 X8.7890 Y-1.3795
G01 X8.7776 Y-1.3757
G01 X8.7706 Y-1.3741
G01 X8.7634 Y-1.3730
G01 X8.7109 Y-1.3671
G01 X8.7013 Y-1.3665
G01 X8.6893 Y-1.3671
G01 X8.6333 Y-1.3731
G01 X8.6218 Y-1.3750
G01 X8.6106 Y-1.3783
G01 X8.5655 Y-1.3957
G01 X8.5542 Y-1.4010
G01 X8.5477 Y-1.4048
G01 X8.5416 Y-1.4091
G01 X8.5049 Y-1.4383
G01 X8.4964 Y-1.4464
G01 X8.4903 Y-1.4536
G01 X8.4628 Y-1.4927
G01 X8.4567 Y-1.5026
G01 X8.4527 Y-1.5110
G01 X8.4312 Y-1.5625
G01 X8.4287 Y-1.5689
G01 X8.4262 Y-1.5777
G01 X8.4075 Y-1.6575
G01 X8.3933 Y-1.7840
G01 X8.3928 Y-1.7920
G00 Z2.0000
G00 X9.4517 Y-2.4025
G01 F60.00
G01 Z-0.1500
G01 F240.00
G01 X9.4703 Y-2.4480
G01 X9.5055 Y-2.5001
G01 X9.5513 Y-2.5439
G01 X9.6059 Y-2.5784
G01 X9.6733 Y-2.6052
G01 X9.7569 Y-2.6231
G01 X9.8602 Y-2.6298
G01 X9.9707 Y-2.6227
G01 X10.0572 Y-2.6038
G01 X10.1241 Y-2.5763
G01 X10.1757 Y-2.5418
G01 X10.2175 Y-2.4982
G01 X10.2471 Y-2.4474
G01 X10.2664 Y-2.3845
G01 X10.2736 Y-2.3053
G01 X10.2659 Y-2.2391
G01 X10.2459 Y-2.1885
G01 X10.2126 Y-2.1450
G01 X10.1673 Y-2.1101
G01 X10.1041 Y-2.0823
G01 X10.0867 Y-2.0787
G01 X10.1193 Y-2.1118
G01 X10.1253 Y-2.1191
G01 X10.1293 Y-2.1249
G01 X10.1349 Y-2.1351
G01 X10.1591 Y-2.1854
G01 X10.1626 Y-2.1943
G01 X10.1646 Y-2.2011
G01 X10.1669 Y-2.2128
G01 X10.1751 Y-2.2735
G01 X10.1759 Y-2.2852
G01 X10.1754 Y-2.2970
G01 X10.1682 Y-2.3650
G01 X10.1668 Y-2.3742
G01 X10.1651 Y-2.3811
G01 X10.1622 Y-2.3900
G01 X10.1426 Y-2.4409
G01 X10.1398 Y-2.4474
G01 X10.1354 Y-2.4557
G01 X10.1288 Y-2.4655
G01 X10.0967 Y-2.5053
G01 X10.0918 Y-2.5110
G01 X10.0865 Y-2.5162
G01 X10.0808 Y-2.5210
G01 X10.0747 Y-2.5254
G01 X10.0316 Y-2.5541
G01 X10.0211 Y-2.5599
G01 X10.0101 Y-2.5643
G01 X9.9575 Y-2.5818
G01 X9.9455 Y-2.5850
G01 X9.9357 Y-2.5864
G01 X9.8685 Y-2.5928
G01 X9.8558 Y-2.5932
G01 X9.8481 Y-2.5926
G01 X9.7659 Y-2.5832
G01 X9.7561 Y-2.5814
G01 X9.7442 Y-2.5777
G01 X9.6797 Y-2.5510
G01 X9.6688 Y-2.5453
G01 X9.6626 Y-2.5413
G01 X9.6568 Y-2.5368
G01 X9.6080 Y-2.4943
G01 X9.6027 Y-2.4891
G01 X9.5979 Y-2.4835
G01 X9.5907 Y-2.4734
G01 X9.5557 Y-2.4134
G01 X9.5513 Y-2.4043
G01 X9.5477 Y-2.3941
G01 X9.4517 Y-2.4025
G00 Z2.0000
G00 X9.9369 Y-2.0046
G01 F60.00
G01 Z-0.1500
G01 F240.00
G01 X9.9338 Y-1.9965
G01 X9.9312 Y-1.9872
G01 X9.9296 Y-1.9777
G01 X9.9290 Y-1.9706
G01 X9.9289 Y-1.9592
G01 X9.9293 Y-1.9520
G01 X9.9307 Y-1.9425
G01 X9.9327 Y-1.9345
G01 X9.9011 Y-1.9437
G01 X9.8889 Y-1.9461
G01 X9.7989 Y-1.9534
G01 X9.7989 Y-1.9892
G01 X9.8081 Y-1.9895
G01 X9.9032 Y-1.9967
G01 X9.9145 Y-1.9987
G01 X9.9369 Y-2.0046
G00 Z2.0000
G00 X10.0769 Y-1.8453
G01 F60.00
G01 Z-0.1500
G01 F240.00
G01 X10.0868 Y-1.8425
G01 X10.1429 Y-1.8135
G01 X10.1828 Y-1.7793
G01 X10.2117 Y-1.7380
G01 X10.2297 Y-1.6883
G01 X10.2367 Y-1.6232
G01 X10.2302 Y-1.5560
G01 X10.2129 Y-1.5026
G01 X10.1858 Y-1.4583
G01 X10.1459 Y-1.4185
G01 X10.0969 Y-1.3869
G01 X10.0344 Y-1.3617
G01 X9.9547 Y-1.3446
G01 X9.8543 Y-1.3382
G01 X9.7618 Y-1.3445
G01 X9.6859 Y-1.3616
G01 X9.6231 Y-1.3876
G01 X9.5704 Y-1.4219
G01 X9.5258 Y-1.4652
G01 X9.4921 Y-1.5149
G01 X9.4793 Y-1.5455
G01 X9.5666 Y-1.5517
G01 X9.5863 Y-1.5096
G01 X9.5898 Y-1.5032
G01 X9.5937 Y-1.4972
G01 X9.5996 Y-1.4895
G01 X9.6318 Y-1.4520
G01 X9.6368 Y-1.4468
G01 X9.6422 Y-1.4420
G01 X9.6499 Y-1.4362
G01 X9.6890 Y-1.4098
G01 X9.7011 Y-1.4028
G01 X9.7118 Y-1.3984
G01 X9.7591 Y-1.3819
G01 X9.7724 Y-1.3783
G01 X9.7815 Y-1.3770
G01 X9.8391 Y-1.3711
G01 X9.8490 Y-1.3706
G01 X9.8590 Y-1.3711
G01 X9.9230 Y-1.3777
G01 X9.9326 Y-1.3794
G01 X9.9444 Y-1.3829
G01 X9.9938 Y-1.4011
G01 X10.0004 Y-1.4039
G01 X10.0068 Y-1.4073
G01 X10.0149 Y-1.4125
G01 X10.0530 Y-1.4410
G01 X10.0622 Y-1.4489
G01 X10.0672 Y-1.4541
G01 X10.0719 Y-1.4596
G01 X10.1017 Y-1.5002
G01 X10.1082 Y-1.5109
G01 X10.1123 Y-1.5201
G01 X10.1309 Y-1.5704
G01 X10.1330 Y-1.5774
G01 X10.1349 Y-1.5870
G01 X10.1416 Y-1.6492
G01 X10.1421 Y-1.6617
G01 X10.1414 Y-1.6717
G01 X10.1340 Y-1.7315
G01 X10.1323 Y-1.7409
G01 X10.1297 Y-1.7501
G01 X10.1272 Y-1.7569
G01 X10.1022 Y-1.8129
G01 X10.0986 Y-1.8192
G01 X10.0930 Y-1.8271
G01 X10.0769 Y-1.8453
G00 Z2.0000
G00 X9.2853 Y-4.2156
G01 F60.00
G01 Z-0.1500
G01 F240.00
G01 X9.2904 Y-4.3718
G01 X9.2904 Y-5.5603
G01 X9.3814 Y-5.5603
G01 X9.3814 Y-5.2385
G01 X9.3752 Y-5.0550
G01 X9.3756 Y-5.0429
G01 X9.3765 Y-5.0357
G01 X9.3780 Y-5.0285
G01 X9.3815 Y-5.0169
G01 X9.3865 Y-5.0058
G01 X9.3928 Y-4.9955
G01 X9.3972 Y-4.9896
G01 X9.4020 Y-4.9842
G01 X9.4109 Y-4.9759
G01 X9.4207 Y-4.9687
G01 X9.4322 Y-4.9624
G01 X9.4146 Y-4.9246
G01 X9.4103 Y-4.9127
G01 X9.3869 Y-4.8126
G01 X9.3854 Y-4.8012
G01 X9.3775 Y-4.6823
G01 X9.3774 Y-4.6719
G01 X9.3854 Y-4.5496
G01 X9.3868 Y-4.5384
G01 X9.4089 Y-4.4420
G01 X9.4108 Y-4.4348
G01 X9.4142 Y-4.4255
G01 X9.4323 Y-4.3859
G01 X9.4233 Y-4.3809
G01 X9.4155 Y-4.3754
G01 X9.4082 Y-4.3691
G01 X9.4015 Y-4.3622
G01 X9.3956 Y-4.3547
G01 X9.3904 Y-4.3466
G01 X9.3860 Y-4.3380
G01 X9.3825 Y-4.3291
G01 X9.3793 Y-4.3175
G01 X9.3776 Y-4.3056
G01 X9.3745 Y-4.2156
G01 X9.2853 Y-4.2156
G00 Z2.0000
G00 X8.3912 Y-4.6363
G01 F60.00
G01 Z-0.1500
G01 F240.00
G01 X8.3980 Y-4.6330
G01 X8.4048 Y-4.6303
G01 X8.4140 Y-4.6276
G01 X8.4211 Y-4.6262
G01 X8.4283 Y-4.6252
G01 X8.4380 Y-4.6248
G01 X8.4452 Y-4.6251
G01 X8.4524 Y-4.6260
G01 X8.4619 Y-4.6279
G01 X8.4688 Y-4.6300
G01 X8.4756 Y-4.6326
G01 X8.4821 Y-4.6356
G01 X8.4885 Y-4.6392
G01 X8.4965 Y-4.6446
G01 X8.5021 Y-4.6492
G01 X8.5074 Y-4.6541
G01 X8.5153 Y-4.6632
G01 X8.5221 Y-4.6732
G01 X8.7896 Y-5.1266
G01 X8.8711 Y-5.1266
G01 X8.5440 Y-4.5991
G01 X8.5396 Y-4.5906
G01 X8.5352 Y-4.5795
G01 X8.5327 Y-4.5702
G01 X8.5309 Y-4.5584
G01 X8.5304 Y-4.5488
G01 X8.5309 Y-4.5393
G01 X8.5319 Y-4.5322
G01 X8.5341 Y-4.5228
G01 X8.5371 Y-4.5138
G01 X8.5409 Y-4.5050
G01 X8.5457 Y-4.4967
G01 X8.5512 Y-4.4888
G01 X8.5558 Y-4.4833
G01 X8.7971 Y-4.2156
G01 X8.7540 Y-4.2156
G01 X8.3912 Y-4.6363
G00 Z2.0000
G00 X8.1239 Y-5.1266
G01 F60.00
G01 Z-0.1500
G01 F240.00
G01 X8.2149 Y-5.1266
G01 X8.2149 Y-4.8093
G01 X8.2157 Y-4.7971
G01 X8.2168 Y-4.7899
G01 X8.2185 Y-4.7828
G01 X8.2225 Y-4.7713
G01 X8.2256 Y-4.7647
G01 X8.2291 Y-4.7583
G01 X8.2331 Y-4.7522
G01 X8.2376 Y-4.7464
G01 X8.2459 Y-4.7376
G01 X8.2514 Y-4.7328
G01 X8.2572 Y-4.7284
G01 X8.3409 Y-4.6703
G01 X8.3302 Y-4.6728
G01 X8.3206 Y-4.6740
G01 X8.3085 Y-4.6741
G01 X8.2989 Y-4.6732
G01 X8.2895 Y-4.6713
G01 X8.2779 Y-4.6677
G01 X8.2691 Y-4.6637
G01 X8.2607 Y-4.6590
G01 X8.2509 Y-4.6519
G01 X8.2438 Y-4.6454
G01 X8.2373 Y-4.6383
G01 X8.2302 Y-4.6285
G01 X8.2254 Y-4.6201
G01 X8.2215 Y-4.6112
G01 X8.2179 Y-4.5997
G01 X8.2160 Y-4.5902
G01 X8.2152 Y-4.5830
G01 X8.2149 Y-4.5758
G01 X8.2149 Y-3.8052
G01 X8.1239 Y-3.8052
G01 X8.1239 Y-5.1266
G00 Z2.0000
G00 X7.3456 Y-5.1482
G01 F60.00
G01 Z-0.1500
G01 F240.00
G01 X7.3963 Y-5.1450
G01 X7.4627 Y-5.1313
G01 X7.5218 Y-5.1098
G01 X7.5757 Y-5.0799
G01 X7.6200 Y-5.0445
G01 X7.6570 Y-5.0024
G01 X7.6865 Y-4.9544
G01 X7.6883 Y-4.9499
G01 X7.6061 Y-4.9461
G01 X7.5807 Y-5.0022
G01 X7.5774 Y-5.0088
G01 X7.5735 Y-5.0152
G01 X7.5677 Y-5.0232
G01 X7.5354 Y-5.0632
G01 X7.5273 Y-5.0716
G01 X7.5202 Y-5.0776
G01 X7.4749 Y-5.1106
G01 X7.4668 Y-5.1154
G01 X7.4583 Y-5.1194
G01 X7.4109 Y-5.1376
G01 X7.3990 Y-5.1413
G01 X7.3892 Y-5.1432
G01 X7.3456 Y-5.1482
G00 Z2.0000
G00 X6.8930 Y-4.6771
G01 F60.00
G01 Z-0.1500
G01 F240.00
G01 X6.9016 Y-4.7970
G01 X6.9247 Y-4.8927
G01 X6.9594 Y-4.9690
G01 X7.0046 Y-5.0308
G01 X7.0613 Y-5.0804
G01 X7.1292 Y-5.1168
G01 X7.2139 Y-5.1407
G01 X7.3004 Y-5.1479
G01 X7.2419 Y-5.1395
G01 X7.2347 Y-5.1380
G01 X7.2275 Y-5.1360
G01 X7.2160 Y-5.1314
G01 X7.1575 Y-5.1016
G01 X7.1514 Y-5.0978
G01 X7.1456 Y-5.0936
G01 X7.1367 Y-5.0857
G01 X7.0906 Y-5.0375
G01 X7.0859 Y-5.0320
G01 X7.0803 Y-5.0240
G01 X7.0755 Y-5.0156
G01 X7.0414 Y-4.9478
G01 X7.0364 Y-4.9362
G01 X7.0336 Y-4.9265
G01 X7.0099 Y-4.8280
G01 X7.0082 Y-4.8186
G01 X7.0074 Y-4.8115
G01 X6.9983 Y-4.6723
G01 X6.9981 Y-4.6646
G01 X7.0072 Y-4.5247
G01 X7.0083 Y-4.5151
G01 X7.0098 Y-4.5080
G01 X7.0329 Y-4.4125
G01 X7.0358 Y-4.4027
G01 X7.0408 Y-4.3911
G01 X7.0742 Y-4.3252
G01 X7.0791 Y-4.3168
G01 X7.0847 Y-4.3088
G01 X7.0895 Y-4.3033
G01 X7.1348 Y-4.2563
G01 X7.1437 Y-4.2484
G01 X7.1495 Y-4.2443
G01 X7.1555 Y-4.2406
G01 X7.2132 Y-4.2114
G01 X7.2246 Y-4.2069
G01 X7.2318 Y-4.2048
G01 X7.2390 Y-4.2033
G01 X7.3013 Y-4.1945
G01 X7.2173 Y-4.2016
G01 X7.1321 Y-4.2259
G01 X7.0635 Y-4.2631
G01 X7.0060 Y-4.3140
G01 X6.9603 Y-4.3773
G01 X6.9252 Y-4.4557
G01 X6.9018 Y-4.5540
G01 X6.8930 Y-4.6771
G00 Z2.0000
G00 X7.3192 Y-4.1930
G01 F60.00
G01 Z-0.1500
G01 F240.00
G01 X7.3295 Y-4.1935
G01 X7.3876 Y-4.1998
G01 X7.4000 Y-4.2020
G01 X7.4121 Y-4.2057
G01 X7.4599 Y-4.2240
G01 X7.4686 Y-4.2281
G01 X7.4769 Y-4.2330
G01 X7.5205 Y-4.2665
G01 X7.5292 Y-4.2745
G01 X7.5354 Y-4.2816
G01 X7.5647 Y-4.3203
G01 X7.5702 Y-4.3283
G01 X7.5749 Y-4.3367
G01 X7.5938 Y-4.3783
G01 X7.6742 Y-4.3743
G01 X7.6673 Y-4.3596
G01 X7.6325 Y-4.3121
G01 X7.5883 Y-4.2709
G01 X7.5371 Y-4.2382
G01 X7.4780 Y-4.2139
G01 X7.4082 Y-4.1981
G01 X7.3259 Y-4.1924
G01 X7.3192 Y-4.1930
G00 Z2.0000
G00 X6.1405 Y-5.1450
G01 F60.00
G01 Z-0.1500
G01 F240.00
G01 X6.1995 Y-5.1496
G01 X6.2787 Y-5.1415
G01 X6.3398 Y-5.1204
G01 X6.3904 Y-5.0870
G01 X6.4359 Y-5.0371
G01 X6.4715 Y-4.9759
G01 X6.5003 Y-4.8964
G01 X6.5199 Y-4.7949
G01 X6.5273 Y-4.6668
G01 X6.5202 Y-4.5393
G01 X6.5014 Y-4.4385
G01 X6.4739 Y-4.3604
G01 X6.4403 Y-4.3010
G01 X6.3972 Y-4.2525
G01 X6.3498 Y-4.2205
G01 X6.2925 Y-4.2003
G01 X6.2186 Y-4.1926
G01 X6.1446 Y-4.1995
G01 X6.1707 Y-4.2024
G01 X6.1828 Y-4.2052
G01 X6.1898 Y-4.2076
G01 X6.2402 Y-4.2267
G01 X6.2490 Y-4.2311
G01 X6.2574 Y-4.2364
G01 X6.3031 Y-4.2705
G01 X6.3084 Y-4.2754
G01 X6.3149 Y-4.2826
G01 X6.3479 Y-4.3247
G01 X6.3548 Y-4.3348
G01 X6.3604 Y-4.3456
G01 X6.3886 Y-4.4096
G01 X6.3922 Y-4.4190
G01 X6.3948 Y-4.4287
G01 X6.4144 Y-4.5198
G01 X6.4157 Y-4.5272
G01 X6.4164 Y-4.5347
G01 X6.4239 Y-4.6611
G01 X6.4241 Y-4.6685
G01 X6.4148 Y-4.8119
G01 X6.4137 Y-4.8215
G01 X6.3884 Y-4.9267
G01 X6.3847 Y-4.9388
G01 X6.3805 Y-4.9481
G01 X6.3451 Y-5.0179
G01 X6.3400 Y-5.0262
G01 X6.3342 Y-5.0340
G01 X6.3293 Y-5.0395
G01 X6.2828 Y-5.0876
G01 X6.2737 Y-5.0952
G01 X6.2637 Y-5.1016
G01 X6.2069 Y-5.1304
G01 X6.1955 Y-5.1352
G01 X6.1885 Y-5.1374
G01 X6.1789 Y-5.1395
G01 X6.1405 Y-5.1450
G00 Z2.0000
G00 X5.6701 Y-5.1266
G01 F60.00
G01 Z-0.1500
G01 F240.00
G01 X5.7603 Y-5.1266
G01 X5.7646 Y-5.0400
G01 X5.7665 Y-5.0281
G01 X5.7699 Y-5.0165
G01 X5.7735 Y-5.0076
G01 X5.7781 Y-4.9990
G01 X5.7835 Y-4.9910
G01 X5.7880 Y-4.9853
G01 X5.7947 Y-4.9783
G01 X5.8020 Y-4.9720
G01 X5.8099 Y-4.9664
G01 X5.8167 Y-4.9625
G01 X5.7985 Y-4.9225
G01 X5.7950 Y-4.9132
G01 X5.7931 Y-4.9061
G01 X5.7714 Y-4.8113
G01 X5.7700 Y-4.8001
G01 X5.7621 Y-4.6801
G01 X5.7622 Y-4.6698
G01 X5.7702 Y-4.5468
G01 X5.7716 Y-4.5355
G01 X5.7951 Y-4.4337
G01 X5.7993 Y-4.4217
G01 X5.8126 Y-4.3928
G01 X5.8019 Y-4.3859
G01 X5.7926 Y-4.3782
G01 X5.7844 Y-4.3693
G01 X5.7773 Y-4.3595
G01 X5.7715 Y-4.3490
G01 X5.7670 Y-4.3378
G01 X5.7639 Y-4.3261
G01 X5.7623 Y-4.3142
G01 X5.7620 Y-4.3045
G01 X5.7661 Y-4.1267
G01 X5.7661 Y-3.8052
G01 X5.6751 Y-3.8052
G01 X5.6751 Y-4.9723
G01 X5.6701 Y-5.1266
G00 Z2.0000
G00 X5.6882 Y-6.7130
G01 F60.00
G01 Z-0.1500
G01 F240.00
G01 X5.6985 Y-6.7135
G01 X5.7565 Y-6.7198
G01 X5.7690 Y-6.7220
G01 X5.7811 Y-6.7257
G01 X5.8288 Y-6.7440
G01 X5.8376 Y-6.7481
G01 X5.8458 Y-6.7530
G01 X5.8894 Y-6.7865
G01 X5.8964 Y-6.7928
G01 X5.9043 Y-6.8016
G01 X5.9337 Y-6.8403
G01 X5.9392 Y-6.8483
G01 X5.9438 Y-6.8567
G01 X5.9627 Y-6.8983
G01 X6.0432 Y-6.8943
G01 X6.0362 Y-6.8796
G01 X6.0015 Y-6.8321
G01 X5.9573 Y-6.7909
G01 X5.9061 Y-6.7582
G01 X5.8470 Y-6.7339
G01 X5.7772 Y-6.7181
G01 X5.6948 Y-6.7124
G01 X5.6882 Y-6.7130
G00 Z2.0000
G00 X5.2620 Y-7.1971
G01 F60.00
G01 Z-0.1500
G01 F240.00
G01 X5.2706 Y-7.3170
G01 X5.2937 Y-7.4127
G01 X5.3283 Y-7.4890
G01 X5.3736 Y-7.5508
G01 X5.4303 Y-7.6004
G01 X5.4982 Y-7.6368
G01 X5.5828 Y-7.6607
G01 X5.6693 Y-7.6679
G01 X5.6109 Y-7.6595
G01 X5.6036 Y-7.6580
G01 X5.5964 Y-7.6560
G01 X5.5849 Y-7.6514
G01 X5.5264 Y-7.6216
G01 X5.5203 Y-7.6178
G01 X5.5146 Y-7.6136
G01 X5.5056 Y-7.6057
G01 X5.4596 Y-7.5575
G01 X5.4549 Y-7.5520
G01 X5.4493 Y-7.5440
G01 X5.4445 Y-7.5356
G01 X5.4103 Y-7.4678
G01 X5.4054 Y-7.4562
G01 X5.4025 Y-7.4465
G01 X5.3789 Y-7.3480
G01 X5.3771 Y-7.3386
G01 X5.3764 Y-7.3315
G01 X5.3673 Y-7.1923
G01 X5.3671 Y-7.1846
G01 X5.3762 Y-7.0447
G01 X5.3769 Y-7.0375
G01 X5.3787 Y-7.0280
G01 X5.4019 Y-6.9325
G01 X5.4048 Y-6.9227
G01 X5.4098 Y-6.9111
G01 X5.4432 Y-6.8452
G01 X5.4480 Y-6.8368
G01 X5.4522 Y-6.8308
G01 X5.4584 Y-6.8233
G01 X5.5037 Y-6.7762
G01 X5.5126 Y-6.7684
G01 X5.5184 Y-6.7643
G01 X5.5245 Y-6.7606
G01 X5.5821 Y-6.7314
G01 X5.5936 Y-6.7269
G01 X5.6007 Y-6.7248
G01 X5.6079 Y-6.7233
G01 X5.6702 Y-6.7145
G01 X5.5863 Y-6.7216
G01 X5.5010 Y-6.7459
G01 X5.4324 Y-6.7831
G01 X5.3750 Y-6.8340
G01 X5.3292 Y-6.8973
G01 X5.2941 Y-6.9757
G01 X5.2707 Y-7.0740
G01 X5.2620 Y-7.1971
G00 Z2.0000
G00 X5.7145 Y-7.6682
G01 F60.00
G01 Z-0.1500
G01 F240.00
G01 X5.7653 Y-7.6650
G01 X5.8317 Y-7.6513
G01 X5.8907 Y-7.6298
G01 X5.9446 Y-7.5999
G01 X5.9889 Y-7.5645
G01 X6.0259 Y-7.5224
G01 X6.0555 Y-7.4744
G01 X6.0573 Y-7.4699
G01 X5.9751 Y-7.4661
G01 X5.9497 Y-7.5222
G01 X5.9463 Y-7.5288
G01 X5.9425 Y-7.5352
G01 X5.9367 Y-7.5432
G01 X5.9043 Y-7.5832
G01 X5.8962 Y-7.5916
G01 X5.8891 Y-7.5976
G01 X5.8439 Y-7.6306
G01 X5.8357 Y-7.6354
G01 X5.8272 Y-7.6394
G01 X5.7798 Y-7.6576
G01 X5.7679 Y-7.6613
G01 X5.7582 Y-7.6632
G01 X5.7145 Y-7.6682
G00 Z2.0000
G00 X6.4928 Y-7.6466
G01 F60.00
G01 Z-0.1500
G01 F240.00
G01 X6.5839 Y-7.6466
G01 X6.5840 Y-7.1449
G01 X6.5920 Y-7.0502
G01 X6.5933 Y-7.0407
G01 X6.5955 Y-7.0313
G01 X6.6172 Y-6.9555
G01 X6.6195 Y-6.9485
G01 X6.6232 Y-6.9398
G01 X6.6138 Y-6.9334
G01 X6.6048 Y-6.9255
G01 X6.5968 Y-6.9166
G01 X6.5900 Y-6.9068
G01 X6.5844 Y-6.8962
G01 X6.5801 Y-6.8850
G01 X6.5772 Y-6.8733
G01 X6.5758 Y-6.8614
G01 X6.5757 Y-6.8518
G01 X6.5839 Y-6.6370
G01 X6.5839 Y-6.3252
G01 X6.4928 Y-6.3252
G01 X6.4928 Y-7.6466
G00 Z2.0000
G00 X6.9224 Y-6.7318
G01 F60.00
G01 Z-0.1500
G01 F240.00
G01 X6.9860 Y-6.7399
G01 X6.9934 Y-6.7411
G01 X7.0006 Y-6.7429
G01 X7.0123 Y-6.7471
G01 X7.0609 Y-6.7694
G01 X7.0675 Y-6.7728
G01 X7.0759 Y-6.7781
G01 X7.0856 Y-6.7858
G01 X7.1245 Y-6.8227
G01 X7.1297 Y-6.8280
G01 X7.1345 Y-6.8337
G01 X7.1388 Y-6.8398
G01 X7.1427 Y-6.8462
G01 X7.1715 Y-6.8981
G01 X7.1768 Y-6.9091
G01 X7.1806 Y-6.9206
G01 X7.2003 Y-6.9945
G01 X7.2022 Y-7.0035
G01 X7.2033 Y-7.0127
G01 X7.2109 Y-7.1179
G01 X7.2111 Y-7.6466
G01 X7.3011 Y-7.6466
G01 X7.3011 Y-7.0440
G01 X7.2949 Y-6.9487
G01 X7.2794 Y-6.8786
G01 X7.2574 Y-6.8264
G01 X7.2306 Y-6.7875
G01 X7.1967 Y-6.7564
G01 X7.1559 Y-6.7337
G01 X7.1036 Y-6.7184
G01 X7.0347 Y-6.7125
G01 X6.9727 Y-6.7177
G01 X6.9224 Y-6.7318
G00 Z2.0000
G00 X7.7108 Y-7.1901
G01 F60.00
G01 Z-0.1500
G01 F240.00
G01 X7.7198 Y-7.3082
G01 X7.7442 Y-7.4035
G01 X7.7814 Y-7.4811
G01 X7.8311 Y-7.5456
G01 X7.8930 Y-7.5977
G01 X7.9662 Y-7.6358
G01 X8.0556 Y-7.6605
G01 X8.1135 Y-7.6653
G01 X8.0896 Y-7.6625
G01 X8.0825 Y-7.6611
G01 X8.0754 Y-7.6592
G01 X8.0196 Y-7.6385
G01 X8.0110 Y-7.6346
G01 X8.0028 Y-7.6299
G01 X7.9550 Y-7.5959
G01 X7.9455 Y-7.5877
G01 X7.9387 Y-7.5803
G01 X7.9028 Y-7.5374
G01 X7.8984 Y-7.5317
G01 X7.8944 Y-7.5258
G01 X7.8898 Y-7.5174
G01 X7.8566 Y-7.4491
G01 X7.8520 Y-7.4382
G01 X7.8494 Y-7.4292
G01 X7.8265 Y-7.3344
G01 X7.8252 Y-7.3273
G01 X7.8245 Y-7.3202
G01 X7.8161 Y-7.1967
G01 X7.8161 Y-7.1828
G01 X7.8267 Y-7.0434
G01 X7.8291 Y-7.0320
G01 X7.8549 Y-6.9366
G01 X7.8589 Y-6.9249
G01 X7.8631 Y-6.9160
G01 X7.9023 Y-6.8466
G01 X7.9062 Y-6.8402
G01 X7.9106 Y-6.8341
G01 X7.9155 Y-6.8284
G01 X7.9208 Y-6.8231
G01 X7.9716 Y-6.7756
G01 X7.9813 Y-6.7680
G01 X7.9876 Y-6.7641
G01 X7.9941 Y-6.7606
G01 X8.0579 Y-6.7317
G01 X8.0693 Y-6.7273
G01 X8.0764 Y-6.7254
G01 X8.0837 Y-6.7240
G01 X8.1665 Y-6.7135
G01 X8.1735 Y-6.7130
G01 X8.1808 Y-6.7131
G01 X8.1727 Y-6.7124
G01 X8.0580 Y-6.7217
G01 X7.9666 Y-6.7467
G01 X7.8926 Y-6.7847
G01 X7.8309 Y-6.8362
G01 X7.7813 Y-6.9004
G01 X7.7441 Y-6.9776
G01 X7.7198 Y-7.0725
G01 X7.7108 Y-7.1901
G00 Z2.0000
G00 X8.1857 Y-7.6681
G01 F60.00
G01 Z-0.1500
G01 F240.00
G01 X8.2804 Y-7.6604
G01 X8.3720 Y-7.6355
G01 X8.4467 Y-7.5974
G01 X8.5094 Y-7.5455
G01 X8.5599 Y-7.4811
G01 X8.5975 Y-7.4037
G01 X8.6221 Y-7.3084
G01 X8.6313 Y-7.1898
G01 X8.6222 Y-7.0658
G01 X8.5981 Y-6.9683
G01 X8.5623 Y-6.8919
G01 X8.5157 Y-6.8312
G01 X8.4572 Y-6.7827
G01 X8.3844 Y-6.7462
G01 X8.2915 Y-6.7217
G01 X8.1877 Y-6.7136
G01 X8.2672 Y-6.7244
G01 X8.2744 Y-6.7256
G01 X8.2814 Y-6.7274
G01 X8.2882 Y-6.7296
G01 X8.2949 Y-6.7324
G01 X8.3603 Y-6.7643
G01 X8.3666 Y-6.7678
G01 X8.3725 Y-6.7717
G01 X8.3781 Y-6.7760
G01 X8.3834 Y-6.7808
G01 X8.4358 Y-6.8337
G01 X8.4437 Y-6.8433
G01 X8.4479 Y-6.8495
G01 X8.4516 Y-6.8559
G01 X8.4845 Y-6.9196
G01 X8.4892 Y-6.9302
G01 X8.4926 Y-6.9413
G01 X8.5155 Y-7.0343
G01 X8.5173 Y-7.0440
G01 X8.5181 Y-7.0513
G01 X8.5271 Y-7.1904
G01 X8.5169 Y-7.3307
G01 X8.5158 Y-7.3400
G01 X8.5138 Y-7.3492
G01 X8.4877 Y-7.4453
G01 X8.4837 Y-7.4569
G01 X8.4783 Y-7.4680
G01 X8.4399 Y-7.5359
G01 X8.4345 Y-7.5443
G01 X8.4299 Y-7.5502
G01 X8.4232 Y-7.5576
G01 X8.3700 Y-7.6072
G01 X8.3603 Y-7.6148
G01 X8.3540 Y-7.6187
G01 X8.3475 Y-7.6222
G01 X8.2807 Y-7.6524
G01 X8.2692 Y-7.6564
G01 X8.2572 Y-7.6590
G01 X8.1857 Y-7.6681
G00 Z2.0000
G00 X8.9604 Y-6.7356
G01 F60.00
G01 Z-0.1500
G01 F240.00
G01 X9.2864 Y-7.6466
G01 X9.4928 Y-7.6466
G01 X9.8290 Y-6.7356
G01 X9.7406 Y-6.7356
G01 X9.5275 Y-7.3937
G01 X9.4860 Y-7.5394
G01 X9.4829 Y-7.5485
G01 X9.4799 Y-7.5552
G01 X9.4765 Y-7.5616
G01 X9.4727 Y-7.5678
G01 X9.4683 Y-7.5737
G01 X9.4636 Y-7.5792
G01 X9.4585 Y-7.5843
G01 X9.4530 Y-7.5891
G01 X9.4471 Y-7.5934
G01 X9.4410 Y-7.5973
G01 X9.4346 Y-7.6008
G01 X9.4279 Y-7.6037
G01 X9.4211 Y-7.6062
G01 X9.4141 Y-7.6081
G01 X9.4069 Y-7.6096
G01 X9.3997 Y-7.6104
G01 X9.3925 Y-7.6108
G01 X9.3852 Y-7.6106
G01 X9.3779 Y-7.6099
G01 X9.3708 Y-7.6086
G01 X9.3637 Y-7.6069
G01 X9.3568 Y-7.6046
G01 X9.3501 Y-7.6018
G01 X9.3436 Y-7.5985
G01 X9.3374 Y-7.5947
G01 X9.3315 Y-7.5905
G01 X9.3258 Y-7.5859
G01 X9.3206 Y-7.5809
G01 X9.3142 Y-7.5736
G01 X9.3099 Y-7.5677
G01 X9.3060 Y-7.5616
G01 X9.3026 Y-7.5551
G01 X9.2997 Y-7.5485
G01 X9.2966 Y-7.5393
G01 X9.2242 Y-7.2846
G01 X9.0525 Y-6.7356
G01 X8.9604 Y-6.7356
G00 Z2.0000
G00 X10.1595 Y-7.1861
G01 F60.00
G01 Z-0.1500
G01 F240.00
G01 X10.1683 Y-7.3152
G01 X10.1914 Y-7.4158
G01 X10.2254 Y-7.4933
G01 X10.2685 Y-7.5532
G01 X10.3233 Y-7.6016
G01 X10.3897 Y-7.6372
G01 X10.4732 Y-7.6608
G01 X10.5148 Y-7.6643
G01 X10.5058 Y-7.6629
G01 X10.4987 Y-7.6613
G01 X10.4917 Y-7.6591
G01 X10.4849 Y-7.6565
G01 X10.4248 Y-7.6269
G01 X10.4145 Y-7.6210
G01 X10.4069 Y-7.6155
G01 X10.3999 Y-7.6093
G01 X10.3528 Y-7.5615
G01 X10.3465 Y-7.5544
G01 X10.3408 Y-7.5467
G01 X10.3360 Y-7.5385
G01 X10.3048 Y-7.4797
G01 X10.2996 Y-7.4681
G01 X10.2966 Y-7.4584
G01 X10.2757 Y-7.3782
G01 X10.2740 Y-7.3707
G01 X10.2730 Y-7.3631
G01 X10.2647 Y-7.2501
G01 X10.2647 Y-7.2429
G01 X10.2651 Y-7.2356
G01 X10.2661 Y-7.2285
G01 X10.2676 Y-7.2214
G01 X10.2704 Y-7.2121
G01 X10.2752 Y-7.2010
G01 X10.2813 Y-7.1906
G01 X10.2886 Y-7.1810
G01 X10.2970 Y-7.1724
G01 X10.3045 Y-7.1663
G01 X10.3146 Y-7.1597
G01 X10.3246 Y-7.1547
G01 X10.3144 Y-7.1494
G01 X10.3044 Y-7.1425
G01 X10.2954 Y-7.1344
G01 X10.2889 Y-7.1272
G01 X10.2831 Y-7.1194
G01 X10.2771 Y-7.1090
G01 X10.2732 Y-7.1001
G01 X10.2696 Y-7.0885
G01 X10.2681 Y-7.0814
G01 X10.2670 Y-7.0718
G01 X10.2667 Y-7.0645
G01 X10.2670 Y-7.0572
G01 X10.2760 Y-6.9712
G01 X10.2770 Y-6.9642
G01 X10.2785 Y-6.9572
G01 X10.2996 Y-6.8877
G01 X10.3031 Y-6.8782
G01 X10.3087 Y-6.8668
G01 X10.3380 Y-6.8166
G01 X10.3421 Y-6.8102
G01 X10.3466 Y-6.8041
G01 X10.3534 Y-6.7966
G01 X10.3999 Y-6.7525
G01 X10.4077 Y-6.7464
G01 X10.4140 Y-6.7424
G01 X10.4205 Y-6.7388
G01 X10.4296 Y-6.7346
G01 X10.3931 Y-6.7448
G01 X10.3258 Y-6.7805
G01 X10.2699 Y-6.8290
G01 X10.2257 Y-6.8892
G01 X10.1914 Y-6.9652
G01 X10.1682 Y-7.0624
G01 X10.1595 Y-7.1861
G00 Z2.0000
G00 X10.8501 Y-7.1469
G01 F60.00
G01 Z-0.1500
G01 F240.00
G01 X10.9702 Y-7.1469
G01 X10.9670 Y-7.0943
G01 X10.9444 Y-6.9832
G01 X10.9115 Y-6.8984
G01 X10.8703 Y-6.8334
G01 X10.8298 Y-6.7912
G01 X10.7834 Y-6.7585
G01 X10.7291 Y-6.7342
G01 X10.7245 Y-6.7331
G01 X10.7340 Y-6.7375
G01 X10.7401 Y-6.7409
G01 X10.7479 Y-6.7461
G01 X10.7533 Y-6.7504
G01 X10.7985 Y-6.7909
G01 X10.8054 Y-6.7981
G01 X10.8115 Y-6.8060
G01 X10.8446 Y-6.8584
G01 X10.8502 Y-6.8686
G01 X10.8545 Y-6.8794
G01 X10.8774 Y-6.9474
G01 X10.8806 Y-6.9609
G01 X10.8933 Y-7.0540
G01 X10.8939 Y-7.0660
G01 X10.8931 Y-7.0780
G01 X10.8908 Y-7.0898
G01 X10.8879 Y-7.0989
G01 X10.8842 Y-7.1078
G01 X10.8796 Y-7.1162
G01 X10.8742 Y-7.1241
G01 X10.8664 Y-7.1333
G01 X10.8594 Y-7.1399
G01 X10.8501 Y-7.1469
G00 Z2.0000
G00 X10.7130 Y-7.6537
G01 F60.00
G01 Z-0.1500
G01 F240.00
G01 X10.7647 Y-7.6401
G01 X10.8297 Y-7.6078
G01 X10.8829 Y-7.5648
G01 X10.8916 Y-7.5539
G01 X10.8457 Y-7.5500
G01 X10.8382 Y-7.5617
G01 X10.8305 Y-7.5709
G01 X10.7894 Y-7.6119
G01 X10.7800 Y-7.6201
G01 X10.7719 Y-7.6258
G01 X10.7631 Y-7.6307
G01 X10.7130 Y-7.6537
G00 Z2.0000
G00 X11.3874 Y-6.7356
G01 F60.00
G01 Z-0.1500
G01 F240.00
G01 X11.3904 Y-6.8972
G01 X11.3904 Y-7.6466
G01 X11.4814 Y-7.6466
G01 X11.4817 Y-7.1934
G01 X11.4895 Y-7.0801
G01 X11.4907 Y-7.0703
G01 X11.4922 Y-7.0631
G01 X11.5138 Y-6.9767
G01 X11.5169 Y-6.9674
G01 X11.5217 Y-6.9567
G01 X11.5127 Y-6.9508
G01 X11.5052 Y-6.9446
G01 X11.4984 Y-6.9377
G01 X11.4923 Y-6.9301
G01 X11.4869 Y-6.9220
G01 X11.4824 Y-6.9135
G01 X11.4787 Y-6.9045
G01 X11.4760 Y-6.8952
G01 X11.4741 Y-6.8856
G01 X11.4734 Y-6.8784
G01 X11.4682 Y-6.7540
G01 X11.4668 Y-6.7356
G01 X11.3874 Y-6.7356
G00 Z2.0000
G00 X11.7305 Y-6.7663
G01 F60.00
G01 Z-0.1500
G01 F240.00
G01 X11.7999 Y-6.7563
G01 X11.8114 Y-6.7561
G01 X11.8318 Y-6.7574
G01 X11.8318 Y-6.7135
G01 X11.7982 Y-6.7167
G01 X11.7734 Y-6.7254
G01 X11.7533 Y-6.7393
G01 X11.7317 Y-6.7641
G01 X11.7305 Y-6.7663
G00 Z2.0000
G00 X12.6412 Y-7.5891
G01 F60.00
G01 Z-0.1500
G01 F240.00
G01 X12.9663 Y-7.5891
G01 X12.9782 Y-7.5697
G01 X12.9959 Y-7.5463
G01 X13.0157 Y-7.5248
G01 X13.0338 Y-7.5084
G01 X13.0395 Y-7.5038
G01 X13.0592 Y-7.4893
G01 X13.0865 Y-7.4732
G01 X13.1130 Y-7.4609
G01 X13.1361 Y-7.4526
G01 X13.1516 Y-7.4485
G01 X13.1516 Y-7.1379
G01 X13.1172 Y-7.1410
G01 X12.9763 Y-7.1849
G01 X12.8513 Y-7.2605
G01 X12.7480 Y-7.3638
G01 X12.6724 Y-7.4888
G01 X12.6412 Y-7.5891
G00 Z2.0000
G00 X12.8792 Y-7.4414
G01 F60.00
G01 Z-0.1500
G01 F240.00
G01 X12.8916 Y-7.4414
G01 X12.9053 Y-7.4264
G01 X12.9139 Y-7.4178
G01 X12.9420 Y-7.3926
G01 X12.9515 Y-7.3852
G01 X12.9771 Y-7.3666
G01 X13.0039 Y-7.3502
G01 X13.0039 Y-7.3408
G01 X12.9430 Y-7.3776
G01 X12.8792 Y-7.4414
G00 Z2.0000
G00 X13.8828 Y-7.1410
G01 F60.00
G01 Z-0.1500
G01 F240.00
G01 X13.8484 Y-7.1379
G01 X13.8484 Y-7.4485
G01 X13.8639 Y-7.4526
G01 X13.8870 Y-7.4609
G01 X13.9114 Y-7.4721
G01 X13.9178 Y-7.4755
G01 X13.9408 Y-7.4893
G01 X13.9605 Y-7.5038
G01 X13.9662 Y-7.5084
G01 X13.9843 Y-7.5248
G01 X14.0025 Y-7.5445
G01 X14.0087 Y-7.5520
G01 X14.0232 Y-7.5717
G01 X14.0370 Y-7.5947
G01 X14.0404 Y-7.6011
G01 X14.0516 Y-7.6255
G01 X14.0606 Y-7.6509
G01 X14.0650 Y-7.6678
G01 X14.0804 Y-7.6754
G01 X14.1054 Y-7.6906
G01 X14.1269 Y-7.7067
G01 X14.1469 Y-7.7247
G01 X14.6874 Y-8.2651
G01 X14.6923 Y-8.2465
G01 X14.7022 Y-8.2189
G01 X14.7166 Y-8.1879
G01 X14.7353 Y-8.1564
G01 X14.7541 Y-8.1308
G01 X14.7786 Y-8.1036
G01 X14.8039 Y-8.0806
G01 X14.8314 Y-8.0603
G01 X14.8586 Y-8.0439
G01 X14.8917 Y-8.0281
G01 X14.9239 Y-8.0166
G01 X14.9570 Y-8.0082
G01 X14.9861 Y-8.0038
G01 X14.9957 Y-8.0029
G01 X15.0226 Y-8.0016
G01 X15.1516 Y-8.0016
G01 X15.1516 Y-7.6984
G01 X14.9800 Y-7.6984
G01 X14.8930 Y-7.7073
G01 X14.7478 Y-7.7555
G01 X14.7059 Y-7.7813
G01 X14.6976 Y-7.7856
G01 X14.6889 Y-7.7891
G01 X14.6148 Y-7.8097
G01 X14.6077 Y-7.8113
G01 X14.6004 Y-7.8125
G01 X14.5931 Y-7.8131
G01 X14.5833 Y-7.8130
G01 X14.5736 Y-7.8120
G01 X14.5664 Y-7.8106
G01 X14.4927 Y-7.7877
G01 X14.4835 Y-7.7843
G01 X14.4747 Y-7.7801
G01 X14.4664 Y-7.7749
G01 X14.4586 Y-7.7690
G01 X14.4515 Y-7.7623
G01 X14.4466 Y-7.7569
G01 X14.4003 Y-7.7014
G01 X14.3946 Y-7.6935
G01 X14.3909 Y-7.6873
G01 X14.3867 Y-7.6786
G01 X14.3834 Y-7.6695
G01 X14.3748 Y-7.6418
G01 X14.3731 Y-7.6348
G01 X14.3276 Y-7.4888
G01 X14.2520 Y-7.3638
G01 X14.1487 Y-7.2605
G01 X14.0237 Y-7.1849
G01 X13.8828 Y-7.1410
G00 Z2.0000
G00 X13.9961 Y-7.3408
G01 F60.00
G01 Z-0.1500
G01 F240.00
G01 X13.9961 Y-7.3502
G01 X14.0229 Y-7.3666
G01 X14.0485 Y-7.3852
G01 X14.0580 Y-7.3926
G01 X14.0672 Y-7.4005
G01 X14.0905 Y-7.4220
G01 X14.1160 Y-7.4499
G01 X14.1236 Y-7.4592
G01 X14.1390 Y-7.4798
G01 X14.1459 Y-7.4896
G01 X14.1524 Y-7.4999
G01 X14.1655 Y-7.5219
G01 X14.1712 Y-7.5326
G01 X14.1823 Y-7.5557
G01 X14.1877 Y-7.5680
G01 X14.2005 Y-7.5773
G01 X14.1919 Y-7.5499
G01 X14.1349 Y-7.4555
G01 X14.0570 Y-7.3776
G01 X13.9961 Y-7.3408
G00 Z2.0000
G00 X14.5919 Y-7.9608
G01 F60.00
G01 Z-0.1500
G01 F240.00
G01 X14.6531 Y-8.0220
G01 X14.6700 Y-8.0035
G01 X14.6785 Y-7.9950
G01 X14.7011 Y-7.9744
G01 X14.7150 Y-7.9627
G01 X14.7494 Y-7.9375
G01 X14.7806 Y-7.9184
G01 X14.7965 Y-7.9097
G01 X14.8351 Y-7.8916
G01 X14.8695 Y-7.8790
G01 X14.8810 Y-7.8752
G01 X14.9164 Y-7.8661
G01 X14.9341 Y-7.8623
G01 X14.9764 Y-7.8563
G01 X15.0039 Y-7.8546
G01 X15.0039 Y-7.8461
G01 X14.9876 Y-7.8461
G01 X14.9241 Y-7.8526
G01 X14.8106 Y-7.8902
G01 X14.7804 Y-7.9088
G01 X14.7701 Y-7.9144
G01 X14.7596 Y-7.9196
G01 X14.7489 Y-7.9243
G01 X14.7324 Y-7.9303
G01 X14.6538 Y-7.9521
G01 X14.6419 Y-7.9550
G01 X14.6299 Y-7.9574
G01 X14.6178 Y-7.9591
G01 X14.6056 Y-7.9603
G01 X14.5919 Y-7.9608
G00 Z2.0000
G00 X16.0246 Y-7.8564
G01 F60.00
G01 Z-0.1500
G01 F240.00
G01 X16.0207 Y-7.8470
G01 X16.0124 Y-7.8461
G01 X15.9961 Y-7.8461
G01 X15.9961 Y-7.8546
G01 X16.0246 Y-7.8564
G00 Z2.0000
G00 X16.7246 Y-7.5266
G01 F60.00
G01 Z-0.1500
G01 F240.00
G01 X16.9352 Y-7.5266
G01 X16.9405 Y-7.5061
G01 X16.9503 Y-7.4785
G01 X16.9626 Y-7.4518
G01 X16.9659 Y-7.4454
G01 X16.9811 Y-7.4203
G01 X16.9970 Y-7.3986
G01 X17.0015 Y-7.3930
G01 X17.0180 Y-7.3748
G01 X17.0248 Y-7.3680
G01 X17.0448 Y-7.3500
G01 X17.0664 Y-7.3338
G01 X17.0744 Y-7.3285
G01 X17.0997 Y-7.3136
G01 X17.1262 Y-7.3012
G01 X17.1538 Y-7.2912
G01 X17.1845 Y-7.2833
G01 X17.2016 Y-7.2805
G01 X17.2016 Y-7.0734
G01 X17.1907 Y-7.0734
G01 X17.1692 Y-7.0751
G01 X17.0392 Y-7.1129
G01 X16.9247 Y-7.1806
G01 X16.8306 Y-7.2747
G01 X16.7629 Y-7.3892
G01 X16.7251 Y-7.5192
G01 X16.7246 Y-7.5266
G00 Z2.0000
G00 X16.6117 Y-8.9436
G01 F60.00
G01 Z-0.1500
G01 F240.00
G01 X16.6669 Y-8.9436
G01 X16.6747 Y-8.9222
G01 X16.6821 Y-8.9043
G01 X16.6998 Y-8.8669
G01 X16.7089 Y-8.8498
G01 X16.7302 Y-8.8143
G01 X16.7410 Y-8.7982
G01 X16.7656 Y-8.7650
G01 X16.7779 Y-8.7500
G01 X16.8057 Y-8.7194
G01 X16.8194 Y-8.7057
G01 X16.8500 Y-8.6779
G01 X16.8650 Y-8.6656
G01 X16.8982 Y-8.6410
G01 X16.9143 Y-8.6302
G01 X16.9498 Y-8.6089
G01 X16.9665 Y-8.6000
G01 X16.9415 Y-8.5862
G01 X16.9225 Y-8.5749
G01 X16.9062 Y-8.5645
G01 X16.8904 Y-8.5534
G01 X16.8727 Y-8.5402
G01 X16.8500 Y-8.5221
G01 X16.8194 Y-8.4943
G01 X16.8057 Y-8.4806
G01 X16.7779 Y-8.4500
G01 X16.7656 Y-8.4350
G01 X16.7534 Y-8.4188
G01 X16.6188 Y-8.4188
G01 X16.6187 Y-8.8597
G01 X16.6165 Y-8.9035
G01 X16.6146 Y-8.9227
G01 X16.6117 Y-8.9436
G00 Z2.0000
G00 X18.0335 Y-8.6000
G01 F60.00
G01 Z-0.1500
G01 F240.00
G01 X18.0502 Y-8.6089
G01 X18.0857 Y-8.6302
G01 X18.1018 Y-8.6410
G01 X18.1254 Y-8.6583
G01 X18.1551 Y-8.6441
G01 X18.1808 Y-8.6330
G01 X18.1918 Y-8.6288
G01 X18.2204 Y-8.6189
G01 X18.2473 Y-8.6111
G01 X18.2768 Y-8.6040
G01 X18.3043 Y-8.5989
G01 X18.3343 Y-8.5948
G01 X18.3461 Y-8.5936
G01 X18.3622 Y-8.5923
G01 X18.3857 Y-8.5914
G01 X18.3979 Y-8.5828
G01 X18.4142 Y-8.5725
G01 X18.4352 Y-8.5601
G01 X18.4542 Y-8.5500
G01 X18.4352 Y-8.5399
G01 X18.4142 Y-8.5275
G01 X18.3979 Y-8.5172
G01 X18.3859 Y-8.5088
G01 X18.1648 Y-8.5088
G01 X18.1500 Y-8.5221
G01 X18.1350 Y-8.5344
G01 X18.1018 Y-8.5590
G01 X18.0775 Y-8.5749
G01 X18.0502 Y-8.5911
G01 X18.0335 Y-8.6000
G00 Z2.0000
G00 X18.3794 Y-9.8612
G01 F60.00
G01 Z-0.1500
G01 F240.00
G01 X18.3859 Y-9.8612
G01 X18.4048 Y-9.8484
G01 X18.3794 Y-9.8612
G00 Z2.0000
G00 X18.2731 Y-10.7534
G01 F60.00
G01 Z-0.1500
G01 F240.00
G01 X18.3027 Y-10.8284
G01 X18.3777 Y-10.9273
G01 X18.4766 Y-11.0023
G01 X18.5929 Y-11.0481
G01 X18.6628 Y-11.0566
G01 X19.0766 Y-11.0566
G01 X19.0766 Y-10.8534
G01 X18.7000 Y-10.8534
G01 X18.6732 Y-10.8520
G01 X18.6515 Y-10.8487
G01 X18.6279 Y-10.8428
G01 X18.6049 Y-10.8345
G01 X18.5808 Y-10.8229
G01 X18.5620 Y-10.8116
G01 X18.5405 Y-10.7955
G01 X18.5226 Y-10.7790
G01 X18.5095 Y-10.7645
G01 X18.5010 Y-10.7534
G01 X18.2731 Y-10.7534
G00 Z2.0000
G00 X16.3092 Y-10.8484
G01 F60.00
G01 Z-0.1500
G01 F240.00
G01 X16.3069 Y-10.8557
G01 X16.2969 Y-10.8833
G01 X16.2823 Y-10.9143
G01 X16.2647 Y-10.9436
G01 X16.2444 Y-10.9711
G01 X16.2214 Y-10.9964
G01 X16.1961 Y-11.0194
G01 X16.1686 Y-11.0397
G01 X16.1393 Y-11.0573
G01 X16.1083 Y-11.0719
G01 X16.0761 Y-11.0834
G01 X16.0430 Y-11.0918
G01 X16.0139 Y-11.0962
G01 X16.0043 Y-11.0971
G01 X15.9774 Y-11.0984
G01 X15.8484 Y-11.0984
G01 X15.8484 Y-11.4015
G01 X16.0200 Y-11.4015
G01 X16.1070 Y-11.3927
G01 X16.2522 Y-11.3445
G01 X16.3819 Y-11.2646
G01 X16.4896 Y-11.1569
G01 X16.5695 Y-11.0272
G01 X16.6177 Y-10.8820
G01 X16.6211 Y-10.8484
G01 X16.3092 Y-10.8484
G00 Z2.0000
G00 X15.9961 Y-11.2454
G01 F60.00
G01 Z-0.1500
G01 F240.00
G01 X15.9961 Y-11.2539
G01 X16.0124 Y-11.2539
G01 X16.0759 Y-11.2474
G01 X16.1894 Y-11.2098
G01 X16.2897 Y-11.1479
G01 X16.3729 Y-11.0647
G01 X16.4152 Y-10.9961
G01 X16.4055 Y-10.9961
G01 X16.3875 Y-11.0256
G01 X16.3623 Y-11.0600
G01 X16.3546 Y-11.0694
G01 X16.3341 Y-11.0921
G01 X16.3215 Y-11.1050
G01 X16.2944 Y-11.1296
G01 X16.2802 Y-11.1409
G01 X16.2506 Y-11.1625
G01 X16.2194 Y-11.1816
G01 X16.2035 Y-11.1903
G01 X16.1649 Y-11.2084
G01 X16.1305 Y-11.2210
G01 X16.1132 Y-11.2264
G01 X16.0836 Y-11.2339
G01 X16.0659 Y-11.2377
G01 X16.0236 Y-11.2437
G01 X15.9961 Y-11.2454
G00 Z2.0000
G00 X14.6516 Y-11.6143
G01 F60.00
G01 Z-0.1500
G01 F240.00
G01 X14.6517 Y-14.0826
G01 X14.6526 Y-14.0919
G01 X14.6576 Y-14.1268
G01 X14.6601 Y-14.1390
G01 X14.6641 Y-14.1507
G01 X14.6704 Y-14.1631
G01 X14.6724 Y-14.1697
G01 X14.6749 Y-14.1765
G01 X14.6780 Y-14.1830
G01 X14.6828 Y-14.1914
G01 X14.6870 Y-14.1973
G01 X14.6915 Y-14.2029
G01 X14.7041 Y-14.2158
G01 X14.7142 Y-14.2309
G01 X14.7188 Y-14.2365
G01 X14.7256 Y-14.2436
G01 X14.7350 Y-14.2513
G01 X14.7411 Y-14.2554
G01 X14.7488 Y-14.2597
G01 X14.7594 Y-14.2682
G01 X14.7677 Y-14.2733
G01 X14.7743 Y-14.2766
G01 X14.7810 Y-14.2794
G01 X14.7880 Y-14.2817
G01 X14.8057 Y-14.2857
G01 X14.8222 Y-14.2930
G01 X14.8292 Y-14.2953
G01 X14.8363 Y-14.2970
G01 X14.8436 Y-14.2982
G01 X14.8509 Y-14.2989
G01 X14.8582 Y-14.2991
G01 X14.8669 Y-14.2985
G01 X14.8751 Y-14.2996
G01 X14.8821 Y-14.2999
G01 X14.8891 Y-14.2998
G01 X14.9132 Y-14.2979
G01 X16.2118 Y-14.2979
G01 X16.2348 Y-14.2998
G01 X16.3742 Y-14.3402
G01 X16.3833 Y-14.3422
G01 X16.4225 Y-14.3478
G01 X16.4340 Y-14.3484
G01 X16.6510 Y-14.3484
G01 X16.6595 Y-14.3595
G01 X16.6726 Y-14.3740
G01 X16.6905 Y-14.3905
G01 X16.7120 Y-14.4066
G01 X16.7308 Y-14.4179
G01 X16.7549 Y-14.4295
G01 X16.7779 Y-14.4378
G01 X16.8015 Y-14.4437
G01 X16.8209 Y-14.4467
G01 X16.8305 Y-14.4476
G01 X16.8500 Y-14.4484
G01 X18.0298 Y-14.4483
G01 X18.0494 Y-14.4473
G01 X18.0687 Y-14.4445
G01 X18.0782 Y-14.4426
G01 X18.0971 Y-14.4378
G01 X18.1201 Y-14.4295
G01 X18.1378 Y-14.4213
G01 X18.1463 Y-14.4167
G01 X18.1630 Y-14.4066
G01 X18.1826 Y-14.3921
G01 X18.1972 Y-14.3790
G01 X18.2040 Y-14.3722
G01 X18.2171 Y-14.3576
G01 X18.2288 Y-14.3420
G01 X18.2342 Y-14.3339
G01 X18.2441 Y-14.3171
G01 X18.2530 Y-14.2985
G01 X19.1774 Y-14.2985
G01 X19.1994 Y-14.2973
G01 X19.2258 Y-14.2932
G01 X19.2494 Y-14.2871
G01 X19.2701 Y-14.2796
G01 X19.2834 Y-14.2734
G01 X19.7500 Y-14.2734
G01 X19.7817 Y-14.2719
G01 X19.8107 Y-14.2677
G01 X19.8439 Y-14.2595
G01 X19.8693 Y-14.2506
G01 X19.8782 Y-14.2469
G01 X19.9025 Y-14.2353
G01 X19.9256 Y-14.2215
G01 X19.9336 Y-14.2162
G01 X19.9552 Y-14.2000
G01 X19.9787 Y-14.1787
G01 X19.9969 Y-14.1589
G01 X20.0030 Y-14.1514
G01 X20.0189 Y-14.1297
G01 X20.0329 Y-14.1067
G01 X20.0364 Y-14.1003
G01 X20.0479 Y-14.0760
G01 X20.0595 Y-14.0439
G01 X20.0672 Y-14.0131
G01 X20.0719 Y-13.9817
G01 X20.0734 Y-13.9524
G01 X20.0734 Y-13.4976
G01 X20.0719 Y-13.4683
G01 X20.0667 Y-13.4345
G01 X20.0595 Y-13.4061
G01 X20.0506 Y-13.3807
G01 X20.0469 Y-13.3718
G01 X20.0353 Y-13.3475
G01 X20.0189 Y-13.3203
G01 X20.0030 Y-13.2986
G01 X19.9969 Y-13.2911
G01 X19.9770 Y-13.2696
G01 X19.9552 Y-13.2500
G01 X19.9336 Y-13.2338
G01 X19.9256 Y-13.2285
G01 X19.9003 Y-13.2136
G01 X19.8738 Y-13.2012
G01 X19.8462 Y-13.1912
G01 X19.8155 Y-13.1833
G01 X19.7984 Y-13.1805
G01 X19.7984 Y-12.9734
G01 X19.8093 Y-12.9734
G01 X19.8358 Y-12.9755
G01 X19.8450 Y-12.9770
G01 X19.8524 Y-12.9778
G01 X19.8599 Y-12.9779
G01 X19.8699 Y-12.9773
G01 X19.9415 Y-12.9670
G01 X19.9487 Y-12.9657
G01 X19.9558 Y-12.9638
G01 X19.9650 Y-12.9606
G01 X19.9739 Y-12.9564
G01 X19.9823 Y-12.9514
G01 X19.9920 Y-12.9439
G01 X20.0466 Y-12.8966
G01 X20.0551 Y-12.8878
G01 X20.0625 Y-12.8780
G01 X20.0663 Y-12.8718
G01 X20.0696 Y-12.8652
G01 X20.0741 Y-12.8539
G01 X20.0945 Y-12.7845
G01 X20.0971 Y-12.7731
G01 X20.0980 Y-12.7661
G01 X20.0984 Y-12.7568
G01 X20.0984 Y-11.2790
G01 X20.0978 Y-11.2673
G01 X20.0962 Y-11.2581
G01 X20.0838 Y-11.2018
G01 X20.0816 Y-11.1947
G01 X20.0789 Y-11.1879
G01 X20.0733 Y-11.1770
G01 X20.0693 Y-11.1708
G01 X20.0648 Y-11.1649
G01 X20.0141 Y-11.1066
G01 X20.0089 Y-11.1015
G01 X20.0013 Y-11.0953
G01 X19.9931 Y-11.0899
G01 X19.9867 Y-11.0864
G01 X19.9800 Y-11.0834
G01 X19.9731 Y-11.0809
G01 X19.9037 Y-11.0605
G01 X19.8946 Y-11.0583
G01 X19.8854 Y-11.0570
G01 X19.8760 Y-11.0566
G01 X19.6734 Y-11.0566
G01 X19.6734 Y-10.8534
G01 X20.0500 Y-10.8534
G01 X20.0744 Y-10.8523
G01 X20.0985 Y-10.8487
G01 X20.1221 Y-10.8428
G01 X20.1451 Y-10.8345
G01 X20.1671 Y-10.8241
G01 X20.1880 Y-10.8116
G01 X20.2076 Y-10.7971
G01 X20.2257 Y-10.7807
G01 X20.2421 Y-10.7626
G01 X20.2538 Y-10.7470
G01 X20.2592 Y-10.7389
G01 X20.2691 Y-10.7221
G01 X20.2776 Y-10.7045
G01 X20.2804 Y-10.6978
G01 X20.2870 Y-10.6794
G01 X20.2937 Y-10.6535
G01 X20.2975 Y-10.6269
G01 X20.2984 Y-10.6050
G01 X20.2984 Y-10.3050
G01 X20.2973 Y-10.2806
G01 X20.2941 Y-10.2589
G01 X20.2878 Y-10.2329
G01 X20.2813 Y-10.2144
G01 X20.2776 Y-10.2055
G01 X20.2691 Y-10.1879
G01 X20.2592 Y-10.1711
G01 X20.2538 Y-10.1630
G01 X20.2421 Y-10.1474
G01 X20.2257 Y-10.1293
G01 X20.2113 Y-10.1161
G01 X20.2038 Y-10.1100
G01 X20.1880 Y-10.0984
G01 X20.1713 Y-10.0883
G01 X20.1650 Y-10.0848
G01 X20.1473 Y-10.0764
G01 X20.1221 Y-10.0672
G01 X20.0985 Y-10.0613
G01 X20.0744 Y-10.0577
G01 X20.0524 Y-10.0566
G01 X18.6952 Y-10.0567
G01 X18.6781 Y-10.0575
G01 X18.6709 Y-10.0583
G01 X18.6515 Y-10.0613
G01 X18.6325 Y-10.0660
G01 X18.6256 Y-10.0680
G01 X18.6072 Y-10.0746
G01 X18.5850 Y-10.0848
G01 X18.5620 Y-10.0984
G01 X18.5405 Y-10.1145
G01 X18.5226 Y-10.1310
G01 X18.5095 Y-10.1455
G01 X18.5010 Y-10.1566
G01 X18.0998 Y-10.1566
G01 X18.0776 Y-10.1577
G01 X18.0680 Y-10.1591
G01 X18.0550 Y-10.1625
G01 X18.0426 Y-10.1646
G01 X18.0324 Y-10.1670
G01 X17.8770 Y-10.2185
G01 X17.7933 Y-10.2270
G01 X17.3841 Y-10.2271
G01 X17.3478 Y-10.2305
G01 X17.3017 Y-10.2396
G01 X16.4358 Y-10.2396
G01 X16.3219 Y-10.2169
G01 X16.3176 Y-10.1868
G01 X16.3157 Y-10.1773
G01 X16.3084 Y-10.1489
G01 X16.2969 Y-10.1167
G01 X16.2823 Y-10.0857
G01 X16.2673 Y-10.0605
G01 X16.2619 Y-10.0525
G01 X16.2459 Y-10.0308
G01 X16.2412 Y-10.0253
G01 X16.2214 Y-10.0036
G01 X16.1961 Y-9.9806
G01 X16.1686 Y-9.9603
G01 X16.1435 Y-9.9451
G01 X16.1371 Y-9.9416
G01 X16.1128 Y-9.9300
G01 X16.1038 Y-9.9263
G01 X16.0761 Y-9.9166
G01 X16.0453 Y-9.9087
G01 X16.0092 Y-9.9032
G01 X15.9750 Y-9.9016
G01 X15.0250 Y-9.9016
G01 X14.9957 Y-9.9029
G01 X14.9861 Y-9.9038
G01 X14.9570 Y-9.9082
G01 X14.9262 Y-9.9159
G01 X14.8917 Y-9.9281
G01 X14.8651 Y-9.9405
G01 X14.8565 Y-9.9451
G01 X14.8314 Y-9.9603
G01 X14.8078 Y-9.9777
G01 X14.8003 Y-9.9838
G01 X14.7786 Y-10.0036
G01 X14.7588 Y-10.0253
G01 X14.7527 Y-10.0328
G01 X14.7353 Y-10.0564
G01 X14.7201 Y-10.0815
G01 X14.7155 Y-10.0901
G01 X14.7031 Y-10.1167
G01 X14.6909 Y-10.1512
G01 X14.6832 Y-10.1820
G01 X14.6788 Y-10.2111
G01 X14.6779 Y-10.2207
G01 X14.6766 Y-10.2476
G01 X14.6766 Y-10.7500
G01 X14.6782 Y-10.7842
G01 X14.6824 Y-10.8132
G01 X14.6843 Y-10.8227
G01 X14.6916 Y-10.8511
G01 X14.7031 Y-10.8833
G01 X14.7177 Y-10.9143
G01 X14.7353 Y-10.9436
G01 X14.7556 Y-10.9711
G01 X14.7786 Y-10.9964
G01 X14.8039 Y-11.0194
G01 X14.8275 Y-11.0369
G01 X14.8355 Y-11.0423
G01 X14.8607 Y-11.0573
G01 X14.8917 Y-11.0719
G01 X14.9239 Y-11.0834
G01 X14.9594 Y-11.0922
G01 X14.9908 Y-11.0968
G01 X15.0226 Y-11.0984
G01 X15.1515 Y-11.0984
G01 X15.1515 Y-11.4015
G01 X14.9800 Y-11.4015
G01 X14.8966 Y-11.3930
G01 X14.8848 Y-11.3925
G01 X14.8729 Y-11.3935
G01 X14.8041 Y-11.4048
G01 X14.7921 Y-11.4079
G01 X14.7829 Y-11.4114
G01 X14.7763 Y-11.4146
G01 X14.7699 Y-11.4183
G01 X14.7638 Y-11.4225
G01 X14.7580 Y-11.4271
G01 X14.7016 Y-11.4762
G01 X14.6933 Y-11.4852
G01 X14.6875 Y-11.4930
G01 X14.6837 Y-11.4993
G01 X14.6804 Y-11.5058
G01 X14.6775 Y-11.5126
G01 X14.6752 Y-11.5195
G01 X14.6543 Y-11.5911
G01 X14.6522 Y-11.6026
G01 X14.6516 Y-11.6143
G00 Z2.0000
G00 X14.1738 Y-12.0500
G01 F60.00
G01 Z-0.1500
G01 F240.00
G01 X14.1869 Y-12.0585
G01 X14.2085 Y-12.0737
G01 X14.2085 Y-12.0263
G01 X14.1869 Y-12.0415
G01 X14.1738 Y-12.0500
G00 Z2.0000
G00 X13.1968 Y-12.0821
G01 F60.00
G01 Z-0.1500
G01 F240.00
G01 X13.2250 Y-12.0812
G01 X13.7750 Y-12.0812
G01 X13.8139 Y-12.0826
G01 X13.8332 Y-12.0841
G01 X13.8524 Y-12.0864
G01 X13.8813 Y-12.0908
G01 X13.9003 Y-12.0946
G01 X13.9287 Y-12.1016
G01 X13.9474 Y-12.1068
G01 X13.9842 Y-12.1194
G01 X14.0022 Y-12.1264
G01 X14.0377 Y-12.1426
G01 X14.0634 Y-12.1560
G01 X14.0968 Y-12.1760
G01 X14.1207 Y-12.1924
G01 X14.1517 Y-12.2160
G01 X14.1663 Y-12.2286
G01 X14.1880 Y-12.2484
G01 X14.2082 Y-12.2691
G01 X14.2340 Y-12.2983
G01 X14.2576 Y-12.3293
G01 X14.2740 Y-12.3532
G01 X14.2940 Y-12.3866
G01 X14.3074 Y-12.4123
G01 X14.3236 Y-12.4478
G01 X14.3372 Y-12.4843
G01 X14.3459 Y-12.5119
G01 X14.3562 Y-12.5535
G01 X14.3562 Y-11.6143
G01 X14.3572 Y-11.5862
G01 X14.3602 Y-11.5583
G01 X14.3652 Y-11.5306
G01 X14.3696 Y-11.5124
G01 X14.3947 Y-11.4270
G01 X14.4047 Y-11.3994
G01 X14.4125 Y-11.3815
G01 X14.4212 Y-11.3639
G01 X14.4307 Y-11.3469
G01 X14.4411 Y-11.3303
G01 X14.4581 Y-11.3064
G01 X14.4705 Y-11.2913
G01 X14.4836 Y-11.2767
G01 X14.5045 Y-11.2562
G01 X14.5667 Y-11.2021
G01 X14.5400 Y-11.1731
G01 X14.5273 Y-11.1584
G01 X14.5154 Y-11.1432
G01 X14.5008 Y-11.1235
G01 X14.4844 Y-11.0996
G01 X14.4667 Y-11.0703
G01 X14.4572 Y-11.0535
G01 X14.4485 Y-11.0362
G01 X14.4340 Y-11.0053
G01 X14.4266 Y-10.9874
G01 X14.4150 Y-10.9552
G01 X14.4062 Y-10.9276
G01 X14.3978 Y-10.8945
G01 X14.3936 Y-10.8756
G01 X14.3903 Y-10.8566
G01 X14.3867 Y-10.8323
G01 X14.3843 Y-10.8131
G01 X14.3829 Y-10.7938
G01 X14.3813 Y-10.7597
G01 X14.3812 Y-10.2500
G01 X14.3816 Y-10.2314
G01 X14.1691 Y-10.2314
G01 X14.1591 Y-10.2403
G01 X14.1439 Y-10.2527
G01 X14.1439 Y-10.5598
G01 X14.1663 Y-10.5786
G01 X14.1949 Y-10.6051
G01 X14.2214 Y-10.6337
G01 X14.2340 Y-10.6483
G01 X14.2459 Y-10.6635
G01 X14.2687 Y-10.6951
G01 X14.2892 Y-10.7283
G01 X14.2987 Y-10.7451
G01 X14.3074 Y-10.7623
G01 X14.3236 Y-10.7978
G01 X14.3306 Y-10.8158
G01 X14.3432 Y-10.8526
G01 X14.3532 Y-10.8903
G01 X14.3574 Y-10.9092
G01 X14.3607 Y-10.9282
G01 X14.3659 Y-10.9668
G01 X14.3683 Y-11.0057
G01 X14.3688 Y-11.0250
G01 X14.3688 Y-11.4250
G01 X14.3674 Y-11.4639
G01 X14.3649 Y-11.4928
G01 X14.3592 Y-11.5313
G01 X14.3532 Y-11.5597
G01 X14.3432 Y-11.5974
G01 X14.3306 Y-11.6342
G01 X14.3198 Y-11.6611
G01 X14.3031 Y-11.6963
G01 X14.2940 Y-11.7134
G01 X14.2740 Y-11.7468
G01 X14.2633 Y-11.7629
G01 X14.2401 Y-11.7942
G01 X14.2278 Y-11.8091
G01 X14.2082 Y-11.8309
G01 X14.1880 Y-11.8516
G01 X14.1663 Y-11.8714
G01 X14.1517 Y-11.8840
G01 X14.1365 Y-11.8959
G01 X14.1129 Y-11.9133
G01 X14.0968 Y-11.9240
G01 X14.0634 Y-11.9440
G01 X14.0463 Y-11.9531
G01 X14.0199 Y-11.9658
G01 X14.0022 Y-11.9736
G01 X13.9842 Y-11.9806
G01 X13.9474 Y-11.9932
G01 X13.9287 Y-11.9984
G01 X13.9003 Y-12.0054
G01 X13.8718 Y-12.0107
G01 X13.8332 Y-12.0159
G01 X13.8139 Y-12.0174
G01 X13.7847 Y-12.0187
G01 X13.2250 Y-12.0188
G01 X13.2000 Y-12.0180
G01 X13.2002 Y-12.0330
G01 X13.1996 Y-12.0519
G01 X13.1981 Y-12.0709
G01 X13.1968 Y-12.0821
G00 Z2.0000
G00 X13.1514 Y-10.7360
G01 F60.00
G01 Z-0.1500
G01 F240.00
G01 X13.1361 Y-10.7401
G01 X13.1130 Y-10.7484
G01 X13.0886 Y-10.7596
G01 X13.0822 Y-10.7630
G01 X13.0592 Y-10.7768
G01 X13.0395 Y-10.7913
G01 X13.0320 Y-10.7975
G01 X13.0123 Y-10.8157
G01 X12.9943 Y-10.8357
G01 X12.9796 Y-10.8552
G01 X12.9743 Y-10.8633
G01 X12.9618 Y-10.8843
G01 X12.9512 Y-10.9064
G01 X12.9475 Y-10.9153
G01 X12.9394 Y-10.9384
G01 X12.9323 Y-10.9668
G01 X12.9280 Y-10.9957
G01 X12.9266 Y-11.0250
G01 X12.9266 Y-11.4250
G01 X12.9278 Y-11.4518
G01 X12.9315 Y-11.4785
G01 X12.9333 Y-11.4879
G01 X12.9394 Y-11.5116
G01 X12.9475 Y-11.5347
G01 X12.9512 Y-11.5436
G01 X12.9618 Y-11.5657
G01 X12.9782 Y-11.5928
G01 X12.9943 Y-11.6143
G01 X13.0157 Y-11.6377
G01 X13.0376 Y-11.6572
G01 X13.0572 Y-11.6718
G01 X13.0633 Y-11.6757
G01 X13.0865 Y-11.6893
G01 X13.1086 Y-11.6998
G01 X13.1153 Y-11.7025
G01 X13.1384 Y-11.7106
G01 X13.1621 Y-11.7167
G01 X13.1692 Y-11.7182
G01 X13.1910 Y-11.7214
G01 X13.2006 Y-11.7224
G01 X13.2250 Y-11.7234
G01 X13.7750 Y-11.7234
G01 X13.8043 Y-11.7220
G01 X13.8285 Y-11.7185
G01 X13.8379 Y-11.7167
G01 X13.8616 Y-11.7106
G01 X13.8870 Y-11.7016
G01 X13.9114 Y-11.6904
G01 X13.9199 Y-11.6858
G01 X13.9408 Y-11.6732
G01 X13.9643 Y-11.6557
G01 X13.9860 Y-11.6360
G01 X14.0025 Y-11.6180
G01 X14.0087 Y-11.6105
G01 X14.0218 Y-11.5928
G01 X14.0257 Y-11.5867
G01 X14.0382 Y-11.5657
G01 X14.0507 Y-11.5392
G01 X14.0606 Y-11.5116
G01 X14.0667 Y-11.4879
G01 X14.0685 Y-11.4785
G01 X14.0720 Y-11.4543
G01 X14.0734 Y-11.4250
G01 X14.0734 Y-11.0226
G01 X14.0720 Y-10.9957
G01 X14.0685 Y-10.9715
G01 X14.0667 Y-10.9621
G01 X14.0606 Y-10.9384
G01 X14.0525 Y-10.9153
G01 X14.0488 Y-10.9064
G01 X14.0382 Y-10.8843
G01 X14.0257 Y-10.8633
G01 X14.0204 Y-10.8552
G01 X14.0057 Y-10.8357
G01 X13.9843 Y-10.8123
G01 X13.9662 Y-10.7959
G01 X13.9605 Y-10.7913
G01 X13.9408 Y-10.7768
G01 X13.9178 Y-10.7630
G01 X13.9114 Y-10.7596
G01 X13.8870 Y-10.7484
G01 X13.8639 Y-10.7401
G01 X13.8486 Y-10.7360
G01 X13.8486 Y-10.0765
G01 X13.8639 Y-10.0724
G01 X13.8870 Y-10.0641
G01 X13.9135 Y-10.0518
G01 X13.9408 Y-10.0357
G01 X13.9605 Y-10.0212
G01 X13.9662 Y-10.0166
G01 X13.9843 Y-10.0002
G01 X14.0041 Y-9.9787
G01 X14.0218 Y-9.9553
G01 X14.0336 Y-9.9361
G01 X14.7500 Y-9.9361
G01 X14.7793 Y-9.9348
G01 X14.7890 Y-9.9338
G01 X14.8180 Y-9.9294
G01 X14.8535 Y-9.9203
G01 X14.8856 Y-9.9086
G01 X14.9122 Y-9.8960
G01 X14.9293 Y-9.8860
G01 X16.3207 Y-9.8860
G01 X16.3378 Y-9.8960
G01 X16.3644 Y-9.9086
G01 X16.3942 Y-9.9195
G01 X16.4011 Y-9.9217
G01 X16.4320 Y-9.9294
G01 X16.4610 Y-9.9338
G01 X16.4707 Y-9.9348
G01 X16.4976 Y-9.9360
G01 X17.2375 Y-9.9361
G01 X17.2668 Y-9.9348
G01 X17.2765 Y-9.9338
G01 X17.3055 Y-9.9294
G01 X17.3297 Y-9.9234
G01 X17.7500 Y-9.9234
G01 X17.7769 Y-9.9222
G01 X17.7841 Y-9.9216
G01 X17.8083 Y-9.9181
G01 X17.8178 Y-9.9162
G01 X17.8439 Y-9.9095
G01 X17.8738 Y-9.8988
G01 X17.9025 Y-9.8853
G01 X17.9256 Y-9.8715
G01 X17.9336 Y-9.8662
G01 X17.9570 Y-9.8485
G01 X17.9787 Y-9.8287
G01 X17.9969 Y-9.8089
G01 X18.0015 Y-9.8033
G01 X18.0162 Y-9.7836
G01 X18.0215 Y-9.7756
G01 X18.0353 Y-9.7525
G01 X18.0488 Y-9.7238
G01 X18.0595 Y-9.6939
G01 X18.0655 Y-9.6706
G01 X18.0744 Y-9.6694
G01 X18.0856 Y-9.6673
G01 X18.1031 Y-9.6631
G01 X18.1117 Y-9.6607
G01 X18.1332 Y-9.6533
G01 X18.1556 Y-9.6434
G01 X18.4713 Y-9.4835
G01 X18.5011 Y-9.4835
G01 X18.5095 Y-9.4945
G01 X18.5226 Y-9.5090
G01 X18.5405 Y-9.5255
G01 X18.5620 Y-9.5416
G01 X18.5787 Y-9.5517
G01 X18.5872 Y-9.5563
G01 X18.6072 Y-9.5654
G01 X18.6302 Y-9.5734
G01 X18.6539 Y-9.5791
G01 X18.6732 Y-9.5820
G01 X18.6805 Y-9.5826
G01 X18.7000 Y-9.5834
G01 X20.0500 Y-9.5834
G01 X20.0744 Y-9.5823
G01 X20.0937 Y-9.5795
G01 X20.1032 Y-9.5776
G01 X20.1221 Y-9.5728
G01 X20.1406 Y-9.5663
G01 X20.1495 Y-9.5626
G01 X20.1671 Y-9.5541
G01 X20.1860 Y-9.5429
G01 X20.1920 Y-9.5388
G01 X20.2095 Y-9.5255
G01 X20.2257 Y-9.5107
G01 X20.2389 Y-9.4963
G01 X20.2450 Y-9.4888
G01 X20.2566 Y-9.4730
G01 X20.2667 Y-9.4563
G01 X20.2713 Y-9.4478
G01 X20.2795 Y-9.4301
G01 X20.2870 Y-9.4094
G01 X20.2926 Y-9.3882
G01 X20.2945 Y-9.3787
G01 X20.2973 Y-9.3594
G01 X20.2984 Y-9.3374
G01 X20.2984 Y-9.0326
G01 X20.2970 Y-9.0082
G01 X20.2941 Y-8.9889
G01 X20.2926 Y-8.9818
G01 X20.2878 Y-8.9629
G01 X20.2795 Y-8.9399
G01 X20.2691 Y-8.9179
G01 X20.2592 Y-8.9011
G01 X20.2538 Y-8.8930
G01 X20.2405 Y-8.8755
G01 X20.2257 Y-8.8593
G01 X20.2095 Y-8.8445
G01 X20.1920 Y-8.8312
G01 X20.1839 Y-8.8258
G01 X20.1671 Y-8.8159
G01 X20.1451 Y-8.8055
G01 X20.1221 Y-8.7972
G01 X20.1032 Y-8.7924
G01 X20.0937 Y-8.7905
G01 X20.0768 Y-8.7880
G01 X20.0695 Y-8.7874
G01 X20.0500 Y-8.7866
G01 X18.7000 Y-8.7866
G01 X18.6732 Y-8.7880
G01 X18.6515 Y-8.7913
G01 X18.6279 Y-8.7972
G01 X18.6049 Y-8.8055
G01 X18.5808 Y-8.8171
G01 X18.5620 Y-8.8284
G01 X18.5405 Y-8.8445
G01 X18.5226 Y-8.8610
G01 X18.5095 Y-8.8755
G01 X18.5011 Y-8.8865
G01 X18.4000 Y-8.8865
G01 X18.3773 Y-8.8873
G01 X18.3659 Y-8.8885
G01 X18.3418 Y-8.8922
G01 X18.3219 Y-8.8969
G01 X18.3133 Y-8.8993
G01 X18.2918 Y-8.9067
G01 X18.2835 Y-8.9101
G01 X18.2672 Y-8.9176
G01 X18.0495 Y-9.0279
G01 X18.0353 Y-8.9975
G01 X18.0215 Y-8.9744
G01 X18.0162 Y-8.9664
G01 X18.0000 Y-8.9448
G01 X17.9820 Y-8.9248
G01 X17.9752 Y-8.9180
G01 X17.9552 Y-8.9000
G01 X17.9297 Y-8.8811
G01 X17.9067 Y-8.8671
G01 X17.8982 Y-8.8626
G01 X17.8760 Y-8.8521
G01 X17.8693 Y-8.8494
G01 X17.8439 Y-8.8405
G01 X17.8178 Y-8.8338
G01 X17.8083 Y-8.8319
G01 X17.7817 Y-8.8281
G01 X17.7500 Y-8.8266
G01 X17.2500 Y-8.8266
G01 X17.2207 Y-8.8279
G01 X17.1869 Y-8.8328
G01 X17.1561 Y-8.8405
G01 X17.1262 Y-8.8512
G01 X17.1018 Y-8.8626
G01 X17.0933 Y-8.8671
G01 X17.0723 Y-8.8797
G01 X17.0664 Y-8.8838
G01 X17.0448 Y-8.9000
G01 X17.0248 Y-8.9180
G01 X17.0180 Y-8.9248
G01 X17.0000 Y-8.9448
G01 X16.9824 Y-8.9683
G01 X16.9647 Y-8.9975
G01 X16.9512 Y-9.0262
G01 X16.9405 Y-9.0561
G01 X16.9328 Y-9.0869
G01 X16.9281 Y-9.1183
G01 X16.9267 Y-9.1452
G01 X16.9266 Y-9.2389
G01 X16.5000 Y-9.2389
G01 X16.4682 Y-9.2404
G01 X16.4320 Y-9.2456
G01 X16.3965 Y-9.2547
G01 X16.3644 Y-9.2664
G01 X16.3378 Y-9.2790
G01 X16.3207 Y-9.2890
G01 X14.9293 Y-9.2890
G01 X14.9122 Y-9.2790
G01 X14.8856 Y-9.2664
G01 X14.8535 Y-9.2547
G01 X14.8180 Y-9.2456
G01 X14.7890 Y-9.2412
G01 X14.7793 Y-9.2402
G01 X14.7500 Y-9.2389
G01 X14.0336 Y-9.2389
G01 X14.0232 Y-9.2217
G01 X14.0087 Y-9.2020
G01 X14.0041 Y-9.1963
G01 X13.9894 Y-9.1800
G01 X13.9843 Y-9.1748
G01 X13.9662 Y-9.1584
G01 X13.9428 Y-9.1407
G01 X13.9157 Y-9.1243
G01 X13.8892 Y-9.1118
G01 X13.8616 Y-9.1019
G01 X13.8308 Y-9.0943
G01 X13.8043 Y-9.0905
G01 X13.7750 Y-9.0891
G01 X13.2250 Y-9.0891
G01 X13.1957 Y-9.0905
G01 X13.1715 Y-9.0940
G01 X13.1621 Y-9.0958
G01 X13.1384 Y-9.1019
G01 X13.1108 Y-9.1118
G01 X13.0843 Y-9.1243
G01 X13.0633 Y-9.1368
G01 X13.0572 Y-9.1407
G01 X13.0395 Y-9.1538
G01 X13.0320 Y-9.1600
G01 X13.0140 Y-9.1765
G01 X12.9943 Y-9.1982
G01 X12.9768 Y-9.2217
G01 X12.9618 Y-9.2468
G01 X12.9493 Y-9.2733
G01 X12.9409 Y-9.2963
G01 X12.9387 Y-9.3032
G01 X12.9333 Y-9.3246
G01 X12.9315 Y-9.3340
G01 X12.9280 Y-9.3582
G01 X12.9266 Y-9.3875
G01 X12.9266 Y-9.7899
G01 X12.9280 Y-9.8168
G01 X12.9315 Y-9.8410
G01 X12.9333 Y-9.8504
G01 X12.9401 Y-9.8764
G01 X12.9484 Y-9.8995
G01 X12.9512 Y-9.9061
G01 X12.9618 Y-9.9282
G01 X12.9743 Y-9.9492
G01 X12.9796 Y-9.9573
G01 X12.9943 Y-9.9768
G01 X13.0157 Y-10.0002
G01 X13.0338 Y-10.0166
G01 X13.0395 Y-10.0212
G01 X13.0592 Y-10.0357
G01 X13.0822 Y-10.0495
G01 X13.0886 Y-10.0529
G01 X13.1130 Y-10.0641
G01 X13.1361 Y-10.0724
G01 X13.1514 Y-10.0765
G01 X13.1514 Y-10.7360
G00 Z2.0000
G00 X12.6312 Y-9.6485
G01 F60.00
G01 Z-0.1500
G01 F240.00
G01 X12.6312 Y-9.4886
G01 X12.5538 Y-9.5020
G01 X12.5248 Y-9.5059
G01 X12.5053 Y-9.5073
G01 X12.4857 Y-9.5077
G01 X12.4564 Y-9.5065
G01 X12.4369 Y-9.5045
G01 X12.4176 Y-9.5015
G01 X12.3985 Y-9.4976
G01 X12.3795 Y-9.4927
G01 X12.3608 Y-9.4869
G01 X12.3425 Y-9.4802
G01 X12.2938 Y-9.4597
G01 X12.2938 Y-9.6598
G01 X12.3191 Y-9.6495
G01 X12.3375 Y-9.6428
G01 X12.3562 Y-9.6372
G01 X12.3752 Y-9.6324
G01 X12.3944 Y-9.6286
G01 X12.4138 Y-9.6258
G01 X12.4332 Y-9.6239
G01 X12.4528 Y-9.6230
G01 X12.4723 Y-9.6231
G01 X12.4918 Y-9.6241
G01 X12.5210 Y-9.6275
G01 X12.5994 Y-9.6414
G01 X12.6185 Y-9.6453
G01 X12.6312 Y-9.6485
G00 Z2.0000
G00 X13.1961 Y-8.7946
G01 F60.00
G01 Z-0.1500
G01 F240.00
G01 X13.2250 Y-8.7937
G01 X13.7750 Y-8.7937
G01 X13.8139 Y-8.7951
G01 X13.8332 Y-8.7966
G01 X13.8524 Y-8.7989
G01 X13.8813 Y-8.8033
G01 X13.9003 Y-8.8071
G01 X13.9287 Y-8.8141
G01 X13.9474 Y-8.8193
G01 X13.9657 Y-8.8253
G01 X13.9968 Y-8.8367
G01 X13.8817 Y-8.7216
G01 X13.8524 Y-8.7261
G01 X13.8332 Y-8.7284
G01 X13.8139 Y-8.7299
G01 X13.7847 Y-8.7312
G01 X13.2250 Y-8.7313
G01 X13.1992 Y-8.7305
G01 X13.1989 Y-8.7541
G01 X13.1961 Y-8.7946
G00 Z2.0000
G00 X10.0026 Y-9.1766
G01 F60.00
G01 Z-0.1500
G01 F240.00
G01 X10.0035 Y-9.1634
G01 X10.0078 Y-9.1344
G01 X10.0093 Y-9.1273
G01 X10.0173 Y-9.0965
G01 X10.0263 Y-9.0712
G01 X10.0300 Y-9.0622
G01 X10.0427 Y-9.0357
G01 X10.0590 Y-9.0084
G01 X10.0806 Y-8.9789
G01 X10.1003 Y-8.9571
G01 X10.1071 Y-8.9503
G01 X10.1289 Y-8.9306
G01 X10.1525 Y-8.9131
G01 X10.1605 Y-8.9077
G01 X10.1879 Y-8.8916
G01 X10.2167 Y-8.8781
G01 X10.2489 Y-8.8666
G01 X10.2820 Y-8.8582
G01 X10.3158 Y-8.8532
G01 X10.3500 Y-8.8516
G01 X10.6516 Y-8.8516
G01 X10.6516 Y-8.5484
G01 X10.3050 Y-8.5484
G01 X10.2180 Y-8.5573
G01 X10.0728 Y-8.6055
G01 X9.9431 Y-8.6854
G01 X9.8354 Y-8.7931
G01 X9.7555 Y-8.9228
G01 X9.7073 Y-9.0680
G01 X9.6984 Y-9.1550
G01 X9.6984 Y-9.1766
G01 X10.0026 Y-9.1766
G00 Z2.0000
G00 X9.8759 Y-9.0289
G01 F60.00
G01 Z-0.1500
G01 F240.00
G01 X9.8846 Y-9.0289
G01 X9.8916 Y-9.0101
G01 X9.8965 Y-8.9991
G01 X9.9097 Y-8.9715
G01 X9.9184 Y-8.9556
G01 X9.9342 Y-8.9294
G01 X9.9409 Y-8.9194
G01 X9.9627 Y-8.8900
G01 X9.9744 Y-8.8761
G01 X9.9992 Y-8.8492
G01 X10.0079 Y-8.8409
G01 X10.0353 Y-8.8165
G01 X10.0645 Y-8.7944
G01 X10.0744 Y-8.7875
G01 X10.0846 Y-8.7810
G01 X10.1161 Y-8.7625
G01 X10.1269 Y-8.7570
G01 X10.1601 Y-8.7416
G01 X10.1945 Y-8.7290
G01 X10.2060 Y-8.7252
G01 X10.2176 Y-8.7220
G01 X10.2473 Y-8.7147
G01 X10.2591 Y-8.7123
G01 X10.3014 Y-8.7063
G01 X10.3440 Y-8.7039
G01 X10.5039 Y-8.7039
G01 X10.5039 Y-8.6961
G01 X10.3126 Y-8.6961
G01 X10.2491 Y-8.7026
G01 X10.1356 Y-8.7402
G01 X10.0353 Y-8.8021
G01 X9.9521 Y-8.8853
G01 X9.8902 Y-8.9856
G01 X9.8759 Y-9.0289
G00 Z2.0000
G00 X10.0026 Y-9.8734
G01 F60.00
G01 Z-0.1500
G01 F240.00
G01 X9.6985 Y-9.8734
G01 X9.6985 Y-9.8950
G01 X9.7073 Y-9.9820
G01 X9.7555 Y-10.1272
G01 X9.8354 Y-10.2569
G01 X9.9431 Y-10.3646
G01 X10.0728 Y-10.4445
G01 X10.2180 Y-10.4927
G01 X10.3050 Y-10.5015
G01 X10.6515 Y-10.5015
G01 X10.6515 Y-10.1984
G01 X10.3500 Y-10.1984
G01 X10.3158 Y-10.1968
G01 X10.2820 Y-10.1918
G01 X10.2489 Y-10.1834
G01 X10.2167 Y-10.1719
G01 X10.1879 Y-10.1584
G01 X10.1605 Y-10.1423
G01 X10.1525 Y-10.1369
G01 X10.1289 Y-10.1194
G01 X10.1071 Y-10.0997
G01 X10.1003 Y-10.0929
G01 X10.0806 Y-10.0711
G01 X10.0590 Y-10.0416
G01 X10.0451 Y-10.0185
G01 X10.0405 Y-10.0099
G01 X10.0281 Y-9.9833
G01 X10.0173 Y-9.9535
G01 X10.0093 Y-9.9227
G01 X10.0078 Y-9.9156
G01 X10.0035 Y-9.8866
G01 X10.0026 Y-9.8734
G00 Z2.0000
G00 X9.8759 Y-10.0211
G01 F60.00
G01 Z-0.1500
G01 F240.00
G01 X9.8902 Y-10.0644
G01 X9.9521 Y-10.1647
G01 X10.0353 Y-10.2479
G01 X10.1356 Y-10.3098
G01 X10.2491 Y-10.3474
G01 X10.3126 Y-10.3539
G01 X10.5039 Y-10.3539
G01 X10.5039 Y-10.3461
G01 X10.3440 Y-10.3461
G01 X10.3014 Y-10.3437
G01 X10.2591 Y-10.3377
G01 X10.2473 Y-10.3353
G01 X10.2176 Y-10.3280
G01 X10.2060 Y-10.3248
G01 X10.1945 Y-10.3210
G01 X10.1601 Y-10.3084
G01 X10.1491 Y-10.3035
G01 X10.1161 Y-10.2875
G01 X10.0846 Y-10.2690
G01 X10.0744 Y-10.2625
G01 X10.0645 Y-10.2556
G01 X10.0353 Y-10.2335
G01 X10.0079 Y-10.2091
G01 X9.9992 Y-10.2008
G01 X9.9744 Y-10.1739
G01 X9.9627 Y-10.1600
G01 X9.9409 Y-10.1306
G01 X9.9342 Y-10.1206
G01 X9.9184 Y-10.0944
G01 X9.9097 Y-10.0785
G01 X9.8965 Y-10.0509
G01 X9.8916 Y-10.0399
G01 X9.8846 Y-10.0211
G01 X9.8759 Y-10.0211
G00 Z2.0000
G00 X9.7068 Y-12.0179
G01 F60.00
G01 Z-0.1500
G01 F240.00
G01 X9.6979 Y-12.1050
G01 X9.6979 Y-12.8450
G01 X9.7068 Y-12.9321
G01 X9.7550 Y-13.0774
G01 X9.8350 Y-13.2072
G01 X9.9428 Y-13.3150
G01 X10.0726 Y-13.3950
G01 X10.2179 Y-13.4432
G01 X10.3050 Y-13.4521
G01 X11.0916 Y-13.4522
G01 X11.1032 Y-13.4534
G01 X11.1146 Y-13.4560
G01 X11.1840 Y-13.4764
G01 X11.1931 Y-13.4799
G01 X11.2019 Y-13.4842
G01 X11.2082 Y-13.4880
G01 X11.2160 Y-13.4938
G01 X11.2233 Y-13.5004
G01 X11.2283 Y-13.5057
G01 X11.2771 Y-13.5622
G01 X11.2814 Y-13.5681
G01 X11.2852 Y-13.5742
G01 X11.2905 Y-13.5850
G01 X11.2930 Y-13.5917
G01 X11.2951 Y-13.5986
G01 X11.3060 Y-13.6413
G01 X11.3079 Y-13.6511
G01 X11.3088 Y-13.6586
G01 X11.3169 Y-13.7721
G01 X11.3598 Y-13.8871
G01 X11.3865 Y-13.9360
G01 X11.4643 Y-14.0399
G01 X11.5265 Y-14.1022
G01 X11.5757 Y-14.1448
G01 X11.5983 Y-14.1617
G01 X11.6471 Y-14.1931
G01 X11.7054 Y-14.2149
G01 X11.7139 Y-14.2188
G01 X11.7221 Y-14.2234
G01 X11.7838 Y-14.2693
G01 X11.7895 Y-14.2739
G01 X11.7948 Y-14.2790
G01 X11.8013 Y-14.2862
G01 X11.8057 Y-14.2921
G01 X11.8097 Y-14.2983
G01 X11.8131 Y-14.3048
G01 X11.8161 Y-14.3115
G01 X11.8430 Y-14.3838
G01 X11.8455 Y-14.3932
G01 X11.8467 Y-14.4004
G01 X11.8475 Y-14.4077
G01 X11.8479 Y-14.4189
G01 X11.8479 Y-15.7926
G01 X11.8525 Y-15.8347
G01 X11.8935 Y-15.9447
G01 X11.9628 Y-16.0372
G01 X12.0553 Y-16.1065
G01 X12.1653 Y-16.1475
G01 X12.2074 Y-16.1521
G01 X13.7926 Y-16.1520
G01 X13.8347 Y-16.1475
G01 X13.9447 Y-16.1065
G01 X14.0372 Y-16.0372
G01 X14.1065 Y-15.9447
G01 X14.1489 Y-15.8311
G01 X14.1535 Y-15.8159
G01 X14.1575 Y-15.8065
G01 X14.1598 Y-15.7934
G01 X14.1631 Y-15.7817
G01 X14.1668 Y-15.7726
G01 X14.1714 Y-15.7640
G01 X14.1753 Y-15.7578
G01 X14.1812 Y-15.7503
G01 X14.1855 Y-15.7418
G01 X14.1894 Y-15.7356
G01 X14.1937 Y-15.7296
G01 X14.1984 Y-15.7240
G01 X14.2036 Y-15.7188
G01 X14.2091 Y-15.7140
G01 X14.2231 Y-15.7039
G01 X14.2331 Y-15.6930
G01 X14.2421 Y-15.6850
G01 X14.2499 Y-15.6795
G01 X14.2582 Y-15.6748
G01 X14.2647 Y-15.6717
G01 X14.2760 Y-15.6673
G01 X14.2825 Y-15.6635
G01 X14.2889 Y-15.6604
G01 X14.3001 Y-15.6563
G01 X14.3201 Y-15.6509
G01 X14.4402 Y-15.6270
G01 X14.5007 Y-15.6021
G01 X14.5179 Y-15.5972
G01 X14.5294 Y-15.5951
G01 X14.5411 Y-15.5943
G01 X14.5644 Y-15.5948
G01 X14.5876 Y-15.5923
G01 X14.5996 Y-15.5921
G01 X14.6068 Y-15.5926
G01 X14.6139 Y-15.5937
G01 X14.6374 Y-15.5994
G01 X14.6489 Y-15.6034
G01 X14.6556 Y-15.6064
G01 X14.6624 Y-15.6102
G01 X14.6735 Y-15.6144
G01 X14.6826 Y-15.6186
G01 X14.7540 Y-15.6607
G01 X14.8902 Y-15.7002
G01 X14.9132 Y-15.7021
G01 X16.2118 Y-15.7021
G01 X16.2348 Y-15.7002
G01 X16.3765 Y-15.6592
G01 X16.3856 Y-15.6575
G01 X16.4225 Y-15.6522
G01 X16.4341 Y-15.6516
G01 X16.6510 Y-15.6516
G01 X16.6595 Y-15.6405
G01 X16.6760 Y-15.6226
G01 X16.6924 Y-15.6079
G01 X16.7140 Y-15.5921
G01 X16.7329 Y-15.5809
G01 X16.7549 Y-15.5705
G01 X16.7779 Y-15.5622
G01 X16.8039 Y-15.5559
G01 X16.8256 Y-15.5527
G01 X16.8476 Y-15.5516
G01 X17.1391 Y-15.5516
G01 X17.1391 Y-15.3484
G01 X16.9175 Y-15.3482
G01 X16.9082 Y-15.3471
G01 X16.8990 Y-15.3451
G01 X16.8251 Y-15.3233
G01 X16.8138 Y-15.3186
G01 X16.8032 Y-15.3125
G01 X16.7935 Y-15.3051
G01 X16.7847 Y-15.2966
G01 X16.7373 Y-15.2420
G01 X16.7327 Y-15.2362
G01 X16.7272 Y-15.2280
G01 X16.7237 Y-15.2216
G01 X16.7197 Y-15.2126
G01 X16.7173 Y-15.2056
G01 X16.7043 Y-15.1469
G01 X16.7031 Y-15.1400
G01 X16.7023 Y-15.1330
G01 X16.7021 Y-14.9722
G01 X16.7031 Y-14.9605
G01 X16.7054 Y-14.9490
G01 X16.7257 Y-14.8797
G01 X16.7289 Y-14.8705
G01 X16.7331 Y-14.8616
G01 X16.7380 Y-14.8532
G01 X16.7438 Y-14.8453
G01 X16.7504 Y-14.8381
G01 X16.8085 Y-14.7873
G01 X16.8183 Y-14.7798
G01 X16.8246 Y-14.7760
G01 X16.8311 Y-14.7726
G01 X16.8379 Y-14.7697
G01 X16.8449 Y-14.7673
G01 X16.9059 Y-14.7538
G01 X16.9151 Y-14.7525
G01 X16.9245 Y-14.7521
G01 X18.0868 Y-14.7521
G01 X18.1098 Y-14.7502
G01 X18.2460 Y-14.7107
G01 X18.3044 Y-14.6761
G01 X18.3150 Y-14.6710
G01 X18.3238 Y-14.6679
G01 X18.4008 Y-14.6483
G01 X18.4129 Y-14.6467
G01 X18.4251 Y-14.6465
G01 X18.4373 Y-14.6479
G01 X18.4492 Y-14.6507
G01 X18.5223 Y-14.6753
G01 X18.5313 Y-14.6793
G01 X18.5397 Y-14.6842
G01 X18.5477 Y-14.6899
G01 X18.5550 Y-14.6963
G01 X18.5633 Y-14.7054
G01 X18.6085 Y-14.7617
G01 X18.6141 Y-14.7698
G01 X18.6188 Y-14.7784
G01 X18.6234 Y-14.7897
G01 X18.6256 Y-14.7967
G01 X18.6271 Y-14.8038
G01 X18.6325 Y-14.8514
G01 X18.9949 Y-14.8514
G01 X19.0031 Y-14.8411
G01 X19.0196 Y-14.8230
G01 X19.0248 Y-14.8180
G01 X19.0467 Y-14.7985
G01 X19.0683 Y-14.7824
G01 X19.0744 Y-14.7785
G01 X19.0975 Y-14.7647
G01 X19.1285 Y-14.7503
G01 X19.1561 Y-14.7405
G01 X19.1822 Y-14.7338
G01 X19.1917 Y-14.7319
G01 X19.2183 Y-14.7281
G01 X19.2500 Y-14.7266
G01 X19.7500 Y-14.7266
G01 X19.7841 Y-14.7284
G01 X19.8131 Y-14.7328
G01 X19.8392 Y-14.7392
G01 X19.8462 Y-14.7412
G01 X19.8693 Y-14.7494
G01 X19.8782 Y-14.7531
G01 X19.9025 Y-14.7647
G01 X19.9297 Y-14.7811
G01 X19.9552 Y-14.8000
G01 X19.9752 Y-14.8180
G01 X19.9820 Y-14.8248
G01 X19.9985 Y-14.8430
G01 X20.0030 Y-14.8486
G01 X20.0189 Y-14.8703
G01 X20.0353 Y-14.8975
G01 X20.0469 Y-14.9218
G01 X20.0506 Y-14.9307
G01 X20.0595 Y-14.9561
G01 X20.0672 Y-14.9869
G01 X20.0719 Y-15.0183
G01 X20.0734 Y-15.0500
G01 X20.0734 Y-15.5000
G01 X20.0716 Y-15.5341
G01 X20.0672 Y-15.5631
G01 X20.0595 Y-15.5939
G01 X20.0488 Y-15.6238
G01 X20.0374 Y-15.6482
G01 X20.0329 Y-15.6567
G01 X20.0203 Y-15.6777
G01 X20.0162 Y-15.6836
G01 X19.9985 Y-15.7070
G01 X19.9804 Y-15.7270
G01 X19.9752 Y-15.7320
G01 X19.9552 Y-15.7500
G01 X19.9297 Y-15.7689
G01 X19.9025 Y-15.7853
G01 X19.8782 Y-15.7969
G01 X19.8693 Y-15.8006
G01 X19.8462 Y-15.8088
G01 X19.8392 Y-15.8108
G01 X19.8131 Y-15.8172
G01 X19.7817 Y-15.8219
G01 X19.7500 Y-15.8234
G01 X19.2500 Y-15.8234
G01 X19.2183 Y-15.8219
G01 X19.1893 Y-15.8177
G01 X19.1608 Y-15.8108
G01 X19.1515 Y-15.8080
G01 X19.1262 Y-15.7988
G01 X19.0975 Y-15.7853
G01 X19.0744 Y-15.7715
G01 X19.0664 Y-15.7662
G01 X19.0448 Y-15.7500
G01 X19.0248 Y-15.7320
G01 X19.0180 Y-15.7252
G01 X19.0015 Y-15.7070
G01 X18.9970 Y-15.7014
G01 X18.9811 Y-15.6797
G01 X18.9636 Y-15.6503
G01 X18.9512 Y-15.6238
G01 X18.9412 Y-15.5962
G01 X18.9333 Y-15.5655
G01 X18.9305 Y-15.5486
G01 X18.8986 Y-15.5486
G01 X18.8985 Y-15.9000
G01 X18.8971 Y-15.9293
G01 X18.8928 Y-15.9582
G01 X18.8870 Y-15.9820
G01 X18.8842 Y-15.9913
G01 X18.8758 Y-16.0143
G01 X18.8655 Y-16.0364
G01 X18.8609 Y-16.0449
G01 X18.8484 Y-16.0655
G01 X18.8484 Y-16.4431
G01 X18.8591 Y-16.4586
G01 X18.8639 Y-16.4671
G01 X18.8686 Y-16.4784
G01 X18.8719 Y-16.4902
G01 X18.8732 Y-16.4974
G01 X18.8739 Y-16.5047
G01 X18.8767 Y-16.5817
G01 X18.8763 Y-16.5889
G01 X18.8755 Y-16.5960
G01 X18.8729 Y-16.6077
G01 X18.8674 Y-16.6253
G01 X18.8525 Y-16.6653
G01 X18.8480 Y-16.7074
G01 X18.8479 Y-18.2926
G01 X18.8525 Y-18.3347
G01 X18.8935 Y-18.4447
G01 X18.9628 Y-18.5372
G01 X19.0553 Y-18.6065
G01 X19.1653 Y-18.6475
G01 X19.2074 Y-18.6521
G01 X20.7926 Y-18.6520
G01 X20.8347 Y-18.6475
G01 X20.9447 Y-18.6065
G01 X21.0429 Y-18.5330
G01 X21.0495 Y-18.5267
G01 X21.0552 Y-18.5222
G01 X21.0653 Y-18.5156
G01 X21.0772 Y-18.5099
G01 X21.1059 Y-18.4887
G01 X21.1166 Y-18.4828
G01 X21.1280 Y-18.4782
G01 X21.1398 Y-18.4751
G01 X21.1516 Y-18.4735
G01 X21.1516 Y-18.3460
G01 X21.1523 Y-18.3339
G01 X21.1539 Y-18.3244
G01 X21.1573 Y-18.3128
G01 X21.1804 Y-18.2568
G01 X21.1848 Y-18.2480
G01 X21.1915 Y-18.2378
G01 X21.1978 Y-18.2303
G01 X21.2065 Y-18.2218
G01 X21.2143 Y-18.2158
G01 X21.2717 Y-18.1760
G01 X21.2821 Y-18.1697
G01 X21.2887 Y-18.1665
G01 X21.2955 Y-18.1638
G01 X21.3073 Y-18.1606
G01 X21.3512 Y-18.1533
G01 X21.3625 Y-18.1522
G01 X21.7756 Y-18.1521
G01 X21.7845 Y-18.1405
G01 X21.7976 Y-18.1260
G01 X21.8155 Y-18.1095
G01 X21.8370 Y-18.0934
G01 X21.8558 Y-18.0821
G01 X21.8799 Y-18.0705
G01 X21.9029 Y-18.0622
G01 X21.9265 Y-18.0563
G01 X21.9531 Y-18.0525
G01 X21.9750 Y-18.0516
G01 X23.1500 Y-18.0516
G01 X23.1719 Y-18.0525
G01 X23.1985 Y-18.0563
G01 X23.2221 Y-18.0622
G01 X23.2451 Y-18.0705
G01 X23.2692 Y-18.0821
G01 X23.2880 Y-18.0934
G01 X23.3095 Y-18.1095
G01 X23.3274 Y-18.1260
G01 X23.3405 Y-18.1405
G01 X23.3490 Y-18.1516
G01 X23.5659 Y-18.1516
G01 X23.5775 Y-18.1522
G01 X23.6144 Y-18.1575
G01 X23.6235 Y-18.1592
G01 X23.7652 Y-18.2002
G01 X23.7882 Y-18.2021
G01 X25.0868 Y-18.2021
G01 X25.1098 Y-18.2002
G01 X25.2460 Y-18.1607
G01 X25.3660 Y-18.0897
G01 X25.4647 Y-17.9910
G01 X25.5357 Y-17.8710
G01 X25.5752 Y-17.7348
G01 X25.5771 Y-17.7118
G01 X25.5771 Y-17.2882
G01 X25.5752 Y-17.2652
G01 X25.5357 Y-17.1290
G01 X25.4647 Y-17.0090
G01 X25.3660 Y-16.9103
G01 X25.3136 Y-16.8793
G01 X25.3059 Y-16.8740
G01 X25.2988 Y-16.8679
G01 X25.2461 Y-16.8119
G01 X25.2415 Y-16.8065
G01 X25.2359 Y-16.7989
G01 X25.2310 Y-16.7907
G01 X25.2270 Y-16.7821
G01 X25.2238 Y-16.7732
G01 X25.2215 Y-16.7640
G01 X25.2087 Y-16.6995
G01 X25.2072 Y-16.6900
G01 X25.2067 Y-16.6804
G01 X25.2070 Y-16.6725
G01 X25.2071 Y-13.8540
G01 X25.2044 Y-13.8052
G01 X25.2022 Y-13.7841
G01 X25.1956 Y-13.7437
G01 X25.1510 Y-13.6237
G01 X25.1243 Y-13.5748
G01 X25.0465 Y-13.4709
G01 X24.8501 Y-13.2745
G01 X24.8384 Y-13.2632
G01 X24.8263 Y-13.2522
G01 X24.7179 Y-13.1825
G01 X24.6889 Y-13.1692
G01 X24.6801 Y-13.1643
G01 X24.6397 Y-13.1364
G01 X24.6318 Y-13.1303
G01 X24.6262 Y-13.1252
G01 X24.4169 Y-12.9158
G01 X24.3490 Y-12.8704
G01 X24.3434 Y-12.8662
G01 X24.3381 Y-12.8615
G01 X24.3301 Y-12.8530
G01 X24.2808 Y-12.7937
G01 X24.2768 Y-12.7876
G01 X24.2722 Y-12.7792
G01 X24.2684 Y-12.7703
G01 X24.2662 Y-12.7634
G01 X24.2541 Y-12.7069
G01 X24.2523 Y-12.6944
G01 X24.2520 Y-12.6868
G01 X24.2520 Y-12.3550
G01 X24.2432 Y-12.2679
G01 X24.1950 Y-12.1226
G01 X24.1150 Y-11.9928
G01 X24.0072 Y-11.8850
G01 X23.8774 Y-11.8050
G01 X23.7321 Y-11.7568
G01 X23.6450 Y-11.7479
G01 X22.5550 Y-11.7479
G01 X22.4679 Y-11.7568
G01 X22.3226 Y-11.8050
G01 X22.1928 Y-11.8850
G01 X22.0850 Y-11.9928
G01 X22.0613 Y-12.0311
G01 X22.0556 Y-12.0386
G01 X22.0493 Y-12.0455
G01 X21.9939 Y-12.0954
G01 X21.9883 Y-12.1001
G01 X21.9803 Y-12.1057
G01 X21.9739 Y-12.1094
G01 X21.9650 Y-12.1135
G01 X21.9558 Y-12.1167
G01 X21.9439 Y-12.1194
G01 X21.8749 Y-12.1306
G01 X21.8652 Y-12.1317
G01 X21.8554 Y-12.1318
G01 X21.8433 Y-12.1306
G01 X21.8314 Y-12.1279
G01 X21.8221 Y-12.1247
G01 X21.7536 Y-12.0949
G01 X21.7428 Y-12.0891
G01 X21.7329 Y-12.0820
G01 X21.7239 Y-12.0737
G01 X21.7160 Y-12.0644
G01 X21.6731 Y-12.0003
G01 X21.6694 Y-11.9941
G01 X21.6653 Y-11.9855
G01 X21.6621 Y-11.9765
G01 X21.6602 Y-11.9695
G01 X21.6528 Y-11.9229
G01 X21.6521 Y-11.9104
G01 X21.6521 Y-7.3808
G01 X21.6270 Y-7.2548
G01 X21.5778 Y-7.1361
G01 X21.5065 Y-7.0293
G01 X20.9432 Y-6.4660
G01 X20.8364 Y-6.3947
G01 X20.6972 Y-6.3368
G01 X20.6851 Y-6.3322
G01 X20.6786 Y-6.3289
G01 X20.6724 Y-6.3251
G01 X20.6480 Y-6.3075
G01 X20.6396 Y-6.3021
G01 X20.6336 Y-6.2974
G01 X20.6265 Y-6.2908
G01 X20.5519 Y-6.2162
G01 X20.5414 Y-6.2091
G01 X20.5358 Y-6.2049
G01 X20.5212 Y-6.1914
G01 X20.5164 Y-6.1863
G01 X20.5119 Y-6.1809
G01 X20.5053 Y-6.1709
G01 X20.4997 Y-6.1652
G01 X20.4936 Y-6.1578
G01 X20.3910 Y-6.0553
G01 X20.2710 Y-5.9843
G01 X20.1348 Y-5.9448
G01 X20.1118 Y-5.9429
G01 X18.6382 Y-5.9429
G01 X18.6152 Y-5.9448
G01 X18.4790 Y-5.9843
G01 X18.3590 Y-6.0553
G01 X18.2603 Y-6.1539
G01 X18.1893 Y-6.2740
G01 X18.1498 Y-6.4102
G01 X18.1479 Y-6.4332
G01 X18.1479 Y-6.8679
G01 X18.1463 Y-6.8817
G01 X18.1303 Y-6.9553
G01 X18.1281 Y-6.9623
G01 X18.1255 Y-6.9690
G01 X18.1223 Y-6.9756
G01 X18.1187 Y-6.9819
G01 X18.1132 Y-6.9898
G01 X18.1069 Y-6.9972
G01 X18.0562 Y-7.0487
G01 X18.0509 Y-7.0537
G01 X18.0412 Y-7.0612
G01 X18.0328 Y-7.0662
G01 X18.0217 Y-7.0714
G01 X18.0124 Y-7.0744
G01 X17.9372 Y-7.0914
G01 X17.9275 Y-7.0929
G01 X17.9178 Y-7.0933
G01 X17.9106 Y-7.0931
G01 X17.9033 Y-7.0922
G01 X17.8717 Y-7.0867
G01 X17.8639 Y-7.0848
G01 X17.8308 Y-7.0751
G01 X17.8093 Y-7.0734
G01 X17.7984 Y-7.0734
G01 X17.7984 Y-7.2805
G01 X17.8155 Y-7.2833
G01 X17.8462 Y-7.2912
G01 X17.8738 Y-7.3012
G01 X17.9003 Y-7.3136
G01 X17.9256 Y-7.3285
G01 X17.9336 Y-7.3338
G01 X17.9552 Y-7.3500
G01 X17.9752 Y-7.3680
G01 X17.9820 Y-7.3748
G01 X17.9985 Y-7.3930
G01 X18.0030 Y-7.3986
G01 X18.0189 Y-7.4203
G01 X18.0341 Y-7.4454
G01 X18.0374 Y-7.4518
G01 X18.0497 Y-7.4785
G01 X18.0595 Y-7.5061
G01 X18.0648 Y-7.5266
G01 X18.3810 Y-7.5266
G01 X18.3927 Y-7.5272
G01 X18.4019 Y-7.5288
G01 X18.4087 Y-7.5305
G01 X18.4758 Y-7.5502
G01 X18.4873 Y-7.5544
G01 X18.4981 Y-7.5599
G01 X18.5083 Y-7.5668
G01 X18.5174 Y-7.5749
G01 X18.5276 Y-7.5862
G01 X18.5424 Y-7.5729
G01 X18.5620 Y-7.5584
G01 X18.5829 Y-7.5459
G01 X18.6049 Y-7.5355
G01 X18.6279 Y-7.5272
G01 X18.6515 Y-7.5213
G01 X18.6756 Y-7.5177
G01 X18.6976 Y-7.5166
G01 X20.0524 Y-7.5166
G01 X20.0719 Y-7.5175
G01 X20.0791 Y-7.5183
G01 X20.0985 Y-7.5213
G01 X20.1175 Y-7.5260
G01 X20.1267 Y-7.5288
G01 X20.1451 Y-7.5355
G01 X20.1671 Y-7.5459
G01 X20.1880 Y-7.5584
G01 X20.2076 Y-7.5729
G01 X20.2257 Y-7.5893
G01 X20.2389 Y-7.6037
G01 X20.2450 Y-7.6112
G01 X20.2579 Y-7.6290
G01 X20.2679 Y-7.6458
G01 X20.2713 Y-7.6522
G01 X20.2795 Y-7.6699
G01 X20.2862 Y-7.6883
G01 X20.2884 Y-7.6952
G01 X20.2926 Y-7.7118
G01 X20.2941 Y-7.7189
G01 X20.2970 Y-7.7382
G01 X20.2984 Y-7.7626
G01 X20.2984 Y-8.0650
G01 X20.2975 Y-8.0869
G01 X20.2945 Y-8.1087
G01 X20.2926 Y-8.1182
G01 X20.2878 Y-8.1371
G01 X20.2795 Y-8.1601
G01 X20.2713 Y-8.1778
G01 X20.2667 Y-8.1863
G01 X20.2566 Y-8.2030
G01 X20.2421 Y-8.2226
G01 X20.2290 Y-8.2372
G01 X20.2222 Y-8.2440
G01 X20.2076 Y-8.2571
G01 X20.1880 Y-8.2716
G01 X20.1671 Y-8.2841
G01 X20.1495 Y-8.2926
G01 X20.1406 Y-8.2963
G01 X20.1198 Y-8.3034
G01 X20.0985 Y-8.3087
G01 X20.0791 Y-8.3117
G01 X20.0695 Y-8.3126
G01 X20.0500 Y-8.3134
G01 X18.7000 Y-8.3134
G01 X18.6805 Y-8.3126
G01 X18.6709 Y-8.3117
G01 X18.6515 Y-8.3087
G01 X18.6279 Y-8.3028
G01 X18.6049 Y-8.2945
G01 X18.5808 Y-8.2829
G01 X18.5620 Y-8.2716
G01 X18.5405 Y-8.2555
G01 X18.5226 Y-8.2390
G01 X18.5095 Y-8.2245
G01 X18.5010 Y-8.2134
G01 X18.1393 Y-8.2133
G01 X18.1277 Y-8.2121
G01 X18.1185 Y-8.2101
G01 X18.0425 Y-8.1875
G01 X18.0341 Y-8.2046
G01 X18.0203 Y-8.2277
G01 X18.0015 Y-8.2533
G01 X17.9787 Y-8.2787
G01 X17.9533 Y-8.3015
G01 X17.9297 Y-8.3189
G01 X17.9067 Y-8.3329
G01 X17.8982 Y-8.3374
G01 X17.8738 Y-8.3488
G01 X17.8485 Y-8.3580
G01 X17.8416 Y-8.3602
G01 X17.8155 Y-8.3667
G01 X17.7817 Y-8.3719
G01 X17.7500 Y-8.3734
G01 X17.2500 Y-8.3734
G01 X17.2231 Y-8.3722
G01 X17.2135 Y-8.3713
G01 X17.1869 Y-8.3672
G01 X17.1608 Y-8.3608
G01 X17.1515 Y-8.3580
G01 X17.1240 Y-8.3479
G01 X17.0975 Y-8.3353
G01 X17.0744 Y-8.3215
G01 X17.0664 Y-8.3162
G01 X17.0467 Y-8.3015
G01 X17.0411 Y-8.2969
G01 X17.0213 Y-8.2787
G01 X17.0015 Y-8.2570
G01 X16.9838 Y-8.2336
G01 X16.9785 Y-8.2256
G01 X16.9647 Y-8.2025
G01 X16.9512 Y-8.1738
G01 X16.9405 Y-8.1439
G01 X16.9352 Y-8.1234
G01 X16.6017 Y-8.1232
G01 X16.5924 Y-8.1221
G01 X16.5832 Y-8.1201
G01 X16.5139 Y-8.0998
G01 X16.5025 Y-8.0956
G01 X16.4959 Y-8.0925
G01 X16.4896 Y-8.0889
G01 X16.4797 Y-8.0818
G01 X16.4708 Y-8.0736
G01 X16.4276 Y-8.0287
G01 X16.4214 Y-8.0207
G01 X16.4143 Y-8.0093
G01 X16.3157 Y-7.9107
G01 X16.1978 Y-7.8409
G01 X16.1879 Y-7.8339
G01 X16.1824 Y-7.8291
G01 X16.1773 Y-7.8239
G01 X16.1697 Y-7.8144
G01 X16.1633 Y-7.8041
G01 X16.1582 Y-7.7931
G01 X16.1545 Y-7.7815
G01 X16.1526 Y-7.7720
G01 X16.1517 Y-7.7623
G01 X16.1516 Y-7.7221
G01 X16.1070 Y-7.7073
G01 X16.0200 Y-7.6984
G01 X15.8484 Y-7.6984
G01 X15.8484 Y-8.0016
G01 X15.9774 Y-8.0016
G01 X16.0092 Y-8.0032
G01 X16.0406 Y-8.0078
G01 X16.0761 Y-8.0166
G01 X16.1083 Y-8.0281
G01 X16.1393 Y-8.0427
G01 X16.1686 Y-8.0603
G01 X16.1961 Y-8.0806
G01 X16.2179 Y-8.1003
G01 X16.2247 Y-8.1071
G01 X16.2444 Y-8.1289
G01 X16.2619 Y-8.1525
G01 X16.2660 Y-8.1584
G01 X16.2799 Y-8.1815
G01 X16.2845 Y-8.1901
G01 X16.2969 Y-8.2167
G01 X16.3084 Y-8.2489
G01 X16.3168 Y-8.2820
G01 X16.3220 Y-8.3183
G01 X16.3234 Y-8.3500
G01 X16.3234 Y-8.8524
G01 X16.3218 Y-8.8842
G01 X16.3168 Y-8.9180
G01 X16.3084 Y-8.9511
G01 X16.2978 Y-8.9811
G01 X16.2845 Y-9.0099
G01 X16.2799 Y-9.0185
G01 X16.2647 Y-9.0436
G01 X16.2444 Y-9.0711
G01 X16.2247 Y-9.0929
G01 X16.2179 Y-9.0997
G01 X16.1961 Y-9.1194
G01 X16.1686 Y-9.1397
G01 X16.1435 Y-9.1549
G01 X16.1349 Y-9.1595
G01 X16.1083 Y-9.1719
G01 X16.0761 Y-9.1834
G01 X16.0477 Y-9.1907
G01 X16.0382 Y-9.1926
G01 X16.0092 Y-9.1968
G01 X15.9774 Y-9.1984
G01 X15.0226 Y-9.1984
G01 X14.9908 Y-9.1968
G01 X14.9570 Y-9.1918
G01 X14.9239 Y-9.1834
G01 X14.8917 Y-9.1719
G01 X14.8651 Y-9.1595
G01 X14.8565 Y-9.1549
G01 X14.8314 Y-9.1397
G01 X14.8078 Y-9.1223
G01 X14.8003 Y-9.1162
G01 X14.7786 Y-9.0964
G01 X14.7541 Y-9.0692
G01 X14.7381 Y-9.0475
G01 X14.7327 Y-9.0395
G01 X14.7177 Y-9.0143
G01 X14.7040 Y-8.9856
G01 X14.6931 Y-8.9557
G01 X14.6909 Y-8.9488
G01 X14.6832 Y-8.9180
G01 X14.6802 Y-8.8985
G01 X14.5952 Y-8.8984
G01 X14.5707 Y-8.8971
G01 X14.5418 Y-8.8928
G01 X14.5133 Y-8.8857
G01 X14.4857 Y-8.8758
G01 X14.4593 Y-8.8633
G01 X14.4321 Y-8.8469
G01 X14.4106 Y-8.8308
G01 X14.3889 Y-8.8111
G01 X13.9539 Y-8.3761
G01 X13.9388 Y-8.3870
G01 X13.9178 Y-8.3995
G01 X13.9114 Y-8.4029
G01 X13.8870 Y-8.4141
G01 X13.8616 Y-8.4231
G01 X13.8379 Y-8.4292
G01 X13.8285 Y-8.4310
G01 X13.8018 Y-8.4347
G01 X13.7750 Y-8.4359
G01 X13.2250 Y-8.4359
G01 X13.1982 Y-8.4347
G01 X13.1668 Y-8.4302
G01 X13.1430 Y-8.4244
G01 X13.1338 Y-8.4216
G01 X13.1108 Y-8.4132
