(G-CODE GENERATED BY FLATCAM v8.994 - www.flatcam.org - Version Date: 2020/11/7)

(Name: vmon-F_Cu.gbr_iso_combined_cnc)
(Type: G-code from Geometry)
(Units: MM)

(Created on Friday, 09 May 2025 at 23:13)

(This preprocessor is the default preprocessor used by FlatCAM.)
(It is made to work with MACH3 compatible motion controllers.)

(TOOL DIAMETER: 0.1722 mm)
(Feedrate_XY: 240.0 mm/min)
(Feedrate_Z: 90.0 mm/min)
(Feedrate rapids 1500.0 mm/min)

(Z_Cut: -0.08 mm)
(Z_Move: 0.5 mm)
(Z Start: None mm)
(Z End: 45.0 mm)
(X,Y End: None mm)
(Steps per circle: 64)
(Preprocessor Geometry: default)

(X range:    0.0011 ...   29.9989  mm)
(Y range:  -19.9989 ...   -0.0011  mm)

(Spindle Speed: 12000.0 RPM)
G21
G90
G94

G01 F240.00

M5
G00 Z45.0000
G00 X0.0000 Y0.0000
T2
M6    
(MSG, Change to Tool Dia = 0.1722)
M0
G00 Z45.0000

M03 S12000.0
G01 F240.00
G00 X0.0011 Y-0.6245
G01 F90.00
G01 Z-0.0800
G01 F240.00
G01 X0.0013 Y-19.3874
G01 X0.0017 Y-19.3993
G01 X0.0034 Y-19.4230
G01 X0.0062 Y-19.4466
G01 X0.0080 Y-19.4583
G01 X0.0125 Y-19.4817
G01 X0.0237 Y-19.5332
G01 X0.0297 Y-19.5574
G01 X0.0331 Y-19.5694
G01 X0.0408 Y-19.5932
G01 X0.0497 Y-19.6165
G01 X0.0545 Y-19.6280
G01 X0.0651 Y-19.6505
G01 X0.0769 Y-19.6726
G01 X0.0831 Y-19.6834
G01 X0.0965 Y-19.7045
G01 X0.1109 Y-19.7248
G01 X0.1184 Y-19.7348
G01 X0.1343 Y-19.7540
G01 X0.1801 Y-19.8068
G01 X0.1968 Y-19.8252
G01 X0.2143 Y-19.8427
G01 X0.2235 Y-19.8511
G01 X0.2423 Y-19.8672
G01 X0.2619 Y-19.8824
G01 X0.2823 Y-19.8965
G01 X0.2927 Y-19.9032
G01 X0.3141 Y-19.9159
G01 X0.3250 Y-19.9218
G01 X0.3472 Y-19.9328
G01 X0.3699 Y-19.9426
G01 X0.3815 Y-19.9472
G01 X0.4049 Y-19.9553
G01 X0.4838 Y-19.9787
G01 X0.5068 Y-19.9848
G01 X0.5183 Y-19.9875
G01 X0.5417 Y-19.9920
G01 X0.5534 Y-19.9938
G01 X0.5770 Y-19.9966
G01 X0.5889 Y-19.9976
G01 X0.6126 Y-19.9987
G01 X0.6245 Y-19.9989
G01 X29.3755 Y-19.9989
G01 X29.3874 Y-19.9987
G01 X29.4111 Y-19.9976
G01 X29.4348 Y-19.9953
G01 X29.4466 Y-19.9938
G01 X29.4700 Y-19.9899
G01 X29.4817 Y-19.9875
G01 X29.5453 Y-19.9735
G01 X29.5574 Y-19.9703
G01 X29.5813 Y-19.9632
G01 X29.6049 Y-19.9549
G01 X29.6165 Y-19.9503
G01 X29.6393 Y-19.9403
G01 X29.6616 Y-19.9291
G01 X29.6726 Y-19.9231
G01 X29.6834 Y-19.9169
G01 X29.7045 Y-19.9035
G01 X29.7147 Y-19.8965
G01 X29.7348 Y-19.8816
G01 X29.7540 Y-19.8657
G01 X29.8068 Y-19.8199
G01 X29.8252 Y-19.8032
G01 X29.8427 Y-19.7857
G01 X29.8511 Y-19.7765
G01 X29.8672 Y-19.7577
G01 X29.8824 Y-19.7381
G01 X29.8965 Y-19.7177
G01 X29.9032 Y-19.7073
G01 X29.9097 Y-19.6967
G01 X29.9218 Y-19.6750
G01 X29.9328 Y-19.6528
G01 X29.9426 Y-19.6301
G01 X29.9514 Y-19.6068
G01 X29.9553 Y-19.5951
G01 X29.9787 Y-19.5162
G01 X29.9819 Y-19.5048
G01 X29.9875 Y-19.4817
G01 X29.9920 Y-19.4583
G01 X29.9938 Y-19.4466
G01 X29.9953 Y-19.4348
G01 X29.9976 Y-19.4111
G01 X29.9987 Y-19.3874
G01 X29.9989 Y-19.3755
G01 X29.9989 Y-0.6245
G01 X29.9987 Y-0.6126
G01 X29.9976 Y-0.5889
G01 X29.9953 Y-0.5652
G01 X29.9938 Y-0.5534
G01 X29.9920 Y-0.5417
G01 X29.9875 Y-0.5183
G01 X29.9735 Y-0.4547
G01 X29.9703 Y-0.4426
G01 X29.9632 Y-0.4187
G01 X29.9549 Y-0.3951
G01 X29.9503 Y-0.3835
G01 X29.9403 Y-0.3607
G01 X29.9291 Y-0.3384
G01 X29.9231 Y-0.3274
G01 X29.9169 Y-0.3166
G01 X29.9035 Y-0.2955
G01 X29.8891 Y-0.2752
G01 X29.8816 Y-0.2652
G01 X29.8657 Y-0.2460
G01 X29.8199 Y-0.1932
G01 X29.8032 Y-0.1748
G01 X29.7857 Y-0.1573
G01 X29.7672 Y-0.1408
G01 X29.7577 Y-0.1328
G01 X29.7480 Y-0.1251
G01 X29.7280 Y-0.1104
G01 X29.7073 Y-0.0968
G01 X29.6859 Y-0.0841
G01 X29.6750 Y-0.0782
G01 X29.6528 Y-0.0672
G01 X29.6301 Y-0.0574
G01 X29.6068 Y-0.0486
G01 X29.5951 Y-0.0447
G01 X29.5162 Y-0.0213
G01 X29.5048 Y-0.0181
G01 X29.4817 Y-0.0125
G01 X29.4583 Y-0.0080
G01 X29.4466 Y-0.0062
G01 X29.4348 Y-0.0047
G01 X29.4111 Y-0.0024
G01 X29.3874 Y-0.0013
G01 X29.3755 Y-0.0011
G01 X0.6126 Y-0.0013
G01 X0.5889 Y-0.0024
G01 X0.5770 Y-0.0034
G01 X0.5652 Y-0.0047
G01 X0.5417 Y-0.0080
G01 X0.5183 Y-0.0125
G01 X0.4547 Y-0.0265
G01 X0.4306 Y-0.0331
G01 X0.4068 Y-0.0408
G01 X0.3835 Y-0.0497
G01 X0.3607 Y-0.0597
G01 X0.3384 Y-0.0709
G01 X0.3166 Y-0.0831
G01 X0.2955 Y-0.0965
G01 X0.2752 Y-0.1109
G01 X0.2652 Y-0.1184
G01 X0.2460 Y-0.1343
G01 X0.1839 Y-0.1883
G01 X0.1660 Y-0.2054
G01 X0.1489 Y-0.2235
G01 X0.1328 Y-0.2423
G01 X0.1176 Y-0.2619
G01 X0.1035 Y-0.2823
G01 X0.0903 Y-0.3033
G01 X0.0782 Y-0.3250
G01 X0.0672 Y-0.3472
G01 X0.0574 Y-0.3699
G01 X0.0486 Y-0.3932
G01 X0.0410 Y-0.4168
G01 X0.0181 Y-0.4952
G01 X0.0125 Y-0.5183
G01 X0.0080 Y-0.5417
G01 X0.0062 Y-0.5534
G01 X0.0034 Y-0.5770
G01 X0.0017 Y-0.6007
G01 X0.0011 Y-0.6245
G00 Z0.5000
G00 X0.1389 Y-0.6245
G01 F90.00
G01 Z-0.0800
G01 F240.00
G01 X0.1389 Y-19.3755
G01 X0.1393 Y-19.3927
G01 X0.1405 Y-19.4099
G01 X0.1439 Y-19.4355
G01 X0.1471 Y-19.4524
G01 X0.1604 Y-19.5127
G01 X0.1678 Y-19.5388
G01 X0.1771 Y-19.5642
G01 X0.1883 Y-19.5889
G01 X0.1968 Y-19.6048
G01 X0.2110 Y-19.6279
G01 X0.2269 Y-19.6499
G01 X0.2384 Y-19.6638
G01 X0.2901 Y-19.7233
G01 X0.3090 Y-19.7426
G01 X0.3292 Y-19.7603
G01 X0.3508 Y-19.7765
G01 X0.3657 Y-19.7864
G01 X0.3812 Y-19.7956
G01 X0.3971 Y-19.8039
G01 X0.4134 Y-19.8115
G01 X0.4300 Y-19.8182
G01 X0.4556 Y-19.8268
G01 X0.5226 Y-19.8465
G01 X0.5476 Y-19.8529
G01 X0.5730 Y-19.8574
G01 X0.5987 Y-19.8602
G01 X0.6245 Y-19.8611
G01 X29.3755 Y-19.8611
G01 X29.3927 Y-19.8607
G01 X29.4099 Y-19.8595
G01 X29.4355 Y-19.8561
G01 X29.4524 Y-19.8529
G01 X29.5127 Y-19.8396
G01 X29.5301 Y-19.8349
G01 X29.5558 Y-19.8262
G01 X29.5807 Y-19.8156
G01 X29.6048 Y-19.8032
G01 X29.6279 Y-19.7890
G01 X29.6499 Y-19.7731
G01 X29.6638 Y-19.7616
G01 X29.7233 Y-19.7099
G01 X29.7426 Y-19.6910
G01 X29.7603 Y-19.6708
G01 X29.7713 Y-19.6565
G01 X29.7864 Y-19.6343
G01 X29.7956 Y-19.6188
G01 X29.8039 Y-19.6029
G01 X29.8115 Y-19.5866
G01 X29.8182 Y-19.5700
G01 X29.8268 Y-19.5444
G01 X29.8465 Y-19.4774
G01 X29.8529 Y-19.4524
G01 X29.8574 Y-19.4270
G01 X29.8602 Y-19.4013
G01 X29.8611 Y-19.3755
G01 X29.8611 Y-0.6245
G01 X29.8607 Y-0.6073
G01 X29.8595 Y-0.5901
G01 X29.8561 Y-0.5645
G01 X29.8529 Y-0.5476
G01 X29.8396 Y-0.4873
G01 X29.8322 Y-0.4612
G01 X29.8229 Y-0.4358
G01 X29.8117 Y-0.4111
G01 X29.8032 Y-0.3952
G01 X29.7890 Y-0.3721
G01 X29.7731 Y-0.3501
G01 X29.7616 Y-0.3362
G01 X29.7099 Y-0.2767
G01 X29.6910 Y-0.2574
G01 X29.6776 Y-0.2454
G01 X29.6565 Y-0.2287
G01 X29.6343 Y-0.2136
G01 X29.6188 Y-0.2044
G01 X29.6029 Y-0.1961
G01 X29.5866 Y-0.1885
G01 X29.5700 Y-0.1818
G01 X29.5444 Y-0.1732
G01 X29.4774 Y-0.1535
G01 X29.4524 Y-0.1471
G01 X29.4270 Y-0.1426
G01 X29.4013 Y-0.1398
G01 X29.3755 Y-0.1389
G01 X0.6159 Y-0.1390
G01 X0.5901 Y-0.1405
G01 X0.5645 Y-0.1439
G01 X0.5476 Y-0.1471
G01 X0.4873 Y-0.1604
G01 X0.4699 Y-0.1651
G01 X0.4527 Y-0.1707
G01 X0.4358 Y-0.1771
G01 X0.4193 Y-0.1844
G01 X0.4031 Y-0.1925
G01 X0.3874 Y-0.2014
G01 X0.3721 Y-0.2110
G01 X0.3573 Y-0.2214
G01 X0.3362 Y-0.2384
G01 X0.2834 Y-0.2842
G01 X0.2637 Y-0.3026
G01 X0.2513 Y-0.3156
G01 X0.2397 Y-0.3292
G01 X0.2287 Y-0.3435
G01 X0.2184 Y-0.3582
G01 X0.2089 Y-0.3734
G01 X0.2001 Y-0.3891
G01 X0.1922 Y-0.4052
G01 X0.1818 Y-0.4300
G01 X0.1732 Y-0.4556
G01 X0.1535 Y-0.5226
G01 X0.1471 Y-0.5476
G01 X0.1439 Y-0.5645
G01 X0.1414 Y-0.5816
G01 X0.1393 Y-0.6073
G01 X0.1389 Y-0.6245
G00 Z0.5000
G00 X0.2766 Y-0.6245
G01 F90.00
G01 Z-0.0800
G01 F240.00
G01 X0.2766 Y-19.3755
G01 X0.2772 Y-19.3915
G01 X0.2782 Y-19.4021
G01 X0.2797 Y-19.4126
G01 X0.2942 Y-19.4800
G01 X0.2988 Y-19.4962
G01 X0.3025 Y-19.5067
G01 X0.3068 Y-19.5171
G01 X0.3141 Y-19.5322
G01 X0.3196 Y-19.5419
G01 X0.3256 Y-19.5514
G01 X0.3354 Y-19.5650
G01 X0.3425 Y-19.5736
G01 X0.3920 Y-19.6306
G01 X0.4037 Y-19.6425
G01 X0.4119 Y-19.6499
G01 X0.4250 Y-19.6603
G01 X0.4341 Y-19.6666
G01 X0.4484 Y-19.6753
G01 X0.4632 Y-19.6829
G01 X0.4786 Y-19.6893
G01 X0.4944 Y-19.6946
G01 X0.5614 Y-19.7143
G01 X0.5769 Y-19.7182
G01 X0.5874 Y-19.7203
G01 X0.5979 Y-19.7218
G01 X0.6085 Y-19.7228
G01 X0.6245 Y-19.7234
G01 X29.3755 Y-19.7234
G01 X29.3915 Y-19.7228
G01 X29.4021 Y-19.7218
G01 X29.4126 Y-19.7203
G01 X29.4800 Y-19.7058
G01 X29.4908 Y-19.7029
G01 X29.5067 Y-19.6975
G01 X29.5171 Y-19.6932
G01 X29.5322 Y-19.6859
G01 X29.5467 Y-19.6775
G01 X29.5560 Y-19.6713
G01 X29.5650 Y-19.6646
G01 X29.5736 Y-19.6575
G01 X29.6306 Y-19.6080
G01 X29.6425 Y-19.5963
G01 X29.6499 Y-19.5881
G01 X29.6603 Y-19.5750
G01 X29.6666 Y-19.5659
G01 X29.6753 Y-19.5516
G01 X29.6829 Y-19.5368
G01 X29.6893 Y-19.5214
G01 X29.6946 Y-19.5056
G01 X29.7143 Y-19.4386
G01 X29.7182 Y-19.4231
G01 X29.7203 Y-19.4126
G01 X29.7218 Y-19.4021
G01 X29.7231 Y-19.3862
G01 X29.7234 Y-19.3755
G01 X29.7234 Y-0.6245
G01 X29.7228 Y-0.6085
G01 X29.7218 Y-0.5979
G01 X29.7203 Y-0.5874
G01 X29.7058 Y-0.5200
G01 X29.7029 Y-0.5092
G01 X29.6975 Y-0.4933
G01 X29.6932 Y-0.4829
G01 X29.6859 Y-0.4678
G01 X29.6775 Y-0.4533
G01 X29.6713 Y-0.4440
G01 X29.6646 Y-0.4350
G01 X29.6575 Y-0.4264
G01 X29.6080 Y-0.3694
G01 X29.5963 Y-0.3575
G01 X29.5881 Y-0.3501
G01 X29.5795 Y-0.3431
G01 X29.5659 Y-0.3334
G01 X29.5516 Y-0.3247
G01 X29.5368 Y-0.3171
G01 X29.5214 Y-0.3107
G01 X29.5056 Y-0.3054
G01 X29.4386 Y-0.2857
G01 X29.4231 Y-0.2818
G01 X29.4126 Y-0.2797
G01 X29.3968 Y-0.2777
G01 X29.3862 Y-0.2769
G01 X29.3755 Y-0.2766
G01 X0.6245 Y-0.2766
G01 X0.6138 Y-0.2769
G01 X0.6032 Y-0.2777
G01 X0.5874 Y-0.2797
G01 X0.5254 Y-0.2930
G01 X0.5092 Y-0.2971
G01 X0.4985 Y-0.3006
G01 X0.4881 Y-0.3046
G01 X0.4778 Y-0.3091
G01 X0.4629 Y-0.3168
G01 X0.4533 Y-0.3225
G01 X0.4440 Y-0.3287
G01 X0.4350 Y-0.3354
G01 X0.3736 Y-0.3883
G01 X0.3614 Y-0.3997
G01 X0.3501 Y-0.4119
G01 X0.3431 Y-0.4205
G01 X0.3365 Y-0.4295
G01 X0.3304 Y-0.4388
G01 X0.3247 Y-0.4484
G01 X0.3195 Y-0.4582
G01 X0.3149 Y-0.4683
G01 X0.3107 Y-0.4786
G01 X0.3054 Y-0.4944
G01 X0.2830 Y-0.5717
G01 X0.2797 Y-0.5874
G01 X0.2782 Y-0.5979
G01 X0.2769 Y-0.6138
G01 X0.2766 Y-0.6245
G00 Z0.5000
G00 X0.4144 Y-0.6245
G01 F90.00
G01 Z-0.0800
G01 F240.00
G01 X0.4144 Y-19.3755
G01 X0.4148 Y-19.3837
G01 X0.4160 Y-19.3918
G01 X0.4281 Y-19.4474
G01 X0.4313 Y-19.4577
G01 X0.4357 Y-19.4675
G01 X0.4401 Y-19.4748
G01 X0.4452 Y-19.4818
G01 X0.4924 Y-19.5362
G01 X0.4999 Y-19.5438
G01 X0.5100 Y-19.5517
G01 X0.5212 Y-19.5579
G01 X0.5332 Y-19.5624
G01 X0.6042 Y-19.5832
G01 X0.6143 Y-19.5850
G01 X0.6245 Y-19.5856
G01 X29.3755 Y-19.5856
G01 X29.3837 Y-19.5852
G01 X29.3918 Y-19.5840
G01 X29.4474 Y-19.5719
G01 X29.4577 Y-19.5687
G01 X29.4675 Y-19.5643
G01 X29.4748 Y-19.5599
G01 X29.4818 Y-19.5548
G01 X29.5362 Y-19.5076
G01 X29.5452 Y-19.4985
G01 X29.5517 Y-19.4900
G01 X29.5579 Y-19.4788
G01 X29.5624 Y-19.4668
G01 X29.5832 Y-19.3958
G01 X29.5850 Y-19.3857
G01 X29.5856 Y-19.3755
G01 X29.5856 Y-0.6245
G01 X29.5852 Y-0.6163
G01 X29.5840 Y-0.6082
G01 X29.5719 Y-0.5526
G01 X29.5687 Y-0.5423
G01 X29.5643 Y-0.5325
G01 X29.5599 Y-0.5252
G01 X29.5548 Y-0.5182
G01 X29.5076 Y-0.4638
G01 X29.4985 Y-0.4548
G01 X29.4900 Y-0.4483
G01 X29.4788 Y-0.4421
G01 X29.4668 Y-0.4376
G01 X29.3958 Y-0.4168
G01 X29.3857 Y-0.4150
G01 X29.3755 Y-0.4144
G01 X0.6245 Y-0.4144
G01 X0.6163 Y-0.4148
G01 X0.6082 Y-0.4160
G01 X0.5547 Y-0.4276
G01 X0.5443 Y-0.4305
G01 X0.5344 Y-0.4347
G01 X0.5270 Y-0.4389
G01 X0.5182 Y-0.4452
G01 X0.4591 Y-0.4968
G01 X0.4534 Y-0.5031
G01 X0.4472 Y-0.5118
G01 X0.4421 Y-0.5212
G01 X0.4389 Y-0.5291
G01 X0.4173 Y-0.6022
G01 X0.4150 Y-0.6143
G01 X0.4144 Y-0.6245
G00 Z0.5000
G00 X1.1683 Y-2.1572
G01 F90.00
G01 Z-0.0800
G01 F240.00
G01 X1.1770 Y-2.2789
G01 X1.2006 Y-2.3767
G01 X1.2363 Y-2.4553
G01 X1.2831 Y-2.5192
G01 X1.3419 Y-2.5707
G01 X1.4122 Y-2.6083
G01 X1.4993 Y-2.6329
G01 X1.6095 Y-2.6421
G01 X1.6856 Y-2.6372
G01 X1.7537 Y-2.6233
G01 X1.8146 Y-2.6011
G01 X1.8702 Y-2.5702
G01 X1.9162 Y-2.5334
G01 X1.9546 Y-2.4898
G01 X1.9852 Y-2.4400
G01 X1.9939 Y-2.4184
G01 X1.8850 Y-2.4133
G01 X1.8826 Y-2.4207
G01 X1.8803 Y-2.4263
G01 X1.8571 Y-2.4771
G01 X1.8520 Y-2.4866
G01 X1.8458 Y-2.4954
G01 X1.8136 Y-2.5352
G01 X1.8065 Y-2.5426
G01 X1.7987 Y-2.5491
G01 X1.7575 Y-2.5791
G01 X1.7487 Y-2.5844
G01 X1.7393 Y-2.5887
G01 X1.6920 Y-2.6068
G01 X1.6837 Y-2.6093
G01 X1.6751 Y-2.6110
G01 X1.6204 Y-2.6173
G01 X1.6094 Y-2.6178
G01 X1.5985 Y-2.6169
G01 X1.5338 Y-2.6077
G01 X1.5274 Y-2.6065
G01 X1.5190 Y-2.6042
G01 X1.5090 Y-2.6002
G01 X1.4549 Y-2.5728
G01 X1.4477 Y-2.5687
G01 X1.4409 Y-2.5639
G01 X1.4331 Y-2.5570
G01 X1.3889 Y-2.5108
G01 X1.3833 Y-2.5044
G01 X1.3795 Y-2.4992
G01 X1.3742 Y-2.4900
G01 X1.3401 Y-2.4223
G01 X1.3365 Y-2.4142
G01 X1.3344 Y-2.4079
G01 X1.3096 Y-2.3051
G01 X1.3080 Y-2.2969
G01 X1.2983 Y-2.1515
G01 X1.2983 Y-2.1403
G01 X1.3078 Y-1.9992
G01 X1.3094 Y-1.9909
G01 X1.3331 Y-1.8932
G01 X1.3359 Y-1.8848
G01 X1.3395 Y-1.8767
G01 X1.3729 Y-1.8108
G01 X1.3795 Y-1.7999
G01 X1.3877 Y-1.7901
G01 X1.4296 Y-1.7465
G01 X1.4357 Y-1.7408
G01 X1.4422 Y-1.7357
G01 X1.4511 Y-1.7303
G01 X1.5042 Y-1.7035
G01 X1.5161 Y-1.6986
G01 X1.5266 Y-1.6959
G01 X1.5945 Y-1.6862
G01 X1.6052 Y-1.6853
G01 X1.6159 Y-1.6858
G01 X1.6739 Y-1.6921
G01 X1.6848 Y-1.6940
G01 X1.6954 Y-1.6973
G01 X1.7409 Y-1.7147
G01 X1.7523 Y-1.7200
G01 X1.7628 Y-1.7270
G01 X1.7987 Y-1.7548
G01 X1.8050 Y-1.7602
G01 X1.8107 Y-1.7661
G01 X1.8146 Y-1.7709
G01 X1.8426 Y-1.8077
G01 X1.8473 Y-1.8147
G01 X1.8523 Y-1.8241
G01 X1.8737 Y-1.8710
G01 X1.9810 Y-1.8657
G01 X1.9656 Y-1.8333
G01 X1.9295 Y-1.7839
G01 X1.8836 Y-1.7411
G01 X1.8305 Y-1.7072
G01 X1.7694 Y-1.6820
G01 X1.6977 Y-1.6658
G01 X1.6134 Y-1.6600
G01 X1.5028 Y-1.6694
G01 X1.4150 Y-1.6944
G01 X1.3440 Y-1.7329
G01 X1.2845 Y-1.7857
G01 X1.2372 Y-1.8510
G01 X1.2011 Y-1.9317
G01 X1.1772 Y-2.0321
G01 X1.1683 Y-2.1572
G00 Z0.5000
G00 X2.3991 Y-2.6189
G01 F90.00
G01 Z-0.0800
G01 F240.00
G01 X2.5149 Y-2.6189
G01 X2.5150 Y-2.1056
G01 X2.5230 Y-2.0112
G01 X2.5245 Y-2.0008
G01 X2.5484 Y-1.9168
G01 X2.5522 Y-1.9069
G01 X2.5587 Y-1.8946
G01 X2.5488 Y-1.8896
G01 X2.5385 Y-1.8824
G01 X2.5293 Y-1.8737
G01 X2.5227 Y-1.8656
G01 X2.5162 Y-1.8548
G01 X2.5112 Y-1.8433
G01 X2.5085 Y-1.8331
G01 X2.5068 Y-1.8207
G01 X2.5067 Y-1.8123
G01 X2.5149 Y-1.5972
G01 X2.5149 Y-1.2729
G01 X2.3991 Y-1.2729
G01 X2.3991 Y-2.6189
G00 Z0.5000
G00 X2.7822 Y-1.7107
G01 F90.00
G01 Z-0.0800
G01 F240.00
G01 X2.8227 Y-1.7045
G01 X2.8293 Y-1.7039
G01 X2.8359 Y-1.7038
G01 X2.8446 Y-1.7045
G01 X2.9053 Y-1.7124
G01 X2.9159 Y-1.7148
G01 X2.9241 Y-1.7176
G01 X2.9783 Y-1.7426
G01 X2.9876 Y-1.7482
G01 X2.9961 Y-1.7549
G01 X3.0346 Y-1.7916
G01 X3.0420 Y-1.7996
G01 X3.0495 Y-1.8103
G01 X3.0814 Y-1.8679
G01 X3.0848 Y-1.8757
G01 X3.0868 Y-1.8818
G01 X3.1070 Y-1.9577
G01 X3.1087 Y-1.9656
G01 X3.1097 Y-1.9736
G01 X3.1173 Y-2.0785
G01 X3.1174 Y-2.6189
G01 X3.2322 Y-2.6189
G01 X3.2322 Y-2.0036
G01 X3.2259 Y-1.9070
G01 X3.2099 Y-1.8349
G01 X3.1870 Y-1.7804
G01 X3.1587 Y-1.7394
G01 X3.1226 Y-1.7063
G01 X3.0794 Y-1.6823
G01 X3.0245 Y-1.6662
G01 X2.9534 Y-1.6601
G01 X2.8892 Y-1.6655
G01 X2.8360 Y-1.6803
G01 X2.7909 Y-1.7035
G01 X2.7822 Y-1.7107
G00 Z0.5000
G00 X3.6014 Y-2.3916
G01 F90.00
G01 Z-0.0800
G01 F240.00
G01 X3.6269 Y-2.4538
G01 X3.6635 Y-2.5081
G01 X3.7111 Y-2.5537
G01 X3.7677 Y-2.5894
G01 X3.8371 Y-2.6171
G01 X3.9227 Y-2.6354
G01 X4.0277 Y-2.6422
G01 X4.1399 Y-2.6349
G01 X4.2284 Y-2.6156
G01 X4.2974 Y-2.5873
G01 X4.3512 Y-2.5513
G01 X4.3949 Y-2.5057
G01 X4.4260 Y-2.4524
G01 X4.4461 Y-2.3869
G01 X4.4535 Y-2.3051
G01 X4.4455 Y-2.2360
G01 X4.4242 Y-2.1823
G01 X4.3889 Y-2.1362
G01 X4.3412 Y-2.0994
G01 X4.2754 Y-2.0705
G01 X4.2011 Y-2.0550
G01 X4.2200 Y-2.0654
G01 X4.2252 Y-2.0688
G01 X4.2318 Y-2.0740
G01 X4.2748 Y-2.1171
G01 X4.2803 Y-2.1232
G01 X4.2852 Y-2.1298
G01 X4.2904 Y-2.1386
G01 X4.3169 Y-2.1944
G01 X4.3196 Y-2.2022
G01 X4.3218 Y-2.2124
G01 X4.3303 Y-2.2751
G01 X4.3310 Y-2.2833
G01 X4.3306 Y-2.2957
G01 X4.3225 Y-2.3698
G01 X4.3207 Y-2.3777
G01 X4.3181 Y-2.3855
G01 X4.2978 Y-2.4384
G01 X4.2933 Y-2.4476
G01 X4.2889 Y-2.4546
G01 X4.2852 Y-2.4596
G01 X4.2546 Y-2.4976
G01 X4.2472 Y-2.5056
G01 X4.2423 Y-2.5099
G01 X4.2353 Y-2.5151
G01 X4.1925 Y-2.5437
G01 X4.1833 Y-2.5487
G01 X4.1737 Y-2.5526
G01 X4.1211 Y-2.5701
G01 X4.1085 Y-2.5733
G01 X4.0348 Y-2.5805
G01 X4.0237 Y-2.5808
G01 X3.9351 Y-2.5710
G01 X3.9265 Y-2.5694
G01 X3.9182 Y-2.5669
G01 X3.8542 Y-2.5405
G01 X3.8426 Y-2.5347
G01 X3.8321 Y-2.5273
G01 X3.7822 Y-2.4837
G01 X3.7750 Y-2.4758
G01 X3.7687 Y-2.4670
G01 X3.7340 Y-2.4074
G01 X3.7311 Y-2.4015
G01 X3.7286 Y-2.3954
G01 X3.7244 Y-2.3809
G01 X3.6014 Y-2.3916
G00 Z0.5000
G00 X4.1321 Y-2.0248
G01 F90.00
G01 Z-0.0800
G01 F240.00
G01 X4.1267 Y-2.0185
G01 X4.1230 Y-2.0133
G01 X4.1197 Y-2.0080
G01 X4.1160 Y-2.0004
G01 X4.1130 Y-1.9926
G01 X4.1112 Y-1.9866
G01 X4.1091 Y-1.9742
G01 X4.1087 Y-1.9679
G01 X4.1088 Y-1.9574
G01 X4.1093 Y-1.9512
G01 X4.1108 Y-1.9429
G01 X4.1124 Y-1.9368
G01 X4.1152 Y-1.9288
G01 X4.1188 Y-1.9212
G01 X4.1223 Y-1.9153
G01 X4.0675 Y-1.9311
G01 X4.0569 Y-1.9335
G01 X3.9691 Y-1.9409
G01 X3.9540 Y-1.9411
G01 X3.9540 Y-2.0016
G01 X3.9747 Y-2.0018
G01 X4.0692 Y-2.0089
G01 X4.0790 Y-2.0107
G01 X4.1321 Y-2.0248
G00 Z0.5000
G00 X4.2053 Y-1.8692
G01 F90.00
G01 Z-0.0800
G01 F240.00
G01 X4.2589 Y-1.8540
G01 X4.3173 Y-1.8238
G01 X4.3595 Y-1.7877
G01 X4.3902 Y-1.7437
G01 X4.4093 Y-1.6911
G01 X4.4166 Y-1.6232
G01 X4.4099 Y-1.5534
G01 X4.3917 Y-1.4974
G01 X4.3630 Y-1.4506
G01 X4.3212 Y-1.4089
G01 X4.2701 Y-1.3759
G01 X4.2055 Y-1.3499
G01 X4.1239 Y-1.3324
G01 X4.0218 Y-1.3258
G01 X3.9275 Y-1.3323
G01 X3.8496 Y-1.3498
G01 X3.7848 Y-1.3766
G01 X3.7302 Y-1.4122
G01 X3.6838 Y-1.4572
G01 X3.6486 Y-1.5090
G01 X3.6288 Y-1.5566
G01 X3.7417 Y-1.5646
G01 X3.7648 Y-1.5151
G01 X3.7701 Y-1.5060
G01 X3.7765 Y-1.4975
G01 X3.8071 Y-1.4618
G01 X3.8159 Y-1.4529
G01 X3.8243 Y-1.4465
G01 X3.8634 Y-1.4200
G01 X3.8739 Y-1.4139
G01 X3.8833 Y-1.4100
G01 X3.9306 Y-1.3936
G01 X3.9364 Y-1.3918
G01 X3.9442 Y-1.3901
G01 X4.0078 Y-1.3834
G01 X4.0165 Y-1.3830
G01 X4.0252 Y-1.3834
G01 X4.0868 Y-1.3897
G01 X4.0974 Y-1.3915
G01 X4.1076 Y-1.3945
G01 X4.1548 Y-1.4118
G01 X4.1644 Y-1.4160
G01 X4.1752 Y-1.4225
G01 X4.2148 Y-1.4522
G01 X4.2226 Y-1.4592
G01 X4.2309 Y-1.4689
G01 X4.2602 Y-1.5091
G01 X4.2647 Y-1.5167
G01 X4.2683 Y-1.5246
G01 X4.2867 Y-1.5744
G01 X4.2895 Y-1.5847
G01 X4.2908 Y-1.5931
G01 X4.2968 Y-1.6505
G01 X4.2973 Y-1.6614
G01 X4.2966 Y-1.6701
G01 X4.2892 Y-1.7299
G01 X4.2873 Y-1.7402
G01 X4.2833 Y-1.7522
G01 X4.2616 Y-1.8014
G01 X4.2556 Y-1.8126
G01 X4.2494 Y-1.8212
G01 X4.2125 Y-1.8622
G01 X4.2053 Y-1.8692
G00 Z0.5000
G00 X4.7741 Y-2.5275
G01 F90.00
G01 Z-0.0800
G01 F240.00
G01 X4.7741 Y-2.6189
G01 X5.6122 Y-2.6189
G01 X5.6122 Y-2.5544
G01 X5.0283 Y-2.5544
G01 X5.0178 Y-2.5538
G01 X5.0054 Y-2.5513
G01 X4.9993 Y-2.5494
G01 X4.9915 Y-2.5462
G01 X4.9859 Y-2.5433
G01 X4.9788 Y-2.5388
G01 X4.9738 Y-2.5350
G01 X4.9675 Y-2.5293
G01 X4.9632 Y-2.5247
G01 X4.9580 Y-2.5181
G01 X4.9545 Y-2.5128
G01 X4.9505 Y-2.5054
G01 X4.9460 Y-2.4936
G01 X4.9443 Y-2.4875
G01 X4.9429 Y-2.4792
G01 X4.9422 Y-2.4687
G01 X4.9428 Y-2.4582
G01 X4.9446 Y-2.4478
G01 X4.9478 Y-2.4378
G01 X4.9531 Y-2.4263
G01 X4.9886 Y-2.3628
G01 X4.9930 Y-2.3558
G01 X4.9967 Y-2.3508
G01 X5.0515 Y-2.2861
G01 X5.0587 Y-2.2789
G01 X5.1911 Y-2.1616
G01 X5.3396 Y-2.0433
G01 X5.4090 Y-1.9837
G01 X5.4686 Y-1.9231
G01 X5.5189 Y-1.8591
G01 X5.5571 Y-1.7928
G01 X5.5810 Y-1.7243
G01 X5.5893 Y-1.6447
G01 X5.5823 Y-1.5672
G01 X5.5636 Y-1.5054
G01 X5.5349 Y-1.4551
G01 X5.4944 Y-1.4119
G01 X5.4447 Y-1.3780
G01 X5.3807 Y-1.3511
G01 X5.2979 Y-1.3328
G01 X5.1923 Y-1.3258
G01 X5.0964 Y-1.3324
G01 X5.0192 Y-1.3500
G01 X4.9570 Y-1.3766
G01 X4.9061 Y-1.4112
G01 X4.8636 Y-1.4551
G01 X4.8294 Y-1.5091
G01 X4.8054 Y-1.5708
G01 X4.9228 Y-1.5774
G01 X4.9261 Y-1.5685
G01 X4.9474 Y-1.5200
G01 X4.9514 Y-1.5120
G01 X4.9575 Y-1.5028
G01 X4.9860 Y-1.4651
G01 X4.9933 Y-1.4570
G01 X4.9999 Y-1.4512
G01 X5.0388 Y-1.4220
G01 X5.0495 Y-1.4155
G01 X5.0591 Y-1.4113
G01 X5.1050 Y-1.3944
G01 X5.1153 Y-1.3913
G01 X5.1259 Y-1.3896
G01 X5.1875 Y-1.3832
G01 X5.1959 Y-1.3830
G01 X5.2043 Y-1.3836
G01 X5.2762 Y-1.3920
G01 X5.2868 Y-1.3940
G01 X5.2930 Y-1.3958
G01 X5.3011 Y-1.3989
G01 X5.3539 Y-1.4224
G01 X5.3648 Y-1.4286
G01 X5.3716 Y-1.4336
G01 X5.3763 Y-1.4378
G01 X5.4134 Y-1.4747
G01 X5.4191 Y-1.4809
G01 X5.4241 Y-1.4876
G01 X5.4303 Y-1.4986
G01 X5.4539 Y-1.5511
G01 X5.4564 Y-1.5572
G01 X5.4589 Y-1.5655
G01 X5.4608 Y-1.5762
G01 X5.4693 Y-1.6475
G01 X5.4699 Y-1.6559
G01 X5.4698 Y-1.6621
G01 X5.4630 Y-1.7178
G01 X5.4612 Y-1.7278
G01 X5.4582 Y-1.7374
G01 X5.4386 Y-1.7892
G01 X5.4351 Y-1.7973
G01 X5.4308 Y-1.8049
G01 X5.3956 Y-1.8605
G01 X5.3893 Y-1.8692
G01 X5.3077 Y-1.9588
G01 X5.0207 Y-2.2096
G01 X4.9136 Y-2.3198
G01 X4.8270 Y-2.4323
G01 X4.7741 Y-2.5275
G00 Z0.5000
G00 X5.9123 Y-1.6832
G01 F90.00
G01 Z-0.0800
G01 F240.00
G01 X6.2472 Y-2.6189
G01 X6.4708 Y-2.6189
G01 X6.8161 Y-1.6832
G01 X6.7011 Y-1.6832
G01 X6.4852 Y-2.3501
G01 X6.4435 Y-2.4960
G01 X6.4408 Y-2.5040
G01 X6.4353 Y-2.5155
G01 X6.4281 Y-2.5260
G01 X6.4195 Y-2.5353
G01 X6.4096 Y-2.5433
G01 X6.3986 Y-2.5497
G01 X6.3868 Y-2.5544
G01 X6.3744 Y-2.5574
G01 X6.3618 Y-2.5585
G01 X6.3491 Y-2.5577
G01 X6.3366 Y-2.5550
G01 X6.3247 Y-2.5506
G01 X6.3190 Y-2.5477
G01 X6.3118 Y-2.5432
G01 X6.3019 Y-2.5352
G01 X6.2933 Y-2.5259
G01 X6.2895 Y-2.5208
G01 X6.2851 Y-2.5135
G01 X6.2799 Y-2.5019
G01 X6.2055 Y-2.2411
G01 X6.0310 Y-1.6832
G01 X5.9123 Y-1.6832
G00 Z0.5000
G00 X7.1175 Y-1.9837
G01 F90.00
G01 Z-0.0800
G01 F240.00
G01 X7.1257 Y-2.1591
G01 X7.1478 Y-2.2967
G01 X7.1800 Y-2.4025
G01 X7.2193 Y-2.4820
G01 X7.2640 Y-2.5409
G01 X7.3141 Y-2.5839
G01 X7.3719 Y-2.6148
G01 X7.4415 Y-2.6347
G01 X7.5274 Y-2.6420
G01 X7.6113 Y-2.6351
G01 X7.6801 Y-2.6162
G01 X7.7376 Y-2.5869
G01 X7.7874 Y-2.5463
G01 X7.8317 Y-2.4917
G01 X7.8749 Y-2.4104
G01 X7.9100 Y-2.3029
G01 X7.9341 Y-2.1628
G01 X7.9431 Y-1.9839
G01 X7.9344 Y-1.8005
G01 X7.9113 Y-1.6585
G01 X7.8779 Y-1.5512
G01 X7.8376 Y-1.4721
G01 X7.7963 Y-1.4198
G01 X7.7486 Y-1.3806
G01 X7.6920 Y-1.3518
G01 X7.6223 Y-1.3330
G01 X7.5355 Y-1.3259
G01 X7.4342 Y-1.3343
G01 X7.3575 Y-1.3560
G01 X7.2991 Y-1.3881
G01 X7.2500 Y-1.4331
G01 X7.2060 Y-1.4974
G01 X7.1674 Y-1.5877
G01 X7.1418 Y-1.6874
G01 X7.1241 Y-1.8179
G01 X7.1175 Y-1.9837
G00 Z0.5000
G00 X7.2386 Y-1.7924
G01 F90.00
G01 Z-0.0800
G01 F240.00
G01 X7.2331 Y-1.9841
G01 X7.2392 Y-2.1790
G01 X7.2537 Y-2.3039
G01 X7.2551 Y-2.3122
G01 X7.2752 Y-2.3941
G01 X7.2991 Y-2.4520
G01 X7.3035 Y-2.4610
G01 X7.3077 Y-2.4678
G01 X7.3318 Y-2.5027
G01 X7.3395 Y-2.5122
G01 X7.3468 Y-2.5193
G01 X7.3822 Y-2.5480
G01 X7.3913 Y-2.5541
G01 X7.4011 Y-2.5590
G01 X7.4443 Y-2.5762
G01 X7.4542 Y-2.5794
G01 X7.4665 Y-2.5817
G01 X7.5198 Y-2.5876
G01 X7.5284 Y-2.5881
G01 X7.5392 Y-2.5876
G01 X7.5916 Y-2.5814
G01 X7.6022 Y-2.5795
G01 X7.6125 Y-2.5763
G01 X7.6559 Y-2.5584
G01 X7.6650 Y-2.5540
G01 X7.6719 Y-2.5497
G01 X7.6768 Y-2.5460
G01 X7.7112 Y-2.5171
G01 X7.7175 Y-2.5112
G01 X7.7246 Y-2.5031
G01 X7.7519 Y-2.4630
G01 X7.7564 Y-2.4555
G01 X7.7602 Y-2.4476
G01 X7.7821 Y-2.3949
G01 X7.7844 Y-2.3886
G01 X7.7862 Y-2.3822
G01 X7.8053 Y-2.3024
G01 X7.8205 Y-2.1738
G01 X7.8265 Y-1.9841
G01 X7.8205 Y-1.7874
G01 X7.8064 Y-1.6629
G01 X7.8051 Y-1.6546
G01 X7.7853 Y-1.5730
G01 X7.7618 Y-1.5153
G01 X7.7569 Y-1.5052
G01 X7.7295 Y-1.4647
G01 X7.7219 Y-1.4552
G01 X7.7147 Y-1.4481
G01 X7.6798 Y-1.4194
G01 X7.6714 Y-1.4136
G01 X7.6624 Y-1.4089
G01 X7.6179 Y-1.3909
G01 X7.6079 Y-1.3876
G01 X7.5955 Y-1.3853
G01 X7.5430 Y-1.3794
G01 X7.5346 Y-1.3789
G01 X7.5241 Y-1.3793
G01 X7.4681 Y-1.3854
G01 X7.4580 Y-1.3871
G01 X7.4482 Y-1.3900
G01 X7.4034 Y-1.4073
G01 X7.3935 Y-1.4118
G01 X7.3825 Y-1.4189
G01 X7.3464 Y-1.4478
G01 X7.3403 Y-1.4534
G01 X7.3335 Y-1.4611
G01 X7.3064 Y-1.4997
G01 X7.3011 Y-1.5084
G01 X7.2976 Y-1.5158
G01 X7.2761 Y-1.5673
G01 X7.2733 Y-1.5748
G01 X7.2717 Y-1.5806
G01 X7.2532 Y-1.6594
G01 X7.2391 Y-1.7854
G01 X7.2386 Y-1.7924
G00 Z0.5000
G00 X8.2840 Y-1.9837
G01 F90.00
G01 Z-0.0800
G01 F240.00
G01 X8.2922 Y-2.1591
G01 X8.3143 Y-2.2967
G01 X8.3465 Y-2.4025
G01 X8.3858 Y-2.4820
G01 X8.4305 Y-2.5409
G01 X8.4806 Y-2.5839
G01 X8.5384 Y-2.6148
G01 X8.6080 Y-2.6347
G01 X8.6939 Y-2.6420
G01 X8.7778 Y-2.6351
G01 X8.8466 Y-2.6162
G01 X8.9041 Y-2.5869
G01 X8.9539 Y-2.5463
G01 X8.9982 Y-2.4917
G01 X9.0414 Y-2.4104
G01 X9.0765 Y-2.3029
G01 X9.1006 Y-2.1628
G01 X9.1096 Y-1.9839
G01 X9.1009 Y-1.8005
G01 X9.0778 Y-1.6585
G01 X9.0445 Y-1.5512
G01 X9.0041 Y-1.4721
G01 X8.9628 Y-1.4198
G01 X8.9151 Y-1.3806
G01 X8.8585 Y-1.3518
G01 X8.7888 Y-1.3330
G01 X8.7020 Y-1.3259
G01 X8.6008 Y-1.3343
G01 X8.5240 Y-1.3560
G01 X8.4656 Y-1.3881
G01 X8.4165 Y-1.4331
G01 X8.3725 Y-1.4974
G01 X8.3339 Y-1.5877
G01 X8.3083 Y-1.6874
G01 X8.2906 Y-1.8179
G01 X8.2840 Y-1.9837
G00 Z0.5000
G00 X8.4051 Y-1.7924
G01 F90.00
G01 Z-0.0800
G01 F240.00
G01 X8.3996 Y-1.9841
G01 X8.4057 Y-2.1790
G01 X8.4202 Y-2.3039
G01 X8.4216 Y-2.3122
G01 X8.4417 Y-2.3941
G01 X8.4656 Y-2.4520
G01 X8.4700 Y-2.4610
G01 X8.4742 Y-2.4678
G01 X8.4983 Y-2.5027
G01 X8.5060 Y-2.5122
G01 X8.5134 Y-2.5193
G01 X8.5487 Y-2.5480
G01 X8.5578 Y-2.5541
G01 X8.5676 Y-2.5590
G01 X8.6108 Y-2.5762
G01 X8.6207 Y-2.5794
G01 X8.6330 Y-2.5817
G01 X8.6863 Y-2.5876
G01 X8.6949 Y-2.5881
G01 X8.7057 Y-2.5876
G01 X8.7581 Y-2.5814
G01 X8.7687 Y-2.5795
G01 X8.7790 Y-2.5763
G01 X8.8224 Y-2.5584
G01 X8.8315 Y-2.5540
G01 X8.8367 Y-2.5508
G01 X8.8433 Y-2.5460
G01 X8.8777 Y-2.5171
G01 X8.8840 Y-2.5112
G01 X8.8911 Y-2.5031
G01 X8.9184 Y-2.4630
G01 X8.9229 Y-2.4555
G01 X8.9267 Y-2.4476
G01 X8.9486 Y-2.3949
G01 X8.9509 Y-2.3886
G01 X8.9527 Y-2.3822
G01 X8.9718 Y-2.3024
G01 X8.9870 Y-2.1738
G01 X8.9930 Y-1.9841
G01 X8.9871 Y-1.7874
G01 X8.9729 Y-1.6629
G01 X8.9716 Y-1.6546
G01 X8.9518 Y-1.5730
G01 X8.9283 Y-1.5153
G01 X8.9234 Y-1.5052
G01 X8.8960 Y-1.4647
G01 X8.8884 Y-1.4552
G01 X8.8812 Y-1.4481
G01 X8.8463 Y-1.4194
G01 X8.8379 Y-1.4136
G01 X8.8289 Y-1.4089
G01 X8.7845 Y-1.3909
G01 X8.7745 Y-1.3876
G01 X8.7620 Y-1.3853
G01 X8.7095 Y-1.3794
G01 X8.7011 Y-1.3789
G01 X8.6906 Y-1.3793
G01 X8.6346 Y-1.3854
G01 X8.6245 Y-1.3871
G01 X8.6147 Y-1.3900
G01 X8.5699 Y-1.4073
G01 X8.5600 Y-1.4118
G01 X8.5490 Y-1.4189
G01 X8.5129 Y-1.4478
G01 X8.5068 Y-1.4534
G01 X8.5000 Y-1.4611
G01 X8.4729 Y-1.4997
G01 X8.4676 Y-1.5084
G01 X8.4641 Y-1.5158
G01 X8.4426 Y-1.5673
G01 X8.4404 Y-1.5729
G01 X8.4382 Y-1.5806
G01 X8.4197 Y-1.6594
G01 X8.4056 Y-1.7854
G01 X8.4051 Y-1.7924
G00 Z0.5000
G00 X9.4339 Y-2.3916
G01 F90.00
G01 Z-0.0800
G01 F240.00
G01 X9.4594 Y-2.4538
G01 X9.4960 Y-2.5081
G01 X9.5436 Y-2.5537
G01 X9.6002 Y-2.5894
G01 X9.6697 Y-2.6171
G01 X9.7552 Y-2.6354
G01 X9.8602 Y-2.6422
G01 X9.9724 Y-2.6349
G01 X10.0609 Y-2.6156
G01 X10.1299 Y-2.5873
G01 X10.1837 Y-2.5513
G01 X10.2275 Y-2.5057
G01 X10.2585 Y-2.4524
G01 X10.2786 Y-2.3869
G01 X10.2860 Y-2.3051
G01 X10.2780 Y-2.2360
G01 X10.2567 Y-2.1823
G01 X10.2214 Y-2.1362
G01 X10.1737 Y-2.0994
G01 X10.1079 Y-2.0705
G01 X10.0336 Y-2.0550
G01 X10.0525 Y-2.0654
G01 X10.0594 Y-2.0701
G01 X10.0643 Y-2.0740
G01 X10.1073 Y-2.1171
G01 X10.1128 Y-2.1232
G01 X10.1188 Y-2.1315
G01 X10.1229 Y-2.1386
G01 X10.1494 Y-2.1944
G01 X10.1526 Y-2.2042
G01 X10.1544 Y-2.2124
G01 X10.1628 Y-2.2751
G01 X10.1635 Y-2.2833
G01 X10.1631 Y-2.2957
G01 X10.1550 Y-2.3698
G01 X10.1532 Y-2.3778
G01 X10.1507 Y-2.3855
G01 X10.1303 Y-2.4384
G01 X10.1258 Y-2.4476
G01 X10.1226 Y-2.4529
G01 X10.1177 Y-2.4596
G01 X10.0871 Y-2.4976
G01 X10.0797 Y-2.5056
G01 X10.0731 Y-2.5113
G01 X10.0678 Y-2.5151
G01 X10.0250 Y-2.5437
G01 X10.0158 Y-2.5487
G01 X10.0062 Y-2.5526
G01 X9.9536 Y-2.5701
G01 X9.9410 Y-2.5733
G01 X9.8674 Y-2.5805
G01 X9.8562 Y-2.5808
G01 X9.7676 Y-2.5710
G01 X9.7591 Y-2.5694
G01 X9.7507 Y-2.5669
G01 X9.6867 Y-2.5405
G01 X9.6752 Y-2.5347
G01 X9.6646 Y-2.5273
G01 X9.6148 Y-2.4837
G01 X9.6075 Y-2.4758
G01 X9.6013 Y-2.4670
G01 X9.5665 Y-2.4074
G01 X9.5636 Y-2.4015
G01 X9.5611 Y-2.3954
G01 X9.5570 Y-2.3809
G01 X9.4339 Y-2.3916
G00 Z0.5000
G00 X9.9646 Y-2.0248
G01 F90.00
G01 Z-0.0800
G01 F240.00
G01 X9.9592 Y-2.0185
G01 X9.9555 Y-2.0133
G01 X9.9523 Y-2.0080
G01 X9.9485 Y-2.0004
G01 X9.9455 Y-1.9926
G01 X9.9438 Y-1.9866
G01 X9.9416 Y-1.9742
G01 X9.9412 Y-1.9679
G01 X9.9413 Y-1.9574
G01 X9.9418 Y-1.9512
G01 X9.9433 Y-1.9429
G01 X9.9449 Y-1.9368
G01 X9.9477 Y-1.9288
G01 X9.9513 Y-1.9212
G01 X9.9548 Y-1.9153
G01 X9.9000 Y-1.9311
G01 X9.8894 Y-1.9335
G01 X9.8016 Y-1.9409
G01 X9.7865 Y-1.9411
G01 X9.7865 Y-2.0016
G01 X9.8072 Y-2.0018
G01 X9.9017 Y-2.0089
G01 X9.9116 Y-2.0107
G01 X9.9646 Y-2.0248
G00 Z0.5000
G00 X10.0378 Y-1.8692
G01 F90.00
G01 Z-0.0800
G01 F240.00
G01 X10.0914 Y-1.8540
G01 X10.1498 Y-1.8238
G01 X10.1920 Y-1.7877
G01 X10.2227 Y-1.7437
G01 X10.2419 Y-1.6911
G01 X10.2491 Y-1.6232
G01 X10.2424 Y-1.5534
G01 X10.2242 Y-1.4974
G01 X10.1955 Y-1.4506
G01 X10.1537 Y-1.4089
G01 X10.1026 Y-1.3759
G01 X10.0380 Y-1.3499
G01 X9.9564 Y-1.3324
G01 X9.8543 Y-1.3258
G01 X9.7601 Y-1.3323
G01 X9.6822 Y-1.3498
G01 X9.6174 Y-1.3766
G01 X9.5627 Y-1.4122
G01 X9.5163 Y-1.4572
G01 X9.4811 Y-1.5090
G01 X9.4613 Y-1.5566
G01 X9.5742 Y-1.5646
G01 X9.5974 Y-1.5151
G01 X9.6026 Y-1.5060
G01 X9.6090 Y-1.4975
G01 X9.6396 Y-1.4618
G01 X9.6485 Y-1.4529
G01 X9.6568 Y-1.4465
G01 X9.6959 Y-1.4200
G01 X9.7065 Y-1.4139
G01 X9.7158 Y-1.4100
G01 X9.7631 Y-1.3936
G01 X9.7689 Y-1.3918
G01 X9.7767 Y-1.3901
G01 X9.8403 Y-1.3834
G01 X9.8490 Y-1.3830
G01 X9.8578 Y-1.3834
G01 X9.9193 Y-1.3897
G01 X9.9299 Y-1.3915
G01 X9.9401 Y-1.3945
G01 X9.9874 Y-1.4118
G01 X9.9970 Y-1.4160
G01 X10.0077 Y-1.4225
G01 X10.0473 Y-1.4522
G01 X10.0566 Y-1.4608
G01 X10.0634 Y-1.4689
G01 X10.0928 Y-1.5091
G01 X10.0972 Y-1.5167
G01 X10.1009 Y-1.5246
G01 X10.1192 Y-1.5744
G01 X10.1220 Y-1.5847
G01 X10.1233 Y-1.5931
G01 X10.1293 Y-1.6505
G01 X10.1298 Y-1.6614
G01 X10.1291 Y-1.6701
G01 X10.1217 Y-1.7299
G01 X10.1198 Y-1.7402
G01 X10.1158 Y-1.7522
G01 X10.0941 Y-1.8014
G01 X10.0892 Y-1.8108
G01 X10.0819 Y-1.8212
G01 X10.0450 Y-1.8622
G01 X10.0378 Y-1.8692
G00 Z0.5000
G00 X9.2726 Y-4.2032
G01 F90.00
G01 Z-0.0800
G01 F240.00
G01 X9.2780 Y-4.3718
G01 X9.2780 Y-5.5727
G01 X9.3938 Y-5.5727
G01 X9.3938 Y-5.2383
G01 X9.3876 Y-5.0546
G01 X9.3879 Y-5.0440
G01 X9.3900 Y-5.0314
G01 X9.3939 Y-5.0193
G01 X9.3995 Y-5.0079
G01 X9.4068 Y-4.9974
G01 X9.4156 Y-4.9882
G01 X9.4256 Y-4.9803
G01 X9.4366 Y-4.9740
G01 X9.4425 Y-4.9714
G01 X9.4490 Y-4.9692
G01 X9.4268 Y-4.9217
G01 X9.4228 Y-4.9114
G01 X9.3994 Y-4.8124
G01 X9.3977 Y-4.8004
G01 X9.3898 Y-4.6814
G01 X9.3897 Y-4.6723
G01 X9.3977 Y-4.5504
G01 X9.3993 Y-4.5386
G01 X9.4226 Y-4.4385
G01 X9.4265 Y-4.4284
G01 X9.4488 Y-4.3793
G01 X9.4391 Y-4.3755
G01 X9.4299 Y-4.3704
G01 X9.4214 Y-4.3643
G01 X9.4151 Y-4.3587
G01 X9.4095 Y-4.3525
G01 X9.4033 Y-4.3440
G01 X9.3981 Y-4.3349
G01 X9.3949 Y-4.3271
G01 X9.3914 Y-4.3150
G01 X9.3898 Y-4.3025
G01 X9.3865 Y-4.2032
G01 X9.2726 Y-4.2032
G00 Z0.5000
G00 X9.6821 Y-5.1351
G01 F90.00
G01 Z-0.0800
G01 F240.00
G01 X9.7011 Y-5.1439
G01 X9.7535 Y-5.1572
G01 X9.8149 Y-5.1620
G01 X9.8957 Y-5.1538
G01 X9.9593 Y-5.1319
G01 X10.0127 Y-5.0970
G01 X10.0606 Y-5.0453
G01 X10.0975 Y-4.9828
G01 X10.1272 Y-4.9018
G01 X10.1474 Y-4.7982
G01 X10.1549 Y-4.6674
G01 X10.1477 Y-4.5378
G01 X10.1282 Y-4.4352
G01 X10.0997 Y-4.3552
G01 X10.0645 Y-4.2939
G01 X10.0187 Y-4.2430
G01 X9.9683 Y-4.2091
G01 X9.9088 Y-4.1880
G01 X9.8338 Y-4.1802
G01 X9.7496 Y-4.1877
G01 X9.6848 Y-4.2075
G01 X9.6794 Y-4.2107
G01 X9.7067 Y-4.2076
G01 X9.7133 Y-4.2074
G01 X9.7199 Y-4.2077
G01 X9.7923 Y-4.2177
G01 X9.8027 Y-4.2201
G01 X9.8126 Y-4.2237
G01 X9.8712 Y-4.2525
G01 X9.8783 Y-4.2567
G01 X9.8850 Y-4.2615
G01 X9.8926 Y-4.2684
G01 X9.9372 Y-4.3138
G01 X9.9440 Y-4.3220
G01 X9.9497 Y-4.3311
G01 X9.9848 Y-4.3989
G01 X9.9896 Y-4.4100
G01 X9.9920 Y-4.4178
G01 X10.0155 Y-4.5130
G01 X10.0171 Y-4.5214
G01 X10.0268 Y-4.6617
G01 X10.0270 Y-4.6686
G01 X10.0177 Y-4.8112
G01 X10.0167 Y-4.8196
G01 X10.0154 Y-4.8259
G01 X9.9910 Y-4.9258
G01 X9.9879 Y-4.9353
G01 X9.9845 Y-4.9426
G01 X9.9500 Y-5.0102
G01 X9.9433 Y-5.0211
G01 X9.9351 Y-5.0310
G01 X9.8887 Y-5.0787
G01 X9.8790 Y-5.0865
G01 X9.8702 Y-5.0919
G01 X9.8132 Y-5.1203
G01 X9.8053 Y-5.1236
G01 X9.7991 Y-5.1255
G01 X9.7886 Y-5.1276
G01 X9.7180 Y-5.1375
G01 X9.7114 Y-5.1378
G01 X9.7048 Y-5.1376
G01 X9.6821 Y-5.1351
G00 Z0.5000
G00 X8.1115 Y-5.1389
G01 F90.00
G01 Z-0.0800
G01 F240.00
G01 X8.2273 Y-5.1389
G01 X8.2273 Y-4.8071
G01 X8.2279 Y-4.7987
G01 X8.2294 Y-4.7903
G01 X8.2317 Y-4.7821
G01 X8.2339 Y-4.7761
G01 X8.2386 Y-4.7666
G01 X8.2444 Y-4.7577
G01 X8.2513 Y-4.7496
G01 X8.2592 Y-4.7424
G01 X8.3882 Y-4.6525
G01 X8.3991 Y-4.6461
G01 X8.4049 Y-4.6435
G01 X8.4129 Y-4.6407
G01 X8.4252 Y-4.6380
G01 X8.4379 Y-4.6372
G01 X8.4484 Y-4.6379
G01 X8.4588 Y-4.6399
G01 X8.4688 Y-4.6431
G01 X8.4784 Y-4.6476
G01 X8.4873 Y-4.6532
G01 X8.4955 Y-4.6599
G01 X8.5015 Y-4.6659
G01 X8.5080 Y-4.6742
G01 X8.7826 Y-5.1389
G01 X8.8933 Y-5.1389
G01 X8.5546 Y-4.5928
G01 X8.5499 Y-4.5835
G01 X8.5463 Y-4.5737
G01 X8.5440 Y-4.5635
G01 X8.5430 Y-4.5552
G01 X8.5428 Y-4.5468
G01 X8.5435 Y-4.5385
G01 X8.5449 Y-4.5302
G01 X8.5472 Y-4.5221
G01 X8.5502 Y-4.5143
G01 X8.5529 Y-4.5087
G01 X8.5572 Y-4.5015
G01 X8.5622 Y-4.4948
G01 X8.8248 Y-4.2032
G01 X8.7483 Y-4.2032
G01 X8.3786 Y-4.6320
G01 X8.3712 Y-4.6396
G01 X8.3630 Y-4.6462
G01 X8.3558 Y-4.6507
G01 X8.3483 Y-4.6545
G01 X8.3384 Y-4.6582
G01 X8.3302 Y-4.6602
G01 X8.3197 Y-4.6617
G01 X8.3113 Y-4.6619
G01 X8.3028 Y-4.6613
G01 X8.2925 Y-4.6593
G01 X8.2824 Y-4.6561
G01 X8.2747 Y-4.6527
G01 X8.2673 Y-4.6485
G01 X8.2604 Y-4.6437
G01 X8.2525 Y-4.6367
G01 X8.2468 Y-4.6304
G01 X8.2418 Y-4.6236
G01 X8.2365 Y-4.6145
G01 X8.2330 Y-4.6068
G01 X8.2298 Y-4.5967
G01 X8.2279 Y-4.5863
G01 X8.2273 Y-4.5758
G01 X8.2273 Y-3.7929
G01 X8.1115 Y-3.7929
G01 X8.1115 Y-5.1389
G00 Z0.5000
G00 X6.8806 Y-4.6772
G01 F90.00
G01 Z-0.0800
G01 F240.00
G01 X6.8894 Y-4.7989
G01 X6.9130 Y-4.8967
G01 X6.9486 Y-4.9753
G01 X6.9955 Y-5.0392
G01 X7.0542 Y-5.0907
G01 X7.1246 Y-5.1283
G01 X7.2117 Y-5.1529
G01 X7.3218 Y-5.1621
G01 X7.3980 Y-5.1572
G01 X7.4661 Y-5.1433
G01 X7.5269 Y-5.1211
G01 X7.5826 Y-5.0902
G01 X7.6285 Y-5.0534
G01 X7.6670 Y-5.0098
G01 X7.6976 Y-4.9600
G01 X7.7063 Y-4.9384
G01 X7.5974 Y-4.9333
G01 X7.5950 Y-4.9407
G01 X7.5927 Y-4.9463
G01 X7.5695 Y-4.9971
G01 X7.5644 Y-5.0066
G01 X7.5581 Y-5.0154
G01 X7.5259 Y-5.0552
G01 X7.5189 Y-5.0626
G01 X7.5110 Y-5.0691
G01 X7.4698 Y-5.0991
G01 X7.4610 Y-5.1044
G01 X7.4516 Y-5.1087
G01 X7.4044 Y-5.1268
G01 X7.3960 Y-5.1293
G01 X7.3875 Y-5.1310
G01 X7.3328 Y-5.1373
G01 X7.3218 Y-5.1378
G01 X7.3108 Y-5.1369
G01 X7.2461 Y-5.1277
G01 X7.2397 Y-5.1265
G01 X7.2314 Y-5.1242
G01 X7.2213 Y-5.1202
G01 X7.1672 Y-5.0928
G01 X7.1600 Y-5.0887
G01 X7.1532 Y-5.0839
G01 X7.1454 Y-5.0770
G01 X7.1012 Y-5.0308
G01 X7.0970 Y-5.0260
G01 X7.0919 Y-5.0192
G01 X7.0865 Y-5.0100
G01 X7.0524 Y-4.9423
G01 X7.0488 Y-4.9342
G01 X7.0467 Y-4.9279
G01 X7.0219 Y-4.8251
G01 X7.0204 Y-4.8169
G01 X7.0107 Y-4.6715
G01 X7.0107 Y-4.6603
G01 X7.0202 Y-4.5192
G01 X7.0218 Y-4.5109
G01 X7.0455 Y-4.4132
G01 X7.0482 Y-4.4048
G01 X7.0518 Y-4.3967
G01 X7.0853 Y-4.3308
G01 X7.0919 Y-4.3199
G01 X7.1000 Y-4.3101
G01 X7.1420 Y-4.2665
G01 X7.1480 Y-4.2608
G01 X7.1563 Y-4.2546
G01 X7.1634 Y-4.2503
G01 X7.2165 Y-4.2235
G01 X7.2264 Y-4.2193
G01 X7.2389 Y-4.2159
G01 X7.3069 Y-4.2062
G01 X7.3175 Y-4.2053
G01 X7.3282 Y-4.2058
G01 X7.3862 Y-4.2121
G01 X7.3971 Y-4.2140
G01 X7.4077 Y-4.2173
G01 X7.4532 Y-4.2347
G01 X7.4647 Y-4.2400
G01 X7.4752 Y-4.2470
G01 X7.5111 Y-4.2748
G01 X7.5173 Y-4.2802
G01 X7.5231 Y-4.2861
G01 X7.5270 Y-4.2909
G01 X7.5549 Y-4.3277
G01 X7.5597 Y-4.3347
G01 X7.5646 Y-4.3441
G01 X7.5860 Y-4.3910
G01 X7.6933 Y-4.3857
G01 X7.6779 Y-4.3533
G01 X7.6418 Y-4.3039
G01 X7.5959 Y-4.2611
G01 X7.5428 Y-4.2272
G01 X7.4818 Y-4.2020
G01 X7.4100 Y-4.1858
G01 X7.3258 Y-4.1800
G01 X7.2151 Y-4.1894
G01 X7.1274 Y-4.2144
G01 X7.0564 Y-4.2529
G01 X6.9968 Y-4.3057
G01 X6.9495 Y-4.3710
G01 X6.9134 Y-4.4517
G01 X6.8895 Y-4.5521
G01 X6.8806 Y-4.6772
G00 Z0.5000
G00 X6.0664 Y-5.1348
G01 F90.00
G01 Z-0.0800
G01 F240.00
G01 X6.0854 Y-5.1438
G01 X6.1377 Y-5.1572
G01 X6.1996 Y-5.1620
G01 X6.2813 Y-5.1537
G01 X6.3453 Y-5.1315
G01 X6.3985 Y-5.0964
G01 X6.4459 Y-5.0444
G01 X6.4828 Y-4.9811
G01 X6.5123 Y-4.8997
G01 X6.5322 Y-4.7964
G01 X6.5397 Y-4.6669
G01 X6.5325 Y-4.5378
G01 X6.5133 Y-4.4353
G01 X6.4852 Y-4.3553
G01 X6.4504 Y-4.2938
G01 X6.4054 Y-4.2432
G01 X6.3554 Y-4.2094
G01 X6.2953 Y-4.1882
G01 X6.2187 Y-4.1802
G01 X6.1355 Y-4.1879
G01 X6.0715 Y-4.2082
G01 X6.0679 Y-4.2104
G01 X6.0916 Y-4.2078
G01 X6.1023 Y-4.2075
G01 X6.1687 Y-4.2146
G01 X6.1772 Y-4.2165
G01 X6.1834 Y-4.2184
G01 X6.2313 Y-4.2364
G01 X6.2392 Y-4.2399
G01 X6.2448 Y-4.2430
G01 X6.2520 Y-4.2478
G01 X6.2917 Y-4.2772
G01 X6.2996 Y-4.2842
G01 X6.3066 Y-4.2921
G01 X6.3381 Y-4.3323
G01 X6.3431 Y-4.3393
G01 X6.3463 Y-4.3448
G01 X6.3774 Y-4.4146
G01 X6.3811 Y-4.4249
G01 X6.4023 Y-4.5224
G01 X6.4037 Y-4.5310
G01 X6.4117 Y-4.6683
G01 X6.4024 Y-4.8110
G01 X6.4018 Y-4.8173
G01 X6.4002 Y-4.8256
G01 X6.3759 Y-4.9259
G01 X6.3731 Y-4.9344
G01 X6.3695 Y-4.9425
G01 X6.3352 Y-5.0102
G01 X6.3286 Y-5.0211
G01 X6.3204 Y-5.0309
G01 X6.2743 Y-5.0786
G01 X6.2647 Y-5.0864
G01 X6.2558 Y-5.0919
G01 X6.1994 Y-5.1203
G01 X6.1934 Y-5.1228
G01 X6.1852 Y-5.1255
G01 X6.1747 Y-5.1277
G01 X6.1048 Y-5.1375
G01 X6.0983 Y-5.1378
G01 X6.0917 Y-5.1376
G01 X6.0664 Y-5.1348
G00 Z0.5000
G00 X5.6573 Y-5.1389
G01 F90.00
G01 Z-0.0800
G01 F240.00
G01 X5.7721 Y-5.1389
G01 X5.7767 Y-5.0433
G01 X5.7785 Y-5.0308
G01 X5.7815 Y-5.0207
G01 X5.7847 Y-5.0128
G01 X5.7898 Y-5.0036
G01 X5.7947 Y-4.9967
G01 X5.8017 Y-4.9887
G01 X5.8096 Y-4.9817
G01 X5.8165 Y-4.9769
G01 X5.8238 Y-4.9727
G01 X5.8331 Y-4.9687
G01 X5.8107 Y-4.9196
G01 X5.8068 Y-4.9096
G01 X5.7839 Y-4.8110
G01 X5.7823 Y-4.7993
G01 X5.7744 Y-4.6796
G01 X5.7745 Y-4.6706
G01 X5.7825 Y-4.5476
G01 X5.7837 Y-4.5377
G01 X5.8076 Y-4.4349
G01 X5.8107 Y-4.4266
G01 X5.8289 Y-4.3869
G01 X5.8181 Y-4.3817
G01 X5.8075 Y-4.3747
G01 X5.7996 Y-4.3677
G01 X5.7914 Y-4.3582
G01 X5.7846 Y-4.3475
G01 X5.7802 Y-4.3379
G01 X5.7765 Y-4.3258
G01 X5.7746 Y-4.3133
G01 X5.7744 Y-4.3048
G01 X5.7785 Y-4.1268
G01 X5.7785 Y-3.7929
G01 X5.6627 Y-3.7929
G01 X5.6627 Y-4.9723
G01 X5.6573 Y-5.1389
G00 Z0.5000
G00 X4.2595 Y-4.2032
G01 F90.00
G01 Z-0.0800
G01 F240.00
G01 X4.2595 Y-4.2257
G01 X4.3159 Y-4.2258
G01 X4.3264 Y-4.2267
G01 X4.3347 Y-4.2283
G01 X4.3448 Y-4.2315
G01 X4.3525 Y-4.2349
G01 X4.3616 Y-4.2402
G01 X4.3684 Y-4.2453
G01 X4.3746 Y-4.2510
G01 X4.3803 Y-4.2572
G01 X4.3854 Y-4.2640
G01 X4.3897 Y-4.2712
G01 X4.3933 Y-4.2789
G01 X4.3967 Y-4.2889
G01 X4.3986 Y-4.2971
G01 X4.3994 Y-4.3034
G01 X4.3999 Y-4.3118
G01 X4.3999 Y-4.9603
G01 X4.4072 Y-5.0368
G01 X4.4233 Y-5.0830
G01 X4.4444 Y-5.1124
G01 X4.4737 Y-5.1341
G01 X4.5157 Y-5.1496
G01 X4.5796 Y-5.1562
G01 X4.6972 Y-5.1480
G01 X4.7349 Y-5.1393
G01 X4.7349 Y-5.1293
G01 X4.7252 Y-5.1299
G01 X4.7169 Y-5.1296
G01 X4.6736 Y-5.1246
G01 X4.6656 Y-5.1233
G01 X4.6597 Y-5.1218
G01 X4.6520 Y-5.1192
G01 X4.6172 Y-5.1046
G01 X4.6076 Y-5.0995
G01 X4.5986 Y-5.0933
G01 X4.5722 Y-5.0699
G01 X4.5648 Y-5.0624
G01 X4.5583 Y-5.0542
G01 X4.5529 Y-5.0451
G01 X4.5291 Y-4.9963
G01 X4.5248 Y-4.9847
G01 X4.5229 Y-4.9767
G01 X4.5219 Y-4.9705
G01 X4.5132 Y-4.8965
G01 X4.5126 Y-4.8884
G01 X4.5126 Y-4.3118
G01 X4.5135 Y-4.2992
G01 X4.5163 Y-4.2868
G01 X4.5192 Y-4.2789
G01 X4.5238 Y-4.2694
G01 X4.5295 Y-4.2605
G01 X4.5349 Y-4.2540
G01 X4.5425 Y-4.2466
G01 X4.5491 Y-4.2414
G01 X4.5581 Y-4.2359
G01 X4.5658 Y-4.2323
G01 X4.5717 Y-4.2301
G01 X4.5798 Y-4.2278
G01 X4.5861 Y-4.2267
G01 X4.5945 Y-4.2258
G01 X4.7226 Y-4.2257
G01 X4.7226 Y-4.2032
G01 X4.5987 Y-4.2032
G01 X4.5861 Y-4.2023
G01 X4.5737 Y-4.1995
G01 X4.5677 Y-4.1974
G01 X4.5600 Y-4.1940
G01 X4.5544 Y-4.1910
G01 X4.5474 Y-4.1863
G01 X4.5409 Y-4.1809
G01 X4.5363 Y-4.1765
G01 X4.5283 Y-4.1667
G01 X4.5249 Y-4.1614
G01 X4.5209 Y-4.1539
G01 X4.5176 Y-4.1461
G01 X4.5157 Y-4.1401
G01 X4.5143 Y-4.1339
G01 X4.5130 Y-4.1256
G01 X4.5126 Y-4.1171
G01 X4.5126 Y-3.9453
G01 X4.4795 Y-3.9453
G01 X4.4087 Y-4.1475
G01 X4.4053 Y-4.1553
G01 X4.4023 Y-4.1609
G01 X4.3988 Y-4.1663
G01 X4.3936 Y-4.1730
G01 X4.3878 Y-4.1792
G01 X4.3830 Y-4.1835
G01 X4.3726 Y-4.1908
G01 X4.3652 Y-4.1949
G01 X4.3593 Y-4.1974
G01 X4.3471 Y-4.2011
G01 X4.3387 Y-4.2026
G01 X4.3303 Y-4.2032
G01 X4.2595 Y-4.2032
G00 Z0.5000
G00 X3.5605 Y-4.2032
G01 F90.00
G01 Z-0.0800
G01 F240.00
G01 X3.5605 Y-4.2257
G01 X3.6169 Y-4.2258
G01 X3.6274 Y-4.2267
G01 X3.6377 Y-4.2289
G01 X3.6457 Y-4.2315
G01 X3.6535 Y-4.2349
G01 X3.6626 Y-4.2402
G01 X3.6694 Y-4.2453
G01 X3.6756 Y-4.2510
G01 X3.6813 Y-4.2572
G01 X3.6863 Y-4.2640
G01 X3.6907 Y-4.2712
G01 X3.6951 Y-4.2809
G01 X3.6977 Y-4.2889
G01 X3.6996 Y-4.2971
G01 X3.7004 Y-4.3034
G01 X3.7008 Y-4.3118
G01 X3.7008 Y-4.9603
G01 X3.7082 Y-5.0368
G01 X3.7242 Y-5.0830
G01 X3.7454 Y-5.1124
G01 X3.7746 Y-5.1341
G01 X3.8167 Y-5.1496
G01 X3.8805 Y-5.1562
G01 X3.9982 Y-5.1480
G01 X4.0359 Y-5.1393
G01 X4.0359 Y-5.1293
G01 X4.0261 Y-5.1299
G01 X4.0179 Y-5.1296
G01 X3.9746 Y-5.1246
G01 X3.9666 Y-5.1233
G01 X3.9607 Y-5.1218
G01 X3.9530 Y-5.1192
G01 X3.9182 Y-5.1046
G01 X3.9085 Y-5.0995
G01 X3.8996 Y-5.0933
G01 X3.8732 Y-5.0699
G01 X3.8657 Y-5.0624
G01 X3.8593 Y-5.0542
G01 X3.8539 Y-5.0451
G01 X3.8301 Y-4.9963
G01 X3.8258 Y-4.9847
G01 X3.8238 Y-4.9767
G01 X3.8229 Y-4.9705
G01 X3.8142 Y-4.8965
G01 X3.8136 Y-4.8884
G01 X3.8136 Y-4.3118
G01 X3.8145 Y-4.2992
G01 X3.8173 Y-4.2868
G01 X3.8210 Y-4.2769
G01 X3.8248 Y-4.2694
G01 X3.8305 Y-4.2605
G01 X3.8359 Y-4.2540
G01 X3.8419 Y-4.2480
G01 X3.8501 Y-4.2414
G01 X3.8591 Y-4.2359
G01 X3.8667 Y-4.2323
G01 X3.8727 Y-4.2301
G01 X3.8808 Y-4.2278
G01 X3.8870 Y-4.2267
G01 X3.8955 Y-4.2258
G01 X4.0236 Y-4.2257
G01 X4.0236 Y-4.2032
G01 X3.8997 Y-4.2032
G01 X3.8870 Y-4.2023
G01 X3.8808 Y-4.2011
G01 X3.8727 Y-4.1989
G01 X3.8667 Y-4.1967
G01 X3.8591 Y-4.1930
G01 X3.8518 Y-4.1887
G01 X3.8467 Y-4.1850
G01 X3.8373 Y-4.1765
G01 X3.8293 Y-4.1667
G01 X3.8248 Y-4.1596
G01 X3.8218 Y-4.1539
G01 X3.8194 Y-4.1481
G01 X3.8167 Y-4.1401
G01 X3.8152 Y-4.1339
G01 X3.8140 Y-4.1256
G01 X3.8136 Y-4.1171
G01 X3.8136 Y-3.9453
G01 X3.7804 Y-3.9453
G01 X3.7097 Y-4.1475
G01 X3.7072 Y-4.1534
G01 X3.7032 Y-4.1609
G01 X3.6998 Y-4.1663
G01 X3.6946 Y-4.1730
G01 X3.6856 Y-4.1821
G01 X3.6789 Y-4.1873
G01 X3.6736 Y-4.1908
G01 X3.6623 Y-4.1966
G01 X3.6543 Y-4.1995
G01 X3.6481 Y-4.2011
G01 X3.6397 Y-4.2026
G01 X3.6312 Y-4.2032
G01 X3.5605 Y-4.2032
G00 Z0.5000
G00 X3.0659 Y-4.9447
G01 F90.00
G01 Z-0.0800
G01 F240.00
G01 X3.0746 Y-4.9461
G01 X3.0827 Y-4.9484
G01 X3.0905 Y-4.9513
G01 X3.0999 Y-4.9561
G01 X3.1068 Y-4.9607
G01 X3.1149 Y-4.9674
G01 X3.1221 Y-4.9751
G01 X3.1271 Y-4.9817
G01 X3.1334 Y-4.9926
G01 X3.1381 Y-5.0043
G01 X3.1406 Y-5.0144
G01 X3.1514 Y-5.0727
G01 X3.1650 Y-5.1058
G01 X3.1795 Y-5.1255
G01 X3.1967 Y-5.1382
G01 X3.2266 Y-5.1487
G01 X3.2808 Y-5.1539
G01 X3.3253 Y-5.1522
G01 X3.3621 Y-5.1479
G01 X3.3713 Y-5.1460
G01 X3.3319 Y-5.1373
G01 X3.3221 Y-5.1338
G01 X3.3147 Y-5.1301
G01 X3.3059 Y-5.1246
G01 X3.2994 Y-5.1194
G01 X3.2677 Y-5.0890
G01 X3.2635 Y-5.0844
G01 X3.2585 Y-5.0779
G01 X3.2541 Y-5.0709
G01 X3.2504 Y-5.0636
G01 X3.2474 Y-5.0559
G01 X3.2328 Y-5.0127
G01 X3.2305 Y-5.0044
G01 X3.2286 Y-4.9917
G01 X3.2219 Y-4.9014
G01 X3.2219 Y-4.4969
G01 X3.2150 Y-4.4138
G01 X3.1975 Y-4.3517
G01 X3.1713 Y-4.3024
G01 X3.1356 Y-4.2615
G01 X3.0913 Y-4.2290
G01 X3.0351 Y-4.2037
G01 X2.9628 Y-4.1865
G01 X2.8699 Y-4.1799
G01 X2.7756 Y-4.1853
G01 X2.6994 Y-4.1998
G01 X2.6390 Y-4.2213
G01 X2.5915 Y-4.2481
G01 X2.5510 Y-4.2828
G01 X2.5197 Y-4.3237
G01 X2.5109 Y-4.3420
G01 X2.6267 Y-4.3475
G01 X2.6292 Y-4.3372
G01 X2.6312 Y-4.3312
G01 X2.6345 Y-4.3234
G01 X2.6375 Y-4.3178
G01 X2.6709 Y-4.2663
G01 X2.6760 Y-4.2598
G01 X2.6833 Y-4.2524
G01 X2.6898 Y-4.2471
G01 X2.7187 Y-4.2269
G01 X2.7240 Y-4.2235
G01 X2.7313 Y-4.2196
G01 X2.7409 Y-4.2157
G01 X2.7810 Y-4.2025
G01 X2.7895 Y-4.2004
G01 X2.7960 Y-4.1994
G01 X2.8523 Y-4.1942
G01 X2.8624 Y-4.1942
G01 X2.9253 Y-4.2016
G01 X2.9317 Y-4.2028
G01 X2.9401 Y-4.2051
G01 X2.9481 Y-4.2082
G01 X2.9902 Y-4.2271
G01 X2.9960 Y-4.2302
G01 X3.0033 Y-4.2349
G01 X3.0116 Y-4.2418
G01 X3.0424 Y-4.2719
G01 X3.0481 Y-4.2780
G01 X3.0531 Y-4.2846
G01 X3.0585 Y-4.2936
G01 X3.0790 Y-4.3331
G01 X3.0825 Y-4.3413
G01 X3.0851 Y-4.3498
G01 X3.0985 Y-4.4024
G01 X3.1002 Y-4.4110
G01 X3.1061 Y-4.4938
G01 X3.1059 Y-4.5590
G01 X3.1040 Y-4.5716
G01 X3.1003 Y-4.5838
G01 X3.0969 Y-4.5915
G01 X3.0927 Y-4.5989
G01 X3.0878 Y-4.6058
G01 X3.0822 Y-4.6122
G01 X3.0760 Y-4.6181
G01 X3.0693 Y-4.6232
G01 X3.0621 Y-4.6278
G01 X3.0532 Y-4.6321
G01 X3.0630 Y-4.6369
G01 X3.0734 Y-4.6440
G01 X3.0827 Y-4.6525
G01 X3.0906 Y-4.6623
G01 X3.0971 Y-4.6731
G01 X3.1012 Y-4.6827
G01 X3.1045 Y-4.6949
G01 X3.1060 Y-4.7073
G01 X3.1059 Y-4.7740
G01 X3.0971 Y-4.8537
G01 X3.0958 Y-4.8602
G01 X3.0933 Y-4.8685
G01 X3.0695 Y-4.9361
G01 X3.0659 Y-4.9447
G00 Z0.5000
G00 X2.4301 Y-4.9133
G01 F90.00
G01 Z-0.0800
G01 F240.00
G01 X2.4352 Y-4.9775
G01 X2.4486 Y-5.0275
G01 X2.4683 Y-5.0666
G01 X2.4944 Y-5.0985
G01 X2.5272 Y-5.1242
G01 X2.5676 Y-5.1438
G01 X2.6190 Y-5.1570
G01 X2.6842 Y-5.1620
G01 X2.7619 Y-5.1546
G01 X2.8252 Y-5.1343
G01 X2.8400 Y-5.1255
G01 X2.7873 Y-5.1331
G01 X2.7788 Y-5.1337
G01 X2.7702 Y-5.1334
G01 X2.7618 Y-5.1323
G01 X2.7023 Y-5.1214
G01 X2.6900 Y-5.1175
G01 X2.6784 Y-5.1119
G01 X2.6280 Y-5.0772
G01 X2.6185 Y-5.0687
G01 X2.6116 Y-5.0607
G01 X2.5888 Y-5.0273
G01 X2.5834 Y-5.0177
G01 X2.5794 Y-5.0075
G01 X2.5668 Y-4.9691
G01 X2.5645 Y-4.9607
G01 X2.5629 Y-4.9500
G01 X2.5582 Y-4.8982
G01 X2.5579 Y-4.8899
G01 X2.5583 Y-4.8815
G01 X2.5646 Y-4.8213
G01 X2.5661 Y-4.8130
G01 X2.5690 Y-4.8030
G01 X2.5857 Y-4.7600
G01 X2.5902 Y-4.7502
G01 X2.5934 Y-4.7447
G01 X2.5984 Y-4.7377
G01 X2.6266 Y-4.7038
G01 X2.6339 Y-4.6960
G01 X2.6422 Y-4.6892
G01 X2.6848 Y-4.6626
G01 X2.6920 Y-4.6586
G01 X2.7035 Y-4.6539
G01 X2.7297 Y-4.6467
G01 X2.6853 Y-4.6498
G01 X2.6103 Y-4.6660
G01 X2.5534 Y-4.6888
G01 X2.5108 Y-4.7164
G01 X2.4767 Y-4.7512
G01 X2.4525 Y-4.7923
G01 X2.4364 Y-4.8446
G01 X2.4301 Y-4.9133
G00 Z0.5000
G00 X1.6363 Y-5.1348
G01 F90.00
G01 Z-0.0800
G01 F240.00
G01 X1.6553 Y-5.1438
G01 X1.7076 Y-5.1572
G01 X1.7695 Y-5.1620
G01 X1.8513 Y-5.1537
G01 X1.9152 Y-5.1315
G01 X1.9684 Y-5.0964
G01 X2.0158 Y-5.0444
G01 X2.0527 Y-4.9811
G01 X2.0822 Y-4.8997
G01 X2.1021 Y-4.7964
G01 X2.1096 Y-4.6669
G01 X2.1024 Y-4.5378
G01 X2.0833 Y-4.4353
G01 X2.0551 Y-4.3553
G01 X2.0203 Y-4.2938
G01 X1.9754 Y-4.2432
G01 X1.9253 Y-4.2094
G01 X1.8652 Y-4.1882
G01 X1.7886 Y-4.1802
G01 X1.7054 Y-4.1879
G01 X1.6414 Y-4.2082
G01 X1.6378 Y-4.2104
G01 X1.6615 Y-4.2078
G01 X1.6722 Y-4.2075
G01 X1.7386 Y-4.2146
G01 X1.7471 Y-4.2165
G01 X1.7533 Y-4.2184
G01 X1.8012 Y-4.2364
G01 X1.8091 Y-4.2399
G01 X1.8166 Y-4.2441
G01 X1.8220 Y-4.2478
G01 X1.8617 Y-4.2772
G01 X1.8696 Y-4.2842
G01 X1.8766 Y-4.2921
G01 X1.9081 Y-4.3323
G01 X1.9118 Y-4.3375
G01 X1.9162 Y-4.3448
G01 X1.9473 Y-4.4146
G01 X1.9511 Y-4.4249
G01 X1.9723 Y-4.5224
G01 X1.9737 Y-4.5310
G01 X1.9817 Y-4.6683
G01 X1.9724 Y-4.8110
G01 X1.9714 Y-4.8194
G01 X1.9701 Y-4.8256
G01 X1.9458 Y-4.9259
G01 X1.9431 Y-4.9344
G01 X1.9394 Y-4.9425
G01 X1.9051 Y-5.0102
G01 X1.8985 Y-5.0211
G01 X1.8903 Y-5.0309
G01 X1.8442 Y-5.0786
G01 X1.8346 Y-5.0864
G01 X1.8258 Y-5.0919
G01 X1.7693 Y-5.1203
G01 X1.7634 Y-5.1228
G01 X1.7552 Y-5.1255
G01 X1.7446 Y-5.1277
G01 X1.6748 Y-5.1375
G01 X1.6682 Y-5.1378
G01 X1.6616 Y-5.1376
G01 X1.6363 Y-5.1348
G00 Z0.5000
G00 X1.2273 Y-5.1389
G01 F90.00
G01 Z-0.0800
G01 F240.00
G01 X1.3420 Y-5.1389
G01 X1.3466 Y-5.0433
G01 X1.3485 Y-5.0308
G01 X1.3514 Y-5.0207
G01 X1.3546 Y-5.0128
G01 X1.3597 Y-5.0036
G01 X1.3659 Y-4.9950
G01 X1.3716 Y-4.9887
G01 X1.3778 Y-4.9831
G01 X1.3864 Y-4.9769
G01 X1.3938 Y-4.9727
G01 X1.4030 Y-4.9687
G01 X1.3806 Y-4.9196
G01 X1.3768 Y-4.9096
G01 X1.3538 Y-4.8110
G01 X1.3522 Y-4.7993
G01 X1.3444 Y-4.6796
G01 X1.3445 Y-4.6706
G01 X1.3525 Y-4.5476
G01 X1.3537 Y-4.5377
G01 X1.3775 Y-4.4349
G01 X1.3806 Y-4.4266
G01 X1.3989 Y-4.3869
G01 X1.3880 Y-4.3817
G01 X1.3775 Y-4.3747
G01 X1.3681 Y-4.3662
G01 X1.3613 Y-4.3581
G01 X1.3545 Y-4.3475
G01 X1.3494 Y-4.3359
G01 X1.3464 Y-4.3258
G01 X1.3445 Y-4.3133
G01 X1.3443 Y-4.3048
G01 X1.3484 Y-4.1268
G01 X1.3484 Y-3.7929
G01 X1.2326 Y-3.7929
G01 X1.2326 Y-4.9723
G01 X1.2273 Y-5.1389
G00 Z0.5000
G00 X2.2716 Y-6.7232
G01 F90.00
G01 Z-0.0800
G01 F240.00
G01 X2.5139 Y-7.6589
G01 X2.6853 Y-7.6589
G01 X2.8463 Y-7.0507
G01 X2.8993 Y-6.8226
G01 X2.9016 Y-6.8145
G01 X2.9065 Y-6.8028
G01 X2.9131 Y-6.7919
G01 X2.9213 Y-6.7822
G01 X2.9259 Y-6.7778
G01 X2.9324 Y-6.7725
G01 X2.9432 Y-6.7658
G01 X2.9509 Y-6.7623
G01 X2.9569 Y-6.7601
G01 X2.9651 Y-6.7579
G01 X2.9713 Y-6.7568
G01 X2.9840 Y-6.7560
G01 X2.9966 Y-6.7571
G01 X3.0049 Y-6.7588
G01 X3.0110 Y-6.7606
G01 X3.0226 Y-6.7656
G01 X3.0335 Y-6.7722
G01 X3.0385 Y-6.7761
G01 X3.0447 Y-6.7819
G01 X3.0529 Y-6.7916
G01 X3.0564 Y-6.7969
G01 X3.0605 Y-6.8043
G01 X3.0652 Y-6.8161
G01 X3.0674 Y-6.8242
G01 X3.1151 Y-7.0495
G01 X3.2741 Y-7.6589
G01 X3.4455 Y-7.6589
G01 X3.6912 Y-6.7232
G01 X3.6054 Y-6.7232
G01 X3.4607 Y-7.3670
G01 X3.4322 Y-7.5016
G01 X3.4300 Y-7.5097
G01 X3.4253 Y-7.5215
G01 X3.4212 Y-7.5289
G01 X3.4177 Y-7.5341
G01 X3.4096 Y-7.5438
G01 X3.4034 Y-7.5495
G01 X3.3984 Y-7.5534
G01 X3.3876 Y-7.5601
G01 X3.3800 Y-7.5636
G01 X3.3740 Y-7.5657
G01 X3.3617 Y-7.5687
G01 X3.3533 Y-7.5696
G01 X3.3470 Y-7.5698
G01 X3.3344 Y-7.5687
G01 X3.3261 Y-7.5670
G01 X3.3201 Y-7.5652
G01 X3.3084 Y-7.5602
G01 X3.3029 Y-7.5571
G01 X3.2960 Y-7.5523
G01 X3.2895 Y-7.5469
G01 X3.2850 Y-7.5424
G01 X3.2771 Y-7.5326
G01 X3.2707 Y-7.5217
G01 X3.2659 Y-7.5099
G01 X3.2638 Y-7.5018
G01 X3.2221 Y-7.3081
G01 X3.0693 Y-6.7232
G01 X2.8935 Y-6.7232
G01 X2.7370 Y-7.3083
G01 X2.7121 Y-7.4250
G01 X2.6979 Y-7.4997
G01 X2.6953 Y-7.5100
G01 X2.6931 Y-7.5159
G01 X2.6896 Y-7.5236
G01 X2.6829 Y-7.5343
G01 X2.6748 Y-7.5439
G01 X2.6686 Y-7.5497
G01 X2.6636 Y-7.5535
G01 X2.6584 Y-7.5571
G01 X2.6510 Y-7.5611
G01 X2.6392 Y-7.5658
G01 X2.6269 Y-7.5687
G01 X2.6207 Y-7.5695
G01 X2.6122 Y-7.5698
G01 X2.5997 Y-7.5687
G01 X2.5914 Y-7.5670
G01 X2.5854 Y-7.5651
G01 X2.5795 Y-7.5629
G01 X2.5719 Y-7.5592
G01 X2.5613 Y-7.5523
G01 X2.5548 Y-7.5469
G01 X2.5503 Y-7.5424
G01 X2.5424 Y-7.5326
G01 X2.5360 Y-7.5217
G01 X2.5334 Y-7.5159
G01 X2.5307 Y-7.5080
G01 X2.3613 Y-6.7232
G01 X2.2716 Y-6.7232
G00 Z0.5000
G00 X1.1969 Y-7.5408
G01 F90.00
G01 Z-0.0800
G01 F240.00
G01 X1.2052 Y-7.5549
G01 X1.2383 Y-7.5918
G01 X1.2787 Y-7.6215
G01 X1.3465 Y-7.6516
G01 X1.4455 Y-7.6735
G01 X1.5853 Y-7.6822
G01 X1.6927 Y-7.6761
G01 X1.7787 Y-7.6598
G01 X1.8465 Y-7.6357
G01 X1.8992 Y-7.6058
G01 X1.9430 Y-7.5675
G01 X1.9711 Y-7.5270
G01 X1.9881 Y-7.4806
G01 X1.9944 Y-7.4229
G01 X1.9869 Y-7.3539
G01 X1.9691 Y-7.3090
G01 X1.9400 Y-7.2710
G01 X1.8999 Y-7.2383
G01 X1.8463 Y-7.2106
G01 X1.7613 Y-7.1813
G01 X1.5344 Y-7.1273
G01 X1.4443 Y-7.1030
G01 X1.4320 Y-7.0984
G01 X1.3810 Y-7.0727
G01 X1.3700 Y-7.0657
G01 X1.3601 Y-7.0571
G01 X1.3262 Y-7.0189
G01 X1.3222 Y-7.0138
G01 X1.3175 Y-7.0066
G01 X1.3119 Y-6.9949
G01 X1.3086 Y-6.9846
G01 X1.2978 Y-6.9371
G01 X1.2962 Y-6.9242
G01 X1.2962 Y-6.9155
G01 X1.2971 Y-6.9068
G01 X1.3035 Y-6.8664
G01 X1.3067 Y-6.8539
G01 X1.3099 Y-6.8459
G01 X1.3139 Y-6.8383
G01 X1.3318 Y-6.8078
G01 X1.3366 Y-6.8008
G01 X1.3407 Y-6.7960
G01 X1.3466 Y-6.7899
G01 X1.3530 Y-6.7845
G01 X1.3831 Y-6.7618
G01 X1.3937 Y-6.7553
G01 X1.4012 Y-6.7518
G01 X1.4071 Y-6.7497
G01 X1.4653 Y-6.7310
G01 X1.4739 Y-6.7287
G01 X1.4848 Y-6.7271
G01 X1.5802 Y-6.7194
G01 X1.5907 Y-6.7193
G01 X1.6685 Y-6.7246
G01 X1.6768 Y-6.7262
G01 X1.7325 Y-6.7400
G01 X1.7428 Y-6.7441
G01 X1.7807 Y-6.7634
G01 X1.7901 Y-6.7693
G01 X1.7970 Y-6.7748
G01 X1.8277 Y-6.8035
G01 X1.8336 Y-6.8100
G01 X1.8400 Y-6.8188
G01 X1.8583 Y-6.8492
G01 X1.9349 Y-6.8412
G01 X1.9308 Y-6.8336
G01 X1.8996 Y-6.7964
G01 X1.8591 Y-6.7644
G01 X1.7916 Y-6.7312
G01 X1.7032 Y-6.7086
G01 X1.5865 Y-6.6999
G01 X1.4837 Y-6.7058
G01 X1.4024 Y-6.7215
G01 X1.3395 Y-6.7443
G01 X1.2917 Y-6.7723
G01 X1.2524 Y-6.8082
G01 X1.2266 Y-6.8470
G01 X1.2105 Y-6.8929
G01 X1.2044 Y-6.9519
G01 X1.2083 Y-6.9987
G01 X1.2187 Y-7.0359
G01 X1.2336 Y-7.0643
G01 X1.2719 Y-7.1067
G01 X1.3303 Y-7.1442
G01 X1.4221 Y-7.1772
G01 X1.6404 Y-7.2281
G01 X1.7473 Y-7.2572
G01 X1.7571 Y-7.2613
G01 X1.8104 Y-7.2878
G01 X1.8178 Y-7.2920
G01 X1.8230 Y-7.2955
G01 X1.8296 Y-7.3009
G01 X1.8562 Y-7.3260
G01 X1.8636 Y-7.3340
G01 X1.8676 Y-7.3392
G01 X1.8712 Y-7.3447
G01 X1.8879 Y-7.3764
G01 X1.8921 Y-7.3857
G01 X1.8946 Y-7.3935
G01 X1.8964 Y-7.4015
G01 X1.9021 Y-7.4391
G01 X1.9027 Y-7.4500
G01 X1.9020 Y-7.4608
G01 X1.8953 Y-7.5038
G01 X1.8936 Y-7.5121
G01 X1.8911 Y-7.5201
G01 X1.8860 Y-7.5316
G01 X1.8657 Y-7.5669
G01 X1.8609 Y-7.5740
G01 X1.8554 Y-7.5806
G01 X1.8476 Y-7.5880
G01 X1.8151 Y-7.6141
G01 X1.8082 Y-7.6191
G01 X1.8008 Y-7.6234
G01 X1.7890 Y-7.6284
G01 X1.7248 Y-7.6502
G01 X1.7145 Y-7.6530
G01 X1.7041 Y-7.6545
G01 X1.5875 Y-7.6639
G01 X1.5805 Y-7.6638
G01 X1.4924 Y-7.6592
G01 X1.4801 Y-7.6576
G01 X1.4215 Y-7.6459
G01 X1.4136 Y-7.6439
G01 X1.4041 Y-7.6404
G01 X1.3669 Y-7.6243
G01 X1.3577 Y-7.6197
G01 X1.3525 Y-7.6164
G01 X1.3460 Y-7.6114
G01 X1.3138 Y-7.5845
G01 X1.3077 Y-7.5786
G01 X1.3009 Y-7.5703
G01 X1.2729 Y-7.5294
G01 X1.1969 Y-7.5408
G00 Z0.5000
G00 X4.0317 Y-7.6589
G01 F90.00
G01 Z-0.0800
G01 F240.00
G01 X4.1474 Y-7.6589
G01 X4.1474 Y-6.7232
G01 X4.0317 Y-6.7232
G01 X4.0317 Y-7.6589
G00 Z0.5000
G00 X4.4940 Y-6.7232
G01 F90.00
G01 Z-0.0800
G01 F240.00
G01 X4.4940 Y-6.7457
G01 X4.5503 Y-6.7458
G01 X4.5609 Y-6.7467
G01 X4.5692 Y-6.7483
G01 X4.5792 Y-6.7515
G01 X4.5869 Y-6.7549
G01 X4.5961 Y-6.7602
G01 X4.6029 Y-6.7653
G01 X4.6091 Y-6.7710
G01 X4.6148 Y-6.7772
G01 X4.6198 Y-6.7840
G01 X4.6242 Y-6.7912
G01 X4.6278 Y-6.7989
G01 X4.6312 Y-6.8089
G01 X4.6331 Y-6.8171
G01 X4.6339 Y-6.8234
G01 X4.6343 Y-6.8318
G01 X4.6343 Y-7.4803
G01 X4.6417 Y-7.5568
G01 X4.6577 Y-7.6030
G01 X4.6789 Y-7.6324
G01 X4.7081 Y-7.6541
G01 X4.7502 Y-7.6696
G01 X4.8140 Y-7.6762
G01 X4.9317 Y-7.6680
G01 X4.9694 Y-7.6593
G01 X4.9694 Y-7.6493
G01 X4.9596 Y-7.6499
G01 X4.9514 Y-7.6496
G01 X4.9081 Y-7.6446
G01 X4.9001 Y-7.6433
G01 X4.8922 Y-7.6413
G01 X4.8865 Y-7.6392
G01 X4.8517 Y-7.6246
G01 X4.8420 Y-7.6195
G01 X4.8331 Y-7.6133
G01 X4.8067 Y-7.5899
G01 X4.7992 Y-7.5824
G01 X4.7928 Y-7.5742
G01 X4.7874 Y-7.5651
G01 X4.7636 Y-7.5163
G01 X4.7593 Y-7.5047
G01 X4.7577 Y-7.4987
G01 X4.7564 Y-7.4905
G01 X4.7477 Y-7.4165
G01 X4.7471 Y-7.4084
G01 X4.7471 Y-6.8318
G01 X4.7480 Y-6.8192
G01 X4.7508 Y-6.8068
G01 X4.7545 Y-6.7969
G01 X4.7583 Y-6.7894
G01 X4.7628 Y-6.7823
G01 X4.7694 Y-6.7740
G01 X4.7754 Y-6.7680
G01 X4.7836 Y-6.7614
G01 X4.7926 Y-6.7559
G01 X4.8002 Y-6.7523
G01 X4.8062 Y-6.7501
G01 X4.8143 Y-6.7478
G01 X4.8205 Y-6.7467
G01 X4.8290 Y-6.7458
G01 X4.9571 Y-6.7457
G01 X4.9571 Y-6.7232
G01 X4.8332 Y-6.7232
G01 X4.8205 Y-6.7223
G01 X4.8123 Y-6.7206
G01 X4.8062 Y-6.7189
G01 X4.7945 Y-6.7140
G01 X4.7889 Y-6.7110
G01 X4.7819 Y-6.7063
G01 X4.7769 Y-6.7023
G01 X4.7708 Y-6.6965
G01 X4.7628 Y-6.6867
G01 X4.7593 Y-6.6814
G01 X4.7553 Y-6.6739
G01 X4.7528 Y-6.6681
G01 X4.7502 Y-6.6601
G01 X4.7483 Y-6.6518
G01 X4.7475 Y-6.6456
G01 X4.7471 Y-6.6371
G01 X4.7471 Y-6.4653
G01 X4.7139 Y-6.4653
G01 X4.6432 Y-6.6675
G01 X4.6398 Y-6.6753
G01 X4.6367 Y-6.6809
G01 X4.6333 Y-6.6863
G01 X4.6281 Y-6.6930
G01 X4.6223 Y-6.6992
G01 X4.6175 Y-6.7035
G01 X4.6071 Y-6.7108
G01 X4.5996 Y-6.7149
G01 X4.5938 Y-6.7174
G01 X4.5816 Y-6.7211
G01 X4.5732 Y-6.7226
G01 X4.5647 Y-6.7232
G01 X4.4940 Y-6.7232
G00 Z0.5000
G00 X4.0317 Y-6.3528
G01 F90.00
G01 Z-0.0800
G01 F240.00
G01 X4.1474 Y-6.3528
G01 X4.1474 Y-6.3129
G01 X4.0317 Y-6.3129
G01 X4.0317 Y-6.3528
G00 Z0.5000
G00 X5.2496 Y-7.1972
G01 F90.00
G01 Z-0.0800
G01 F240.00
G01 X5.2583 Y-7.3189
G01 X5.2819 Y-7.4167
G01 X5.3176 Y-7.4953
G01 X5.3644 Y-7.5592
G01 X5.4232 Y-7.6107
G01 X5.4935 Y-7.6483
G01 X5.5806 Y-7.6729
G01 X5.6908 Y-7.6821
G01 X5.7669 Y-7.6772
G01 X5.8350 Y-7.6633
G01 X5.8959 Y-7.6411
G01 X5.9515 Y-7.6102
G01 X5.9975 Y-7.5734
G01 X6.0359 Y-7.5298
G01 X6.0665 Y-7.4800
G01 X6.0752 Y-7.4584
G01 X5.9663 Y-7.4533
G01 X5.9639 Y-7.4607
G01 X5.9616 Y-7.4663
G01 X5.9384 Y-7.5171
G01 X5.9333 Y-7.5266
G01 X5.9271 Y-7.5354
G01 X5.8949 Y-7.5752
G01 X5.8878 Y-7.5826
G01 X5.8800 Y-7.5891
G01 X5.8388 Y-7.6191
G01 X5.8300 Y-7.6244
G01 X5.8206 Y-7.6287
G01 X5.7733 Y-7.6468
G01 X5.7650 Y-7.6493
G01 X5.7564 Y-7.6510
G01 X5.7017 Y-7.6573
G01 X5.6907 Y-7.6578
G01 X5.6798 Y-7.6569
G01 X5.6151 Y-7.6477
G01 X5.6087 Y-7.6465
G01 X5.6003 Y-7.6442
G01 X5.5902 Y-7.6402
G01 X5.5362 Y-7.6128
G01 X5.5290 Y-7.6087
G01 X5.5222 Y-7.6039
G01 X5.5144 Y-7.5970
G01 X5.4702 Y-7.5508
G01 X5.4659 Y-7.5460
G01 X5.4608 Y-7.5392
G01 X5.4555 Y-7.5300
G01 X5.4214 Y-7.4623
G01 X5.4178 Y-7.4542
G01 X5.4157 Y-7.4479
G01 X5.3909 Y-7.3451
G01 X5.3893 Y-7.3369
G01 X5.3796 Y-7.1915
G01 X5.3796 Y-7.1803
G01 X5.3891 Y-7.0392
G01 X5.3907 Y-7.0309
G01 X5.4144 Y-6.9332
G01 X5.4172 Y-6.9248
G01 X5.4208 Y-6.9167
G01 X5.4542 Y-6.8508
G01 X5.4608 Y-6.8399
G01 X5.4690 Y-6.8301
G01 X5.5109 Y-6.7865
G01 X5.5170 Y-6.7808
G01 X5.5235 Y-6.7757
G01 X5.5324 Y-6.7703
G01 X5.5855 Y-6.7435
G01 X5.5974 Y-6.7386
G01 X5.6079 Y-6.7359
G01 X5.6758 Y-6.7262
G01 X5.6865 Y-6.7253
G01 X5.6972 Y-6.7258
G01 X5.7552 Y-6.7321
G01 X5.7661 Y-6.7340
G01 X5.7767 Y-6.7373
G01 X5.8222 Y-6.7547
G01 X5.8336 Y-6.7600
G01 X5.8441 Y-6.7670
G01 X5.8800 Y-6.7948
G01 X5.8863 Y-6.8002
G01 X5.8906 Y-6.8046
G01 X5.8959 Y-6.8109
G01 X5.9238 Y-6.8477
G01 X5.9286 Y-6.8547
G01 X5.9336 Y-6.8641
G01 X5.9550 Y-6.9110
G01 X6.0623 Y-6.9057
G01 X6.0469 Y-6.8733
G01 X6.0108 Y-6.8239
G01 X5.9649 Y-6.7811
G01 X5.9118 Y-6.7472
G01 X5.8507 Y-6.7220
G01 X5.7790 Y-6.7058
G01 X5.6947 Y-6.7000
G01 X5.5841 Y-6.7094
G01 X5.4963 Y-6.7344
G01 X5.4253 Y-6.7729
G01 X5.3658 Y-6.8257
G01 X5.3185 Y-6.8910
G01 X5.2824 Y-6.9717
G01 X5.2585 Y-7.0721
G01 X5.2496 Y-7.1972
G00 Z0.5000
G00 X6.4804 Y-7.6589
G01 F90.00
G01 Z-0.0800
G01 F240.00
G01 X6.5962 Y-7.6589
G01 X6.5963 Y-7.1456
G01 X6.6043 Y-7.0512
G01 X6.6058 Y-7.0408
G01 X6.6297 Y-6.9568
G01 X6.6335 Y-6.9469
G01 X6.6400 Y-6.9346
G01 X6.6301 Y-6.9296
G01 X6.6198 Y-6.9224
G01 X6.6120 Y-6.9153
G01 X6.6040 Y-6.9056
G01 X6.5975 Y-6.8948
G01 X6.5932 Y-6.8852
G01 X6.5898 Y-6.8731
G01 X6.5881 Y-6.8607
G01 X6.5880 Y-6.8523
G01 X6.5962 Y-6.6372
G01 X6.5962 Y-6.3129
G01 X6.4804 Y-6.3129
G01 X6.4804 Y-7.6589
G00 Z0.5000
G00 X6.8635 Y-6.7507
G01 F90.00
G01 Z-0.0800
G01 F240.00
G01 X6.9040 Y-6.7445
G01 X6.9106 Y-6.7439
G01 X6.9172 Y-6.7438
G01 X6.9259 Y-6.7445
G01 X6.9866 Y-6.7524
G01 X6.9951 Y-6.7542
G01 X7.0054 Y-6.7576
G01 X7.0596 Y-6.7826
G01 X7.0689 Y-6.7882
G01 X7.0773 Y-6.7949
G01 X7.1159 Y-6.8316
G01 X7.1233 Y-6.8396
G01 X7.1308 Y-6.8503
G01 X7.1627 Y-6.9079
G01 X7.1653 Y-6.9137
G01 X7.1681 Y-6.9218
G01 X7.1883 Y-6.9977
G01 X7.1900 Y-7.0056
G01 X7.1910 Y-7.0136
G01 X7.1986 Y-7.1185
G01 X7.1987 Y-7.6589
G01 X7.3135 Y-7.6589
G01 X7.3135 Y-7.0436
G01 X7.3072 Y-6.9470
G01 X7.2912 Y-6.8749
G01 X7.2683 Y-6.8204
G01 X7.2400 Y-6.7794
G01 X7.2039 Y-6.7463
G01 X7.1607 Y-6.7223
G01 X7.1058 Y-6.7062
G01 X7.0347 Y-6.7001
G01 X6.9705 Y-6.7055
G01 X6.9173 Y-6.7203
G01 X6.8722 Y-6.7435
G01 X6.8635 Y-6.7507
G00 Z0.5000
G00 X7.6984 Y-7.1901
G01 F90.00
G01 Z-0.0800
G01 F240.00
G01 X7.7076 Y-7.3102
G01 X7.7325 Y-7.4078
G01 X7.7708 Y-7.4876
G01 X7.8221 Y-7.5542
G01 X7.8861 Y-7.6080
G01 X7.9616 Y-7.6473
G01 X8.0534 Y-7.6727
G01 X8.1665 Y-7.6821
G01 X8.2825 Y-7.6727
G01 X8.3765 Y-7.6471
G01 X8.4535 Y-7.6078
G01 X8.5183 Y-7.5542
G01 X8.5704 Y-7.4877
G01 X8.6091 Y-7.4080
G01 X8.6343 Y-7.3104
G01 X8.6437 Y-7.1899
G01 X8.6345 Y-7.0639
G01 X8.6098 Y-6.9642
G01 X8.5729 Y-6.8855
G01 X8.5247 Y-6.8225
G01 X8.4640 Y-6.7723
G01 X8.3888 Y-6.7346
G01 X8.2936 Y-6.7094
G01 X8.1727 Y-6.7000
G01 X8.0559 Y-6.7095
G01 X7.9621 Y-6.7351
G01 X7.8858 Y-6.7743
G01 X7.8220 Y-6.8276
G01 X7.7707 Y-6.8939
G01 X7.7325 Y-6.9734
G01 X7.7076 Y-7.0705
G01 X7.6984 Y-7.1901
G00 Z0.5000
G00 X7.9130 Y-6.8527
G01 F90.00
G01 Z-0.0800
G01 F240.00
G01 X7.8750 Y-6.9200
G01 X7.8695 Y-6.9316
G01 X7.8668 Y-6.9398
G01 X7.8405 Y-7.0372
G01 X7.8389 Y-7.0452
G01 X7.8383 Y-7.0513
G01 X7.8282 Y-7.1898
G01 X7.8368 Y-7.3194
G01 X7.8374 Y-7.3256
G01 X7.8390 Y-7.3338
G01 X7.8614 Y-7.4262
G01 X7.8637 Y-7.4342
G01 X7.8677 Y-7.4437
G01 X7.9039 Y-7.5175
G01 X7.9109 Y-7.5279
G01 X7.9496 Y-7.5741
G01 X7.9573 Y-7.5818
G01 X7.9642 Y-7.5873
G01 X8.0078 Y-7.6184
G01 X8.0167 Y-7.6236
G01 X8.0261 Y-7.6278
G01 X8.0752 Y-7.6460
G01 X8.0874 Y-7.6496
G01 X8.0958 Y-7.6509
G01 X8.1540 Y-7.6573
G01 X8.1641 Y-7.6578
G01 X8.1742 Y-7.6571
G01 X8.2554 Y-7.6468
G01 X8.2658 Y-7.6445
G01 X8.2759 Y-7.6410
G01 X8.3401 Y-7.6120
G01 X8.3478 Y-7.6080
G01 X8.3550 Y-7.6033
G01 X8.3618 Y-7.5979
G01 X8.4145 Y-7.5488
G01 X8.4231 Y-7.5389
G01 X8.4291 Y-7.5298
G01 X8.4676 Y-7.4619
G01 X8.4731 Y-7.4502
G01 X8.4758 Y-7.4420
G01 X8.5019 Y-7.3459
G01 X8.5042 Y-7.3338
G01 X8.5148 Y-7.1904
G01 X8.5051 Y-7.0457
G01 X8.5035 Y-7.0373
G01 X8.4806 Y-6.9443
G01 X8.4783 Y-6.9365
G01 X8.4735 Y-6.9252
G01 X8.4385 Y-6.8578
G01 X8.4337 Y-6.8505
G01 X8.4268 Y-6.8422
G01 X8.3749 Y-6.7897
G01 X8.3653 Y-6.7817
G01 X8.3547 Y-6.7752
G01 X8.2897 Y-6.7436
G01 X8.2779 Y-6.7392
G01 X8.2656 Y-6.7366
G01 X8.1882 Y-6.7261
G01 X8.1780 Y-6.7253
G01 X8.1658 Y-6.7260
G01 X8.0877 Y-6.7359
G01 X8.0771 Y-6.7379
G01 X8.0649 Y-6.7421
G01 X7.9995 Y-6.7717
G01 X7.9901 Y-6.7770
G01 X7.9814 Y-6.7835
G01 X7.9292 Y-6.8321
G01 X7.9203 Y-6.8418
G01 X7.9130 Y-6.8527
G00 Z0.5000
G00 X8.9429 Y-6.7232
G01 F90.00
G01 Z-0.0800
G01 F240.00
G01 X9.2777 Y-7.6589
G01 X9.5014 Y-7.6589
G01 X9.8467 Y-6.7232
G01 X9.7316 Y-6.7232
G01 X9.5157 Y-7.3901
G01 X9.4741 Y-7.5360
G01 X9.4714 Y-7.5440
G01 X9.4658 Y-7.5555
G01 X9.4587 Y-7.5660
G01 X9.4500 Y-7.5753
G01 X9.4401 Y-7.5833
G01 X9.4292 Y-7.5897
G01 X9.4174 Y-7.5944
G01 X9.4050 Y-7.5974
G01 X9.3923 Y-7.5985
G01 X9.3860 Y-7.5983
G01 X9.3775 Y-7.5973
G01 X9.3652 Y-7.5944
G01 X9.3534 Y-7.5896
G01 X9.3424 Y-7.5832
G01 X9.3373 Y-7.5794
G01 X9.3310 Y-7.5738
G01 X9.3226 Y-7.5642
G01 X9.3157 Y-7.5535
G01 X9.3104 Y-7.5419
G01 X9.2361 Y-7.2811
G01 X9.0616 Y-6.7232
G01 X8.9429 Y-6.7232
G00 Z0.5000
G00 X10.1471 Y-7.1860
G01 F90.00
G01 Z-0.0800
G01 F240.00
G01 X10.1560 Y-7.3170
G01 X10.1797 Y-7.4197
G01 X10.2146 Y-7.4994
G01 X10.2592 Y-7.5616
G01 X10.3162 Y-7.6118
G01 X10.3851 Y-7.6488
G01 X10.4709 Y-7.6730
G01 X10.5796 Y-7.6821
G01 X10.6850 Y-7.6738
G01 X10.7691 Y-7.6517
G01 X10.8364 Y-7.6183
G01 X10.8917 Y-7.5735
G01 X10.9156 Y-7.5436
G01 X10.8384 Y-7.5369
G01 X10.8319 Y-7.5492
G01 X10.8270 Y-7.5560
G01 X10.8230 Y-7.5608
G01 X10.7807 Y-7.6032
G01 X10.7707 Y-7.6117
G01 X10.7635 Y-7.6165
G01 X10.7557 Y-7.6205
G01 X10.7001 Y-7.6460
G01 X10.6940 Y-7.6483
G01 X10.6876 Y-7.6502
G01 X10.6768 Y-7.6523
G01 X10.6042 Y-7.6613
G01 X10.5919 Y-7.6619
G01 X10.5817 Y-7.6611
G01 X10.5123 Y-7.6514
G01 X10.4998 Y-7.6488
G01 X10.4918 Y-7.6460
G01 X10.4860 Y-7.6434
G01 X10.4284 Y-7.6149
G01 X10.4179 Y-7.6084
G01 X10.4130 Y-7.6046
G01 X10.4070 Y-7.5990
G01 X10.3616 Y-7.5529
G01 X10.3548 Y-7.5450
G01 X10.3511 Y-7.5399
G01 X10.3469 Y-7.5328
G01 X10.3157 Y-7.4739
G01 X10.3112 Y-7.4638
G01 X10.3085 Y-7.4553
G01 X10.2876 Y-7.3751
G01 X10.2858 Y-7.3663
G01 X10.2771 Y-7.2495
G01 X10.2774 Y-7.2368
G01 X10.2796 Y-7.2244
G01 X10.2828 Y-7.2143
G01 X10.2882 Y-7.2029
G01 X10.2940 Y-7.1940
G01 X10.3008 Y-7.1860
G01 X10.3085 Y-7.1788
G01 X10.3170 Y-7.1726
G01 X10.3263 Y-7.1675
G01 X10.3381 Y-7.1630
G01 X10.3505 Y-7.1602
G01 X10.3631 Y-7.1593
G01 X10.9833 Y-7.1593
G01 X10.9793 Y-7.0926
G01 X10.9562 Y-6.9797
G01 X10.9225 Y-6.8928
G01 X10.8800 Y-6.8258
G01 X10.8379 Y-6.7817
G01 X10.7895 Y-6.7477
G01 X10.7331 Y-6.7224
G01 X10.6654 Y-6.7060
G01 X10.5838 Y-6.7000
G01 X10.4749 Y-6.7091
G01 X10.3885 Y-6.7333
G01 X10.3188 Y-6.7702
G01 X10.2608 Y-6.8206
G01 X10.2149 Y-6.8829
G01 X10.1796 Y-6.9612
G01 X10.1560 Y-7.0605
G01 X10.1471 Y-7.1860
G00 Z0.5000
G00 X10.3652 Y-7.1511
G01 F90.00
G01 Z-0.0800
G01 F240.00
G01 X10.7997 Y-7.1510
G01 X10.8122 Y-7.1495
G01 X10.8243 Y-7.1462
G01 X10.8358 Y-7.1411
G01 X10.8413 Y-7.1379
G01 X10.8482 Y-7.1331
G01 X10.8545 Y-7.1277
G01 X10.8604 Y-7.1216
G01 X10.8656 Y-7.1150
G01 X10.8701 Y-7.1080
G01 X10.8739 Y-7.1005
G01 X10.8770 Y-7.0927
G01 X10.8798 Y-7.0826
G01 X10.8811 Y-7.0743
G01 X10.8816 Y-7.0638
G01 X10.8810 Y-7.0554
G01 X10.8684 Y-6.9629
G01 X10.8667 Y-6.9550
G01 X10.8650 Y-6.9491
G01 X10.8428 Y-6.8833
G01 X10.8399 Y-6.8757
G01 X10.8341 Y-6.8650
G01 X10.8038 Y-6.8167
G01 X10.7988 Y-6.8096
G01 X10.7946 Y-6.8046
G01 X10.7884 Y-6.7984
G01 X10.7453 Y-6.7598
G01 X10.7355 Y-6.7525
G01 X10.7266 Y-6.7476
G01 X10.6731 Y-6.7235
G01 X10.6631 Y-6.7200
G01 X10.6507 Y-6.7175
G01 X10.5904 Y-6.7096
G01 X10.5783 Y-6.7089
G01 X10.5682 Y-6.7096
G01 X10.4997 Y-6.7187
G01 X10.4891 Y-6.7213
G01 X10.4789 Y-6.7253
G01 X10.4259 Y-6.7499
G01 X10.4184 Y-6.7541
G01 X10.4113 Y-6.7591
G01 X10.4048 Y-6.7647
G01 X10.3637 Y-6.8038
G01 X10.3562 Y-6.8119
G01 X10.3498 Y-6.8209
G01 X10.3194 Y-6.8730
G01 X10.3144 Y-6.8830
G01 X10.3114 Y-6.8913
G01 X10.2910 Y-6.9583
G01 X10.2885 Y-6.9704
G01 X10.2796 Y-7.0561
G01 X10.2791 Y-7.0646
G01 X10.2797 Y-7.0751
G01 X10.2811 Y-7.0835
G01 X10.2833 Y-7.0917
G01 X10.2863 Y-7.0996
G01 X10.2923 Y-7.1108
G01 X10.2998 Y-7.1211
G01 X10.3072 Y-7.1287
G01 X10.3172 Y-7.1365
G01 X10.3283 Y-7.1428
G01 X10.3401 Y-7.1474
G01 X10.3525 Y-7.1502
G01 X10.3652 Y-7.1511
G00 Z0.5000
G00 X11.3744 Y-6.7232
G01 F90.00
G01 Z-0.0800
G01 F240.00
G01 X11.3754 Y-6.7437
G01 X11.3780 Y-6.8972
G01 X11.3780 Y-7.6589
G01 X11.4938 Y-7.6589
G01 X11.4940 Y-7.1942
G01 X11.5019 Y-7.0809
G01 X11.5029 Y-7.0724
G01 X11.5263 Y-6.9779
G01 X11.5301 Y-6.9679
G01 X11.5384 Y-6.9513
G01 X11.5290 Y-6.9467
G01 X11.5201 Y-6.9409
G01 X11.5120 Y-6.9340
G01 X11.5062 Y-6.9278
G01 X11.4998 Y-6.9193
G01 X11.4955 Y-6.9120
G01 X11.4919 Y-6.9043
G01 X11.4885 Y-6.8943
G01 X11.4867 Y-6.8860
G01 X11.4857 Y-6.8776
G01 X11.4805 Y-6.7533
G01 X11.4783 Y-6.7232
G01 X11.3744 Y-6.7232
G00 Z0.5000
G00 X11.7058 Y-6.7854
G01 F90.00
G01 Z-0.0800
G01 F240.00
G01 X11.7156 Y-6.7819
G01 X11.7256 Y-6.7795
G01 X11.7988 Y-6.7688
G01 X11.8109 Y-6.7684
G01 X11.8442 Y-6.7706
G01 X11.8442 Y-6.7003
G01 X11.8418 Y-6.7001
G01 X11.7956 Y-6.7046
G01 X11.7677 Y-6.7142
G01 X11.7450 Y-6.7300
G01 X11.7215 Y-6.7570
G01 X11.7058 Y-6.7854
G00 Z0.5000
G00 X12.6244 Y-7.6014
G01 F90.00
G01 Z-0.0800
G01 F240.00
G01 X12.9734 Y-7.6014
G01 X12.9871 Y-7.5786
G01 X13.0038 Y-7.5560
G01 X13.0227 Y-7.5352
G01 X13.0403 Y-7.5191
G01 X13.0468 Y-7.5137
G01 X13.0678 Y-7.4985
G01 X13.0883 Y-7.4862
G01 X13.0939 Y-7.4833
G01 X13.1136 Y-7.4740
G01 X13.1195 Y-7.4717
G01 X13.1419 Y-7.4637
G01 X13.1639 Y-7.4581
G01 X13.1639 Y-7.1244
G01 X13.1148 Y-7.1288
G01 X12.9712 Y-7.1736
G01 X12.8436 Y-7.2507
G01 X12.7382 Y-7.3561
G01 X12.6611 Y-7.4837
G01 X12.6244 Y-7.6014
G00 Z0.5000
G00 X12.8342 Y-7.4636
G01 F90.00
G01 Z-0.0800
G01 F240.00
G01 X12.9016 Y-7.4636
G01 X12.9253 Y-7.4378
G01 X12.9478 Y-7.4170
G01 X12.9561 Y-7.4099
G01 X12.9648 Y-7.4031
G01 X12.9895 Y-7.3851
G01 X13.0156 Y-7.3691
G01 X13.0261 Y-7.3632
G01 X13.0261 Y-7.3013
G01 X12.9292 Y-7.3599
G01 X12.8474 Y-7.4417
G01 X12.8342 Y-7.4636
G00 Z0.5000
G00 X13.8852 Y-7.1288
G01 F90.00
G01 Z-0.0800
G01 F240.00
G01 X13.8361 Y-7.1244
G01 X13.8361 Y-7.4581
G01 X13.8581 Y-7.4637
G01 X13.8805 Y-7.4717
G01 X13.8883 Y-7.4749
G01 X13.9099 Y-7.4852
G01 X13.9304 Y-7.4974
G01 X13.9374 Y-7.5020
G01 X13.9565 Y-7.5163
G01 X13.9758 Y-7.5337
G01 X13.9934 Y-7.5528
G01 X13.9988 Y-7.5593
G01 X14.0129 Y-7.5786
G01 X14.0263 Y-7.6008
G01 X14.0376 Y-7.6242
G01 X14.0408 Y-7.6320
G01 X14.0488 Y-7.6544
G01 X14.0544 Y-7.6765
G01 X14.0724 Y-7.6851
G01 X14.0965 Y-7.6995
G01 X14.1191 Y-7.7163
G01 X14.1384 Y-7.7337
G01 X14.6945 Y-8.2897
G01 X14.6963 Y-8.2803
G01 X14.7034 Y-8.2524
G01 X14.7145 Y-8.2214
G01 X14.7286 Y-8.1916
G01 X14.7467 Y-8.1615
G01 X14.7652 Y-8.1368
G01 X14.7844 Y-8.1154
G01 X14.7904 Y-8.1094
G01 X14.8118 Y-8.0902
G01 X14.8348 Y-8.0730
G01 X14.8400 Y-8.0694
G01 X14.8629 Y-8.0557
G01 X14.8703 Y-8.0517
G01 X14.8964 Y-8.0395
G01 X14.9254 Y-8.0290
G01 X14.9594 Y-8.0204
G01 X14.9879 Y-8.0160
G01 X14.9963 Y-8.0152
G01 X15.0250 Y-8.0139
G01 X15.1639 Y-8.0139
G01 X15.1639 Y-7.6861
G01 X14.9794 Y-7.6861
G01 X14.8904 Y-7.6952
G01 X14.7425 Y-7.7442
G01 X14.6996 Y-7.7706
G01 X14.6924 Y-7.7744
G01 X14.6848 Y-7.7775
G01 X14.6115 Y-7.7978
G01 X14.5990 Y-7.8002
G01 X14.5926 Y-7.8007
G01 X14.5840 Y-7.8007
G01 X14.5755 Y-7.7998
G01 X14.5692 Y-7.7986
G01 X14.4964 Y-7.7759
G01 X14.4883 Y-7.7730
G01 X14.4788 Y-7.7682
G01 X14.4716 Y-7.7635
G01 X14.4650 Y-7.7582
G01 X14.4589 Y-7.7522
G01 X14.4099 Y-7.6937
G01 X14.4062 Y-7.6886
G01 X14.4018 Y-7.6814
G01 X14.3981 Y-7.6738
G01 X14.3952 Y-7.6658
G01 X14.3867 Y-7.6384
G01 X14.3850 Y-7.6317
G01 X14.3389 Y-7.4837
G01 X14.2618 Y-7.3561
G01 X14.1564 Y-7.2507
G01 X14.0288 Y-7.1736
G01 X13.8852 Y-7.1288
G00 Z0.5000
G00 X13.9739 Y-7.3013
G01 F90.00
G01 Z-0.0800
G01 F240.00
G01 X13.9739 Y-7.3632
G01 X14.0059 Y-7.3821
G01 X14.0150 Y-7.3882
G01 X14.0352 Y-7.4031
G01 X14.0439 Y-7.4099
G01 X14.0522 Y-7.4170
G01 X14.0708 Y-7.4339
G01 X14.0786 Y-7.4417
G01 X14.0991 Y-7.4644
G01 X14.1061 Y-7.4729
G01 X14.1243 Y-7.4975
G01 X14.1304 Y-7.5066
G01 X14.1462 Y-7.5329
G01 X14.1513 Y-7.5426
G01 X14.1644 Y-7.5702
G01 X14.1695 Y-7.5827
G01 X14.1820 Y-7.5913
G01 X14.2065 Y-7.6098
G01 X14.2293 Y-7.6301
G01 X14.2450 Y-7.6455
G01 X14.2124 Y-7.5407
G01 X14.1526 Y-7.4417
G01 X14.0708 Y-7.3599
G01 X13.9739 Y-7.3013
G00 Z0.5000
G00 X14.5304 Y-7.9308
G01 F90.00
G01 Z-0.0800
G01 F240.00
G01 X14.6544 Y-8.0548
G01 X14.6659 Y-8.0411
G01 X14.6899 Y-8.0149
G01 X14.6979 Y-8.0074
G01 X14.7244 Y-7.9837
G01 X14.7528 Y-7.9623
G01 X14.7663 Y-7.9530
G01 X14.7968 Y-7.9347
G01 X14.8114 Y-7.9272
G01 X14.8437 Y-7.9122
G01 X14.8770 Y-7.9000
G01 X14.8927 Y-7.8950
G01 X14.9218 Y-7.8877
G01 X14.9380 Y-7.8842
G01 X14.9786 Y-7.8784
G01 X15.0140 Y-7.8764
G01 X15.0261 Y-7.8761
G01 X15.0261 Y-7.8239
G01 X14.9864 Y-7.8239
G01 X14.9194 Y-7.8307
G01 X14.8011 Y-7.8699
G01 X14.7737 Y-7.8868
G01 X14.7598 Y-7.8947
G01 X14.7454 Y-7.9016
G01 X14.7305 Y-7.9074
G01 X14.7153 Y-7.9122
G01 X14.6371 Y-7.9333
G01 X14.6207 Y-7.9363
G01 X14.6097 Y-7.9376
G01 X14.5986 Y-7.9384
G01 X14.5819 Y-7.9385
G01 X14.5708 Y-7.9379
G01 X14.5542 Y-7.9359
G01 X14.5433 Y-7.9339
G01 X14.5304 Y-7.9308
G00 Z0.5000
G00 X16.0660 Y-7.8850
G01 F90.00
G01 Z-0.0800
G01 F240.00
G01 X16.0583 Y-7.8731
G01 X16.0503 Y-7.8587
G01 X16.0434 Y-7.8436
G01 X16.0370 Y-7.8263
G01 X16.0136 Y-7.8239
G01 X15.9739 Y-7.8239
G01 X15.9739 Y-7.8761
G01 X15.9860 Y-7.8764
G01 X16.0214 Y-7.8784
G01 X16.0324 Y-7.8798
G01 X16.0660 Y-7.8850
G00 Z0.5000
G00 X16.7112 Y-7.5389
G01 F90.00
G01 Z-0.0800
G01 F240.00
G01 X16.9450 Y-7.5389
G01 X16.9523 Y-7.5097
G01 X16.9611 Y-7.4849
G01 X16.9643 Y-7.4771
G01 X16.9756 Y-7.4533
G01 X16.9913 Y-7.4272
G01 X17.0069 Y-7.4060
G01 X17.0109 Y-7.4010
G01 X17.0271 Y-7.3831
G01 X17.0331 Y-7.3771
G01 X17.0526 Y-7.3595
G01 X17.0754 Y-7.3425
G01 X17.0997 Y-7.3277
G01 X17.1071 Y-7.3237
G01 X17.1309 Y-7.3126
G01 X17.1597 Y-7.3023
G01 X17.1893 Y-7.2949
G01 X17.2139 Y-7.2911
G01 X17.2139 Y-7.0611
G01 X17.1903 Y-7.0611
G01 X17.1670 Y-7.0629
G01 X17.0343 Y-7.1015
G01 X16.9171 Y-7.1708
G01 X16.8208 Y-7.2671
G01 X16.7515 Y-7.3843
G01 X16.7129 Y-7.5170
G01 X16.7112 Y-7.5389
G00 Z0.5000
G00 X16.7244 Y-8.6518
G01 F90.00
G01 Z-0.0800
G01 F240.00
G01 X16.7378 Y-8.6378
G01 X16.7466 Y-8.6292
G01 X16.7787 Y-8.6000
G01 X16.7466 Y-8.5708
G01 X16.7378 Y-8.5622
G01 X16.7244 Y-8.5482
G01 X16.7244 Y-8.6518
G00 Z0.5000
G00 X16.5735 Y-8.9758
G01 F90.00
G01 Z-0.0800
G01 F240.00
G01 X16.6899 Y-8.9758
G01 X16.7016 Y-8.9421
G01 X16.7115 Y-8.9174
G01 X16.7286 Y-8.8813
G01 X16.7414 Y-8.8580
G01 X16.7622 Y-8.8241
G01 X16.7856 Y-8.7918
G01 X16.8023 Y-8.7711
G01 X16.8290 Y-8.7415
G01 X16.8481 Y-8.7230
G01 X16.8779 Y-8.6965
G01 X16.9096 Y-8.6725
G01 X16.9315 Y-8.6574
G01 X16.9657 Y-8.6369
G01 X16.9813 Y-8.6286
G01 X17.0174 Y-8.6115
G01 X17.0338 Y-8.6047
G01 X17.0467 Y-8.6000
G01 X17.0338 Y-8.5953
G01 X17.0174 Y-8.5885
G01 X16.9813 Y-8.5714
G01 X16.9657 Y-8.5631
G01 X16.9391 Y-8.5473
G01 X16.9241 Y-8.5378
G01 X16.9096 Y-8.5275
G01 X16.8848 Y-8.5090
G01 X16.8711 Y-8.4977
G01 X16.8481 Y-8.4770
G01 X16.8290 Y-8.4585
G01 X16.8081 Y-8.4356
G01 X16.7965 Y-8.4221
G01 X16.7856 Y-8.4082
G01 X16.7697 Y-8.3866
G01 X16.6087 Y-8.3866
G01 X16.5866 Y-8.3859
G01 X16.5865 Y-8.8589
G01 X16.5844 Y-8.9011
G01 X16.5827 Y-8.9188
G01 X16.5765 Y-8.9606
G01 X16.5735 Y-8.9758
G00 Z0.5000
G00 X17.9533 Y-8.6000
G01 F90.00
G01 Z-0.0800
G01 F240.00
G01 X17.9662 Y-8.6047
G01 X17.9826 Y-8.6115
G01 X18.0187 Y-8.6286
G01 X18.0343 Y-8.6369
G01 X18.0609 Y-8.6527
G01 X18.0759 Y-8.6622
G01 X18.0904 Y-8.6725
G01 X18.1217 Y-8.6962
G01 X18.1545 Y-8.6798
G01 X18.1787 Y-8.6687
G01 X18.1887 Y-8.6645
G01 X18.2029 Y-8.6590
G01 X18.2304 Y-8.6495
G01 X18.2554 Y-8.6422
G01 X18.2837 Y-8.6355
G01 X18.2943 Y-8.6333
G01 X18.3093 Y-8.6307
G01 X18.3273 Y-8.6282
G01 X18.3489 Y-8.6256
G01 X18.3641 Y-8.6245
G01 X18.3965 Y-8.6233
G01 X18.4084 Y-8.6146
G01 X18.4232 Y-8.6048
G01 X18.4434 Y-8.5925
G01 X18.4588 Y-8.5838
G01 X18.4747 Y-8.5758
G01 X18.4961 Y-8.5658
G01 X18.5125 Y-8.5590
G01 X18.5375 Y-8.5500
G01 X18.5125 Y-8.5410
G01 X18.4961 Y-8.5342
G01 X18.4747 Y-8.5242
G01 X18.4588 Y-8.5162
G01 X18.4434 Y-8.5075
G01 X18.4232 Y-8.4952
G01 X18.4084 Y-8.4854
G01 X18.3965 Y-8.4766
G01 X18.1524 Y-8.4766
G01 X18.1289 Y-8.4977
G01 X18.1152 Y-8.5090
G01 X18.0832 Y-8.5327
G01 X18.0685 Y-8.5426
G01 X18.0343 Y-8.5631
G01 X18.0187 Y-8.5714
G01 X17.9826 Y-8.5885
G01 X17.9662 Y-8.5953
G01 X17.9533 Y-8.6000
G00 Z0.5000
G00 X18.2578 Y-9.8934
G01 F90.00
G01 Z-0.0800
G01 F240.00
G01 X18.3965 Y-9.8934
G01 X18.4084 Y-9.8846
G01 X18.4232 Y-9.8748
G01 X18.4434 Y-9.8625
G01 X18.4588 Y-9.8538
G01 X18.4747 Y-9.8458
G01 X18.4961 Y-9.8358
G01 X18.5125 Y-9.8290
G01 X18.5375 Y-9.8200
G01 X18.5125 Y-9.8110
G01 X18.4961 Y-9.8042
G01 X18.4747 Y-9.7942
G01 X18.4576 Y-9.7855
G01 X18.2789 Y-9.8761
G01 X18.2636 Y-9.8834
G01 X18.2578 Y-9.8934
G00 Z0.5000
G00 X18.2550 Y-10.7411
G01 F90.00
G01 Z-0.0800
G01 F240.00
G01 X18.2918 Y-10.8345
G01 X18.3689 Y-10.9361
G01 X18.4705 Y-11.0132
G01 X18.5898 Y-11.0602
G01 X18.6621 Y-11.0689
G01 X19.0889 Y-11.0689
G01 X19.0889 Y-10.8411
G01 X18.7000 Y-10.8411
G01 X18.6748 Y-10.8397
G01 X18.6539 Y-10.8366
G01 X18.6294 Y-10.8303
G01 X18.6077 Y-10.8223
G01 X18.5906 Y-10.8142
G01 X18.5850 Y-10.8111
G01 X18.5671 Y-10.8001
G01 X18.5519 Y-10.7888
G01 X18.5470 Y-10.7847
G01 X18.5346 Y-10.7734
G01 X18.5301 Y-10.7689
G01 X18.5175 Y-10.7548
G01 X18.5072 Y-10.7411
G01 X18.2550 Y-10.7411
G00 Z0.5000
G00 X16.3926 Y-10.9739
G01 F90.00
G01 Z-0.0800
G01 F240.00
G01 X16.3749 Y-11.0040
G01 X16.3659 Y-11.0178
G01 X16.3447 Y-11.0463
G01 X16.3341 Y-11.0589
G01 X16.3101 Y-11.0851
G01 X16.2839 Y-11.1091
G01 X16.2713 Y-11.1197
G01 X16.2428 Y-11.1409
G01 X16.2337 Y-11.1470
G01 X16.2079 Y-11.1625
G01 X16.1984 Y-11.1679
G01 X16.1886 Y-11.1728
G01 X16.1563 Y-11.1878
G01 X16.1230 Y-11.2000
G01 X16.1126 Y-11.2035
G01 X16.0782 Y-11.2123
G01 X16.0674 Y-11.2148
G01 X16.0324 Y-11.2202
G01 X16.0160 Y-11.2220
G01 X15.9860 Y-11.2236
G01 X15.9739 Y-11.2239
G01 X15.9739 Y-11.2761
G01 X16.0136 Y-11.2761
G01 X16.0806 Y-11.2693
G01 X16.1989 Y-11.2301
G01 X16.3036 Y-11.1655
G01 X16.3905 Y-11.0786
G01 X16.4551 Y-10.9739
G01 X16.3926 Y-10.9739
G00 Z0.5000
G00 X16.2996 Y-10.8361
G01 F90.00
G01 Z-0.0800
G01 F240.00
G01 X16.2960 Y-10.8496
G01 X16.2863 Y-10.8767
G01 X16.2724 Y-10.9066
G01 X16.2545 Y-10.9367
G01 X16.2361 Y-10.9616
G01 X16.2127 Y-10.9877
G01 X16.1882 Y-11.0098
G01 X16.1617 Y-11.0295
G01 X16.1334 Y-11.0464
G01 X16.1036 Y-11.0605
G01 X16.0726 Y-11.0716
G01 X16.0406 Y-11.0796
G01 X16.0100 Y-11.0842
G01 X15.9750 Y-11.0861
G01 X15.8361 Y-11.0861
G01 X15.8361 Y-11.4139
G01 X16.0206 Y-11.4139
G01 X16.1096 Y-11.4048
G01 X16.2575 Y-11.3558
G01 X16.3896 Y-11.2743
G01 X16.4993 Y-11.1646
G01 X16.5808 Y-11.0325
G01 X16.6298 Y-10.8846
G01 X16.6348 Y-10.8361
G01 X16.2996 Y-10.8361
G00 Z0.5000
G00 X14.6639 Y-11.6143
G01 F90.00
G01 Z-0.0800
G01 F240.00
G01 X14.6640 Y-14.0820
G01 X14.6648 Y-14.0901
G01 X14.6698 Y-14.1251
G01 X14.6720 Y-14.1357
G01 X14.6764 Y-14.1479
G01 X14.6819 Y-14.1582
G01 X14.6841 Y-14.1657
G01 X14.6863 Y-14.1717
G01 X14.6900 Y-14.1793
G01 X14.6932 Y-14.1847
G01 X14.7008 Y-14.1948
G01 X14.7138 Y-14.2079
G01 X14.7240 Y-14.2234
G01 X14.7281 Y-14.2284
G01 X14.7340 Y-14.2345
G01 X14.7440 Y-14.2426
G01 X14.7494 Y-14.2460
G01 X14.7558 Y-14.2494
G01 X14.7613 Y-14.2541
G01 X14.7664 Y-14.2580
G01 X14.7737 Y-14.2625
G01 X14.7794 Y-14.2654
G01 X14.7914 Y-14.2699
G01 X14.8095 Y-14.2739
G01 X14.8265 Y-14.2814
G01 X14.8388 Y-14.2849
G01 X14.8515 Y-14.2866
G01 X14.8601 Y-14.2867
G01 X14.8673 Y-14.2860
G01 X14.8741 Y-14.2871
G01 X14.8823 Y-14.2876
G01 X14.8884 Y-14.2875
G01 X14.9127 Y-14.2856
G01 X16.2123 Y-14.2856
G01 X16.2370 Y-14.2875
G01 X16.3774 Y-14.3283
G01 X16.3853 Y-14.3300
G01 X16.4239 Y-14.3355
G01 X16.4340 Y-14.3361
G01 X16.6572 Y-14.3361
G01 X16.6675 Y-14.3498
G01 X16.6801 Y-14.3639
G01 X16.6846 Y-14.3684
G01 X16.6970 Y-14.3797
G01 X16.7019 Y-14.3838
G01 X16.7171 Y-14.3951
G01 X16.7369 Y-14.4072
G01 X16.7596 Y-14.4181
G01 X16.7815 Y-14.4259
G01 X16.8039 Y-14.4316
G01 X16.8227 Y-14.4344
G01 X16.8311 Y-14.4353
G01 X16.8500 Y-14.4361
G01 X18.0292 Y-14.4360
G01 X18.0481 Y-14.4350
G01 X18.0690 Y-14.4320
G01 X18.0956 Y-14.4253
G01 X18.1154 Y-14.4181
G01 X18.1325 Y-14.4101
G01 X18.1400 Y-14.4061
G01 X18.1579 Y-14.3951
G01 X18.1748 Y-14.3825
G01 X18.1889 Y-14.3699
G01 X18.1949 Y-14.3639
G01 X18.2088 Y-14.3481
G01 X18.2213 Y-14.3312
G01 X18.2322 Y-14.3131
G01 X18.2414 Y-14.2942
G01 X18.2447 Y-14.2862
G01 X19.1771 Y-14.2861
G01 X19.2002 Y-14.2848
G01 X19.2190 Y-14.2820
G01 X19.2252 Y-14.2807
G01 X19.2415 Y-14.2766
G01 X19.2476 Y-14.2747
G01 X19.2654 Y-14.2682
G01 X19.2806 Y-14.2611
G01 X19.7500 Y-14.2611
G01 X19.7805 Y-14.2596
G01 X19.8086 Y-14.2555
G01 X19.8403 Y-14.2477
G01 X19.8651 Y-14.2389
G01 X19.8729 Y-14.2357
G01 X19.8967 Y-14.2244
G01 X19.9193 Y-14.2109
G01 X19.9263 Y-14.2062
G01 X19.9474 Y-14.1905
G01 X19.9700 Y-14.1700
G01 X19.9877 Y-14.1506
G01 X19.9931 Y-14.1440
G01 X20.0087 Y-14.1228
G01 X20.0223 Y-14.1003
G01 X20.0263 Y-14.0929
G01 X20.0366 Y-14.0710
G01 X20.0477 Y-14.0403
G01 X20.0551 Y-14.0107
G01 X20.0596 Y-13.9805
G01 X20.0611 Y-13.9521
G01 X20.0611 Y-13.4979
G01 X20.0596 Y-13.4695
G01 X20.0547 Y-13.4372
G01 X20.0477 Y-13.4097
G01 X20.0389 Y-13.3849
G01 X20.0357 Y-13.3771
G01 X20.0244 Y-13.3533
G01 X20.0087 Y-13.3272
G01 X19.9931 Y-13.3060
G01 X19.9891 Y-13.3010
G01 X19.9729 Y-13.2831
G01 X19.9669 Y-13.2771
G01 X19.9474 Y-13.2595
G01 X19.9246 Y-13.2425
G01 X19.9003 Y-13.2277
G01 X19.8929 Y-13.2237
G01 X19.8691 Y-13.2126
G01 X19.8403 Y-13.2023
G01 X19.8107 Y-13.1949
G01 X19.7861 Y-13.1911
G01 X19.7861 Y-12.9611
G01 X19.8097 Y-12.9611
G01 X19.8374 Y-12.9633
G01 X19.8532 Y-12.9654
G01 X19.8663 Y-12.9652
G01 X19.9461 Y-12.9536
G01 X19.9543 Y-12.9514
G01 X19.9603 Y-12.9491
G01 X19.9681 Y-12.9455
G01 X19.9736 Y-12.9423
G01 X19.9839 Y-12.9346
G01 X20.0383 Y-12.8874
G01 X20.0457 Y-12.8798
G01 X20.0522 Y-12.8712
G01 X20.0575 Y-12.8620
G01 X20.0623 Y-12.8501
G01 X20.0826 Y-12.7810
G01 X20.0849 Y-12.7710
G01 X20.0857 Y-12.7649
G01 X20.0861 Y-12.7568
G01 X20.0861 Y-11.2790
G01 X20.0855 Y-11.2688
G01 X20.0841 Y-11.2607
G01 X20.0719 Y-11.2050
G01 X20.0676 Y-11.1928
G01 X20.0616 Y-11.1815
G01 X20.0539 Y-11.1711
G01 X20.0052 Y-11.1151
G01 X20.0006 Y-11.1107
G01 X19.9940 Y-11.1053
G01 X19.9869 Y-11.1006
G01 X19.9793 Y-11.0966
G01 X19.9673 Y-11.0921
G01 X19.9003 Y-11.0724
G01 X19.8923 Y-11.0705
G01 X19.8842 Y-11.0693
G01 X19.8760 Y-11.0689
G01 X19.6611 Y-11.0689
G01 X19.6611 Y-10.8411
G01 X20.0500 Y-10.8411
G01 X20.0731 Y-10.8400
G01 X20.0940 Y-10.8370
G01 X20.1185 Y-10.8309
G01 X20.1404 Y-10.8231
G01 X20.1613 Y-10.8132
G01 X20.1812 Y-10.8013
G01 X20.1998 Y-10.7875
G01 X20.2169 Y-10.7719
G01 X20.2325 Y-10.7548
G01 X20.2475 Y-10.7344
G01 X20.2572 Y-10.7181
G01 X20.2601 Y-10.7125
G01 X20.2681 Y-10.6954
G01 X20.2746 Y-10.6775
G01 X20.2771 Y-10.6695
G01 X20.2816 Y-10.6511
G01 X20.2851 Y-10.6260
G01 X20.2861 Y-10.6050
G01 X20.2861 Y-10.3050
G01 X20.2850 Y-10.2819
G01 X20.2820 Y-10.2610
G01 X20.2759 Y-10.2365
G01 X20.2696 Y-10.2186
G01 X20.2664 Y-10.2108
G01 X20.2582 Y-10.1937
G01 X20.2486 Y-10.1774
G01 X20.2439 Y-10.1704
G01 X20.2325 Y-10.1552
G01 X20.2169 Y-10.1381
G01 X20.2030 Y-10.1253
G01 X20.1964 Y-10.1199
G01 X20.1812 Y-10.1087
G01 X20.1650 Y-10.0989
G01 X20.1594 Y-10.0958
G01 X20.1423 Y-10.0877
G01 X20.1185 Y-10.0791
G01 X20.0961 Y-10.0734
G01 X20.0731 Y-10.0700
G01 X20.0521 Y-10.0689
G01 X18.6958 Y-10.0690
G01 X18.6790 Y-10.0699
G01 X18.6727 Y-10.0706
G01 X18.6539 Y-10.0734
G01 X18.6355 Y-10.0779
G01 X18.6275 Y-10.0804
G01 X18.6096 Y-10.0869
G01 X18.5887 Y-10.0968
G01 X18.5688 Y-10.1087
G01 X18.5536 Y-10.1199
G01 X18.5470 Y-10.1253
G01 X18.5346 Y-10.1366
G01 X18.5301 Y-10.1411
G01 X18.5175 Y-10.1552
G01 X18.5072 Y-10.1689
G01 X18.0998 Y-10.1689
G01 X18.0788 Y-10.1700
G01 X18.0682 Y-10.1716
G01 X18.0580 Y-10.1745
G01 X18.0449 Y-10.1767
G01 X18.0360 Y-10.1789
G01 X17.8796 Y-10.2307
G01 X17.7940 Y-10.2394
G01 X17.3844 Y-10.2394
G01 X17.3496 Y-10.2427
G01 X17.3029 Y-10.2519
G01 X16.4346 Y-10.2519
G01 X16.3101 Y-10.2271
G01 X16.3092 Y-10.2150
G01 X16.3042 Y-10.1824
G01 X16.2966 Y-10.1524
G01 X16.2863 Y-10.1233
G01 X16.2714 Y-10.0916
G01 X16.2567 Y-10.0668
G01 X16.2520 Y-10.0598
G01 X16.2334 Y-10.0352
G01 X16.2127 Y-10.0123
G01 X16.1914 Y-9.9930
G01 X16.1866 Y-9.9889
G01 X16.1652 Y-9.9730
G01 X16.1582 Y-9.9683
G01 X16.1334 Y-9.9536
G01 X16.1036 Y-9.9395
G01 X16.0726 Y-9.9284
G01 X16.0426 Y-9.9208
G01 X16.0079 Y-9.9155
G01 X15.9750 Y-9.9139
G01 X15.0250 Y-9.9139
G01 X14.9963 Y-9.9152
G01 X14.9879 Y-9.9160
G01 X14.9594 Y-9.9204
G01 X14.9295 Y-9.9278
G01 X14.8964 Y-9.9395
G01 X14.8703 Y-9.9517
G01 X14.8629 Y-9.9557
G01 X14.8383 Y-9.9705
G01 X14.8151 Y-9.9876
G01 X14.8086 Y-9.9930
G01 X14.7873 Y-10.0123
G01 X14.7680 Y-10.0336
G01 X14.7626 Y-10.0401
G01 X14.7455 Y-10.0633
G01 X14.7307 Y-10.0879
G01 X14.7267 Y-10.0953
G01 X14.7145 Y-10.1214
G01 X14.7028 Y-10.1545
G01 X14.6954 Y-10.1844
G01 X14.6910 Y-10.2129
G01 X14.6902 Y-10.2213
G01 X14.6889 Y-10.2479
G01 X14.6889 Y-10.7500
G01 X14.6905 Y-10.7829
G01 X14.6946 Y-10.8114
G01 X14.6963 Y-10.8197
G01 X14.7034 Y-10.8476
G01 X14.7145 Y-10.8786
G01 X14.7286 Y-10.9084
G01 X14.7467 Y-10.9385
G01 X14.7652 Y-10.9632
G01 X14.7844 Y-10.9846
G01 X14.7904 Y-10.9906
G01 X14.8118 Y-11.0098
G01 X14.8348 Y-11.0270
G01 X14.8400 Y-11.0306
G01 X14.8629 Y-11.0443
G01 X14.8703 Y-11.0483
G01 X14.8964 Y-11.0605
G01 X14.9254 Y-11.0710
G01 X14.9594 Y-11.0796
G01 X14.9879 Y-11.0840
G01 X14.9963 Y-11.0848
G01 X15.0250 Y-11.0861
G01 X15.1639 Y-11.0861
G01 X15.1639 Y-11.4139
G01 X14.9794 Y-11.4139
G01 X14.8954 Y-11.4053
G01 X14.8850 Y-11.4049
G01 X14.8726 Y-11.4060
G01 X14.8064 Y-11.4170
G01 X14.7980 Y-11.4190
G01 X14.7899 Y-11.4218
G01 X14.7783 Y-11.4276
G01 X14.7711 Y-11.4324
G01 X14.7661 Y-11.4365
G01 X14.7117 Y-11.4836
G01 X14.7043 Y-11.4913
G01 X14.6978 Y-11.4998
G01 X14.6916 Y-11.5110
G01 X14.6871 Y-11.5230
G01 X14.6663 Y-11.5940
G01 X14.6645 Y-11.6041
G01 X14.6639 Y-11.6143
G00 Z0.5000
G00 X14.0886 Y-12.0500
G01 F90.00
G01 Z-0.0800
G01 F240.00
G01 X14.1047 Y-12.0582
G01 X14.1260 Y-12.0703
G01 X14.1533 Y-12.0868
G01 X14.1737 Y-12.1004
G01 X14.1994 Y-12.1193
G01 X14.2187 Y-12.1344
G01 X14.2281 Y-12.1423
G01 X14.2506 Y-12.1625
G01 X14.2506 Y-11.9375
G01 X14.2281 Y-11.9577
G01 X14.2187 Y-11.9656
G01 X14.1994 Y-11.9807
G01 X14.1737 Y-11.9996
G01 X14.1533 Y-12.0132
G01 X14.1260 Y-12.0297
G01 X14.1047 Y-12.0418
G01 X14.0886 Y-12.0500
G00 Z0.5000
G00 X13.1610 Y-12.1171
G01 F90.00
G01 Z-0.0800
G01 F240.00
G01 X13.1877 Y-12.1148
G01 X13.2250 Y-12.1134
G01 X13.7839 Y-12.1135
G01 X13.8212 Y-12.1153
G01 X13.8389 Y-12.1171
G01 X13.8758 Y-12.1225
G01 X13.9019 Y-12.1281
G01 X13.9295 Y-12.1351
G01 X13.9465 Y-12.1402
G01 X13.9817 Y-12.1528
G01 X13.9981 Y-12.1596
G01 X14.0319 Y-12.1756
G01 X14.0475 Y-12.1840
G01 X14.0796 Y-12.2032
G01 X14.0943 Y-12.2131
G01 X14.1244 Y-12.2353
G01 X14.1381 Y-12.2466
G01 X14.1658 Y-12.2717
G01 X14.1783 Y-12.2842
G01 X14.2034 Y-12.3119
G01 X14.2147 Y-12.3256
G01 X14.2369 Y-12.3557
G01 X14.2515 Y-12.3780
G01 X14.2703 Y-12.4103
G01 X14.2783 Y-12.4261
G01 X14.2904 Y-12.4519
G01 X14.3003 Y-12.4766
G01 X14.3124 Y-12.5120
G01 X14.3219 Y-12.5481
G01 X14.3275 Y-12.5742
G01 X14.3317 Y-12.6023
G01 X14.3339 Y-12.6200
G01 X14.3362 Y-12.6573
G01 X14.3366 Y-12.6750
G01 X14.3366 Y-13.0750
G01 X14.3362 Y-13.0927
G01 X14.3347 Y-13.1212
G01 X14.3329 Y-13.1389
G01 X14.3289 Y-13.1671
G01 X14.3258 Y-13.1846
G01 X14.3219 Y-13.2019
G01 X14.3149 Y-13.2295
G01 X14.3098 Y-13.2465
G01 X14.3003 Y-13.2734
G01 X14.2939 Y-13.2899
G01 X14.2783 Y-13.3239
G01 X14.2703 Y-13.3397
G01 X14.2616 Y-13.3552
G01 X14.2468 Y-13.3796
G01 X14.2369 Y-13.3943
G01 X14.2147 Y-13.4244
G01 X14.2034 Y-13.4381
G01 X14.1844 Y-13.4593
G01 X14.1658 Y-13.4783
G01 X14.1447 Y-13.4975
G01 X14.1313 Y-13.5091
G01 X14.1173 Y-13.5201
G01 X14.0943 Y-13.5369
G01 X14.0796 Y-13.5468
G01 X14.0475 Y-13.5660
G01 X14.0319 Y-13.5744
G01 X14.0061 Y-13.5867
G01 X13.9899 Y-13.5939
G01 X13.9734 Y-13.6003
G01 X13.9380 Y-13.6124
G01 X13.9209 Y-13.6172
G01 X13.8932 Y-13.6240
G01 X13.8758 Y-13.6275
G01 X13.8477 Y-13.6317
G01 X13.8212 Y-13.6347
G01 X13.7839 Y-13.6365
G01 X13.6117 Y-13.6366
G01 X13.6117 Y-13.8884
G01 X13.7500 Y-13.8884
G01 X13.7677 Y-13.8888
G01 X13.7943 Y-13.8911
G01 X13.8118 Y-13.8937
G01 X13.8292 Y-13.8972
G01 X13.8464 Y-13.9015
G01 X13.8634 Y-13.9066
G01 X13.8884 Y-13.9159
G01 X13.9126 Y-13.9270
G01 X13.9282 Y-13.9354
G01 X13.9509 Y-13.9493
G01 X13.9654 Y-13.9595
G01 X13.9862 Y-13.9762
G01 X14.0057 Y-13.9943
G01 X14.0238 Y-14.0138
G01 X14.0405 Y-14.0346
G01 X14.0507 Y-14.0491
G01 X14.0646 Y-14.0718
G01 X14.0730 Y-14.0874
G01 X14.0841 Y-14.1116
G01 X14.0905 Y-14.1282
G01 X14.0985 Y-14.1536
G01 X14.1028 Y-14.1708
G01 X14.1063 Y-14.1882
G01 X14.1099 Y-14.2146
G01 X14.1112 Y-14.2323
G01 X14.1116 Y-14.2500
G01 X14.1116 Y-14.3883
G01 X14.2500 Y-14.3883
G01 X14.2677 Y-14.3887
G01 X14.3011 Y-14.3904
G01 X14.3188 Y-14.3922
G01 X14.3519 Y-14.3970
G01 X14.3693 Y-14.4000
G01 X14.3867 Y-14.4039
G01 X14.4105 Y-14.4099
G01 X14.4276 Y-14.4146
G01 X14.4444 Y-14.4202
G01 X14.4675 Y-14.4284
G01 X14.4841 Y-14.4348
G01 X14.5003 Y-14.4420
G01 X14.5225 Y-14.4525
G01 X14.5384 Y-14.4605
G01 X14.5538 Y-14.4692
G01 X14.5852 Y-14.4883
G01 X14.6132 Y-14.4883
G01 X14.6140 Y-14.4875
G01 X14.5806 Y-14.4644
G01 X14.5663 Y-14.4535
G01 X14.5460 Y-14.4359
G01 X14.5332 Y-14.4233
G01 X14.5151 Y-14.4033
G01 X14.4989 Y-14.3823
G01 X14.4821 Y-14.3627
G01 X14.4664 Y-14.3412
G01 X14.4523 Y-14.3187
G01 X14.4438 Y-14.3031
G01 X14.4361 Y-14.2872
G01 X14.4212 Y-14.2519
G01 X14.4117 Y-14.2263
G01 X14.4064 Y-14.2089
G01 X14.4001 Y-14.1823
G01 X14.3971 Y-14.1643
G01 X14.3909 Y-14.1208
G01 X14.3888 Y-14.0951
G01 X14.3884 Y-14.0779
G01 X14.3884 Y-11.6143
G01 X14.3893 Y-11.5885
G01 X14.3909 Y-11.5714
G01 X14.3934 Y-11.5544
G01 X14.3986 Y-11.5291
G01 X14.4030 Y-11.5124
G01 X14.4227 Y-11.4454
G01 X14.4282 Y-11.4283
G01 X14.4380 Y-11.4032
G01 X14.4456 Y-11.3869
G01 X14.4584 Y-11.3632
G01 X14.4730 Y-11.3406
G01 X14.4836 Y-11.3261
G01 X14.5008 Y-11.3054
G01 X14.5132 Y-11.2924
G01 X14.5329 Y-11.2740
G01 X14.5857 Y-11.2282
G01 X14.5997 Y-11.2167
G01 X14.6162 Y-11.2045
G01 X14.5989 Y-11.1887
G01 X14.5863 Y-11.1761
G01 X14.5579 Y-11.1448
G01 X14.5467 Y-11.1311
G01 X14.5267 Y-11.1043
G01 X14.5165 Y-11.0898
G01 X14.5070 Y-11.0748
G01 X14.4899 Y-11.0461
G01 X14.4815 Y-11.0304
G01 X14.4671 Y-11.0003
G01 X14.4599 Y-10.9841
G01 X14.4535 Y-10.9675
G01 X14.4424 Y-10.9360
G01 X14.4372 Y-10.9190
G01 X14.4290 Y-10.8866
G01 X14.4251 Y-10.8693
G01 X14.4221 Y-10.8518
G01 X14.4185 Y-10.8276
G01 X14.4163 Y-10.8099
G01 X14.4150 Y-10.7922
G01 X14.4135 Y-10.7589
G01 X14.4134 Y-10.2500
G01 X14.4138 Y-10.2323
G01 X14.4155 Y-10.1992
G01 X14.1566 Y-10.1992
G01 X14.1313 Y-10.2216
G01 X14.1117 Y-10.2367
G01 X14.1117 Y-10.5758
G01 X14.1244 Y-10.5853
G01 X14.1381 Y-10.5966
G01 X14.1658 Y-10.6217
G01 X14.1783 Y-10.6342
G01 X14.2034 Y-10.6619
G01 X14.2147 Y-10.6756
G01 X14.2369 Y-10.7057
G01 X14.2468 Y-10.7204
G01 X14.2660 Y-10.7525
G01 X14.2783 Y-10.7761
G01 X14.2939 Y-10.8101
G01 X14.3003 Y-10.8266
G01 X14.3124 Y-10.8620
G01 X14.3219 Y-10.8981
G01 X14.3258 Y-10.9154
G01 X14.3289 Y-10.9329
G01 X14.3339 Y-10.9700
G01 X14.3362 Y-11.0073
G01 X14.3366 Y-11.0250
G01 X14.3366 Y-11.4250
G01 X14.3352 Y-11.4623
G01 X14.3329 Y-11.4889
G01 X14.3275 Y-11.5258
G01 X14.3219 Y-11.5519
G01 X14.3124 Y-11.5880
G01 X14.3003 Y-11.6234
G01 X14.2904 Y-11.6481
G01 X14.2744 Y-11.6819
G01 X14.2616 Y-11.7052
G01 X14.2420 Y-11.7370
G01 X14.2201 Y-11.7673
G01 X14.2091 Y-11.7813
G01 X14.1975 Y-11.7947
G01 X14.1721 Y-11.8221
G01 X14.1447 Y-11.8475
G01 X14.1313 Y-11.8591
G01 X14.1173 Y-11.8701
G01 X14.0870 Y-11.8920
G01 X14.0552 Y-11.9116
G01 X14.0397 Y-11.9203
G01 X14.0239 Y-11.9283
G01 X13.9899 Y-11.9439
G01 X13.9734 Y-11.9503
G01 X13.9380 Y-11.9624
G01 X13.9209 Y-11.9672
G01 X13.8932 Y-11.9740
G01 X13.8758 Y-11.9775
G01 X13.8389 Y-11.9829
G01 X13.8212 Y-11.9847
G01 X13.7839 Y-11.9865
G01 X13.2250 Y-11.9866
G01 X13.1877 Y-11.9852
G01 X13.1649 Y-11.9834
G01 X13.1666 Y-11.9979
G01 X13.1677 Y-12.0153
G01 X13.1679 Y-12.0415
G01 X13.1669 Y-12.0589
G01 X13.1624 Y-12.0976
G01 X13.1610 Y-12.1171
G00 Z0.5000
G00 X12.2630 Y-12.6479
G01 F90.00
G01 Z-0.0800
G01 F240.00
G01 X12.3668 Y-12.7516
G01 X12.3859 Y-12.7490
G01 X12.4038 Y-12.7474
G01 X12.4217 Y-12.7467
G01 X12.4397 Y-12.7470
G01 X12.4576 Y-12.7481
G01 X12.4843 Y-12.7514
G01 X12.5107 Y-12.7567
G01 X12.5342 Y-12.7633
G01 X12.6634 Y-12.7633
G01 X12.6634 Y-12.7053
G01 X12.6383 Y-12.7118
G01 X12.6118 Y-12.7165
G01 X12.5939 Y-12.7186
G01 X12.5693 Y-12.7200
G01 X12.5537 Y-12.7222
G01 X12.5359 Y-12.7239
G01 X12.5179 Y-12.7247
G01 X12.4910 Y-12.7243
G01 X12.4731 Y-12.7229
G01 X12.4553 Y-12.7206
G01 X12.4376 Y-12.7175
G01 X12.4081 Y-12.7114
G01 X12.3907 Y-12.7069
G01 X12.3652 Y-12.6984
G01 X12.3485 Y-12.6917
G01 X12.3322 Y-12.6842
G01 X12.3163 Y-12.6759
G01 X12.3027 Y-12.6680
G01 X12.2804 Y-12.6575
G01 X12.2630 Y-12.6479
G00 Z0.5000
G00 X10.3500 Y-13.1361
G01 F90.00
G01 Z-0.0800
G01 F240.00
G01 X11.4106 Y-13.1361
G01 X11.7461 Y-13.4716
G01 X11.7444 Y-13.4729
G01 X11.7229 Y-13.4827
G01 X11.7154 Y-13.4869
G01 X11.7065 Y-13.4931
G01 X11.6986 Y-13.5004
G01 X11.6916 Y-13.5086
G01 X11.6497 Y-13.5645
G01 X11.6460 Y-13.5698
G01 X11.6418 Y-13.5772
G01 X11.6383 Y-13.5850
G01 X11.6362 Y-13.5911
G01 X11.6342 Y-13.5994
G01 X11.6332 Y-13.6057
G01 X11.6276 Y-13.6818
G01 X11.6277 Y-13.6903
G01 X11.6285 Y-13.6988
G01 X11.6314 Y-13.7113
G01 X11.6344 Y-13.7194
G01 X11.6371 Y-13.7252
G01 X11.6726 Y-13.7902
G01 X11.6770 Y-13.7971
G01 X11.6821 Y-13.8035
G01 X11.7560 Y-13.8777
G01 X11.7620 Y-13.8832
G01 X11.7988 Y-13.9106
G01 X11.8083 Y-13.9158
G01 X11.8205 Y-13.9205
G01 X11.8951 Y-13.9370
G01 X11.9016 Y-13.9381
G01 X11.9083 Y-13.9388
G01 X11.9169 Y-13.9389
G01 X11.9253 Y-13.9381
G01 X11.9335 Y-13.9366
G01 X11.9435 Y-13.9335
G01 X12.0146 Y-13.9067
G01 X12.0201 Y-13.9040
G01 X12.0271 Y-13.8997
G01 X12.0496 Y-13.8830
G01 X12.1626 Y-13.8409
G01 X12.2068 Y-13.8361
G01 X12.6138 Y-13.8360
G01 X12.6269 Y-13.8355
G01 X12.6374 Y-13.8339
G01 X12.6476 Y-13.8311
G01 X12.6638 Y-13.8251
G01 X12.6638 Y-14.1639
G01 X12.2500 Y-14.1639
G01 X12.2395 Y-14.1645
G01 X12.2270 Y-14.1670
G01 X12.2190 Y-14.1697
G01 X12.2132 Y-14.1722
G01 X12.2022 Y-14.1784
G01 X12.1922 Y-14.1862
G01 X12.1834 Y-14.1954
G01 X12.1761 Y-14.2057
G01 X12.1731 Y-14.2113
G01 X12.1697 Y-14.2190
G01 X12.1660 Y-14.2311
G01 X12.1643 Y-14.2416
G01 X12.1639 Y-14.2500
G01 X12.1639 Y-15.7521
G01 X12.1652 Y-15.7647
G01 X12.1682 Y-15.7770
G01 X12.1731 Y-15.7887
G01 X12.1796 Y-15.7996
G01 X12.1876 Y-15.8094
G01 X12.1938 Y-15.8152
G01 X12.1987 Y-15.8192
G01 X12.2094 Y-15.8259
G01 X12.2210 Y-15.8311
G01 X12.2291 Y-15.8335
G01 X12.2353 Y-15.8348
G01 X12.2437 Y-15.8359
G01 X12.2500 Y-15.8361
G01 X13.7500 Y-15.8361
G01 X13.7605 Y-15.8355
G01 X13.7709 Y-15.8335
G01 X13.7829 Y-15.8295
G01 X13.7943 Y-15.8239
G01 X13.8046 Y-15.8166
G01 X13.8138 Y-15.8078
G01 X13.8216 Y-15.7978
G01 X13.8278 Y-15.7868
G01 X13.8303 Y-15.7810
G01 X13.8330 Y-15.7730
G01 X13.8355 Y-15.7605
G01 X13.8361 Y-15.7500
G01 X13.8361 Y-15.3362
G01 X14.2500 Y-15.3362
G01 X14.2830 Y-15.3346
G01 X14.3114 Y-15.3305
G01 X14.3177 Y-15.3293
G01 X14.3435 Y-15.3229
G01 X14.3516 Y-15.3204
G01 X14.3787 Y-15.3106
G01 X14.4085 Y-15.2965
G01 X14.4368 Y-15.2796
G01 X14.4600 Y-15.2625
G01 X14.4665 Y-15.2571
G01 X14.4893 Y-15.2362
G01 X14.7553 Y-15.2362
G01 X14.7586 Y-15.2442
G01 X14.7668 Y-15.2613
G01 X14.7764 Y-15.2776
G01 X14.7811 Y-15.2846
G01 X14.7925 Y-15.2998
G01 X14.8066 Y-15.3154
G01 X14.8220 Y-15.3297
G01 X14.8286 Y-15.3351
G01 X14.8438 Y-15.3463
G01 X14.8600 Y-15.3561
G01 X14.8675 Y-15.3601
G01 X14.8846 Y-15.3681
G01 X14.9065 Y-15.3759
G01 X14.9248 Y-15.3806
G01 X14.9331 Y-15.3823
G01 X14.9519 Y-15.3850
G01 X14.9750 Y-15.3861
G01 X16.1500 Y-15.3861
G01 X16.1689 Y-15.3853
G01 X16.1773 Y-15.3844
G01 X16.1961 Y-15.3816
G01 X16.2185 Y-15.3759
G01 X16.2404 Y-15.3681
G01 X16.2575 Y-15.3601
G01 X16.2650 Y-15.3561
G01 X16.2794 Y-15.3475
G01 X16.2846 Y-15.3439
G01 X16.2998 Y-15.3325
G01 X16.3169 Y-15.3169
G01 X16.3325 Y-15.2998
G01 X16.3439 Y-15.2846
G01 X16.3486 Y-15.2776
G01 X16.3592 Y-15.2594
G01 X16.3681 Y-15.2404
G01 X16.3746 Y-15.2225
G01 X16.3765 Y-15.2165
G01 X16.3806 Y-15.2002
G01 X16.3823 Y-15.1919
G01 X16.3850 Y-15.1731
G01 X16.3861 Y-15.1500
G01 X16.3861 Y-14.8479
G01 X16.3851 Y-14.8290
G01 X16.3844 Y-14.8227
G01 X16.3816 Y-14.8039
G01 X16.3771 Y-14.7855
G01 X16.3746 Y-14.7775
G01 X16.3681 Y-14.7596
G01 X16.3572 Y-14.7369
G01 X16.3475 Y-14.7206
G01 X16.3439 Y-14.7154
G01 X16.3325 Y-14.7002
G01 X16.3184 Y-14.6846
G01 X16.2998 Y-14.6675
G01 X16.2794 Y-14.6525
G01 X16.2631 Y-14.6428
G01 X16.2575 Y-14.6399
G01 X16.2404 Y-14.6319
G01 X16.2225 Y-14.6254
G01 X16.2165 Y-14.6235
G01 X16.2002 Y-14.6194
G01 X16.1919 Y-14.6177
G01 X16.1731 Y-14.6150
G01 X16.1500 Y-14.6139
G01 X14.9750 Y-14.6139
G01 X14.9519 Y-14.6150
G01 X14.9331 Y-14.6177
G01 X14.9248 Y-14.6194
G01 X14.9065 Y-14.6241
G01 X14.8846 Y-14.6319
G01 X14.8675 Y-14.6399
G01 X14.8600 Y-14.6439
G01 X14.8438 Y-14.6537
G01 X14.8286 Y-14.6649
G01 X14.8220 Y-14.6703
G01 X14.8066 Y-14.6846
G01 X14.7925 Y-14.7002
G01 X14.7811 Y-14.7154
G01 X14.7764 Y-14.7224
G01 X14.7668 Y-14.7387
G01 X14.7586 Y-14.7558
G01 X14.7553 Y-14.7638
G01 X14.4893 Y-14.7638
G01 X14.4633 Y-14.7401
G01 X14.4403 Y-14.7229
G01 X14.4350 Y-14.7193
G01 X14.4122 Y-14.7056
G01 X14.4047 Y-14.7016
G01 X14.3787 Y-14.6894
G01 X14.3476 Y-14.6783
G01 X14.3156 Y-14.6702
G01 X14.2830 Y-14.6654
G01 X14.2500 Y-14.6638
G01 X13.8361 Y-14.6638
G01 X13.8360 Y-14.2458
G01 X13.8352 Y-14.2374
G01 X13.8340 Y-14.2311
G01 X13.8318 Y-14.2230
G01 X13.8287 Y-14.2151
G01 X13.8249 Y-14.2076
G01 X13.8204 Y-14.2004
G01 X13.8152 Y-14.1938
G01 X13.8109 Y-14.1891
G01 X13.8062 Y-14.1848
G01 X13.7996 Y-14.1796
G01 X13.7924 Y-14.1751
G01 X13.7849 Y-14.1713
G01 X13.7770 Y-14.1682
G01 X13.7709 Y-14.1665
G01 X13.7626 Y-14.1648
G01 X13.7542 Y-14.1640
G01 X13.3362 Y-14.1639
G01 X13.3362 Y-13.5143
G01 X13.4894 Y-13.3611
G01 X13.7750 Y-13.3611
G01 X13.8009 Y-13.3599
G01 X13.8308 Y-13.3556
G01 X13.8581 Y-13.3488
G01 X13.8845 Y-13.3393
G01 X13.9080 Y-13.3283
G01 X13.9339 Y-13.3129
G01 X13.9565 Y-13.2962
G01 X13.9773 Y-13.2773
G01 X13.9962 Y-13.2565
G01 X14.0129 Y-13.2339
G01 X14.0273 Y-13.2099
G01 X14.0393 Y-13.1845
G01 X14.0488 Y-13.1581
G01 X14.0547 Y-13.1349
G01 X14.0563 Y-13.1267
G01 X14.0597 Y-13.1030
G01 X14.0611 Y-13.0750
G01 X14.0611 Y-12.6729
G01 X14.0597 Y-12.6470
G01 X14.0563 Y-12.6233
G01 X14.0547 Y-12.6151
G01 X14.0488 Y-12.5919
G01 X14.0408 Y-12.5695
G01 X14.0385 Y-12.5636
G01 X14.0283 Y-12.5420
G01 X14.0129 Y-12.5161
G01 X13.9988 Y-12.4968
G01 X13.9934 Y-12.4903
G01 X13.9773 Y-12.4727
G01 X13.9597 Y-12.4566
G01 X13.9532 Y-12.4512
G01 X13.9339 Y-12.4371
G01 X13.9135 Y-12.4248
G01 X13.9061 Y-12.4208
G01 X13.8845 Y-12.4107
G01 X13.8621 Y-12.4025
G01 X13.8560 Y-12.4006
G01 X13.8349 Y-12.3953
G01 X13.8267 Y-12.3937
G01 X13.8030 Y-12.3903
G01 X13.7771 Y-12.3889
G01 X13.2250 Y-12.3889
G01 X13.1970 Y-12.3903
G01 X13.1692 Y-12.3944
G01 X13.1419 Y-12.4012
G01 X13.1175 Y-12.4099
G01 X13.0901 Y-12.4227
G01 X13.0661 Y-12.4371
G01 X13.0435 Y-12.4538
G01 X13.0227 Y-12.4727
G01 X13.0038 Y-12.4935
G01 X12.9871 Y-12.5161
G01 X12.9727 Y-12.5401
G01 X12.9607 Y-12.5655
G01 X12.9512 Y-12.5919
G01 X12.9453 Y-12.6151
G01 X12.9437 Y-12.6233
G01 X12.9405 Y-12.6449
G01 X12.9400 Y-12.6512
G01 X12.9389 Y-12.6750
G01 X12.9389 Y-12.9606
