(G-CODE GENERATED BY FLATCAM v8.994 - www.flatcam.org - Version Date: 2020/11/7)

(Name: Ultra_Light-F_Cu.gbr_iso_combined_cnc)
(Type: G-code from Geometry)
(Units: MM)

(Created on Saturday, 06 April 2024 at 20:16)

(This preprocessor is the default preprocessor used by FlatCAM.)
(It is made to work with MACH3 compatible motion controllers.)

(TOOL DIAMETER: 0.1969 mm)
(Feedrate_XY: 240.0 mm/min)
(Feedrate_Z: 60.0 mm/min)
(Feedrate rapids 1500.0 mm/min)

(Z_Cut: -0.15 mm)
(Z_Move: 0.3 mm)
(Z Start: None mm)
(Z End: 45.0 mm)
(X,Y End: None mm)
(Steps per circle: 64)
(Preprocessor Geometry: default)

(X range:    0.1715 ...   16.2280  mm)
(Y range:  -12.2280 ...    0.2280  mm)

(Spindle Speed: 12000.0 RPM)
G21
G90
G94

G01 F240.00

M5
G00 Z15.0000
G00 X0.0000 Y0.0000
T2
M6    
(MSG, Change to Tool Dia = 0.1969)
M0
G00 Z15.0000

M03 S12000.0
G01 F240.00
G00 X0.9000 Y-3.2384
G01 F60.00
G01 Z-0.1500
G01 F240.00
G01 X8.9048 Y-3.2383
G01 X8.9144 Y-3.2374
G01 X8.9216 Y-3.2361
G01 X8.9309 Y-3.2335
G01 X8.9377 Y-3.2310
G01 X8.9443 Y-3.2279
G01 X8.9527 Y-3.2232
G01 X8.9586 Y-3.2191
G01 X8.9643 Y-3.2145
G01 X8.9696 Y-3.2096
G01 X8.9761 Y-3.2025
G01 X8.9805 Y-3.1967
G01 X8.9844 Y-3.1906
G01 X8.9890 Y-3.1821
G01 X8.9919 Y-3.1754
G01 X8.9949 Y-3.1663
G01 X8.9966 Y-3.1592
G01 X8.9980 Y-3.1496
G01 X8.9984 Y-3.1400
G01 X8.9984 Y-2.7884
G01 X9.3016 Y-2.7884
G01 X9.3016 Y-2.8760
G01 X9.3018 Y-2.8830
G01 X9.3026 Y-2.8900
G01 X9.3150 Y-2.9484
G01 X9.3168 Y-2.9556
G01 X9.3192 Y-2.9626
G01 X9.3221 Y-2.9694
G01 X9.3255 Y-2.9759
G01 X9.3293 Y-2.9822
G01 X9.3368 Y-2.9920
G01 X9.3842 Y-3.0466
G01 X9.3893 Y-3.0518
G01 X9.3948 Y-3.0567
G01 X9.4048 Y-3.0638
G01 X9.4155 Y-3.0696
G01 X9.4269 Y-3.0741
G01 X9.4985 Y-3.0951
G01 X9.5054 Y-3.0967
G01 X9.5123 Y-3.0978
G01 X9.5240 Y-3.0984
G01 X11.7551 Y-3.0983
G01 X11.7645 Y-3.0974
G01 X11.7759 Y-3.0951
G01 X11.8497 Y-3.0733
G01 X11.8584 Y-3.0699
G01 X11.8667 Y-3.0656
G01 X11.9053 Y-3.0409
G01 X11.9911 Y-3.0123
G01 X12.0323 Y-3.0034
G01 X12.1293 Y-2.9929
G01 X12.4830 Y-2.9927
G01 X12.4946 Y-2.9912
G01 X12.5508 Y-2.9789
G01 X12.5626 Y-2.9753
G01 X12.5738 Y-2.9702
G01 X12.5822 Y-2.9652
G01 X12.5901 Y-2.9593
G01 X12.6448 Y-2.9119
G01 X12.6501 Y-2.9069
G01 X12.6567 Y-2.8997
G01 X12.6638 Y-2.8897
G01 X12.6696 Y-2.8790
G01 X12.6733 Y-2.8699
G01 X12.6951 Y-2.7960
G01 X12.6967 Y-2.7891
G01 X12.6980 Y-2.7799
G01 X12.6984 Y-2.7705
G01 X12.6984 Y-2.5984
G01 X13.0016 Y-2.5984
G01 X13.0016 Y-2.9000
G01 X13.0020 Y-2.9096
G01 X13.0034 Y-2.9192
G01 X13.0051 Y-2.9263
G01 X13.0073 Y-2.9332
G01 X13.0100 Y-2.9399
G01 X13.0143 Y-2.9485
G01 X13.0181 Y-2.9547
G01 X13.0224 Y-2.9606
G01 X13.0271 Y-2.9661
G01 X13.0321 Y-2.9713
G01 X13.0375 Y-2.9761
G01 X13.0433 Y-2.9805
G01 X13.0494 Y-2.9844
G01 X13.0557 Y-2.9879
G01 X13.0623 Y-2.9910
G01 X13.0691 Y-2.9935
G01 X13.0761 Y-2.9955
G01 X13.0832 Y-2.9970
G01 X13.0904 Y-2.9980
G01 X13.1000 Y-2.9984
G01 X14.9000 Y-2.9984
G01 X14.9072 Y-2.9982
G01 X14.9144 Y-2.9974
G01 X14.9216 Y-2.9961
G01 X14.9309 Y-2.9935
G01 X14.9399 Y-2.9900
G01 X14.9464 Y-2.9868
G01 X14.9527 Y-2.9832
G01 X14.9606 Y-2.9776
G01 X14.9679 Y-2.9713
G01 X14.9729 Y-2.9661
G01 X14.9791 Y-2.9586
G01 X14.9832 Y-2.9527
G01 X14.9879 Y-2.9443
G01 X14.9910 Y-2.9377
G01 X14.9935 Y-2.9309
G01 X14.9961 Y-2.9216
G01 X14.9974 Y-2.9144
G01 X14.9983 Y-2.9048
G01 X14.9984 Y-1.1000
G01 X14.9982 Y-1.0928
G01 X14.9974 Y-1.0856
G01 X14.9955 Y-1.0761
G01 X14.9935 Y-1.0691
G01 X14.9910 Y-1.0623
G01 X14.9868 Y-1.0536
G01 X14.9832 Y-1.0473
G01 X14.9776 Y-1.0394
G01 X14.9713 Y-1.0321
G01 X14.9661 Y-1.0271
G01 X14.9606 Y-1.0224
G01 X14.9527 Y-1.0168
G01 X14.9464 Y-1.0132
G01 X14.9377 Y-1.0090
G01 X14.9309 Y-1.0065
G01 X14.9216 Y-1.0039
G01 X14.9121 Y-1.0023
G01 X14.9048 Y-1.0017
G01 X13.1000 Y-1.0016
G01 X13.0928 Y-1.0018
G01 X13.0856 Y-1.0026
G01 X13.0784 Y-1.0039
G01 X13.0691 Y-1.0065
G01 X13.0623 Y-1.0090
G01 X13.0557 Y-1.0121
G01 X13.0494 Y-1.0156
G01 X13.0433 Y-1.0195
G01 X13.0375 Y-1.0239
G01 X13.0321 Y-1.0287
G01 X13.0271 Y-1.0339
G01 X13.0224 Y-1.0394
G01 X13.0181 Y-1.0453
G01 X13.0143 Y-1.0515
G01 X13.0110 Y-1.0579
G01 X13.0081 Y-1.0646
G01 X13.0051 Y-1.0737
G01 X13.0034 Y-1.0808
G01 X13.0020 Y-1.0904
G01 X13.0016 Y-1.1000
G01 X13.0016 Y-1.4016
G01 X12.6984 Y-1.4016
G01 X12.6984 Y-1.0574
G01 X12.7030 Y-1.0154
G01 X12.7439 Y-0.9056
G01 X12.8131 Y-0.8131
G01 X12.8293 Y-0.8010
G01 X12.8353 Y-0.7958
G01 X12.8582 Y-0.7744
G01 X12.8631 Y-0.7690
G01 X12.8675 Y-0.7633
G01 X12.8715 Y-0.7573
G01 X12.8762 Y-0.7488
G01 X12.9082 Y-0.6785
G01 X12.9120 Y-0.6669
G01 X12.9139 Y-0.6574
G01 X12.9150 Y-0.6476
G01 X12.9149 Y-0.6354
G01 X12.9141 Y-0.6281
G01 X12.9038 Y-0.5566
G01 X12.9017 Y-0.5470
G01 X12.8987 Y-0.5377
G01 X12.8958 Y-0.5310
G01 X12.8924 Y-0.5245
G01 X12.8885 Y-0.5182
G01 X12.8827 Y-0.5104
G01 X12.8338 Y-0.4539
G01 X12.8268 Y-0.4470
G01 X12.8192 Y-0.4408
G01 X12.8132 Y-0.4367
G01 X12.8068 Y-0.4331
G01 X12.8002 Y-0.4299
G01 X12.7934 Y-0.4272
G01 X12.7172 Y-0.4048
G01 X12.7056 Y-0.4027
G01 X12.6939 Y-0.4021
G01 X12.3240 Y-0.4021
G01 X12.3146 Y-0.4025
G01 X12.3054 Y-0.4038
G01 X12.2516 Y-0.4155
G01 X12.2397 Y-0.4189
G01 X12.2306 Y-0.4226
G01 X12.2199 Y-0.4285
G01 X12.2099 Y-0.4357
G01 X12.1534 Y-0.4847
G01 X12.1449 Y-0.4935
G01 X12.1389 Y-0.5012
G01 X12.1337 Y-0.5095
G01 X12.1294 Y-0.5182
G01 X12.1252 Y-0.5297
G01 X12.1043 Y-0.6013
G01 X12.1022 Y-0.6128
G01 X12.1016 Y-0.6245
G01 X12.1016 Y-1.3016
G01 X9.5240 Y-1.3016
G01 X9.5146 Y-1.3020
G01 X9.5031 Y-1.3038
G01 X9.4468 Y-1.3162
G01 X9.4351 Y-1.3201
G01 X9.4241 Y-1.3255
G01 X9.4178 Y-1.3293
G01 X9.4099 Y-1.3352
G01 X9.3552 Y-1.3826
G01 X9.3482 Y-1.3893
G01 X9.3403 Y-1.3987
G01 X9.3362 Y-1.4048
G01 X9.3326 Y-1.4111
G01 X9.3294 Y-1.4177
G01 X9.3267 Y-1.4246
G01 X9.3055 Y-1.4963
G01 X9.3033 Y-1.5054
G01 X9.3022 Y-1.5123
G01 X9.3016 Y-1.5217
G01 X9.3016 Y-1.5916
G01 X8.9984 Y-1.5916
G01 X8.9984 Y-1.2400
G01 X8.9980 Y-1.2304
G01 X8.9966 Y-1.2208
G01 X8.9942 Y-1.2114
G01 X8.9919 Y-1.2046
G01 X8.9890 Y-1.1979
G01 X8.9844 Y-1.1894
G01 X8.9791 Y-1.1814
G01 X8.9745 Y-1.1757
G01 X8.9696 Y-1.1704
G01 X8.9643 Y-1.1655
G01 X8.9567 Y-1.1595
G01 X8.9506 Y-1.1556
G01 X8.9443 Y-1.1521
G01 X8.9354 Y-1.1481
G01 X8.9286 Y-1.1458
G01 X8.9216 Y-1.1439
G01 X8.9144 Y-1.1426
G01 X8.9048 Y-1.1417
G01 X0.9000 Y-1.1416
G01 X0.8928 Y-1.1418
G01 X0.8856 Y-1.1426
G01 X0.8784 Y-1.1439
G01 X0.8691 Y-1.1465
G01 X0.8623 Y-1.1490
G01 X0.8536 Y-1.1532
G01 X0.8453 Y-1.1581
G01 X0.8394 Y-1.1624
G01 X0.8339 Y-1.1671
G01 X0.8271 Y-1.1739
G01 X0.8209 Y-1.1814
G01 X0.8168 Y-1.1873
G01 X0.8132 Y-1.1936
G01 X0.8090 Y-1.2023
G01 X0.8058 Y-1.2114
G01 X0.8039 Y-1.2184
G01 X0.8023 Y-1.2279
G01 X0.8017 Y-1.2352
G01 X0.8016 Y-3.1400
G01 X0.8020 Y-3.1496
G01 X0.8034 Y-3.1592
G01 X0.8058 Y-3.1686
G01 X0.8090 Y-3.1777
G01 X0.8132 Y-3.1864
G01 X0.8181 Y-3.1947
G01 X0.8239 Y-3.2025
G01 X0.8304 Y-3.2096
G01 X0.8375 Y-3.2161
G01 X0.8453 Y-3.2219
G01 X0.8536 Y-3.2268
G01 X0.8623 Y-3.2310
G01 X0.8714 Y-3.2342
G01 X0.8808 Y-3.2366
G01 X0.8904 Y-3.2380
G01 X0.9000 Y-3.2384
G00 Z0.3000
G00 X1.4000 Y-5.7984
G01 F60.00
G01 Z-0.1500
G01 F240.00
G01 X8.9000 Y-5.7984
G01 X8.9121 Y-5.7977
G01 X8.9192 Y-5.7966
G01 X8.9263 Y-5.7949
G01 X8.9332 Y-5.7927
G01 X8.9399 Y-5.7900
G01 X8.9485 Y-5.7857
G01 X8.9547 Y-5.7819
G01 X8.9606 Y-5.7776
G01 X8.9661 Y-5.7729
G01 X8.9729 Y-5.7661
G01 X8.9776 Y-5.7606
G01 X8.9832 Y-5.7527
G01 X8.9868 Y-5.7464
G01 X8.9900 Y-5.7399
G01 X8.9927 Y-5.7332
G01 X8.9949 Y-5.7263
G01 X8.9966 Y-5.7192
G01 X8.9977 Y-5.7121
G01 X8.9984 Y-5.7024
G01 X8.9984 Y-3.7000
G01 X8.9982 Y-3.6928
G01 X8.9974 Y-3.6856
G01 X8.9949 Y-3.6737
G01 X8.9919 Y-3.6646
G01 X8.9890 Y-3.6579
G01 X8.9857 Y-3.6515
G01 X8.9819 Y-3.6453
G01 X8.9776 Y-3.6394
G01 X8.9729 Y-3.6339
G01 X8.9679 Y-3.6287
G01 X8.9606 Y-3.6224
G01 X8.9547 Y-3.6181
G01 X8.9485 Y-3.6143
G01 X8.9399 Y-3.6100
G01 X8.9332 Y-3.6073
G01 X8.9239 Y-3.6045
G01 X8.9168 Y-3.6030
G01 X8.9096 Y-3.6020
G01 X8.9000 Y-3.6016
G01 X1.4000 Y-3.6016
G01 X1.3879 Y-3.6023
G01 X1.3808 Y-3.6034
G01 X1.3737 Y-3.6051
G01 X1.3668 Y-3.6073
G01 X1.3601 Y-3.6100
G01 X1.3515 Y-3.6143
G01 X1.3453 Y-3.6181
G01 X1.3394 Y-3.6224
G01 X1.3321 Y-3.6287
G01 X1.3271 Y-3.6339
G01 X1.3224 Y-3.6394
G01 X1.3181 Y-3.6453
G01 X1.3143 Y-3.6515
G01 X1.3110 Y-3.6579
G01 X1.3073 Y-3.6668
G01 X1.3051 Y-3.6737
G01 X1.3030 Y-3.6832
G01 X1.3020 Y-3.6904
G01 X1.3016 Y-3.6976
G01 X1.3016 Y-5.7000
G01 X1.3020 Y-5.7096
G01 X1.3034 Y-5.7192
G01 X1.3058 Y-5.7286
G01 X1.3090 Y-5.7377
G01 X1.3132 Y-5.7464
G01 X1.3181 Y-5.7547
G01 X1.3239 Y-5.7625
G01 X1.3304 Y-5.7696
G01 X1.3375 Y-5.7761
G01 X1.3453 Y-5.7819
G01 X1.3536 Y-5.7868
G01 X1.3623 Y-5.7910
G01 X1.3714 Y-5.7942
G01 X1.3808 Y-5.7966
G01 X1.3904 Y-5.7980
G01 X1.4000 Y-5.7984
G00 Z0.3000
G00 X1.4000 Y-5.9560
G01 F60.00
G01 Z-0.1500
G01 F240.00
G01 X8.9000 Y-5.9560
G01 X8.9188 Y-5.9553
G01 X8.9376 Y-5.9532
G01 X8.9561 Y-5.9498
G01 X8.9743 Y-5.9449
G01 X8.9921 Y-5.9388
G01 X9.0094 Y-5.9314
G01 X9.0262 Y-5.9227
G01 X9.0422 Y-5.9128
G01 X9.0575 Y-5.9018
G01 X9.0719 Y-5.8897
G01 X9.0854 Y-5.8765
G01 X9.0979 Y-5.8624
G01 X9.1093 Y-5.8474
G01 X9.1196 Y-5.8316
G01 X9.1257 Y-5.8207
G01 X9.1314 Y-5.8094
G01 X9.1388 Y-5.7921
G01 X9.1449 Y-5.7743
G01 X9.1498 Y-5.7561
G01 X9.1532 Y-5.7376
G01 X9.1553 Y-5.7188
G01 X9.1560 Y-5.7000
G01 X9.1560 Y-3.7000
G01 X9.1553 Y-3.6812
G01 X9.1532 Y-3.6624
G01 X9.1498 Y-3.6439
G01 X9.1449 Y-3.6257
G01 X9.1388 Y-3.6079
G01 X9.1314 Y-3.5906
G01 X9.1227 Y-3.5738
G01 X9.1163 Y-3.5631
G01 X9.1093 Y-3.5526
G01 X9.1018 Y-3.5425
G01 X9.0938 Y-3.5328
G01 X9.0810 Y-3.5190
G01 X9.0672 Y-3.5062
G01 X9.0525 Y-3.4944
G01 X9.0369 Y-3.4837
G01 X9.0262 Y-3.4773
G01 X9.0151 Y-3.4714
G01 X8.9980 Y-3.4635
G01 X8.9803 Y-3.4569
G01 X8.9622 Y-3.4517
G01 X8.9438 Y-3.4478
G01 X8.9251 Y-3.4453
G01 X8.9063 Y-3.4441
G01 X1.4000 Y-3.4440
G01 X1.3812 Y-3.4447
G01 X1.3624 Y-3.4468
G01 X1.3439 Y-3.4502
G01 X1.3257 Y-3.4551
G01 X1.3079 Y-3.4612
G01 X1.2906 Y-3.4686
G01 X1.2738 Y-3.4773
G01 X1.2578 Y-3.4872
G01 X1.2425 Y-3.4982
G01 X1.2281 Y-3.5103
G01 X1.2146 Y-3.5235
G01 X1.2021 Y-3.5376
G01 X1.1907 Y-3.5526
G01 X1.1804 Y-3.5684
G01 X1.1714 Y-3.5849
G01 X1.1635 Y-3.6020
G01 X1.1569 Y-3.6197
G01 X1.1517 Y-3.6378
G01 X1.1478 Y-3.6562
G01 X1.1460 Y-3.6687
G01 X1.1447 Y-3.6812
G01 X1.1440 Y-3.7000
G01 X1.1441 Y-5.7063
G01 X1.1447 Y-5.7188
G01 X1.1460 Y-5.7313
G01 X1.1478 Y-5.7438
G01 X1.1502 Y-5.7561
G01 X1.1551 Y-5.7743
G01 X1.1590 Y-5.7862
G01 X1.1635 Y-5.7980
G01 X1.1686 Y-5.8094
G01 X1.1743 Y-5.8207
G01 X1.1804 Y-5.8316
G01 X1.1872 Y-5.8422
G01 X1.1944 Y-5.8525
G01 X1.2021 Y-5.8624
G01 X1.2103 Y-5.8719
G01 X1.2190 Y-5.8810
G01 X1.2281 Y-5.8897
G01 X1.2376 Y-5.8979
G01 X1.2475 Y-5.9056
G01 X1.2578 Y-5.9128
G01 X1.2684 Y-5.9196
G01 X1.2793 Y-5.9257
G01 X1.2906 Y-5.9314
G01 X1.3020 Y-5.9365
G01 X1.3138 Y-5.9410
G01 X1.3257 Y-5.9449
G01 X1.3378 Y-5.9483
G01 X1.3501 Y-5.9511
G01 X1.3624 Y-5.9532
G01 X1.3749 Y-5.9547
G01 X1.3874 Y-5.9557
G01 X1.4000 Y-5.9560
G00 Z0.3000
G00 X1.4000 Y-8.3984
G01 F60.00
G01 Z-0.1500
G01 F240.00
G01 X8.9000 Y-8.3984
G01 X8.9121 Y-8.3977
G01 X8.9192 Y-8.3966
G01 X8.9263 Y-8.3949
G01 X8.9332 Y-8.3927
G01 X8.9421 Y-8.3890
G01 X8.9485 Y-8.3857
G01 X8.9547 Y-8.3819
G01 X8.9625 Y-8.3761
G01 X8.9679 Y-8.3713
G01 X8.9729 Y-8.3661
G01 X8.9776 Y-8.3606
G01 X8.9832 Y-8.3527
G01 X8.9868 Y-8.3464
G01 X8.9900 Y-8.3399
G01 X8.9927 Y-8.3332
G01 X8.9949 Y-8.3263
G01 X8.9966 Y-8.3192
G01 X8.9980 Y-8.3096
G01 X8.9984 Y-8.3024
G01 X8.9984 Y-6.3000
G01 X8.9982 Y-6.2928
G01 X8.9974 Y-6.2856
G01 X8.9949 Y-6.2737
G01 X8.9927 Y-6.2668
G01 X8.9890 Y-6.2579
G01 X8.9857 Y-6.2515
G01 X8.9819 Y-6.2453
G01 X8.9776 Y-6.2394
G01 X8.9729 Y-6.2339
G01 X8.9661 Y-6.2271
G01 X8.9606 Y-6.2224
G01 X8.9547 Y-6.2181
G01 X8.9485 Y-6.2143
G01 X8.9421 Y-6.2110
G01 X8.9332 Y-6.2073
G01 X8.9239 Y-6.2045
G01 X8.9168 Y-6.2030
G01 X8.9072 Y-6.2018
G01 X8.9000 Y-6.2016
G01 X1.4000 Y-6.2016
G01 X1.3879 Y-6.2023
G01 X1.3808 Y-6.2034
G01 X1.3737 Y-6.2051
G01 X1.3646 Y-6.2081
G01 X1.3579 Y-6.2110
G01 X1.3515 Y-6.2143
G01 X1.3453 Y-6.2181
G01 X1.3375 Y-6.2239
G01 X1.3321 Y-6.2287
G01 X1.3271 Y-6.2339
G01 X1.3224 Y-6.2394
G01 X1.3168 Y-6.2473
G01 X1.3132 Y-6.2536
G01 X1.3100 Y-6.2601
G01 X1.3073 Y-6.2668
G01 X1.3051 Y-6.2737
G01 X1.3034 Y-6.2808
G01 X1.3020 Y-6.2904
G01 X1.3016 Y-6.2976
G01 X1.3016 Y-8.3000
G01 X1.3020 Y-8.3096
G01 X1.3034 Y-8.3192
G01 X1.3058 Y-8.3286
G01 X1.3090 Y-8.3377
G01 X1.3132 Y-8.3464
G01 X1.3181 Y-8.3547
G01 X1.3239 Y-8.3625
G01 X1.3304 Y-8.3696
G01 X1.3375 Y-8.3761
G01 X1.3453 Y-8.3819
G01 X1.3536 Y-8.3868
G01 X1.3623 Y-8.3910
G01 X1.3714 Y-8.3942
G01 X1.3808 Y-8.3966
G01 X1.3904 Y-8.3980
G01 X1.4000 Y-8.3984
G00 Z0.3000
G00 X1.4000 Y-8.5560
G01 F60.00
G01 Z-0.1500
G01 F240.00
G01 X8.9000 Y-8.5560
G01 X8.9188 Y-8.5553
G01 X8.9376 Y-8.5532
G01 X8.9561 Y-8.5498
G01 X8.9743 Y-8.5449
G01 X8.9921 Y-8.5388
G01 X9.0094 Y-8.5314
G01 X9.0262 Y-8.5227
G01 X9.0422 Y-8.5128
G01 X9.0575 Y-8.5018
G01 X9.0719 Y-8.4897
G01 X9.0854 Y-8.4765
G01 X9.0938 Y-8.4672
G01 X9.1018 Y-8.4575
G01 X9.1128 Y-8.4422
G01 X9.1227 Y-8.4262
G01 X9.1314 Y-8.4094
G01 X9.1388 Y-8.3921
G01 X9.1449 Y-8.3743
G01 X9.1498 Y-8.3561
G01 X9.1532 Y-8.3376
G01 X9.1553 Y-8.3188
G01 X9.1560 Y-8.3000
G01 X9.1560 Y-6.3000
G01 X9.1553 Y-6.2812
G01 X9.1532 Y-6.2624
G01 X9.1498 Y-6.2439
G01 X9.1449 Y-6.2257
G01 X9.1388 Y-6.2079
G01 X9.1314 Y-6.1906
G01 X9.1227 Y-6.1738
G01 X9.1163 Y-6.1631
G01 X9.1093 Y-6.1526
G01 X9.0979 Y-6.1376
G01 X9.0897 Y-6.1281
G01 X9.0810 Y-6.1190
G01 X9.0672 Y-6.1062
G01 X9.0525 Y-6.0944
G01 X9.0369 Y-6.0837
G01 X9.0207 Y-6.0743
G01 X9.0037 Y-6.0660
G01 X8.9862 Y-6.0590
G01 X8.9683 Y-6.0533
G01 X8.9499 Y-6.0489
G01 X8.9376 Y-6.0468
G01 X8.9251 Y-6.0453
G01 X8.9063 Y-6.0441
G01 X1.4000 Y-6.0440
G01 X1.3812 Y-6.0447
G01 X1.3624 Y-6.0468
G01 X1.3439 Y-6.0502
G01 X1.3257 Y-6.0551
G01 X1.3138 Y-6.0590
G01 X1.3020 Y-6.0635
G01 X1.2849 Y-6.0714
G01 X1.2684 Y-6.0804
G01 X1.2526 Y-6.0907
G01 X1.2376 Y-6.1021
G01 X1.2235 Y-6.1146
G01 X1.2103 Y-6.1281
G01 X1.1982 Y-6.1425
G01 X1.1872 Y-6.1578
G01 X1.1773 Y-6.1738
G01 X1.1686 Y-6.1906
G01 X1.1612 Y-6.2079
G01 X1.1551 Y-6.2257
G01 X1.1502 Y-6.2439
G01 X1.1468 Y-6.2624
G01 X1.1447 Y-6.2812
G01 X1.1440 Y-6.3000
G01 X1.1441 Y-8.3063
G01 X1.1447 Y-8.3188
G01 X1.1460 Y-8.3313
G01 X1.1478 Y-8.3438
G01 X1.1502 Y-8.3561
G01 X1.1533 Y-8.3683
G01 X1.1569 Y-8.3803
G01 X1.1612 Y-8.3921
G01 X1.1660 Y-8.4037
G01 X1.1714 Y-8.4151
G01 X1.1773 Y-8.4262
G01 X1.1837 Y-8.4369
G01 X1.1907 Y-8.4474
G01 X1.1982 Y-8.4575
G01 X1.2062 Y-8.4672
G01 X1.2146 Y-8.4765
G01 X1.2235 Y-8.4854
G01 X1.2328 Y-8.4938
G01 X1.2425 Y-8.5018
G01 X1.2526 Y-8.5093
G01 X1.2631 Y-8.5163
G01 X1.2738 Y-8.5227
G01 X1.2849 Y-8.5286
G01 X1.2963 Y-8.5340
G01 X1.3079 Y-8.5388
G01 X1.3197 Y-8.5431
G01 X1.3317 Y-8.5467
G01 X1.3439 Y-8.5498
G01 X1.3562 Y-8.5522
G01 X1.3687 Y-8.5540
G01 X1.3812 Y-8.5553
G01 X1.4000 Y-8.5560
G00 Z0.3000
G00 X0.9000 Y-10.8584
G01 F60.00
G01 Z-0.1500
G01 F240.00
G01 X8.9048 Y-10.8583
G01 X8.9121 Y-10.8577
G01 X8.9192 Y-10.8566
G01 X8.9263 Y-10.8549
G01 X8.9354 Y-10.8519
G01 X8.9443 Y-10.8479
G01 X8.9506 Y-10.8444
G01 X8.9567 Y-10.8405
G01 X8.9643 Y-10.8345
G01 X8.9713 Y-10.8279
G01 X8.9761 Y-10.8225
G01 X8.9819 Y-10.8147
G01 X8.9857 Y-10.8085
G01 X8.9900 Y-10.7999
G01 X8.9927 Y-10.7932
G01 X8.9949 Y-10.7863
G01 X8.9966 Y-10.7792
G01 X8.9980 Y-10.7696
G01 X8.9984 Y-10.7600
G01 X8.9984 Y-10.4084
G01 X9.3016 Y-10.4084
G01 X9.3016 Y-10.4783
G01 X9.3020 Y-10.4854
G01 X9.3029 Y-10.4923
G01 X9.3150 Y-10.5484
G01 X9.3176 Y-10.5579
G01 X9.3201 Y-10.5649
G01 X9.3243 Y-10.5738
G01 X9.3280 Y-10.5801
G01 X9.3322 Y-10.5862
G01 X9.3368 Y-10.5920
G01 X9.3859 Y-10.6484
G01 X9.3948 Y-10.6567
G01 X9.4048 Y-10.6638
G01 X9.4155 Y-10.6696
G01 X9.4269 Y-10.6741
G01 X9.4985 Y-10.6951
G01 X9.5054 Y-10.6967
G01 X9.5123 Y-10.6978
G01 X9.5240 Y-10.6984
G01 X11.7592 Y-10.6984
G01 X11.9016 Y-10.8408
G01 X11.9016 Y-11.3778
G01 X11.9022 Y-11.3872
G01 X11.9038 Y-11.3964
G01 X11.9156 Y-11.4503
G01 X11.9192 Y-11.4621
G01 X11.9221 Y-11.4689
G01 X11.9255 Y-11.4754
G01 X11.9293 Y-11.4817
G01 X11.9352 Y-11.4896
G01 X11.9842 Y-11.5461
G01 X11.9911 Y-11.5530
G01 X11.9987 Y-11.5592
G01 X12.0048 Y-11.5633
G01 X12.0111 Y-11.5669
G01 X12.0177 Y-11.5701
G01 X12.0246 Y-11.5728
G01 X12.0963 Y-11.5940
G01 X12.1054 Y-11.5962
G01 X12.1146 Y-11.5975
G01 X12.1240 Y-11.5979
G01 X15.3755 Y-11.5979
G01 X15.3849 Y-11.5975
G01 X15.3964 Y-11.5957
G01 X15.4503 Y-11.5839
G01 X15.4621 Y-11.5803
G01 X15.4733 Y-11.5752
G01 X15.4817 Y-11.5702
G01 X15.4896 Y-11.5643
G01 X15.5443 Y-11.5169
G01 X15.5496 Y-11.5119
G01 X15.5562 Y-11.5047
G01 X15.5633 Y-11.4947
G01 X15.5681 Y-11.4862
G01 X15.5720 Y-11.4772
G01 X15.5743 Y-11.4703
G01 X15.5946 Y-11.4010
G01 X15.5962 Y-11.3941
G01 X15.5975 Y-11.3849
G01 X15.5979 Y-11.3755
G01 X15.5979 Y-9.5240
G01 X15.5975 Y-9.5146
G01 X15.5957 Y-9.5031
G01 X15.5839 Y-9.4492
G01 X15.5803 Y-9.4374
G01 X15.5752 Y-9.4262
G01 X15.5702 Y-9.4178
G01 X15.5643 Y-9.4099
G01 X15.5169 Y-9.3552
G01 X15.5119 Y-9.3499
G01 X15.5047 Y-9.3433
G01 X15.4947 Y-9.3362
G01 X15.4862 Y-9.3314
G01 X15.4772 Y-9.3275
G01 X15.4703 Y-9.3252
G01 X15.4010 Y-9.3049
G01 X15.3918 Y-9.3029
G01 X15.3825 Y-9.3018
G01 X15.3169 Y-9.3016
G01 X15.3098 Y-9.3018
G01 X15.3027 Y-9.3026
G01 X15.2911 Y-9.3050
G01 X15.2284 Y-9.3220
G01 X15.2167 Y-9.3260
G01 X15.2078 Y-9.3302
G01 X15.2014 Y-9.3339
G01 X15.1934 Y-9.3396
G01 X15.1878 Y-9.3443
G01 X15.1825 Y-9.3495
G01 X15.1336 Y-9.4016
G01 X14.6943 Y-9.4016
G01 X14.6711 Y-9.3806
G01 X14.6436 Y-9.3603
G01 X14.6143 Y-9.3427
G01 X14.5833 Y-9.3281
G01 X14.5511 Y-9.3166
G01 X14.5180 Y-9.3082
G01 X14.4842 Y-9.3032
G01 X14.4500 Y-9.3016
G01 X13.5500 Y-9.3016
G01 X13.5183 Y-9.3030
G01 X13.4820 Y-9.3082
G01 X13.4535 Y-9.3153
G01 X13.4465 Y-9.3173
G01 X13.4212 Y-9.3263
G01 X13.4122 Y-9.3300
G01 X13.3857 Y-9.3427
G01 X13.3564 Y-9.3603
G01 X13.3289 Y-9.3806
G01 X13.3057 Y-9.4016
G01 X12.8647 Y-9.4016
G01 X12.8213 Y-9.3516
G01 X12.8123 Y-9.3433
G01 X12.8064 Y-9.3389
G01 X12.8003 Y-9.3349
G01 X12.7894 Y-9.3294
G01 X12.7802 Y-9.3259
G01 X12.7086 Y-9.3049
G01 X12.7018 Y-9.3033
G01 X12.6948 Y-9.3022
G01 X12.6831 Y-9.3016
G01 X12.0408 Y-9.3016
G01 X11.7059 Y-8.9667
G01 X11.6981 Y-8.9597
G01 X11.6716 Y-8.9387
G01 X11.6634 Y-8.9336
G01 X11.6525 Y-8.9284
G01 X11.6434 Y-8.9252
G01 X11.5741 Y-8.9049
G01 X11.5650 Y-8.9029
G01 X11.5533 Y-8.9017
G01 X9.5240 Y-8.9016
G01 X9.5123 Y-8.9022
G01 X9.5031 Y-8.9038
G01 X9.4468 Y-8.9162
G01 X9.4351 Y-8.9201
G01 X9.4241 Y-8.9255
G01 X9.4178 Y-8.9293
G01 X9.4099 Y-8.9352
G01 X9.3552 Y-8.9826
G01 X9.3465 Y-8.9911
G01 X9.3389 Y-9.0007
G01 X9.3326 Y-9.0111
G01 X9.3294 Y-9.0177
G01 X9.3267 Y-9.0246
G01 X9.3055 Y-9.0963
G01 X9.3029 Y-9.1077
G01 X9.3020 Y-9.1146
G01 X9.3016 Y-9.1217
G01 X9.3016 Y-9.2116
G01 X8.9984 Y-9.2116
G01 X8.9984 Y-8.8600
G01 X8.9980 Y-8.8504
G01 X8.9966 Y-8.8408
G01 X8.9949 Y-8.8337
G01 X8.9919 Y-8.8246
G01 X8.9890 Y-8.8179
G01 X8.9844 Y-8.8094
G01 X8.9805 Y-8.8033
G01 X8.9745 Y-8.7957
G01 X8.9696 Y-8.7904
G01 X8.9643 Y-8.7855
G01 X8.9567 Y-8.7795
G01 X8.9506 Y-8.7756
G01 X8.9443 Y-8.7721
G01 X8.9377 Y-8.7690
G01 X8.9309 Y-8.7665
G01 X8.9216 Y-8.7639
G01 X8.9144 Y-8.7626
G01 X8.9048 Y-8.7617
G01 X0.9000 Y-8.7616
G01 X0.8904 Y-8.7620
G01 X0.8832 Y-8.7630
G01 X0.8737 Y-8.7651
G01 X0.8668 Y-8.7673
G01 X0.8579 Y-8.7710
G01 X0.8515 Y-8.7743
G01 X0.8433 Y-8.7795
G01 X0.8357 Y-8.7855
G01 X0.8287 Y-8.7921
G01 X0.8239 Y-8.7975
G01 X0.8181 Y-8.8053
G01 X0.8132 Y-8.8136
G01 X0.8090 Y-8.8223
G01 X0.8065 Y-8.8291
G01 X0.8039 Y-8.8384
G01 X0.8023 Y-8.8479
G01 X0.8017 Y-8.8552
G01 X0.8016 Y-10.7600
G01 X0.8020 Y-10.7696
G01 X0.8034 Y-10.7792
G01 X0.8058 Y-10.7886
G01 X0.8090 Y-10.7977
G01 X0.8132 Y-10.8064
G01 X0.8181 Y-10.8147
G01 X0.8239 Y-10.8225
G01 X0.8304 Y-10.8296
G01 X0.8375 Y-10.8361
G01 X0.8453 Y-10.8419
G01 X0.8536 Y-10.8468
G01 X0.8623 Y-10.8510
G01 X0.8714 Y-10.8542
G01 X0.8808 Y-10.8566
G01 X0.8904 Y-10.8580
G01 X0.9000 Y-10.8584
G00 Z0.3000
G00 X0.9000 Y-11.0160
G01 F60.00
G01 Z-0.1500
G01 F240.00
G01 X8.9000 Y-11.0160
G01 X8.9126 Y-11.0157
G01 X8.9251 Y-11.0147
G01 X8.9438 Y-11.0122
G01 X8.9622 Y-11.0083
G01 X8.9803 Y-11.0031
G01 X8.9921 Y-10.9988
G01 X9.0094 Y-10.9914
G01 X9.0207 Y-10.9857
G01 X9.0369 Y-10.9763
G01 X9.0525 Y-10.9656
G01 X9.0672 Y-10.9538
G01 X9.0765 Y-10.9454
G01 X9.0897 Y-10.9319
G01 X9.1018 Y-10.9175
G01 X9.1093 Y-10.9074
G01 X9.1163 Y-10.8969
G01 X9.1257 Y-10.8807
G01 X9.1314 Y-10.8694
G01 X9.1365 Y-10.8580
G01 X9.1410 Y-10.8462
G01 X9.1449 Y-10.8343
G01 X9.1483 Y-10.8222
G01 X9.1511 Y-10.8099
G01 X9.1532 Y-10.7976
G01 X9.1547 Y-10.7851
G01 X9.1557 Y-10.7726
G01 X9.1560 Y-10.7600
G01 X9.1560 Y-10.5660
G01 X9.1576 Y-10.5660
G01 X9.1641 Y-10.5944
G01 X9.1678 Y-10.6066
G01 X9.1720 Y-10.6187
G01 X9.1769 Y-10.6305
G01 X9.1823 Y-10.6421
G01 X9.1883 Y-10.6534
G01 X9.1949 Y-10.6644
G01 X9.2057 Y-10.6802
G01 X9.2178 Y-10.6951
G01 X9.2677 Y-10.7527
G01 X9.2765 Y-10.7619
G01 X9.2905 Y-10.7748
G01 X9.3055 Y-10.7866
G01 X9.3213 Y-10.7974
G01 X9.3322 Y-10.8038
G01 X9.3435 Y-10.8097
G01 X9.3608 Y-10.8176
G01 X9.3727 Y-10.8220
G01 X9.3848 Y-10.8259
G01 X9.4577 Y-10.8472
G01 X9.4756 Y-10.8513
G01 X9.4936 Y-10.8542
G01 X9.5057 Y-10.8553
G01 X9.5240 Y-10.8560
G01 X11.6940 Y-10.8560
G01 X11.7440 Y-10.9060
G01 X11.7440 Y-11.3755
G01 X11.7443 Y-11.3877
G01 X11.7452 Y-11.3998
G01 X11.7476 Y-11.4179
G01 X11.7611 Y-11.4814
G01 X11.7641 Y-11.4939
G01 X11.7678 Y-11.5061
G01 X11.7720 Y-11.5182
G01 X11.7769 Y-11.5300
G01 X11.7852 Y-11.5473
G01 X11.7915 Y-11.5584
G01 X11.8020 Y-11.5745
G01 X11.8136 Y-11.5897
G01 X11.8635 Y-11.6474
G01 X11.8721 Y-11.6568
G01 X11.8811 Y-11.6658
G01 X11.8905 Y-11.6743
G01 X11.9055 Y-11.6861
G01 X11.9213 Y-11.6969
G01 X11.9322 Y-11.7033
G01 X11.9492 Y-11.7120
G01 X11.9668 Y-11.7194
G01 X11.9848 Y-11.7254
G01 X12.0519 Y-11.7451
G01 X12.0637 Y-11.7483
G01 X12.0756 Y-11.7508
G01 X12.0876 Y-11.7529
G01 X12.0997 Y-11.7543
G01 X12.1118 Y-11.7552
G01 X12.1240 Y-11.7555
G01 X15.3755 Y-11.7555
G01 X15.3877 Y-11.7552
G01 X15.3998 Y-11.7543
G01 X15.4119 Y-11.7529
G01 X15.4239 Y-11.7508
G01 X15.4814 Y-11.7384
G01 X15.4939 Y-11.7354
G01 X15.5061 Y-11.7317
G01 X15.5182 Y-11.7275
G01 X15.5300 Y-11.7226
G01 X15.5416 Y-11.7172
G01 X15.5529 Y-11.7112
G01 X15.5639 Y-11.7046
G01 X15.5745 Y-11.6975
G01 X15.5848 Y-11.6899
G01 X15.5946 Y-11.6817
G01 X15.6474 Y-11.6360
G01 X15.6568 Y-11.6274
G01 X15.6701 Y-11.6137
G01 X15.6784 Y-11.6041
G01 X15.6861 Y-11.5940
G01 X15.6934 Y-11.5836
G01 X15.7002 Y-11.5728
G01 X15.7064 Y-11.5617
G01 X15.7120 Y-11.5503
G01 X15.7194 Y-11.5327
G01 X15.7254 Y-11.5147
G01 X15.7467 Y-11.4418
G01 X15.7496 Y-11.4299
G01 X15.7519 Y-11.4179
G01 X15.7543 Y-11.3998
G01 X15.7552 Y-11.3877
G01 X15.7555 Y-11.3755
G01 X15.7555 Y-9.5240
G01 X15.7552 Y-9.5118
G01 X15.7543 Y-9.4997
G01 X15.7529 Y-9.4876
G01 X15.7508 Y-9.4756
G01 X15.7384 Y-9.4181
G01 X15.7354 Y-9.4056
G01 X15.7317 Y-9.3934
G01 X15.7275 Y-9.3813
G01 X15.7226 Y-9.3695
G01 X15.7172 Y-9.3579
G01 X15.7112 Y-9.3466
G01 X15.7046 Y-9.3356
G01 X15.6975 Y-9.3250
G01 X15.6899 Y-9.3147
G01 X15.6817 Y-9.3049
G01 X15.6360 Y-9.2521
G01 X15.6230 Y-9.2381
G01 X15.6137 Y-9.2294
G01 X15.6041 Y-9.2211
G01 X15.5940 Y-9.2134
G01 X15.5836 Y-9.2061
G01 X15.5728 Y-9.1993
G01 X15.5617 Y-9.1931
G01 X15.5503 Y-9.1875
G01 X15.5387 Y-9.1824
G01 X15.5268 Y-9.1780
G01 X15.5147 Y-9.1741
G01 X15.4418 Y-9.1528
G01 X15.4299 Y-9.1499
G01 X15.4179 Y-9.1476
G01 X15.3998 Y-9.1452
G01 X15.3816 Y-9.1441
G01 X15.3169 Y-9.1440
G01 X15.2984 Y-9.1447
G01 X15.2861 Y-9.1459
G01 X15.2678 Y-9.1488
G01 X15.2558 Y-9.1514
G01 X15.1810 Y-9.1717
G01 X15.1628 Y-9.1779
G01 X15.1451 Y-9.1854
G01 X15.1280 Y-9.1943
G01 X15.1171 Y-9.2009
G01 X15.1012 Y-9.2118
G01 X15.0911 Y-9.2197
G01 X15.0768 Y-9.2325
G01 X15.0655 Y-9.2440
G01 X14.7515 Y-9.2440
G01 X14.7363 Y-9.2329
G01 X14.7258 Y-9.2259
G01 X14.6940 Y-9.2068
G01 X14.6829 Y-9.2009
G01 X14.6436 Y-9.1825
G01 X14.6029 Y-9.1677
G01 X14.5908 Y-9.1641
G01 X14.5610 Y-9.1565
G01 X14.5487 Y-9.1538
G01 X14.5363 Y-9.1516
G01 X14.4996 Y-9.1465
G01 X14.4626 Y-9.1443
G01 X14.4500 Y-9.1440
G01 X13.5500 Y-9.1440
G01 X13.5067 Y-9.1459
G01 X13.4879 Y-9.1480
G01 X13.4575 Y-9.1526
G01 X13.4451 Y-9.1551
G01 X13.4031 Y-9.1658
G01 X13.3622 Y-9.1802
G01 X13.3449 Y-9.1876
G01 X13.3171 Y-9.2009
G01 X13.3060 Y-9.2068
G01 X13.2742 Y-9.2259
G01 X13.2637 Y-9.2329
G01 X13.2485 Y-9.2440
G01 X12.9363 Y-9.2440
G01 X12.9260 Y-9.2337
G01 X12.9166 Y-9.2252
G01 X12.9067 Y-9.2172
G01 X12.8965 Y-9.2097
G01 X12.8859 Y-9.2026
G01 X12.8749 Y-9.1962
G01 X12.8637 Y-9.1903
G01 X12.8521 Y-9.1849
G01 X12.8404 Y-9.1801
G01 X12.8284 Y-9.1760
G01 X12.7552 Y-9.1544
G01 X12.7435 Y-9.1512
G01 X12.7316 Y-9.1487
G01 X12.7135 Y-9.1458
G01 X12.7014 Y-9.1447
G01 X12.6831 Y-9.1440
G01 X12.1060 Y-9.1440
G01 X11.8173 Y-8.8553
G01 X11.8022 Y-8.8414
G01 X11.7663 Y-8.8127
G01 X11.7507 Y-8.8022
G01 X11.7343 Y-8.7929
G01 X11.7173 Y-8.7848
G01 X11.6998 Y-8.7779
G01 X11.6878 Y-8.7741
G01 X11.6090 Y-8.7512
G01 X11.5911 Y-8.7476
G01 X11.5790 Y-8.7458
G01 X11.5669 Y-8.7447
G01 X11.5486 Y-8.7440
G01 X9.5240 Y-8.7440
G01 X9.5057 Y-8.7447
G01 X9.4936 Y-8.7458
G01 X9.4816 Y-8.7476
G01 X9.4696 Y-8.7499
G01 X9.4181 Y-8.7611
G01 X9.4056 Y-8.7641
G01 X9.3934 Y-8.7678
G01 X9.3813 Y-8.7720
G01 X9.3695 Y-8.7769
G01 X9.3579 Y-8.7823
G01 X9.3466 Y-8.7883
G01 X9.3356 Y-8.7949
G01 X9.3250 Y-8.8020
G01 X9.3147 Y-8.8096
G01 X9.3049 Y-8.8178
G01 X9.2473 Y-8.8677
G01 X9.2337 Y-8.8811
G01 X9.2252 Y-8.8905
G01 X9.2172 Y-8.9004
G01 X9.2097 Y-8.9106
G01 X9.2026 Y-8.9213
G01 X9.1931 Y-8.9378
G01 X9.1849 Y-8.9550
G01 X9.1780 Y-8.9727
G01 X9.1741 Y-8.9848
G01 X9.1560 Y-9.0465
G01 X9.1560 Y-8.8600
G01 X9.1557 Y-8.8474
G01 X9.1547 Y-8.8349
G01 X9.1532 Y-8.8224
G01 X9.1511 Y-8.8101
G01 X9.1483 Y-8.7978
G01 X9.1431 Y-8.7797
G01 X9.1388 Y-8.7679
G01 X9.1340 Y-8.7563
G01 X9.1286 Y-8.7449
G01 X9.1227 Y-8.7338
G01 X9.1128 Y-8.7178
G01 X9.1056 Y-8.7075
G01 X9.0979 Y-8.6976
G01 X9.0854 Y-8.6835
G01 X9.0719 Y-8.6703
G01 X9.0624 Y-8.6621
G01 X9.0474 Y-8.6507
G01 X9.0369 Y-8.6437
G01 X9.0262 Y-8.6373
G01 X9.0094 Y-8.6286
G01 X8.9921 Y-8.6212
G01 X8.9803 Y-8.6169
G01 X8.9622 Y-8.6117
G01 X8.9499 Y-8.6089
G01 X8.9313 Y-8.6060
G01 X8.9126 Y-8.6043
G01 X8.9000 Y-8.6040
G01 X0.9000 Y-8.6040
G01 X0.8874 Y-8.6043
G01 X0.8749 Y-8.6053
G01 X0.8624 Y-8.6068
G01 X0.8501 Y-8.6089
G01 X0.8317 Y-8.6133
G01 X0.8197 Y-8.6169
G01 X0.8079 Y-8.6212
G01 X0.7906 Y-8.6286
G01 X0.7738 Y-8.6373
G01 X0.7631 Y-8.6437
G01 X0.7526 Y-8.6507
G01 X0.7376 Y-8.6621
G01 X0.7281 Y-8.6703
G01 X0.7190 Y-8.6790
G01 X0.7103 Y-8.6881
G01 X0.7021 Y-8.6976
G01 X0.6907 Y-8.7126
G01 X0.6837 Y-8.7231
G01 X0.6773 Y-8.7338
G01 X0.6686 Y-8.7506
G01 X0.6635 Y-8.7620
G01 X0.6590 Y-8.7738
G01 X0.6533 Y-8.7917
G01 X0.6489 Y-8.8101
G01 X0.6468 Y-8.8224
G01 X0.6453 Y-8.8349
G01 X0.6443 Y-8.8474
G01 X0.6440 Y-8.8600
G01 X0.6440 Y-10.7600
G01 X0.6443 Y-10.7726
G01 X0.6453 Y-10.7851
G01 X0.6468 Y-10.7976
G01 X0.6489 Y-10.8099
G01 X0.6517 Y-10.8222
G01 X0.6551 Y-10.8343
G01 X0.6590 Y-10.8462
G01 X0.6635 Y-10.8580
G01 X0.6686 Y-10.8694
G01 X0.6743 Y-10.8807
G01 X0.6804 Y-10.8916
G01 X0.6872 Y-10.9022
G01 X0.6944 Y-10.9125
G01 X0.7021 Y-10.9224
G01 X0.7103 Y-10.9319
G01 X0.7190 Y-10.9410
G01 X0.7281 Y-10.9497
G01 X0.7376 Y-10.9579
G01 X0.7475 Y-10.9656
G01 X0.7578 Y-10.9728
G01 X0.7684 Y-10.9796
G01 X0.7793 Y-10.9857
G01 X0.7906 Y-10.9914
G01 X0.8020 Y-10.9965
G01 X0.8138 Y-11.0010
G01 X0.8257 Y-11.0049
G01 X0.8378 Y-11.0083
G01 X0.8501 Y-11.0111
G01 X0.8624 Y-11.0132
G01 X0.8749 Y-11.0147
G01 X0.8874 Y-11.0157
G01 X0.9000 Y-11.0160
G00 Z0.3000
G00 X0.9000 Y-11.1735
G01 F60.00
G01 Z-0.1500
G01 F240.00
G01 X8.9101 Y-11.1734
G01 X8.9405 Y-11.1715
G01 X8.9707 Y-11.1674
G01 X9.0005 Y-11.1611
G01 X9.0200 Y-11.1557
G01 X9.0488 Y-11.1458
G01 X9.0768 Y-11.1338
G01 X9.0949 Y-11.1247
G01 X9.1212 Y-11.1093
G01 X9.1381 Y-11.0981
G01 X9.1623 Y-11.0796
G01 X9.1851 Y-11.0595
G01 X9.2064 Y-11.0377
G01 X9.2196 Y-11.0223
G01 X9.2381 Y-10.9981
G01 X9.2547 Y-10.9726
G01 X9.2682 Y-10.9482
G01 X9.2922 Y-10.9596
G01 X9.3017 Y-10.9635
G01 X9.3209 Y-10.9708
G01 X9.3405 Y-10.9771
G01 X9.4170 Y-10.9994
G01 X9.4457 Y-11.0060
G01 X9.4652 Y-11.0093
G01 X9.4945 Y-11.0124
G01 X9.5142 Y-11.0134
G01 X11.5865 Y-11.0135
G01 X11.5865 Y-11.3755
G01 X11.5870 Y-11.3952
G01 X11.5884 Y-11.4148
G01 X11.5907 Y-11.4343
G01 X11.5940 Y-11.4538
G01 X11.6072 Y-11.5149
G01 X11.6121 Y-11.5350
G01 X11.6180 Y-11.5548
G01 X11.6248 Y-11.5743
G01 X11.6327 Y-11.5934
G01 X11.6415 Y-11.6121
G01 X11.6512 Y-11.6303
G01 X11.6564 Y-11.6393
G01 X11.6674 Y-11.6567
G01 X11.6732 Y-11.6653
G01 X11.6856 Y-11.6818
G01 X11.6987 Y-11.6978
G01 X11.7445 Y-11.7506
G01 X11.7583 Y-11.7658
G01 X11.7655 Y-11.7731
G01 X11.7804 Y-11.7872
G01 X11.7881 Y-11.7940
G01 X11.8041 Y-11.8069
G01 X11.8123 Y-11.8131
G01 X11.8206 Y-11.8191
G01 X11.8377 Y-11.8304
G01 X11.8554 Y-11.8409
G01 X11.8736 Y-11.8504
G01 X11.8922 Y-11.8591
G01 X11.9017 Y-11.8630
G01 X11.9209 Y-11.8703
G01 X11.9405 Y-11.8766
G01 X12.0170 Y-11.8989
G01 X12.0457 Y-11.9055
G01 X12.0652 Y-11.9088
G01 X12.0847 Y-11.9111
G01 X12.1043 Y-11.9125
G01 X12.1240 Y-11.9130
G01 X15.3853 Y-11.9129
G01 X15.4148 Y-11.9111
G01 X15.4441 Y-11.9073
G01 X15.4634 Y-11.9035
G01 X15.5149 Y-11.8923
G01 X15.5250 Y-11.8900
G01 X15.5449 Y-11.8846
G01 X15.5646 Y-11.8782
G01 X15.5743 Y-11.8747
G01 X15.5839 Y-11.8709
G01 X15.6028 Y-11.8626
G01 X15.6213 Y-11.8533
G01 X15.6393 Y-11.8431
G01 X15.6481 Y-11.8377
G01 X15.6653 Y-11.8263
G01 X15.6818 Y-11.8139
G01 X15.6978 Y-11.8008
G01 X15.7506 Y-11.7550
G01 X15.7658 Y-11.7412
G01 X15.7731 Y-11.7340
G01 X15.7802 Y-11.7266
G01 X15.7940 Y-11.7114
G01 X15.8069 Y-11.6954
G01 X15.8191 Y-11.6789
G01 X15.8304 Y-11.6618
G01 X15.8357 Y-11.6530
G01 X15.8458 Y-11.6350
G01 X15.8549 Y-11.6166
G01 X15.8630 Y-11.5978
G01 X15.8668 Y-11.5882
G01 X15.8735 Y-11.5689
G01 X15.8962 Y-11.4920
G01 X15.9013 Y-11.4730
G01 X15.9073 Y-11.4441
G01 X15.9111 Y-11.4148
G01 X15.9125 Y-11.3952
G01 X15.9130 Y-11.3755
G01 X15.9130 Y-9.5240
G01 X15.9119 Y-9.4945
G01 X15.9101 Y-9.4749
G01 X15.9055 Y-9.4457
G01 X15.8900 Y-9.3745
G01 X15.8846 Y-9.3546
G01 X15.8782 Y-9.3349
G01 X15.8709 Y-9.3156
G01 X15.8668 Y-9.3061
G01 X15.8580 Y-9.2874
G01 X15.8483 Y-9.2692
G01 X15.8377 Y-9.2514
G01 X15.8263 Y-9.2342
G01 X15.8139 Y-9.2177
G01 X15.8075 Y-9.2096
G01 X15.7550 Y-9.1489
G01 X15.7412 Y-9.1337
G01 X15.7266 Y-9.1193
G01 X15.7191 Y-9.1123
G01 X15.7035 Y-9.0989
G01 X15.6872 Y-9.0864
G01 X15.6704 Y-9.0746
G01 X15.6530 Y-9.0638
G01 X15.6441 Y-9.0586
G01 X15.6350 Y-9.0537
G01 X15.6166 Y-9.0446
G01 X15.5978 Y-9.0365
G01 X15.5786 Y-9.0292
G01 X15.5590 Y-9.0229
G01 X15.4810 Y-9.0002
G01 X15.5250 Y-8.9905
G01 X15.5449 Y-8.9851
G01 X15.5646 Y-8.9787
G01 X15.5839 Y-8.9714
G01 X15.6028 Y-8.9631
G01 X15.6213 Y-8.9538
G01 X15.6393 Y-8.9436
G01 X15.6481 Y-8.9382
G01 X15.6653 Y-8.9268
G01 X15.6818 Y-8.9144
G01 X15.6899 Y-8.9080
G01 X15.7583 Y-8.8487
G01 X15.7731 Y-8.8345
G01 X15.7872 Y-8.8196
G01 X15.7940 Y-8.8119
G01 X15.8069 Y-8.7959
G01 X15.8191 Y-8.7794
G01 X15.8304 Y-8.7623
G01 X15.8409 Y-8.7446
G01 X15.8504 Y-8.7264
G01 X15.8549 Y-8.7171
G01 X15.8630 Y-8.6983
G01 X15.8668 Y-8.6887
G01 X15.8735 Y-8.6694
G01 X15.8989 Y-8.5830
G01 X15.9055 Y-8.5543
G01 X15.9101 Y-8.5251
G01 X15.9119 Y-8.5055
G01 X15.9130 Y-8.4760
G01 X15.9130 Y-5.1981
G01 X15.9125 Y-5.1777
G01 X15.9110 Y-5.1574
G01 X15.9099 Y-5.1473
G01 X15.9069 Y-5.1271
G01 X15.9029 Y-5.1072
G01 X15.8909 Y-5.0540
G01 X15.8860 Y-5.0346
G01 X15.8802 Y-5.0155
G01 X15.8735 Y-4.9966
G01 X15.8659 Y-4.9782
G01 X15.8574 Y-4.9601
G01 X15.8431 Y-4.9338
G01 X15.8324 Y-4.9169
G01 X15.8210 Y-4.9005
G01 X15.8025 Y-4.8770
G01 X15.7494 Y-4.8173
G01 X15.7353 Y-4.8024
G01 X15.7205 Y-4.7881
G01 X15.7050 Y-4.7746
G01 X15.6889 Y-4.7619
G01 X15.6722 Y-4.7500
G01 X15.6549 Y-4.7389
G01 X15.6370 Y-4.7287
G01 X15.6187 Y-4.7195
G01 X15.6000 Y-4.7111
G01 X15.5808 Y-4.7037
G01 X15.5711 Y-4.7003
G01 X15.5515 Y-4.6943
G01 X15.4842 Y-4.6757
G01 X15.4642 Y-4.6707
G01 X15.4441 Y-4.6667
G01 X15.4145 Y-4.6627
G01 X15.3130 Y-4.5611
G01 X15.3135 Y-4.5400
G01 X15.3130 Y-4.5189
G01 X15.4181 Y-4.4137
G01 X15.4859 Y-4.4040
G01 X15.5061 Y-4.4006
G01 X15.5262 Y-4.3961
G01 X15.5361 Y-4.3935
G01 X15.5558 Y-4.3876
G01 X15.5655 Y-4.3843
G01 X15.5847 Y-4.3770
G01 X15.5941 Y-4.3729
G01 X15.6127 Y-4.3642
G01 X15.6308 Y-4.3545
G01 X15.6397 Y-4.3493
G01 X15.6570 Y-4.3383
G01 X15.6655 Y-4.3325
G01 X15.6819 Y-4.3203
G01 X15.6978 Y-4.3072
G01 X15.7506 Y-4.2614
G01 X15.7658 Y-4.2476
G01 X15.7731 Y-4.2404
G01 X15.7872 Y-4.2255
G01 X15.8006 Y-4.2099
G01 X15.8069 Y-4.2019
G01 X15.8131 Y-4.1936
G01 X15.8249 Y-4.1768
G01 X15.8357 Y-4.1594
G01 X15.8409 Y-4.1505
G01 X15.8504 Y-4.1323
G01 X15.8591 Y-4.1137
G01 X15.8668 Y-4.0947
G01 X15.8735 Y-4.0753
G01 X15.8962 Y-3.9984
G01 X15.9013 Y-3.9794
G01 X15.9055 Y-3.9602
G01 X15.9101 Y-3.9310
G01 X15.9119 Y-3.9114
G01 X15.9130 Y-3.8819
G01 X15.9130 Y-3.5240
G01 X15.9125 Y-3.5043
G01 X15.9101 Y-3.4749
G01 X15.9073 Y-3.4554
G01 X15.9035 Y-3.4361
G01 X15.8900 Y-3.3745
G01 X15.8874 Y-3.3645
G01 X15.8815 Y-3.3447
G01 X15.8747 Y-3.3252
G01 X15.8668 Y-3.3061
G01 X15.8580 Y-3.2874
G01 X15.8483 Y-3.2692
G01 X15.8377 Y-3.2514
G01 X15.8263 Y-3.2342
G01 X15.8139 Y-3.2177
G01 X15.8075 Y-3.2096
G01 X15.7482 Y-3.1412
G01 X15.7412 Y-3.1337
G01 X15.7266 Y-3.1193
G01 X15.7114 Y-3.1055
G01 X15.6954 Y-3.0926
G01 X15.6872 Y-3.0864
G01 X15.6704 Y-3.0746
G01 X15.6618 Y-3.0691
G01 X15.6441 Y-3.0586
G01 X15.6350 Y-3.0537
G01 X15.6166 Y-3.0446
G01 X15.5978 Y-3.0365
G01 X15.5786 Y-3.0292
G01 X15.5689 Y-3.0260
G01 X15.4920 Y-3.0033
G01 X15.4730 Y-2.9982
G01 X15.4538 Y-2.9940
G01 X15.4343 Y-2.9907
G01 X15.4148 Y-2.9884
G01 X15.3853 Y-2.9866
G01 X15.3043 Y-2.9865
G01 X15.3090 Y-2.9607
G01 X15.3115 Y-2.9405
G01 X15.3130 Y-2.9203
G01 X15.3135 Y-2.9000
G01 X15.3134 Y-1.0899
G01 X15.3115 Y-1.0595
G01 X15.3074 Y-1.0293
G01 X15.3011 Y-0.9995
G01 X15.2926 Y-0.9703
G01 X15.2820 Y-0.9418
G01 X15.2693 Y-0.9141
G01 X15.2547 Y-0.8874
G01 X15.2381 Y-0.8619
G01 X15.2260 Y-0.8456
G01 X15.2131 Y-0.8299
G01 X15.1995 Y-0.8149
G01 X15.1777 Y-0.7936
G01 X15.1623 Y-0.7804
G01 X15.1463 Y-0.7679
G01 X15.1297 Y-0.7562
G01 X15.1126 Y-0.7453
G01 X15.0949 Y-0.7353
G01 X15.0768 Y-0.7262
G01 X15.0488 Y-0.7142
G01 X15.0297 Y-0.7074
G01 X15.0103 Y-0.7015
G01 X14.9807 Y-0.6945
G01 X14.9607 Y-0.6910
G01 X14.9405 Y-0.6885
G01 X14.9203 Y-0.6870
G01 X14.9000 Y-0.6865
G01 X13.2278 Y-0.6865
G01 X13.2288 Y-0.6755
G01 X13.2300 Y-0.6550
G01 X13.2301 Y-0.6344
G01 X13.2292 Y-0.6139
G01 X13.2284 Y-0.6037
G01 X13.2260 Y-0.5833
G01 X13.2144 Y-0.5040
G01 X13.2105 Y-0.4838
G01 X13.2082 Y-0.4738
G01 X13.2056 Y-0.4639
G01 X13.1997 Y-0.4442
G01 X13.1928 Y-0.4249
G01 X13.1890 Y-0.4153
G01 X13.1807 Y-0.3966
G01 X13.1715 Y-0.3782
G01 X13.1614 Y-0.3603
G01 X13.1560 Y-0.3516
G01 X13.1445 Y-0.3345
G01 X13.1385 Y-0.3262
G01 X13.1323 Y-0.3181
G01 X13.1192 Y-0.3022
G01 X13.0735 Y-0.2494
G01 X13.0596 Y-0.2342
G01 X13.0525 Y-0.2269
G01 X13.0375 Y-0.2128
G01 X13.0219 Y-0.1994
G01 X13.0057 Y-0.1869
G01 X12.9888 Y-0.1751
G01 X12.9714 Y-0.1643
G01 X12.9535 Y-0.1542
G01 X12.9443 Y-0.1496
G01 X12.9257 Y-0.1409
G01 X12.9162 Y-0.1370
G01 X12.8970 Y-0.1297
G01 X12.8775 Y-0.1234
G01 X12.8010 Y-0.1011
G01 X12.7818 Y-0.0965
G01 X12.7528 Y-0.0912
G01 X12.7234 Y-0.0881
G01 X12.6939 Y-0.0870
G01 X12.3240 Y-0.0870
G01 X12.2945 Y-0.0881
G01 X12.2652 Y-0.0912
G01 X12.2361 Y-0.0965
G01 X12.1745 Y-0.1100
G01 X12.1546 Y-0.1154
G01 X12.1447 Y-0.1185
G01 X12.1252 Y-0.1253
G01 X12.1061 Y-0.1332
G01 X12.0967 Y-0.1374
G01 X12.0874 Y-0.1420
G01 X12.0692 Y-0.1517
G01 X12.0514 Y-0.1623
G01 X12.0428 Y-0.1679
G01 X12.0259 Y-0.1798
G01 X12.0177 Y-0.1861
G01 X12.0017 Y-0.1992
G01 X11.9489 Y-0.2450
G01 X11.9337 Y-0.2588
G01 X11.9264 Y-0.2660
G01 X11.9123 Y-0.2809
G01 X11.8989 Y-0.2965
G01 X11.8926 Y-0.3046
G01 X11.8804 Y-0.3211
G01 X11.8746 Y-0.3296
G01 X11.8638 Y-0.3470
G01 X11.8537 Y-0.3650
G01 X11.8446 Y-0.3834
G01 X11.8404 Y-0.3927
G01 X11.8327 Y-0.4118
G01 X11.8260 Y-0.4311
G01 X11.8033 Y-0.5080
G01 X11.7982 Y-0.5270
G01 X11.7922 Y-0.5559
G01 X11.7894 Y-0.5754
G01 X11.7870 Y-0.6048
G01 X11.7865 Y-0.6245
G01 X11.7865 Y-0.9865
G01 X9.5142 Y-0.9866
G01 X9.4847 Y-0.9884
G01 X9.4554 Y-0.9922
G01 X9.4361 Y-0.9960
G01 X9.3846 Y-1.0072
G01 X9.3645 Y-1.0121
G01 X9.3546 Y-1.0149
G01 X9.3349 Y-1.0213
G01 X9.3156 Y-1.0286
G01 X9.2967 Y-1.0369
G01 X9.2874 Y-1.0415
G01 X9.2681 Y-1.0518
G01 X9.2547 Y-1.0274
G01 X9.2381 Y-1.0019
G01 X9.2196 Y-0.9777
G01 X9.1995 Y-0.9549
G01 X9.1777 Y-0.9336
G01 X9.1623 Y-0.9204
G01 X9.1381 Y-0.9019
G01 X9.1126 Y-0.8853
G01 X9.0949 Y-0.8753
G01 X9.0676 Y-0.8620
G01 X9.0393 Y-0.8507
G01 X9.0103 Y-0.8415
G01 X8.9807 Y-0.8345
G01 X8.9506 Y-0.8296
G01 X8.9203 Y-0.8270
G01 X8.9000 Y-0.8265
G01 X0.9000 Y-0.8265
G01 X0.8696 Y-0.8276
G01 X0.8393 Y-0.8310
G01 X0.8193 Y-0.8345
G01 X0.7995 Y-0.8389
G01 X0.7703 Y-0.8474
G01 X0.7418 Y-0.8580
G01 X0.7141 Y-0.8707
G01 X0.6874 Y-0.8853
G01 X0.6619 Y-0.9019
G01 X0.6456 Y-0.9140
G01 X0.6299 Y-0.9269
G01 X0.6076 Y-0.9476
G01 X0.5936 Y-0.9623
G01 X0.5804 Y-0.9777
G01 X0.5679 Y-0.9937
G01 X0.5507 Y-1.0188
G01 X0.5402 Y-1.0362
G01 X0.5307 Y-1.0541
G01 X0.5180 Y-1.0818
G01 X0.5107 Y-1.1007
G01 X0.5043 Y-1.1200
G01 X0.4989 Y-1.1395
G01 X0.4945 Y-1.1593
G01 X0.4910 Y-1.1793
G01 X0.4876 Y-1.2096
G01 X0.4865 Y-1.2400
G01 X0.4865 Y-3.1400
G01 X0.4870 Y-3.1603
G01 X0.4885 Y-3.1805
G01 X0.4910 Y-3.2007
G01 X0.4966 Y-3.2306
G01 X0.5015 Y-3.2503
G01 X0.5074 Y-3.2697
G01 X0.5142 Y-3.2888
G01 X0.5262 Y-3.3168
G01 X0.5353 Y-3.3349
G01 X0.5453 Y-3.3526
G01 X0.5562 Y-3.3697
G01 X0.5679 Y-3.3863
G01 X0.5804 Y-3.4023
G01 X0.5936 Y-3.4177
G01 X0.6149 Y-3.4395
G01 X0.6299 Y-3.4531
G01 X0.6456 Y-3.4660
G01 X0.6619 Y-3.4781
G01 X0.6788 Y-3.4893
G01 X0.6962 Y-3.4998
G01 X0.7141 Y-3.5093
G01 X0.7324 Y-3.5180
G01 X0.7512 Y-3.5258
G01 X0.7703 Y-3.5326
G01 X0.7897 Y-3.5385
G01 X0.8094 Y-3.5434
G01 X0.8293 Y-3.5474
G01 X0.8494 Y-3.5504
G01 X0.8797 Y-3.5530
G01 X0.9000 Y-3.5535
G01 X1.0134 Y-3.5535
G01 X1.0074 Y-3.5703
G01 X1.0015 Y-3.5897
G01 X0.9966 Y-3.6094
G01 X0.9926 Y-3.6293
G01 X0.9896 Y-3.6494
G01 X0.9876 Y-3.6696
G01 X0.9865 Y-3.7000
G01 X0.9865 Y-5.7000
G01 X0.9870 Y-5.7203
G01 X0.9885 Y-5.7405
G01 X0.9910 Y-5.7607
G01 X0.9945 Y-5.7807
G01 X0.9989 Y-5.8005
G01 X1.0043 Y-5.8200
G01 X1.0107 Y-5.8393
G01 X1.0180 Y-5.8582
G01 X1.0262 Y-5.8768
G01 X1.0353 Y-5.8949
G01 X1.0453 Y-5.9126
G01 X1.0562 Y-5.9297
G01 X1.0679 Y-5.9463
G01 X1.0804 Y-5.9623
G01 X1.0936 Y-5.9777
G01 X1.1076 Y-5.9924
G01 X1.1155 Y-6.0000
G01 X1.1076 Y-6.0076
G01 X1.0936 Y-6.0223
G01 X1.0804 Y-6.0377
G01 X1.0679 Y-6.0537
G01 X1.0562 Y-6.0703
G01 X1.0453 Y-6.0874
G01 X1.0353 Y-6.1051
G01 X1.0262 Y-6.1232
G01 X1.0180 Y-6.1418
G01 X1.0107 Y-6.1607
G01 X1.0043 Y-6.1800
G01 X0.9989 Y-6.1995
G01 X0.9945 Y-6.2193
G01 X0.9910 Y-6.2393
G01 X0.9885 Y-6.2595
G01 X0.9870 Y-6.2797
G01 X0.9865 Y-6.3000
G01 X0.9865 Y-8.3000
G01 X0.9870 Y-8.3203
G01 X0.9885 Y-8.3405
G01 X0.9926 Y-8.3707
G01 X0.9966 Y-8.3906
G01 X1.0015 Y-8.4103
G01 X1.0074 Y-8.4297
G01 X1.0134 Y-8.4465
G01 X0.9000 Y-8.4465
G01 X0.8797 Y-8.4470
G01 X0.8595 Y-8.4485
G01 X0.8393 Y-8.4510
G01 X0.8094 Y-8.4566
G01 X0.7897 Y-8.4615
G01 X0.7703 Y-8.4674
G01 X0.7512 Y-8.4742
G01 X0.7324 Y-8.4820
G01 X0.7141 Y-8.4907
G01 X0.6962 Y-8.5002
G01 X0.6788 Y-8.5107
G01 X0.6619 Y-8.5219
G01 X0.6456 Y-8.5340
G01 X0.6223 Y-8.5536
G01 X0.6076 Y-8.5676
G01 X0.5936 Y-8.5823
G01 X0.5804 Y-8.5977
G01 X0.5679 Y-8.6137
G01 X0.5562 Y-8.6303
G01 X0.5453 Y-8.6474
G01 X0.5353 Y-8.6651
G01 X0.5262 Y-8.6832
G01 X0.5180 Y-8.7018
G01 X0.5107 Y-8.7207
G01 X0.5043 Y-8.7400
G01 X0.4989 Y-8.7595
G01 X0.4926 Y-8.7893
G01 X0.4896 Y-8.8094
G01 X0.4870 Y-8.8397
G01 X0.4865 Y-8.8600
G01 X0.4866 Y-10.7701
G01 X0.4876 Y-10.7904
G01 X0.4896 Y-10.8106
G01 X0.4926 Y-10.8307
G01 X0.4966 Y-10.8506
G01 X0.5043 Y-10.8800
G01 X0.5107 Y-10.8993
G01 X0.5180 Y-10.9182
G01 X0.5262 Y-10.9368
G01 X0.5353 Y-10.9549
G01 X0.5453 Y-10.9726
G01 X0.5562 Y-10.9897
G01 X0.5679 Y-11.0063
G01 X0.5804 Y-11.0223
G01 X0.5936 Y-11.0377
G01 X0.6076 Y-11.0524
G01 X0.6223 Y-11.0664
G01 X0.6377 Y-11.0796
G01 X0.6537 Y-11.0921
G01 X0.6703 Y-11.1038
G01 X0.6874 Y-11.1147
G01 X0.7051 Y-11.1247
G01 X0.7232 Y-11.1338
G01 X0.7418 Y-11.1420
G01 X0.7607 Y-11.1493
G01 X0.7800 Y-11.1557
G01 X0.7995 Y-11.1611
G01 X0.8193 Y-11.1655
G01 X0.8393 Y-11.1690
G01 X0.8595 Y-11.1715
G01 X0.8797 Y-11.1730
G01 X0.9000 Y-11.1735
G00 Z0.3000
G00 X0.9000 Y-11.3310
G01 F60.00
G01 Z-0.1500
G01 F240.00
G01 X8.9140 Y-11.3308
G01 X8.9420 Y-11.3295
G01 X8.9699 Y-11.3267
G01 X8.9838 Y-11.3248
G01 X9.0114 Y-11.3200
G01 X9.0387 Y-11.3139
G01 X9.0658 Y-11.3064
G01 X9.0924 Y-11.2976
G01 X9.1185 Y-11.2875
G01 X9.1441 Y-11.2762
G01 X9.1692 Y-11.2636
G01 X9.1936 Y-11.2498
G01 X9.2172 Y-11.2348
G01 X9.2402 Y-11.2186
G01 X9.2622 Y-11.2014
G01 X9.2835 Y-11.1831
G01 X9.3038 Y-11.1638
G01 X9.3136 Y-11.1537
G01 X9.3282 Y-11.1376
G01 X9.3762 Y-11.1516
G01 X9.4026 Y-11.1580
G01 X9.4159 Y-11.1607
G01 X9.4427 Y-11.1652
G01 X9.4697 Y-11.1684
G01 X9.4833 Y-11.1696
G01 X9.5104 Y-11.1708
G01 X11.4290 Y-11.1710
G01 X11.4292 Y-11.3891
G01 X11.4304 Y-11.4162
G01 X11.4316 Y-11.4298
G01 X11.4348 Y-11.4568
G01 X11.4393 Y-11.4836
G01 X11.4532 Y-11.5484
G01 X11.4600 Y-11.5761
G01 X11.4681 Y-11.6035
G01 X11.4776 Y-11.6304
G01 X11.4885 Y-11.6568
G01 X11.5006 Y-11.6826
G01 X11.5140 Y-11.7078
G01 X11.5287 Y-11.7323
G01 X11.5364 Y-11.7442
G01 X11.5529 Y-11.7676
G01 X11.5705 Y-11.7900
G01 X11.6254 Y-11.8537
G01 X11.6445 Y-11.8747
G01 X11.6545 Y-11.8848
G01 X11.6751 Y-11.9043
G01 X11.6966 Y-11.9228
G01 X11.7190 Y-11.9401
G01 X11.7423 Y-11.9563
G01 X11.7664 Y-11.9713
G01 X11.7911 Y-11.9852
G01 X11.8037 Y-11.9916
G01 X11.8295 Y-12.0036
G01 X11.8558 Y-12.0142
G01 X11.8691 Y-12.0190
G01 X11.8961 Y-12.0277
G01 X11.9762 Y-12.0511
G01 X12.0026 Y-12.0575
G01 X12.0293 Y-12.0626
G01 X12.0562 Y-12.0665
G01 X12.0833 Y-12.0691
G01 X12.1104 Y-12.0703
G01 X12.1240 Y-12.0705
G01 X15.3891 Y-12.0703
G01 X15.4162 Y-12.0691
G01 X15.4433 Y-12.0665
G01 X15.4702 Y-12.0626
G01 X15.4836 Y-12.0602
G01 X15.5623 Y-12.0430
G01 X15.5761 Y-12.0395
G01 X15.6035 Y-12.0314
G01 X15.6304 Y-12.0219
G01 X15.6568 Y-12.0110
G01 X15.6826 Y-11.9989
G01 X15.6953 Y-11.9924
G01 X15.7201 Y-11.9783
G01 X15.7323 Y-11.9708
G01 X15.7442 Y-11.9631
G01 X15.7676 Y-11.9466
G01 X15.7900 Y-11.9290
G01 X15.8537 Y-11.8741
G01 X15.8747 Y-11.8550
G01 X15.8947 Y-11.8349
G01 X15.9137 Y-11.8138
G01 X15.9316 Y-11.7918
G01 X15.9401 Y-11.7805
G01 X15.9483 Y-11.7689
G01 X15.9640 Y-11.7453
G01 X15.9784 Y-11.7209
G01 X15.9916 Y-11.6958
G01 X15.9977 Y-11.6830
G01 X16.0090 Y-11.6570
G01 X16.0142 Y-11.6437
G01 X16.0235 Y-11.6170
G01 X16.0474 Y-11.5364
G01 X16.0544 Y-11.5101
G01 X16.0575 Y-11.4969
G01 X16.0626 Y-11.4702
G01 X16.0665 Y-11.4433
G01 X16.0679 Y-11.4298
G01 X16.0699 Y-11.4027
G01 X16.0705 Y-11.3755
G01 X16.0705 Y-9.5240
G01 X16.0699 Y-9.4968
G01 X16.0679 Y-9.4697
G01 X16.0647 Y-9.4427
G01 X16.0602 Y-9.4159
G01 X16.0463 Y-9.3511
G01 X16.0395 Y-9.3234
G01 X16.0314 Y-9.2960
G01 X16.0219 Y-9.2691
G01 X16.0110 Y-9.2427
G01 X15.9989 Y-9.2169
G01 X15.9855 Y-9.1917
G01 X15.9708 Y-9.1672
G01 X15.9550 Y-9.1435
G01 X15.9380 Y-9.1206
G01 X15.9198 Y-9.0986
G01 X15.8647 Y-9.0352
G01 X15.8450 Y-9.0147
G01 X15.8271 Y-8.9977
G01 X15.8643 Y-8.9652
G01 X15.8848 Y-8.9455
G01 X15.9043 Y-8.9249
G01 X15.9228 Y-8.9034
G01 X15.9316 Y-8.8923
G01 X15.9483 Y-8.8694
G01 X15.9640 Y-8.8458
G01 X15.9784 Y-8.8214
G01 X15.9916 Y-8.7963
G01 X15.9977 Y-8.7835
G01 X16.0090 Y-8.7575
G01 X16.0190 Y-8.7309
G01 X16.0277 Y-8.7039
G01 X16.0511 Y-8.6238
G01 X16.0575 Y-8.5974
G01 X16.0626 Y-8.5707
G01 X16.0665 Y-8.5438
G01 X16.0691 Y-8.5167
G01 X16.0703 Y-8.4896
G01 X16.0705 Y-8.4760
G01 X16.0703 Y-5.1840
G01 X16.0690 Y-5.1559
G01 X16.0677 Y-5.1419
G01 X16.0643 Y-5.1140
G01 X16.0620 Y-5.1001
G01 X16.0565 Y-5.0725
G01 X16.0413 Y-5.0059
G01 X16.0378 Y-4.9926
G01 X16.0298 Y-4.9662
G01 X16.0253 Y-4.9531
G01 X16.0155 Y-4.9274
G01 X16.0043 Y-4.9021
G01 X15.9983 Y-4.8897
G01 X15.9854 Y-4.8653
G01 X15.9713 Y-4.8416
G01 X15.9561 Y-4.8186
G01 X15.9481 Y-4.8074
G01 X15.9312 Y-4.7855
G01 X15.9224 Y-4.7749
G01 X15.8573 Y-4.7019
G01 X15.8474 Y-4.6917
G01 X15.8270 Y-4.6720
G01 X15.8056 Y-4.6534
G01 X15.7834 Y-4.6358
G01 X15.7603 Y-4.6194
G01 X15.7364 Y-4.6041
G01 X15.7117 Y-4.5901
G01 X15.6865 Y-4.5772
G01 X15.6606 Y-4.5657
G01 X15.6341 Y-4.5554
G01 X15.6072 Y-4.5465
G01 X15.5907 Y-4.5417
G01 X15.6182 Y-4.5327
G01 X15.6447 Y-4.5226
G01 X15.6707 Y-4.5111
G01 X15.6960 Y-4.4984
G01 X15.7207 Y-4.4844
G01 X15.7446 Y-4.4692
G01 X15.7563 Y-4.4612
G01 X15.7791 Y-4.4443
G01 X15.8009 Y-4.4262
G01 X15.8537 Y-4.3805
G01 X15.8747 Y-4.3614
G01 X15.8947 Y-4.3413
G01 X15.9137 Y-4.3202
G01 X15.9228 Y-4.3093
G01 X15.9401 Y-4.2869
G01 X15.9483 Y-4.2753
G01 X15.9640 Y-4.2517
G01 X15.9784 Y-4.2273
G01 X15.9916 Y-4.2022
G01 X15.9977 Y-4.1894
G01 X16.0036 Y-4.1764
G01 X16.0142 Y-4.1502
G01 X16.0235 Y-4.1234
G01 X16.0511 Y-4.0297
G01 X16.0575 Y-4.0033
G01 X16.0626 Y-3.9766
G01 X16.0665 Y-3.9497
G01 X16.0679 Y-3.9362
G01 X16.0699 Y-3.9091
G01 X16.0705 Y-3.8819
G01 X16.0705 Y-3.5240
G01 X16.0699 Y-3.4968
G01 X16.0691 Y-3.4833
G01 X16.0665 Y-3.4562
G01 X16.0626 Y-3.4293
G01 X16.0575 Y-3.4026
G01 X16.0430 Y-3.3372
G01 X16.0395 Y-3.3234
G01 X16.0314 Y-3.2960
G01 X16.0219 Y-3.2691
G01 X16.0110 Y-3.2427
G01 X15.9989 Y-3.2169
G01 X15.9855 Y-3.1917
G01 X15.9708 Y-3.1672
G01 X15.9550 Y-3.1435
G01 X15.9380 Y-3.1206
G01 X15.9290 Y-3.1095
G01 X15.8647 Y-3.0352
G01 X15.8550 Y-3.0248
G01 X15.8349 Y-3.0048
G01 X15.8138 Y-2.9858
G01 X15.7918 Y-2.9679
G01 X15.7689 Y-2.9512
G01 X15.7453 Y-2.9355
G01 X15.7209 Y-2.9211
G01 X15.6958 Y-2.9079
G01 X15.6700 Y-2.8959
G01 X15.6570 Y-2.8905
G01 X15.6304 Y-2.8805
G01 X15.6170 Y-2.8760
G01 X15.5233 Y-2.8484
G01 X15.4969 Y-2.8420
G01 X15.4710 Y-2.8370
G01 X15.4710 Y-1.1000
G01 X15.4703 Y-1.0720
G01 X15.4683 Y-1.0440
G01 X15.4667 Y-1.0301
G01 X15.4648 Y-1.0162
G01 X15.4600 Y-0.9886
G01 X15.4571 Y-0.9749
G01 X15.4503 Y-0.9477
G01 X15.4464 Y-0.9342
G01 X15.4376 Y-0.9076
G01 X15.4327 Y-0.8945
G01 X15.4220 Y-0.8686
G01 X15.4100 Y-0.8433
G01 X15.4036 Y-0.8308
G01 X15.3898 Y-0.8064
G01 X15.3824 Y-0.7945
G01 X15.3668 Y-0.7712
G01 X15.3586 Y-0.7598
G01 X15.3414 Y-0.7378
G01 X15.3231 Y-0.7165
G01 X15.3038 Y-0.6962
G01 X15.2937 Y-0.6864
G01 X15.2730 Y-0.6676
G01 X15.2513 Y-0.6498
G01 X15.2288 Y-0.6332
G01 X15.2055 Y-0.6176
G01 X15.1814 Y-0.6032
G01 X15.1567 Y-0.5900
G01 X15.1314 Y-0.5780
G01 X15.1055 Y-0.5673
G01 X15.0791 Y-0.5578
G01 X15.0523 Y-0.5497
G01 X15.0251 Y-0.5429
G01 X14.9976 Y-0.5374
G01 X14.9699 Y-0.5333
G01 X14.9420 Y-0.5305
G01 X14.9280 Y-0.5297
G01 X14.9000 Y-0.5290
G01 X13.3773 Y-0.5290
G01 X13.3697 Y-0.4777
G01 X13.3643 Y-0.4499
G01 X13.3575 Y-0.4223
G01 X13.3536 Y-0.4087
G01 X13.3448 Y-0.3818
G01 X13.3346 Y-0.3553
G01 X13.3290 Y-0.3422
G01 X13.3169 Y-0.3166
G01 X13.3036 Y-0.2916
G01 X13.2890 Y-0.2673
G01 X13.2813 Y-0.2554
G01 X13.2732 Y-0.2437
G01 X13.2563 Y-0.2209
G01 X13.2383 Y-0.1991
G01 X13.1831 Y-0.1357
G01 X13.1734 Y-0.1253
G01 X13.1533 Y-0.1053
G01 X13.1429 Y-0.0957
G01 X13.1213 Y-0.0772
G01 X13.0989 Y-0.0599
G01 X13.0756 Y-0.0437
G01 X13.0637 Y-0.0360
G01 X13.0393 Y-0.0216
G01 X13.0142 Y-0.0084
G01 X12.9885 Y0.0036
G01 X12.9622 Y0.0142
G01 X12.9354 Y0.0235
G01 X12.8548 Y0.0474
G01 X12.8286 Y0.0544
G01 X12.8153 Y0.0575
G01 X12.7886 Y0.0626
G01 X12.7617 Y0.0665
G01 X12.7482 Y0.0679
G01 X12.7211 Y0.0699
G01 X12.6939 Y0.0705
G01 X12.3240 Y0.0705
G01 X12.2968 Y0.0699
G01 X12.2833 Y0.0691
G01 X12.2562 Y0.0665
G01 X12.2427 Y0.0647
G01 X12.2293 Y0.0626
G01 X12.2026 Y0.0575
G01 X12.1372 Y0.0430
G01 X12.1234 Y0.0395
G01 X12.0960 Y0.0314
G01 X12.0691 Y0.0219
G01 X12.0427 Y0.0110
G01 X12.0169 Y-0.0011
G01 X12.0042 Y-0.0076
G01 X11.9794 Y-0.0217
G01 X11.9553 Y-0.0369
G01 X11.9319 Y-0.0534
G01 X11.9095 Y-0.0710
G01 X11.8458 Y-0.1259
G01 X11.8248 Y-0.1450
G01 X11.8048 Y-0.1651
G01 X11.7952 Y-0.1756
G01 X11.7767 Y-0.1971
G01 X11.7679 Y-0.2082
G01 X11.7594 Y-0.2195
G01 X11.7432 Y-0.2428
G01 X11.7282 Y-0.2669
G01 X11.7143 Y-0.2916
G01 X11.7018 Y-0.3170
G01 X11.6959 Y-0.3300
G01 X11.6853 Y-0.3563
G01 X11.6760 Y-0.3830
G01 X11.6521 Y-0.4636
G01 X11.6484 Y-0.4767
G01 X11.6420 Y-0.5031
G01 X11.6369 Y-0.5298
G01 X11.6330 Y-0.5567
G01 X11.6304 Y-0.5838
G01 X11.6296 Y-0.5973
G01 X11.6290 Y-0.6245
G01 X11.6290 Y-0.8290
G01 X9.5104 Y-0.8292
G01 X9.4833 Y-0.8304
G01 X9.4697 Y-0.8316
G01 X9.4427 Y-0.8348
G01 X9.4293 Y-0.8369
G01 X9.4026 Y-0.8420
G01 X9.3511 Y-0.8532
G01 X9.3256 Y-0.8594
G01 X9.3038 Y-0.8362
G01 X9.2835 Y-0.8169
G01 X9.2622 Y-0.7986
G01 X9.2402 Y-0.7814
G01 X9.2288 Y-0.7732
G01 X9.2055 Y-0.7576
G01 X9.1814 Y-0.7432
G01 X9.1567 Y-0.7300
G01 X9.1314 Y-0.7180
G01 X9.1055 Y-0.7073
G01 X9.0791 Y-0.6978
G01 X9.0658 Y-0.6936
G01 X9.0387 Y-0.6861
G01 X9.0114 Y-0.6800
G01 X8.9838 Y-0.6752
G01 X8.9560 Y-0.6717
G01 X8.9280 Y-0.6697
G01 X8.9000 Y-0.6690
G01 X0.8860 Y-0.6692
G01 X0.8720 Y-0.6697
G01 X0.8440 Y-0.6717
G01 X0.8162 Y-0.6752
G01 X0.7886 Y-0.6800
G01 X0.7613 Y-0.6861
G01 X0.7477 Y-0.6897
G01 X0.7342 Y-0.6936
G01 X0.7076 Y-0.7024
G01 X0.6815 Y-0.7125
G01 X0.6686 Y-0.7180
G01 X0.6559 Y-0.7238
G01 X0.6308 Y-0.7364
G01 X0.6186 Y-0.7432
G01 X0.5945 Y-0.7576
G01 X0.5828 Y-0.7652
G01 X0.5598 Y-0.7814
G01 X0.5378 Y-0.7986
G01 X0.5165 Y-0.8169
G01 X0.4962 Y-0.8362
G01 X0.4769 Y-0.8565
G01 X0.4586 Y-0.8778
G01 X0.4414 Y-0.8998
G01 X0.4252 Y-0.9228
G01 X0.4176 Y-0.9345
G01 X0.4032 Y-0.9586
G01 X0.3900 Y-0.9833
G01 X0.3780 Y-1.0086
G01 X0.3673 Y-1.0345
G01 X0.3578 Y-1.0609
G01 X0.3497 Y-1.0877
G01 X0.3429 Y-1.1149
G01 X0.3374 Y-1.1424
G01 X0.3352 Y-1.1562
G01 X0.3317 Y-1.1840
G01 X0.3297 Y-1.2120
G01 X0.3290 Y-1.2400
G01 X0.3290 Y-3.1400
G01 X0.3292 Y-3.1540
G01 X0.3305 Y-3.1820
G01 X0.3333 Y-3.2099
G01 X0.3374 Y-3.2376
G01 X0.3400 Y-3.2514
G01 X0.3461 Y-3.2787
G01 X0.3497 Y-3.2923
G01 X0.3578 Y-3.3191
G01 X0.3673 Y-3.3455
G01 X0.3780 Y-3.3714
G01 X0.3838 Y-3.3841
G01 X0.3964 Y-3.4092
G01 X0.4102 Y-3.4336
G01 X0.4252 Y-3.4572
G01 X0.4414 Y-3.4802
G01 X0.4586 Y-3.5022
G01 X0.4676 Y-3.5130
G01 X0.4864 Y-3.5337
G01 X0.4962 Y-3.5438
G01 X0.5165 Y-3.5631
G01 X0.5378 Y-3.5814
G01 X0.5598 Y-3.5986
G01 X0.5712 Y-3.6068
G01 X0.5945 Y-3.6224
G01 X0.6186 Y-3.6368
G01 X0.6433 Y-3.6500
G01 X0.6686 Y-3.6620
G01 X0.6945 Y-3.6727
G01 X0.7209 Y-3.6822
G01 X0.7342 Y-3.6864
G01 X0.7477 Y-3.6903
G01 X0.7749 Y-3.6971
G01 X0.8024 Y-3.7026
G01 X0.8290 Y-3.7066
G01 X0.8290 Y-5.7000
G01 X0.8297 Y-5.7280
G01 X0.8317 Y-5.7560
G01 X0.8333 Y-5.7699
G01 X0.8374 Y-5.7976
G01 X0.8429 Y-5.8251
G01 X0.8497 Y-5.8523
G01 X0.8536 Y-5.8658
G01 X0.8624 Y-5.8924
G01 X0.8673 Y-5.9055
G01 X0.8780 Y-5.9314
G01 X0.8900 Y-5.9567
G01 X0.8964 Y-5.9692
G01 X0.9032 Y-5.9814
G01 X0.9142 Y-6.0000
G01 X0.9032 Y-6.0186
G01 X0.8964 Y-6.0308
G01 X0.8900 Y-6.0433
G01 X0.8780 Y-6.0686
G01 X0.8725 Y-6.0815
G01 X0.8624 Y-6.1076
G01 X0.8536 Y-6.1342
G01 X0.8461 Y-6.1613
G01 X0.8429 Y-6.1749
G01 X0.8374 Y-6.2024
G01 X0.8333 Y-6.2301
G01 X0.8305 Y-6.2580
G01 X0.8297 Y-6.2720
G01 X0.8290 Y-6.3000
G01 X0.8290 Y-8.2934
G01 X0.8024 Y-8.2974
G01 X0.7749 Y-8.3029
G01 X0.7477 Y-8.3097
G01 X0.7342 Y-8.3136
G01 X0.7076 Y-8.3224
G01 X0.6815 Y-8.3325
G01 X0.6559 Y-8.3438
G01 X0.6433 Y-8.3500
G01 X0.6186 Y-8.3632
G01 X0.5945 Y-8.3776
G01 X0.5828 Y-8.3852
G01 X0.5598 Y-8.4014
G01 X0.5378 Y-8.4186
G01 X0.5270 Y-8.4276
G01 X0.5165 Y-8.4369
G01 X0.4962 Y-8.4562
G01 X0.4864 Y-8.4663
G01 X0.4676 Y-8.4870
G01 X0.4498 Y-8.5087
G01 X0.4332 Y-8.5312
G01 X0.4252 Y-8.5428
G01 X0.4102 Y-8.5664
G01 X0.3964 Y-8.5908
G01 X0.3838 Y-8.6159
G01 X0.3780 Y-8.6286
G01 X0.3673 Y-8.6545
G01 X0.3624 Y-8.6676
G01 X0.3536 Y-8.6942
G01 X0.3461 Y-8.7213
G01 X0.3429 Y-8.7349
G01 X0.3374 Y-8.7624
G01 X0.3333 Y-8.7901
G01 X0.3305 Y-8.8180
G01 X0.3292 Y-8.8460
G01 X0.3290 Y-8.8600
G01 X0.3292 Y-10.7740
G01 X0.3305 Y-10.8020
G01 X0.3333 Y-10.8299
G01 X0.3374 Y-10.8576
G01 X0.3429 Y-10.8851
G01 X0.3497 Y-10.9123
G01 X0.3578 Y-10.9391
G01 X0.3673 Y-10.9655
G01 X0.3780 Y-10.9914
G01 X0.3900 Y-11.0167
G01 X0.4032 Y-11.0414
G01 X0.4176 Y-11.0655
G01 X0.4332 Y-11.0888
G01 X0.4498 Y-11.1113
G01 X0.4586 Y-11.1222
G01 X0.4769 Y-11.1435
G01 X0.4962 Y-11.1638
G01 X0.5165 Y-11.1831
G01 X0.5378 Y-11.2014
G01 X0.5598 Y-11.2186
G01 X0.5828 Y-11.2348
G01 X0.6064 Y-11.2498
G01 X0.6308 Y-11.2636
G01 X0.6559 Y-11.2762
G01 X0.6815 Y-11.2875
G01 X0.7076 Y-11.2976
G01 X0.7342 Y-11.3064
G01 X0.7613 Y-11.3139
G01 X0.7886 Y-11.3200
G01 X0.8162 Y-11.3248
G01 X0.8440 Y-11.3283
G01 X0.8720 Y-11.3303
G01 X0.9000 Y-11.3310
G00 Z0.3000
G00 X0.9000 Y-11.4885
G01 F60.00
G01 Z-0.1500
G01 F240.00
G01 X8.9179 Y-11.4883
G01 X8.9536 Y-11.4866
G01 X8.9714 Y-11.4850
G01 X9.0069 Y-11.4806
G01 X9.0421 Y-11.4745
G01 X9.0770 Y-11.4667
G01 X9.1115 Y-11.4572
G01 X9.1454 Y-11.4459
G01 X9.1622 Y-11.4397
G01 X9.1952 Y-11.4260
G01 X9.2115 Y-11.4186
G01 X9.2434 Y-11.4025
G01 X9.2745 Y-11.3849
G01 X9.2898 Y-11.3755
G01 X9.3195 Y-11.3556
G01 X9.3482 Y-11.3343
G01 X9.3743 Y-11.3129
G01 X9.4032 Y-11.3184
G01 X9.4203 Y-11.3211
G01 X9.4547 Y-11.3252
G01 X9.4893 Y-11.3277
G01 X9.5240 Y-11.3285
G01 X11.2715 Y-11.3285
G01 X11.2715 Y-11.3755
G01 X11.2723 Y-11.4102
G01 X11.2748 Y-11.4448
G01 X11.2789 Y-11.4792
G01 X11.2846 Y-11.5134
G01 X11.2993 Y-11.5819
G01 X11.3080 Y-11.6172
G01 X11.3183 Y-11.6521
G01 X11.3304 Y-11.6865
G01 X11.3443 Y-11.7202
G01 X11.3597 Y-11.7531
G01 X11.3681 Y-11.7693
G01 X11.3860 Y-11.8010
G01 X11.4055 Y-11.8318
G01 X11.4264 Y-11.8615
G01 X11.4489 Y-11.8902
G01 X11.5184 Y-11.9704
G01 X11.5434 Y-11.9966
G01 X11.5697 Y-12.0214
G01 X11.5972 Y-12.0449
G01 X11.6258 Y-12.0671
G01 X11.6555 Y-12.0878
G01 X11.6862 Y-12.1069
G01 X11.7178 Y-12.1246
G01 X11.7502 Y-12.1406
G01 X11.7834 Y-12.1550
G01 X11.8173 Y-12.1678
G01 X11.8517 Y-12.1788
G01 X11.9354 Y-12.2032
G01 X11.9691 Y-12.2114
G01 X12.0032 Y-12.2179
G01 X12.0375 Y-12.2229
G01 X12.0720 Y-12.2262
G01 X12.1067 Y-12.2278
G01 X12.1240 Y-12.2280
G01 X15.3755 Y-12.2280
G01 X15.4102 Y-12.2272
G01 X15.4275 Y-12.2262
G01 X15.4620 Y-12.2229
G01 X15.4963 Y-12.2179
G01 X15.5134 Y-12.2149
G01 X15.5996 Y-12.1961
G01 X15.6348 Y-12.1866
G01 X15.6694 Y-12.1753
G01 X15.7034 Y-12.1624
G01 X15.7202 Y-12.1552
G01 X15.7367 Y-12.1477
G01 X15.7693 Y-12.1314
G01 X15.8010 Y-12.1135
G01 X15.8165 Y-12.1040
G01 X15.8318 Y-12.0940
G01 X15.8615 Y-12.0731
G01 X15.8902 Y-12.0506
G01 X15.9569 Y-11.9931
G01 X15.9836 Y-11.9688
G01 X16.0092 Y-11.9431
G01 X16.0214 Y-11.9298
G01 X16.0449 Y-11.9023
G01 X16.0671 Y-11.8737
G01 X16.0878 Y-11.8440
G01 X16.1069 Y-11.8133
G01 X16.1159 Y-11.7976
G01 X16.1246 Y-11.7817
G01 X16.1406 Y-11.7493
G01 X16.1550 Y-11.7161
G01 X16.1616 Y-11.6993
G01 X16.1735 Y-11.6651
G01 X16.1985 Y-11.5808
G01 X16.2032 Y-11.5641
G01 X16.2114 Y-11.5304
G01 X16.2179 Y-11.4963
G01 X16.2229 Y-11.4620
G01 X16.2262 Y-11.4275
G01 X16.2272 Y-11.4102
G01 X16.2280 Y-11.3755
G01 X16.2280 Y-9.5240
G01 X16.2272 Y-9.4893
G01 X16.2262 Y-9.4720
G01 X16.2229 Y-9.4375
G01 X16.2179 Y-9.4032
G01 X16.2114 Y-9.3691
G01 X16.2002 Y-9.3176
G01 X16.1961 Y-9.2999
G01 X16.1866 Y-9.2647
G01 X16.1812 Y-9.2474
G01 X16.1691 Y-9.2130
G01 X16.1552 Y-9.1793
G01 X16.1477 Y-9.1628
G01 X16.1314 Y-9.1302
G01 X16.1135 Y-9.0985
G01 X16.0940 Y-9.0677
G01 X16.0837 Y-9.0527
G01 X16.0620 Y-9.0235
G01 X16.0450 Y-9.0027
G01 X16.0671 Y-8.9742
G01 X16.0878 Y-8.9445
G01 X16.1069 Y-8.9138
G01 X16.1159 Y-8.8981
G01 X16.1246 Y-8.8822
G01 X16.1406 Y-8.8498
G01 X16.1550 Y-8.8166
G01 X16.1616 Y-8.7998
G01 X16.1678 Y-8.7827
G01 X16.1788 Y-8.7483
G01 X16.2032 Y-8.6646
G01 X16.2114 Y-8.6309
G01 X16.2179 Y-8.5968
G01 X16.2229 Y-8.5625
G01 X16.2262 Y-8.5280
G01 X16.2272 Y-8.5107
G01 X16.2280 Y-8.4760
G01 X16.2280 Y-5.1981
G01 X16.2271 Y-5.1622
G01 X16.2245 Y-5.1264
G01 X16.2201 Y-5.0908
G01 X16.2172 Y-5.0731
G01 X16.2102 Y-5.0379
G01 X16.1941 Y-4.9676
G01 X16.1847 Y-4.9336
G01 X16.1737 Y-4.9002
G01 X16.1676 Y-4.8837
G01 X16.1542 Y-4.8512
G01 X16.1392 Y-4.8193
G01 X16.1228 Y-4.7882
G01 X16.1048 Y-4.7579
G01 X16.0854 Y-4.7286
G01 X16.0646 Y-4.7002
G01 X16.0537 Y-4.6864
G01 X16.0309 Y-4.6596
G01 X15.9721 Y-4.5941
G01 X15.9467 Y-4.5684
G01 X15.9335 Y-4.5560
G01 X15.9128 Y-4.5378
G01 X15.9704 Y-4.4875
G01 X15.9836 Y-4.4752
G01 X16.0092 Y-4.4495
G01 X16.0334 Y-4.4226
G01 X16.0449 Y-4.4087
G01 X16.0562 Y-4.3945
G01 X16.0776 Y-4.3654
G01 X16.0878 Y-4.3504
G01 X16.1069 Y-4.3197
G01 X16.1246 Y-4.2881
G01 X16.1406 Y-4.2557
G01 X16.1480 Y-4.2392
G01 X16.1616 Y-4.2057
G01 X16.1678 Y-4.1887
G01 X16.1788 Y-4.1542
G01 X16.2032 Y-4.0705
G01 X16.2114 Y-4.0368
G01 X16.2179 Y-4.0027
G01 X16.2206 Y-3.9856
G01 X16.2247 Y-3.9512
G01 X16.2262 Y-3.9339
G01 X16.2272 Y-3.9166
G01 X16.2280 Y-3.8819
G01 X16.2278 Y-3.5067
G01 X16.2272 Y-3.4893
G01 X16.2247 Y-3.4547
G01 X16.2206 Y-3.4203
G01 X16.2179 Y-3.4032
G01 X16.2114 Y-3.3691
G01 X16.1961 Y-3.2999
G01 X16.1915 Y-3.2823
G01 X16.1812 Y-3.2474
G01 X16.1691 Y-3.2130
G01 X16.1624 Y-3.1961
G01 X16.1477 Y-3.1628
G01 X16.1398 Y-3.1464
G01 X16.1227 Y-3.1142
G01 X16.1040 Y-3.0830
G01 X16.0940 Y-3.0677
G01 X16.0731 Y-3.0380
G01 X16.0506 Y-3.0093
G01 X16.0389 Y-2.9954
G01 X15.9931 Y-2.9426
G01 X15.9688 Y-2.9159
G01 X15.9431 Y-2.8903
G01 X15.9162 Y-2.8661
G01 X15.8881 Y-2.8433
G01 X15.8737 Y-2.8324
G01 X15.8440 Y-2.8117
G01 X15.8133 Y-2.7926
G01 X15.7817 Y-2.7749
G01 X15.7493 Y-2.7589
G01 X15.7161 Y-2.7445
G01 X15.6993 Y-2.7379
G01 X15.6651 Y-2.7260
G01 X15.6285 Y-2.7150
G01 X15.6285 Y-1.1000
G01 X15.6277 Y-1.0643
G01 X15.6266 Y-1.0464
G01 X15.6231 Y-1.0108
G01 X15.6206 Y-0.9931
G01 X15.6145 Y-0.9579
G01 X15.6108 Y-0.9404
G01 X15.6021 Y-0.9057
G01 X15.5972 Y-0.8885
G01 X15.5859 Y-0.8546
G01 X15.5731 Y-0.8212
G01 X15.5660 Y-0.8048
G01 X15.5586 Y-0.7885
G01 X15.5425 Y-0.7566
G01 X15.5339 Y-0.7409
G01 X15.5155 Y-0.7102
G01 X15.4956 Y-0.6805
G01 X15.4852 Y-0.6660
G01 X15.4632 Y-0.6378
G01 X15.4398 Y-0.6107
G01 X15.4151 Y-0.5849
G01 X15.3893 Y-0.5602
G01 X15.3622 Y-0.5368
G01 X15.3340 Y-0.5148
G01 X15.3047 Y-0.4942
G01 X15.2745 Y-0.4751
G01 X15.2434 Y-0.4575
G01 X15.2115 Y-0.4414
G01 X15.1788 Y-0.4269
G01 X15.1454 Y-0.4141
G01 X15.1115 Y-0.4028
G01 X15.0770 Y-0.3933
G01 X15.0421 Y-0.3855
G01 X15.0069 Y-0.3794
G01 X14.9892 Y-0.3769
G01 X14.9536 Y-0.3734
G01 X14.9357 Y-0.3723
G01 X14.9000 Y-0.3715
G01 X13.5068 Y-0.3715
G01 X13.4990 Y-0.3461
G01 X13.4869 Y-0.3120
G01 X13.4731 Y-0.2786
G01 X13.4656 Y-0.2621
G01 X13.4494 Y-0.2298
G01 X13.4315 Y-0.1983
G01 X13.4122 Y-0.1678
G01 X13.4019 Y-0.1529
G01 X13.3803 Y-0.1238
G01 X13.3690 Y-0.1097
G01 X13.3116 Y-0.0431
G01 X13.2872 Y-0.0164
G01 X13.2615 Y0.0092
G01 X13.2346 Y0.0334
G01 X13.2066 Y0.0562
G01 X13.1921 Y0.0671
G01 X13.1624 Y0.0878
G01 X13.1472 Y0.0975
G01 X13.1161 Y0.1159
G01 X13.1002 Y0.1246
G01 X13.0677 Y0.1406
G01 X13.0512 Y0.1480
G01 X13.0177 Y0.1616
G01 X12.9835 Y0.1735
G01 X12.8825 Y0.2032
G01 X12.8488 Y0.2114
G01 X12.8318 Y0.2149
G01 X12.7976 Y0.2206
G01 X12.7632 Y0.2247
G01 X12.7286 Y0.2272
G01 X12.6939 Y0.2280
G01 X12.3067 Y0.2278
G01 X12.2720 Y0.2262
G01 X12.2375 Y0.2229
G01 X12.2032 Y0.2179
G01 X12.1861 Y0.2149
G01 X12.1176 Y0.2002
G01 X12.0823 Y0.1915
G01 X12.0474 Y0.1812
G01 X12.0301 Y0.1753
G01 X11.9961 Y0.1624
G01 X11.9628 Y0.1477
G01 X11.9302 Y0.1314
G01 X11.9142 Y0.1227
G01 X11.8985 Y0.1135
G01 X11.8677 Y0.0940
G01 X11.8380 Y0.0731
G01 X11.8093 Y0.0506
G01 X11.7291 Y-0.0189
G01 X11.7029 Y-0.0439
G01 X11.6781 Y-0.0702
G01 X11.6546 Y-0.0977
G01 X11.6433 Y-0.1119
G01 X11.6324 Y-0.1263
G01 X11.6117 Y-0.1560
G01 X11.5926 Y-0.1867
G01 X11.5836 Y-0.2024
G01 X11.5667 Y-0.2344
G01 X11.5515 Y-0.2672
G01 X11.5445 Y-0.2839
G01 X11.5379 Y-0.3007
G01 X11.5260 Y-0.3349
G01 X11.5010 Y-0.4192
G01 X11.4963 Y-0.4359
G01 X11.4881 Y-0.4696
G01 X11.4816 Y-0.5037
G01 X11.4789 Y-0.5208
G01 X11.4748 Y-0.5552
G01 X11.4733 Y-0.5725
G01 X11.4717 Y-0.6072
G01 X11.4715 Y-0.6715
G01 X9.5240 Y-0.6715
G01 X9.4893 Y-0.6723
G01 X9.4547 Y-0.6748
G01 X9.4203 Y-0.6789
G01 X9.4032 Y-0.6816
G01 X9.3743 Y-0.6871
G01 X9.3482 Y-0.6657
G01 X9.3195 Y-0.6444
G01 X9.2898 Y-0.6245
G01 X9.2591 Y-0.6061
G01 X9.2276 Y-0.5893
G01 X9.1952 Y-0.5740
G01 X9.1788 Y-0.5669
G01 X9.1454 Y-0.5541
G01 X9.1115 Y-0.5428
G01 X9.0770 Y-0.5333
G01 X9.0421 Y-0.5255
G01 X9.0246 Y-0.5222
G01 X8.9892 Y-0.5169
G01 X8.9536 Y-0.5134
G01 X8.9179 Y-0.5117
G01 X8.9000 Y-0.5115
G01 X0.8821 Y-0.5117
G01 X0.8643 Y-0.5123
G01 X0.8286 Y-0.5150
G01 X0.8108 Y-0.5169
G01 X0.7754 Y-0.5222
G01 X0.7404 Y-0.5292
G01 X0.7230 Y-0.5333
G01 X0.6885 Y-0.5428
G01 X0.6546 Y-0.5541
G01 X0.6212 Y-0.5669
G01 X0.6048 Y-0.5740
G01 X0.5885 Y-0.5814
G01 X0.5566 Y-0.5975
G01 X0.5409 Y-0.6061
G01 X0.5102 Y-0.6245
G01 X0.4953 Y-0.6342
G01 X0.4660 Y-0.6548
G01 X0.4518 Y-0.6657
G01 X0.4241 Y-0.6884
G01 X0.3976 Y-0.7124
G01 X0.3724 Y-0.7376
G01 X0.3484 Y-0.7641
G01 X0.3257 Y-0.7918
G01 X0.3044 Y-0.8205
G01 X0.2845 Y-0.8502
G01 X0.2661 Y-0.8809
G01 X0.2493 Y-0.9124
G01 X0.2340 Y-0.9448
G01 X0.2203 Y-0.9778
G01 X0.2082 Y-1.0115
G01 X0.1979 Y-1.0457
G01 X0.1892 Y-1.0804
G01 X0.1822 Y-1.1154
G01 X0.1769 Y-1.1508
G01 X0.1734 Y-1.1864
G01 X0.1717 Y-1.2221
G01 X0.1715 Y-1.2400
G01 X0.1715 Y-3.1400
G01 X0.1723 Y-3.1757
G01 X0.1734 Y-3.1936
G01 X0.1769 Y-3.2292
G01 X0.1822 Y-3.2646
G01 X0.1855 Y-3.2821
G01 X0.1933 Y-3.3170
G01 X0.1979 Y-3.3343
G01 X0.2028 Y-3.3515
G01 X0.2141 Y-3.3854
G01 X0.2269 Y-3.4188
G01 X0.2340 Y-3.4352
G01 X0.2493 Y-3.4676
G01 X0.2575 Y-3.4834
G01 X0.2661 Y-3.4991
G01 X0.2845 Y-3.5298
G01 X0.2942 Y-3.5447
G01 X0.3148 Y-3.5740
G01 X0.3368 Y-3.6022
G01 X0.3484 Y-3.6159
G01 X0.3602 Y-3.6293
G01 X0.3849 Y-3.6551
G01 X0.4107 Y-3.6798
G01 X0.4241 Y-3.6916
G01 X0.4378 Y-3.7032
G01 X0.4660 Y-3.7252
G01 X0.4805 Y-3.7356
G01 X0.5102 Y-3.7555
G01 X0.5409 Y-3.7739
G01 X0.5566 Y-3.7825
G01 X0.5885 Y-3.7986
G01 X0.6048 Y-3.8060
G01 X0.6378 Y-3.8197
G01 X0.6715 Y-3.8318
G01 X0.6717 Y-5.7179
G01 X0.6734 Y-5.7536
G01 X0.6769 Y-5.7892
G01 X0.6822 Y-5.8246
G01 X0.6892 Y-5.8596
G01 X0.6979 Y-5.8943
G01 X0.7082 Y-5.9285
G01 X0.7203 Y-5.9622
G01 X0.7269 Y-5.9788
G01 X0.7362 Y-6.0000
G01 X0.7269 Y-6.0212
G01 X0.7203 Y-6.0378
G01 X0.7082 Y-6.0715
G01 X0.6979 Y-6.1057
G01 X0.6892 Y-6.1404
G01 X0.6822 Y-6.1754
G01 X0.6769 Y-6.2108
G01 X0.6734 Y-6.2464
G01 X0.6717 Y-6.2821
G01 X0.6715 Y-8.1682
G01 X0.6378 Y-8.1803
G01 X0.6212 Y-8.1869
G01 X0.6048 Y-8.1940
G01 X0.5724 Y-8.2093
G01 X0.5566 Y-8.2175
G01 X0.5255 Y-8.2351
G01 X0.5102 Y-8.2445
G01 X0.4805 Y-8.2644
G01 X0.4660 Y-8.2748
G01 X0.4378 Y-8.2968
G01 X0.4241 Y-8.3084
G01 X0.3976 Y-8.3324
G01 X0.3724 Y-8.3576
G01 X0.3602 Y-8.3707
G01 X0.3368 Y-8.3978
G01 X0.3257 Y-8.4118
G01 X0.3044 Y-8.4405
G01 X0.2845 Y-8.4702
G01 X0.2751 Y-8.4855
G01 X0.2575 Y-8.5166
G01 X0.2414 Y-8.5485
G01 X0.2340 Y-8.5648
G01 X0.2203 Y-8.5978
G01 X0.2141 Y-8.6146
G01 X0.2028 Y-8.6485
G01 X0.1979 Y-8.6657
G01 X0.1892 Y-8.7004
G01 X0.1855 Y-8.7179
G01 X0.1822 Y-8.7354
G01 X0.1769 Y-8.7708
G01 X0.1734 Y-8.8064
G01 X0.1717 Y-8.8421
G01 X0.1715 Y-8.8600
G01 X0.1715 Y-10.7600
G01 X0.1723 Y-10.7957
G01 X0.1734 Y-10.8136
G01 X0.1769 Y-10.8492
G01 X0.1822 Y-10.8846
G01 X0.1892 Y-10.9196
G01 X0.1979 Y-10.9543
G01 X0.2082 Y-10.9885
G01 X0.2203 Y-11.0222
G01 X0.2340 Y-11.0552
G01 X0.2493 Y-11.0876
G01 X0.2661 Y-11.1191
G01 X0.2845 Y-11.1498
G01 X0.3044 Y-11.1795
G01 X0.3257 Y-11.2082
G01 X0.3484 Y-11.2359
G01 X0.3724 Y-11.2624
G01 X0.3976 Y-11.2876
G01 X0.4241 Y-11.3116
G01 X0.4518 Y-11.3343
G01 X0.4805 Y-11.3556
G01 X0.5102 Y-11.3755
G01 X0.5409 Y-11.3939
G01 X0.5724 Y-11.4107
G01 X0.6048 Y-11.4260
G01 X0.6378 Y-11.4397
G01 X0.6715 Y-11.4518
G01 X0.7057 Y-11.4621
G01 X0.7404 Y-11.4708
G01 X0.7754 Y-11.4778
G01 X0.8108 Y-11.4831
G01 X0.8286 Y-11.4850
G01 X0.8643 Y-11.4877
G01 X0.9000 Y-11.4885
G00 Z0.3000
G00 X9.1845 Y-6.0000
G01 F60.00
G01 Z-0.1500
G01 F240.00
G01 X9.1995 Y-6.0149
G01 X9.2131 Y-6.0299
G01 X9.2260 Y-6.0456
G01 X9.2381 Y-6.0619
G01 X9.2493 Y-6.0788
G01 X9.2598 Y-6.0962
G01 X9.2693 Y-6.1141
G01 X9.2780 Y-6.1324
G01 X9.2858 Y-6.1512
G01 X9.2926 Y-6.1703
G01 X9.2985 Y-6.1897
G01 X9.3034 Y-6.2094
G01 X9.3074 Y-6.2293
G01 X9.3104 Y-6.2494
G01 X9.3124 Y-6.2696
G01 X9.3134 Y-6.2899
G01 X9.3135 Y-8.3000
G01 X9.3130 Y-8.3203
G01 X9.3104 Y-8.3506
G01 X9.3074 Y-8.3707
G01 X9.3034 Y-8.3906
G01 X9.2957 Y-8.4200
G01 X9.2893 Y-8.4393
G01 X9.2820 Y-8.4582
G01 X9.2738 Y-8.4768
G01 X9.2647 Y-8.4949
G01 X9.2493 Y-8.5212
G01 X9.2381 Y-8.5381
G01 X9.2260 Y-8.5544
G01 X9.2131 Y-8.5701
G01 X9.2042 Y-8.5800
G01 X9.2196 Y-8.5977
G01 X9.2321 Y-8.6137
G01 X9.2493 Y-8.6388
G01 X9.2600 Y-8.6565
G01 X9.2782 Y-8.6462
G01 X9.2967 Y-8.6369
G01 X9.3061 Y-8.6327
G01 X9.3156 Y-8.6286
G01 X9.3349 Y-8.6213
G01 X9.3546 Y-8.6149
G01 X9.3645 Y-8.6121
G01 X9.3846 Y-8.6072
G01 X9.4361 Y-8.5960
G01 X9.4554 Y-8.5922
G01 X9.4847 Y-8.5884
G01 X9.5142 Y-8.5866
G01 X11.5486 Y-8.5865
G01 X11.5781 Y-8.5876
G01 X11.6016 Y-8.5899
G01 X11.5940 Y-8.5543
G01 X11.5907 Y-8.5348
G01 X11.5876 Y-8.5055
G01 X11.5865 Y-8.4760
G01 X11.5865 Y-3.5240
G01 X11.5876 Y-3.4945
G01 X11.5907 Y-3.4652
G01 X11.5960 Y-3.4361
G01 X11.6016 Y-3.4135
G01 X9.5142 Y-3.4134
G01 X9.4847 Y-3.4116
G01 X9.4652 Y-3.4093
G01 X9.4457 Y-3.4060
G01 X9.4170 Y-3.3994
G01 X9.3405 Y-3.3771
G01 X9.3209 Y-3.3708
G01 X9.3017 Y-3.3635
G01 X9.2922 Y-3.3596
G01 X9.2736 Y-3.3509
G01 X9.2598 Y-3.3437
G01 X9.2493 Y-3.3612
G01 X9.2321 Y-3.3863
G01 X9.2196 Y-3.4023
G01 X9.2042 Y-3.4200
G01 X9.2131 Y-3.4299
G01 X9.2260 Y-3.4456
G01 X9.2381 Y-3.4619
G01 X9.2493 Y-3.4788
G01 X9.2598 Y-3.4962
G01 X9.2693 Y-3.5141
G01 X9.2820 Y-3.5418
G01 X9.2926 Y-3.5703
G01 X9.2985 Y-3.5897
G01 X9.3034 Y-3.6094
G01 X9.3074 Y-3.6293
G01 X9.3104 Y-3.6494
G01 X9.3130 Y-3.6797
G01 X9.3135 Y-3.7000
G01 X9.3134 Y-5.7101
G01 X9.3124 Y-5.7304
G01 X9.3104 Y-5.7506
G01 X9.3074 Y-5.7707
G01 X9.3034 Y-5.7906
G01 X9.2985 Y-5.8103
G01 X9.2926 Y-5.8297
G01 X9.2858 Y-5.8488
G01 X9.2780 Y-5.8676
G01 X9.2693 Y-5.8859
G01 X9.2598 Y-5.9038
G01 X9.2493 Y-5.9212
G01 X9.2381 Y-5.9381
G01 X9.2260 Y-5.9544
G01 X9.2131 Y-5.9701
G01 X9.1995 Y-5.9851
G01 X9.1845 Y-6.0000
G00 Z0.3000
G00 X9.3858 Y-6.0000
G01 F60.00
G01 Z-0.1500
G01 F240.00
G01 X9.3968 Y-6.0186
G01 X9.4036 Y-6.0308
G01 X9.4162 Y-6.0559
G01 X9.4220 Y-6.0686
G01 X9.4275 Y-6.0815
G01 X9.4376 Y-6.1076
G01 X9.4464 Y-6.1342
G01 X9.4539 Y-6.1613
G01 X9.4571 Y-6.1749
G01 X9.4626 Y-6.2024
G01 X9.4667 Y-6.2301
G01 X9.4683 Y-6.2440
G01 X9.4695 Y-6.2580
G01 X9.4708 Y-6.2860
G01 X9.4710 Y-8.3000
G01 X9.4703 Y-8.3280
G01 X9.4695 Y-8.3420
G01 X9.4667 Y-8.3699
G01 X9.4626 Y-8.3976
G01 X9.4600 Y-8.4114
G01 X9.4552 Y-8.4332
G01 X9.4833 Y-8.4304
G01 X9.5104 Y-8.4292
G01 X9.5240 Y-8.4290
G01 X11.4290 Y-8.4290
G01 X11.4290 Y-3.5710
G01 X9.5240 Y-3.5710
G01 X9.5104 Y-3.5708
G01 X9.4833 Y-3.5696
G01 X9.4552 Y-3.5668
G01 X9.4600 Y-3.5886
G01 X9.4626 Y-3.6024
G01 X9.4667 Y-3.6301
G01 X9.4695 Y-3.6580
G01 X9.4708 Y-3.6860
G01 X9.4710 Y-3.7000
G01 X9.4708 Y-5.7140
G01 X9.4695 Y-5.7420
G01 X9.4667 Y-5.7699
G01 X9.4648 Y-5.7838
G01 X9.4600 Y-5.8114
G01 X9.4571 Y-5.8251
G01 X9.4503 Y-5.8523
G01 X9.4464 Y-5.8658
G01 X9.4376 Y-5.8924
G01 X9.4327 Y-5.9055
G01 X9.4220 Y-5.9314
G01 X9.4162 Y-5.9441
G01 X9.4036 Y-5.9692
G01 X9.3968 Y-5.9814
G01 X9.3858 Y-6.0000
G00 Z0.3000
G00 X9.5638 Y-6.0000
G01 F60.00
G01 Z-0.1500
G01 F240.00
G01 X9.5731 Y-6.0212
G01 X9.5797 Y-6.0378
G01 X9.5918 Y-6.0715
G01 X9.6021 Y-6.1057
G01 X9.6108 Y-6.1404
G01 X9.6178 Y-6.1754
G01 X9.6231 Y-6.2108
G01 X9.6266 Y-6.2464
G01 X9.6283 Y-6.2821
G01 X9.6285 Y-8.2715
G01 X11.2715 Y-8.2715
G01 X11.2715 Y-3.7285
G01 X9.6285 Y-3.7285
G01 X9.6283 Y-5.7179
G01 X9.6266 Y-5.7536
G01 X9.6231 Y-5.7892
G01 X9.6178 Y-5.8246
G01 X9.6108 Y-5.8596
G01 X9.6021 Y-5.8943
G01 X9.5918 Y-5.9285
G01 X9.5797 Y-5.9622
G01 X9.5731 Y-5.9788
G01 X9.5638 Y-6.0000
G00 Z0.3000
G00 X11.7440 Y-3.5240
G01 F60.00
G01 Z-0.1500
G01 F240.00
G01 X11.7441 Y-8.4821
G01 X11.7447 Y-8.4943
G01 X11.7458 Y-8.5064
G01 X11.7487 Y-8.5244
G01 X11.7625 Y-8.5882
G01 X11.7678 Y-8.6066
G01 X11.7744 Y-8.6246
G01 X11.7823 Y-8.6421
G01 X11.7915 Y-8.6589
G01 X11.7984 Y-8.6697
G01 X11.8057 Y-8.6802
G01 X11.8178 Y-8.6951
G01 X11.8635 Y-8.7479
G01 X11.8765 Y-8.7619
G01 X11.8905 Y-8.7748
G01 X11.9055 Y-8.7866
G01 X11.9213 Y-8.7974
G01 X11.9322 Y-8.8038
G01 X11.9435 Y-8.8097
G01 X11.9550 Y-8.8151
G01 X11.9727 Y-8.8220
G01 X11.9848 Y-8.8259
G01 X12.0577 Y-8.8472
G01 X12.0756 Y-8.8513
G01 X12.0876 Y-8.8534
G01 X12.0997 Y-8.8548
G01 X12.1179 Y-8.8559
G01 X12.6831 Y-8.8560
G01 X12.6955 Y-8.8557
G01 X12.7139 Y-8.8541
G01 X12.7261 Y-8.8523
G01 X12.7442 Y-8.8486
G01 X12.8129 Y-8.8300
G01 X12.8312 Y-8.8243
G01 X12.8491 Y-8.8172
G01 X12.8607 Y-8.8117
G01 X12.8720 Y-8.8057
G01 X12.8829 Y-8.7991
G01 X12.8936 Y-8.7920
G01 X12.9039 Y-8.7843
G01 X12.9137 Y-8.7762
G01 X12.9232 Y-8.7675
G01 X12.9345 Y-8.7560
G01 X13.2485 Y-8.7560
G01 X13.2637 Y-8.7671
G01 X13.2742 Y-8.7741
G01 X13.3060 Y-8.7932
G01 X13.3171 Y-8.7991
G01 X13.3564 Y-8.8175
G01 X13.3971 Y-8.8323
G01 X13.4152 Y-8.8375
G01 X13.4451 Y-8.8449
G01 X13.4575 Y-8.8474
G01 X13.5004 Y-8.8535
G01 X13.5437 Y-8.8559
G01 X14.4500 Y-8.8560
G01 X14.4933 Y-8.8541
G01 X14.5121 Y-8.8520
G01 X14.5425 Y-8.8474
G01 X14.5549 Y-8.8449
G01 X14.5969 Y-8.8342
G01 X14.6378 Y-8.8198
G01 X14.6551 Y-8.8124
G01 X14.6829 Y-8.7991
G01 X14.6940 Y-8.7932
G01 X14.7258 Y-8.7741
G01 X14.7363 Y-8.7671
G01 X14.7515 Y-8.7560
G01 X15.0637 Y-8.7560
G01 X15.0740 Y-8.7663
G01 X15.0834 Y-8.7748
G01 X15.0933 Y-8.7828
G01 X15.1035 Y-8.7903
G01 X15.1141 Y-8.7974
G01 X15.1307 Y-8.8069
G01 X15.1421 Y-8.8125
G01 X15.1537 Y-8.8176
G01 X15.1656 Y-8.8220
G01 X15.1777 Y-8.8259
G01 X15.2565 Y-8.8488
G01 X15.2684 Y-8.8513
G01 X15.2804 Y-8.8534
G01 X15.2925 Y-8.8548
G01 X15.3047 Y-8.8557
G01 X15.3755 Y-8.8560
G01 X15.3877 Y-8.8557
G01 X15.3998 Y-8.8548
G01 X15.4119 Y-8.8534
G01 X15.4239 Y-8.8513
G01 X15.4814 Y-8.8389
G01 X15.4939 Y-8.8359
G01 X15.5061 Y-8.8322
G01 X15.5182 Y-8.8280
G01 X15.5300 Y-8.8231
G01 X15.5416 Y-8.8177
G01 X15.5529 Y-8.8117
G01 X15.5692 Y-8.8016
G01 X15.5797 Y-8.7943
G01 X15.5946 Y-8.7822
G01 X15.6474 Y-8.7365
G01 X15.6614 Y-8.7235
G01 X15.6743 Y-8.7095
G01 X15.6861 Y-8.6945
G01 X15.6934 Y-8.6841
G01 X15.7033 Y-8.6678
G01 X15.7092 Y-8.6565
G01 X15.7146 Y-8.6450
G01 X15.7215 Y-8.6273
G01 X15.7254 Y-8.6152
G01 X15.7451 Y-8.5481
G01 X15.7483 Y-8.5363
G01 X15.7519 Y-8.5184
G01 X15.7543 Y-8.5003
G01 X15.7552 Y-8.4882
G01 X15.7555 Y-8.4760
G01 X15.7555 Y-5.1981
G01 X15.7552 Y-5.1855
G01 X15.7542 Y-5.1729
G01 X15.7527 Y-5.1604
G01 X15.7505 Y-5.1480
G01 X15.7372 Y-5.0886
G01 X15.7342 Y-5.0766
G01 X15.7306 Y-5.0648
G01 X15.7242 Y-5.0474
G01 X15.7192 Y-5.0361
G01 X15.7137 Y-5.0250
G01 X15.7076 Y-5.0142
G01 X15.7010 Y-5.0037
G01 X15.6940 Y-4.9936
G01 X15.6864 Y-4.9838
G01 X15.6784 Y-4.9744
G01 X15.6319 Y-4.9223
G01 X15.6232 Y-4.9130
G01 X15.6140 Y-4.9042
G01 X15.6044 Y-4.8958
G01 X15.5945 Y-4.8879
G01 X15.5841 Y-4.8806
G01 X15.5679 Y-4.8705
G01 X15.5567 Y-4.8645
G01 X15.5452 Y-4.8590
G01 X15.5335 Y-4.8541
G01 X15.5215 Y-4.8498
G01 X15.5094 Y-4.8461
G01 X15.4420 Y-4.8274
G01 X15.4297 Y-4.8244
G01 X15.4173 Y-4.8219
G01 X15.4047 Y-4.8200
G01 X15.3857 Y-4.8184
G01 X15.3666 Y-4.8182
G01 X15.3485 Y-4.8194
G01 X15.1522 Y-4.6231
G01 X15.1557 Y-4.5526
G01 X15.1560 Y-4.5400
G01 X15.1557 Y-4.5274
G01 X15.1522 Y-4.4569
G01 X15.3487 Y-4.2604
G01 X15.3690 Y-4.2604
G01 X15.3880 Y-4.2588
G01 X15.4634 Y-4.2481
G01 X15.4760 Y-4.2459
G01 X15.4884 Y-4.2432
G01 X15.5067 Y-4.2379
G01 X15.5246 Y-4.2313
G01 X15.5419 Y-4.2234
G01 X15.5532 Y-4.2174
G01 X15.5641 Y-4.2109
G01 X15.5746 Y-4.2038
G01 X15.5848 Y-4.1962
G01 X15.5946 Y-4.1882
G01 X15.6522 Y-4.1382
G01 X15.6614 Y-4.1294
G01 X15.6743 Y-4.1154
G01 X15.6861 Y-4.1004
G01 X15.6969 Y-4.0847
G01 X15.7033 Y-4.0737
G01 X15.7120 Y-4.0567
G01 X15.7171 Y-4.0451
G01 X15.7235 Y-4.0271
G01 X15.7451 Y-3.9540
G01 X15.7483 Y-3.9423
G01 X15.7519 Y-3.9244
G01 X15.7543 Y-3.9062
G01 X15.7552 Y-3.8941
G01 X15.7555 Y-3.8819
G01 X15.7555 Y-3.5240
G01 X15.7548 Y-3.5057
G01 X15.7529 Y-3.4876
G01 X15.7508 Y-3.4756
G01 X15.7384 Y-3.4181
G01 X15.7336 Y-3.3995
G01 X15.7275 Y-3.3813
G01 X15.7200 Y-3.3637
G01 X15.7143 Y-3.3522
G01 X15.7046 Y-3.3356
G01 X15.6938 Y-3.3198
G01 X15.6817 Y-3.3049
G01 X15.6318 Y-3.2473
G01 X15.6184 Y-3.2337
G01 X15.6041 Y-3.2211
G01 X15.5889 Y-3.2097
G01 X15.5728 Y-3.1993
G01 X15.5617 Y-3.1931
G01 X15.5503 Y-3.1875
G01 X15.5387 Y-3.1824
G01 X15.5207 Y-3.1760
G01 X15.4418 Y-3.1528
G01 X15.4299 Y-3.1499
G01 X15.4179 Y-3.1476
G01 X15.4059 Y-3.1458
G01 X15.3938 Y-3.1447
G01 X15.3755 Y-3.1440
G01 X14.9772 Y-3.1440
G01 X14.9980 Y-3.1365
G01 X15.0151 Y-3.1286
G01 X15.0316 Y-3.1196
G01 X15.0474 Y-3.1093
G01 X15.0575 Y-3.1018
G01 X15.0672 Y-3.0938
G01 X15.0810 Y-3.0810
G01 X15.0938 Y-3.0672
G01 X15.1056 Y-3.0525
G01 X15.1128 Y-3.0422
G01 X15.1196 Y-3.0316
G01 X15.1286 Y-3.0151
G01 X15.1365 Y-2.9980
G01 X15.1431 Y-2.9803
G01 X15.1483 Y-2.9622
G01 X15.1522 Y-2.9438
G01 X15.1547 Y-2.9251
G01 X15.1559 Y-2.9063
G01 X15.1560 Y-1.1000
G01 X15.1553 Y-1.0812
G01 X15.1532 Y-1.0624
G01 X15.1511 Y-1.0501
G01 X15.1467 Y-1.0317
G01 X15.1410 Y-1.0138
G01 X15.1365 Y-1.0020
G01 X15.1286 Y-0.9849
G01 X15.1227 Y-0.9738
G01 X15.1128 Y-0.9578
G01 X15.1056 Y-0.9475
G01 X15.0938 Y-0.9328
G01 X15.0854 Y-0.9235
G01 X15.0719 Y-0.9103
G01 X15.0575 Y-0.8982
G01 X15.0422 Y-0.8872
G01 X15.0316 Y-0.8804
G01 X15.0151 Y-0.8714
G01 X15.0037 Y-0.8660
G01 X14.9862 Y-0.8590
G01 X14.9743 Y-0.8551
G01 X14.9622 Y-0.8517
G01 X14.9438 Y-0.8478
G01 X14.9313 Y-0.8460
G01 X14.9188 Y-0.8447
G01 X14.9063 Y-0.8441
G01 X13.1000 Y-0.8440
G01 X13.0812 Y-0.8447
G01 X13.0687 Y-0.8460
G01 X13.0562 Y-0.8478
G01 X13.0378 Y-0.8517
G01 X13.0197 Y-0.8569
G01 X13.0079 Y-0.8612
G01 X12.9963 Y-0.8660
G01 X12.9810 Y-0.8734
G01 X12.9915 Y-0.8605
G01 X12.9989 Y-0.8503
G01 X13.0089 Y-0.8343
G01 X13.0150 Y-0.8233
G01 X13.0205 Y-0.8120
G01 X13.0495 Y-0.7485
G01 X13.0545 Y-0.7368
G01 X13.0589 Y-0.7249
G01 X13.0627 Y-0.7127
G01 X13.0659 Y-0.7004
G01 X13.0685 Y-0.6880
G01 X13.0712 Y-0.6691
G01 X13.0722 Y-0.6564
G01 X13.0726 Y-0.6437
G01 X13.0724 Y-0.6310
G01 X13.0715 Y-0.6183
G01 X13.0700 Y-0.6057
G01 X13.0601 Y-0.5366
G01 X13.0567 Y-0.5178
G01 X13.0536 Y-0.5055
G01 X13.0500 Y-0.4933
G01 X13.0457 Y-0.4813
G01 X13.0382 Y-0.4638
G01 X13.0325 Y-0.4524
G01 X13.0263 Y-0.4414
G01 X13.0195 Y-0.4306
G01 X13.0083 Y-0.4152
G01 X13.0002 Y-0.4054
G01 X12.9544 Y-0.3526
G01 X12.9459 Y-0.3432
G01 X12.9369 Y-0.3342
G01 X12.9274 Y-0.3257
G01 X12.9175 Y-0.3177
G01 X12.9020 Y-0.3066
G01 X12.8913 Y-0.2998
G01 X12.8802 Y-0.2936
G01 X12.8630 Y-0.2854
G01 X12.8512 Y-0.2806
G01 X12.8392 Y-0.2765
G01 X12.7661 Y-0.2549
G01 X12.7484 Y-0.2504
G01 X12.7304 Y-0.2471
G01 X12.7122 Y-0.2452
G01 X12.6939 Y-0.2445
G01 X12.3179 Y-0.2446
G01 X12.2997 Y-0.2457
G01 X12.2816 Y-0.2481
G01 X12.2181 Y-0.2616
G01 X12.2056 Y-0.2646
G01 X12.1873 Y-0.2703
G01 X12.1695 Y-0.2774
G01 X12.1522 Y-0.2857
G01 X12.1356 Y-0.2954
G01 X12.1198 Y-0.3062
G01 X12.1049 Y-0.3183
G01 X12.0473 Y-0.3682
G01 X12.0337 Y-0.3816
G01 X12.0211 Y-0.3959
G01 X12.0134 Y-0.4060
G01 X12.0061 Y-0.4164
G01 X11.9993 Y-0.4272
G01 X11.9931 Y-0.4383
G01 X11.9875 Y-0.4497
G01 X11.9824 Y-0.4613
G01 X11.9780 Y-0.4732
G01 X11.9741 Y-0.4853
G01 X11.9512 Y-0.5642
G01 X11.9487 Y-0.5761
G01 X11.9466 Y-0.5881
G01 X11.9452 Y-0.6002
G01 X11.9443 Y-0.6123
G01 X11.9440 Y-0.6245
G01 X11.9440 Y-1.1440
G01 X9.5240 Y-1.1440
G01 X9.5118 Y-1.1443
G01 X9.4997 Y-1.1452
G01 X9.4876 Y-1.1466
G01 X9.4756 Y-1.1487
G01 X9.4181 Y-1.1611
G01 X9.3995 Y-1.1659
G01 X9.3813 Y-1.1720
G01 X9.3637 Y-1.1795
G01 X9.3522 Y-1.1852
G01 X9.3411 Y-1.1915
G01 X9.3303 Y-1.1984
G01 X9.3198 Y-1.2057
G01 X9.3049 Y-1.2178
G01 X9.2521 Y-1.2635
G01 X9.2381 Y-1.2765
G01 X9.2294 Y-1.2858
G01 X9.2211 Y-1.2954
G01 X9.2134 Y-1.3055
G01 X9.2061 Y-1.3159
G01 X9.1993 Y-1.3267
G01 X9.1931 Y-1.3378
G01 X9.1875 Y-1.3492
G01 X9.1824 Y-1.3608
G01 X9.1760 Y-1.3788
G01 X9.1596 Y-1.4340
G01 X9.1560 Y-1.4340
G01 X9.1560 Y-1.2400
G01 X9.1557 Y-1.2274
G01 X9.1540 Y-1.2087
G01 X9.1522 Y-1.1962
G01 X9.1498 Y-1.1839
G01 X9.1467 Y-1.1717
G01 X9.1431 Y-1.1597
G01 X9.1388 Y-1.1479
G01 X9.1340 Y-1.1363
G01 X9.1286 Y-1.1249
G01 X9.1227 Y-1.1138
G01 X9.1128 Y-1.0978
G01 X9.1056 Y-1.0875
G01 X9.0938 Y-1.0728
G01 X9.0810 Y-1.0590
G01 X9.0719 Y-1.0503
G01 X9.0575 Y-1.0382
G01 X9.0474 Y-1.0307
G01 X9.0316 Y-1.0204
G01 X9.0151 Y-1.0114
G01 X9.0037 Y-1.0060
G01 X8.9921 Y-1.0012
G01 X8.9743 Y-0.9951
G01 X8.9561 Y-0.9902
G01 X8.9376 Y-0.9868
G01 X8.9188 Y-0.9847
G01 X8.9063 Y-0.9841
G01 X0.8937 Y-0.9841
G01 X0.8749 Y-0.9853
G01 X0.8624 Y-0.9868
G01 X0.8501 Y-0.9889
G01 X0.8378 Y-0.9917
G01 X0.8257 Y-0.9951
G01 X0.8079 Y-1.0012
G01 X0.7906 Y-1.0086
G01 X0.7793 Y-1.0143
G01 X0.7684 Y-1.0204
G01 X0.7578 Y-1.0272
G01 X0.7475 Y-1.0344
G01 X0.7328 Y-1.0462
G01 X0.7235 Y-1.0546
G01 X0.7146 Y-1.0635
G01 X0.7021 Y-1.0776
G01 X0.6907 Y-1.0926
G01 X0.6837 Y-1.1031
G01 X0.6773 Y-1.1138
G01 X0.6686 Y-1.1306
G01 X0.6612 Y-1.1479
G01 X0.6551 Y-1.1657
G01 X0.6517 Y-1.1778
G01 X0.6489 Y-1.1901
G01 X0.6468 Y-1.2024
G01 X0.6453 Y-1.2149
G01 X0.6443 Y-1.2274
G01 X0.6440 Y-1.2400
G01 X0.6440 Y-3.1400
G01 X0.6443 Y-3.1526
G01 X0.6453 Y-3.1651
G01 X0.6478 Y-3.1838
G01 X0.6502 Y-3.1961
G01 X0.6533 Y-3.2083
G01 X0.6590 Y-3.2262
G01 X0.6660 Y-3.2437
G01 X0.6743 Y-3.2607
G01 X0.6837 Y-3.2769
G01 X0.6907 Y-3.2874
G01 X0.6982 Y-3.2975
G01 X0.7103 Y-3.3119
G01 X0.7190 Y-3.3210
G01 X0.7281 Y-3.3297
G01 X0.7425 Y-3.3418
G01 X0.7578 Y-3.3528
G01 X0.7738 Y-3.3627
G01 X0.7906 Y-3.3714
G01 X0.8079 Y-3.3788
G01 X0.8257 Y-3.3849
G01 X0.8378 Y-3.3883
G01 X0.8501 Y-3.3911
G01 X0.8624 Y-3.3932
G01 X0.8749 Y-3.3947
G01 X0.8874 Y-3.3957
G01 X0.9000 Y-3.3960
G01 X8.9000 Y-3.3960
G01 X8.9126 Y-3.3957
G01 X8.9313 Y-3.3940
G01 X8.9438 Y-3.3922
G01 X8.9622 Y-3.3883
G01 X8.9743 Y-3.3849
G01 X8.9862 Y-3.3810
G01 X9.0037 Y-3.3740
G01 X9.0151 Y-3.3686
G01 X9.0316 Y-3.3596
G01 X9.0422 Y-3.3528
G01 X9.0575 Y-3.3418
G01 X9.0719 Y-3.3297
G01 X9.0854 Y-3.3165
G01 X9.0979 Y-3.3024
G01 X9.1056 Y-3.2925
G01 X9.1128 Y-3.2822
G01 X9.1227 Y-3.2662
G01 X9.1286 Y-3.2551
G01 X9.1340 Y-3.2437
G01 X9.1388 Y-3.2321
G01 X9.1431 Y-3.2203
G01 X9.1467 Y-3.2083
G01 X9.1498 Y-3.1961
G01 X9.1532 Y-3.1776
G01 X9.1547 Y-3.1651
G01 X9.1557 Y-3.1526
G01 X9.1560 Y-3.1400
G01 X9.1560 Y-2.9584
G01 X9.1641 Y-2.9944
G01 X9.1678 Y-3.0066
G01 X9.1720 Y-3.0187
G01 X9.1769 Y-3.0305
G01 X9.1823 Y-3.0421
G01 X9.1883 Y-3.0534
G01 X9.1949 Y-3.0644
G01 X9.2057 Y-3.0802
G01 X9.2178 Y-3.0951
G01 X9.2677 Y-3.1527
G01 X9.2811 Y-3.1663
G01 X9.2905 Y-3.1748
G01 X9.3055 Y-3.1866
G01 X9.3159 Y-3.1939
G01 X9.3267 Y-3.2007
G01 X9.3378 Y-3.2069
G01 X9.3492 Y-3.2125
G01 X9.3668 Y-3.2199
G01 X9.3848 Y-3.2259
G01 X9.4577 Y-3.2472
G01 X9.4756 Y-3.2513
G01 X9.4876 Y-3.2534
G01 X9.4997 Y-3.2548
G01 X9.5118 Y-3.2557
G01 X9.5240 Y-3.2560
G01 X11.7565 Y-3.2559
G01 X11.7687 Y-3.2553
G01 X11.7808 Y-3.2542
G01 X11.7929 Y-3.2524
G01 X11.8108 Y-3.2488
G01 X11.8226 Y-3.2456
G01 X11.8988 Y-3.2230
G01 X11.8473 Y-3.2677
G01 X11.8381 Y-3.2765
G01 X11.8294 Y-3.2858
G01 X11.8211 Y-3.2954
G01 X11.8097 Y-3.3106
G01 X11.8026 Y-3.3213
G01 X11.7931 Y-3.3378
G01 X11.7849 Y-3.3550
G01 X11.7780 Y-3.3727
G01 X11.7741 Y-3.3848
G01 X11.7528 Y-3.4577
G01 X11.7487 Y-3.4756
G01 X11.7458 Y-3.4936
G01 X11.7447 Y-3.5057
G01 X11.7440 Y-3.5240
G00 Z0.3000
G00 X11.9016 Y-3.5240
G01 F60.00
G01 Z-0.1500
G01 F240.00
G01 X11.9016 Y-8.4760
G01 X11.9020 Y-8.4854
G01 X11.9033 Y-8.4946
G01 X11.9162 Y-8.5532
G01 X11.9184 Y-8.5603
G01 X11.9221 Y-8.5694
G01 X11.9255 Y-8.5759
G01 X11.9307 Y-8.5842
G01 X11.9368 Y-8.5920
G01 X11.9859 Y-8.6484
G01 X11.9911 Y-8.6535
G01 X11.9967 Y-8.6582
G01 X12.0069 Y-8.6651
G01 X12.0155 Y-8.6696
G01 X12.0269 Y-8.6741
G01 X12.0963 Y-8.6945
G01 X12.1031 Y-8.6962
G01 X12.1100 Y-8.6974
G01 X12.1217 Y-8.6984
G01 X12.6831 Y-8.6984
G01 X12.6902 Y-8.6982
G01 X12.6973 Y-8.6974
G01 X12.7089 Y-8.6950
G01 X12.7740 Y-8.6773
G01 X12.7855 Y-8.6731
G01 X12.7965 Y-8.6674
G01 X12.8046 Y-8.6619
G01 X12.8140 Y-8.6540
G01 X12.8664 Y-8.5984
G01 X13.3057 Y-8.5984
G01 X13.3289 Y-8.6194
G01 X13.3564 Y-8.6397
G01 X13.3857 Y-8.6573
G01 X13.4167 Y-8.6719
G01 X13.4489 Y-8.6834
G01 X13.4820 Y-8.6918
G01 X13.5158 Y-8.6968
G01 X13.5476 Y-8.6984
G01 X14.4500 Y-8.6984
G01 X14.4842 Y-8.6968
G01 X14.5180 Y-8.6918
G01 X14.5465 Y-8.6847
G01 X14.5557 Y-8.6819
G01 X14.5811 Y-8.6728
G01 X14.5878 Y-8.6700
G01 X14.6143 Y-8.6573
G01 X14.6436 Y-8.6397
G01 X14.6711 Y-8.6194
G01 X14.6943 Y-8.5984
G01 X15.1353 Y-8.5984
G01 X15.1787 Y-8.6484
G01 X15.1840 Y-8.6535
G01 X15.1896 Y-8.6582
G01 X15.1997 Y-8.6651
G01 X15.2106 Y-8.6706
G01 X15.2221 Y-8.6748
G01 X15.2914 Y-8.6951
G01 X15.3005 Y-8.6971
G01 X15.3075 Y-8.6980
G01 X15.3169 Y-8.6984
G01 X15.3755 Y-8.6984
G01 X15.3849 Y-8.6980
G01 X15.3918 Y-8.6971
G01 X15.4479 Y-8.6850
G01 X15.4551 Y-8.6832
G01 X15.4621 Y-8.6808
G01 X15.4689 Y-8.6779
G01 X15.4754 Y-8.6745
G01 X15.4837 Y-8.6693
G01 X15.4915 Y-8.6632
G01 X15.5479 Y-8.6141
G01 X15.5562 Y-8.6052
G01 X15.5606 Y-8.5993
G01 X15.5646 Y-8.5931
G01 X15.5691 Y-8.5845
G01 X15.5736 Y-8.5731
G01 X15.5940 Y-8.5037
G01 X15.5957 Y-8.4969
G01 X15.5969 Y-8.4900
G01 X15.5979 Y-8.4783
G01 X15.5979 Y-5.1981
G01 X15.5972 Y-5.1860
G01 X15.5955 Y-5.1764
G01 X15.5824 Y-5.1186
G01 X15.5785 Y-5.1074
G01 X15.5734 Y-5.0967
G01 X15.5683 Y-5.0886
G01 X15.5609 Y-5.0793
G01 X15.5127 Y-5.0254
G01 X15.5038 Y-5.0170
G01 X15.4960 Y-5.0112
G01 X15.4898 Y-5.0073
G01 X15.4811 Y-5.0029
G01 X15.4720 Y-4.9993
G01 X15.3999 Y-4.9792
G01 X15.3928 Y-4.9775
G01 X15.3856 Y-4.9764
G01 X15.3783 Y-4.9758
G01 X15.3709 Y-4.9757
G01 X15.3636 Y-4.9762
G01 X15.3540 Y-4.9776
G01 X15.3445 Y-4.9801
G01 X15.3002 Y-4.9938
G01 X14.9874 Y-4.6810
G01 X14.9938 Y-4.6355
G01 X14.9984 Y-4.5400
G01 X14.9938 Y-4.4445
G01 X14.9874 Y-4.3990
G01 X15.2999 Y-4.0864
G01 X15.3192 Y-4.0952
G01 X15.3307 Y-4.0993
G01 X15.3426 Y-4.1019
G01 X15.3499 Y-4.1028
G01 X15.3572 Y-4.1031
G01 X15.3694 Y-4.1024
G01 X15.4410 Y-4.0921
G01 X15.4482 Y-4.0908
G01 X15.4577 Y-4.0883
G01 X15.4668 Y-4.0848
G01 X15.4755 Y-4.0804
G01 X15.4838 Y-4.0751
G01 X15.4896 Y-4.0707
G01 X15.5479 Y-4.0201
G01 X15.5562 Y-4.0111
G01 X15.5606 Y-4.0052
G01 X15.5646 Y-3.9991
G01 X15.5691 Y-3.9904
G01 X15.5736 Y-3.9790
G01 X15.5940 Y-3.9096
G01 X15.5957 Y-3.9028
G01 X15.5969 Y-3.8959
G01 X15.5977 Y-3.8889
G01 X15.5979 Y-3.8819
G01 X15.5977 Y-3.5170
G01 X15.5969 Y-3.5100
G01 X15.5957 Y-3.5031
G01 X15.5827 Y-3.4444
G01 X15.5803 Y-3.4374
G01 X15.5774 Y-3.4306
G01 X15.5728 Y-3.4220
G01 X15.5688 Y-3.4158
G01 X15.5627 Y-3.4080
G01 X15.5153 Y-3.3534
G01 X15.5102 Y-3.3482
G01 X15.5047 Y-3.3433
G01 X15.4947 Y-3.3362
G01 X15.4840 Y-3.3304
G01 X15.4726 Y-3.3259
G01 X15.4010 Y-3.3049
G01 X15.3918 Y-3.3029
G01 X15.3849 Y-3.3020
G01 X15.3755 Y-3.3016
G01 X14.9592 Y-3.3016
G01 X14.9452 Y-3.3020
G01 X14.4838 Y-3.3020
G01 X14.4759 Y-3.3024
G01 X14.4397 Y-3.3065
G01 X14.4303 Y-3.3087
G01 X14.4211 Y-3.3118
G01 X14.4102 Y-3.3169
G01 X14.3489 Y-3.3504
G01 X14.3428 Y-3.3540
G01 X14.3371 Y-3.3580
G01 X14.3316 Y-3.3624
G01 X14.3265 Y-3.3672
G01 X14.1410 Y-3.5526
G01 X14.0955 Y-3.5462
G01 X14.0000 Y-3.5416
G01 X13.9045 Y-3.5462
G01 X13.8590 Y-3.5526
G01 X13.6735 Y-3.3672
G01 X13.6677 Y-3.3618
G01 X13.6432 Y-3.3420
G01 X13.6372 Y-3.3378
G01 X13.6289 Y-3.3329
G01 X13.6224 Y-3.3298
G01 X13.6156 Y-3.3272
G01 X13.5440 Y-3.3060
G01 X13.5372 Y-3.3043
G01 X13.5303 Y-3.3031
G01 X13.5233 Y-3.3023
G01 X13.5162 Y-3.3020
G01 X13.0547 Y-3.3020
G01 X13.0408 Y-3.3016
G01 X12.1217 Y-3.3016
G01 X12.1123 Y-3.3022
G01 X12.1054 Y-3.3033
G01 X12.0492 Y-3.3156
G01 X12.0397 Y-3.3184
G01 X12.0284 Y-3.3232
G01 X12.0199 Y-3.3280
G01 X12.0099 Y-3.3352
G01 X11.9552 Y-3.3826
G01 X11.9499 Y-3.3876
G01 X11.9433 Y-3.3948
G01 X11.9362 Y-3.4048
G01 X11.9314 Y-3.4133
G01 X11.9267 Y-3.4246
G01 X11.9043 Y-3.5008
G01 X11.9022 Y-3.5123
G01 X11.9016 Y-3.5240
G00 Z0.3000
G00 X12.5331 Y-3.1440
G01 F60.00
G01 Z-0.1500
G01 F240.00
G01 X13.0228 Y-3.1440
G01 X13.0020 Y-3.1365
G01 X12.9906 Y-3.1314
G01 X12.9793 Y-3.1257
G01 X12.9684 Y-3.1196
G01 X12.9578 Y-3.1128
G01 X12.9425 Y-3.1018
G01 X12.9328 Y-3.0938
G01 X12.9235 Y-3.0854
G01 X12.9146 Y-3.0765
G01 X12.9062 Y-3.0672
G01 X12.8944 Y-3.0525
G01 X12.8872 Y-3.0422
G01 X12.8804 Y-3.0316
G01 X12.8743 Y-3.0207
G01 X12.8686 Y-3.0094
G01 X12.8612 Y-2.9921
G01 X12.8569 Y-2.9803
G01 X12.8533 Y-2.9683
G01 X12.8489 Y-2.9499
G01 X12.8460 Y-2.9313
G01 X12.8443 Y-2.9126
G01 X12.8440 Y-2.8480
G01 X12.8240 Y-2.9157
G01 X12.8176 Y-2.9337
G01 X12.8097 Y-2.9510
G01 X12.8038 Y-2.9623
G01 X12.7974 Y-2.9732
G01 X12.7866 Y-2.9890
G01 X12.7748 Y-3.0040
G01 X12.7663 Y-3.0134
G01 X12.7573 Y-3.0224
G01 X12.7479 Y-3.0310
G01 X12.6951 Y-3.0767
G01 X12.6853 Y-3.0849
G01 X12.6697 Y-3.0961
G01 X12.6589 Y-3.1030
G01 X12.6478 Y-3.1093
G01 X12.6363 Y-3.1150
G01 X12.6246 Y-3.1201
G01 X12.6127 Y-3.1247
G01 X12.6005 Y-3.1286
G01 X12.5819 Y-3.1334
G01 X12.5331 Y-3.1440
G00 Z0.3000
G00 X12.7576 Y-4.1440
G01 F60.00
G01 Z-0.1500
G01 F240.00
G01 X12.7118 Y-4.3250
G01 X12.6940 Y-4.5400
G01 X12.7118 Y-4.7550
G01 X12.7576 Y-4.9360
G01 X13.0126 Y-4.6810
G01 X13.0062 Y-4.6355
G01 X13.0016 Y-4.5400
G01 X13.0062 Y-4.4445
G01 X13.0126 Y-4.3990
G01 X12.7576 Y-4.1440
G00 Z0.3000
G00 X13.5920 Y-3.1560
G01 F60.00
G01 Z-0.1500
G01 F240.00
G01 X13.6614 Y-3.1764
G01 X13.6791 Y-3.1828
G01 X13.6907 Y-3.1878
G01 X13.7075 Y-3.1964
G01 X13.7236 Y-3.2061
G01 X13.7339 Y-3.2132
G01 X13.7645 Y-3.2375
G01 X13.7800 Y-3.2510
G01 X13.9169 Y-3.3878
G01 X13.9874 Y-3.3843
G01 X14.0000 Y-3.3840
G01 X14.0126 Y-3.3843
G01 X14.0831 Y-3.3878
G01 X14.2151 Y-3.2558
G01 X14.2285 Y-3.2434
G01 X14.2427 Y-3.2319
G01 X14.2526 Y-3.2248
G01 X14.2681 Y-3.2151
G01 X14.3403 Y-3.1757
G01 X14.3516 Y-3.1703
G01 X14.3631 Y-3.1653
G01 X14.3749 Y-3.1610
G01 X14.3916 Y-3.1560
G01 X13.5920 Y-3.1560
G00 Z0.3000
G00 X13.6056 Y-5.7807
G01 F60.00
G01 Z-0.1500
G01 F240.00
G01 X13.6794 Y-5.8060
G01 X13.8922 Y-5.8416
G01 X14.1078 Y-5.8416
G01 X14.3206 Y-5.8060
G01 X14.3944 Y-5.7807
G01 X14.1410 Y-5.5274
G01 X14.0955 Y-5.5338
G01 X14.0000 Y-5.5384
G01 X13.9045 Y-5.5338
G01 X13.8590 Y-5.5274
G01 X13.6056 Y-5.7807
G00 Z0.3000
G00 X12.9459 Y-7.4016
G01 F60.00
G01 Z-0.1500
G01 F240.00
G01 X13.3057 Y-7.4016
G01 X13.3289 Y-7.3806
G01 X13.3544 Y-7.3616
G01 X13.3836 Y-7.3439
G01 X13.4016 Y-7.3351
G01 X13.4016 Y-7.0128
G01 X13.2728 Y-7.0555
G01 X13.1431 Y-7.1354
G01 X13.0354 Y-7.2431
G01 X12.9555 Y-7.3728
G01 X12.9459 Y-7.4016
G00 Z0.3000
G00 X12.7878 Y-9.0000
G01 F60.00
G01 Z-0.1500
G01 F240.00
G01 X12.8765 Y-9.0260
G01 X12.8862 Y-9.0292
G01 X12.9054 Y-9.0365
G01 X12.9243 Y-9.0446
G01 X12.9335 Y-9.0491
G01 X12.9517 Y-9.0586
G01 X12.9694 Y-9.0691
G01 X12.9780 Y-9.0746
G01 X12.9950 Y-9.0865
G01 X13.2001 Y-9.0865
G01 X13.2283 Y-9.0697
G01 X13.2462 Y-9.0602
G01 X13.2868 Y-9.0410
G01 X13.3055 Y-9.0332
G01 X13.3381 Y-9.0214
G01 X13.3574 Y-9.0151
G01 X13.3770 Y-9.0097
G01 X13.4171 Y-9.0000
G01 X13.3770 Y-8.9903
G01 X13.3574 Y-8.9849
G01 X13.3381 Y-8.9786
G01 X13.3055 Y-8.9668
G01 X13.2868 Y-8.9590
G01 X13.2462 Y-8.9398
G01 X13.2283 Y-8.9303
G01 X13.2001 Y-8.9135
G01 X12.9943 Y-8.9135
G01 X12.9760 Y-8.9265
G01 X12.9673 Y-8.9321
G01 X12.9496 Y-8.9428
G01 X12.9313 Y-8.9525
G01 X12.9220 Y-8.9571
G01 X12.9031 Y-8.9654
G01 X12.8837 Y-8.9728
G01 X12.8641 Y-8.9792
G01 X12.7878 Y-9.0000
G00 Z0.3000
G00 X12.9459 Y-10.5984
G01 F60.00
G01 Z-0.1500
G01 F240.00
G01 X12.9555 Y-10.6272
G01 X13.0354 Y-10.7569
G01 X13.1431 Y-10.8646
G01 X13.2728 Y-10.9445
G01 X13.4015 Y-10.9872
G01 X13.4015 Y-10.6649
G01 X13.3836 Y-10.6561
G01 X13.3544 Y-10.6384
G01 X13.3289 Y-10.6194
G01 X13.3057 Y-10.5984
G01 X12.9459 Y-10.5984
G00 Z0.3000
G00 X14.5984 Y-10.9872
G01 F60.00
G01 Z-0.1500
G01 F240.00
G01 X14.7272 Y-10.9445
G01 X14.8569 Y-10.8646
G01 X14.9646 Y-10.7569
G01 X15.0445 Y-10.6272
G01 X15.0541 Y-10.5984
G01 X14.6943 Y-10.5984
G01 X14.6711 Y-10.6194
G01 X14.6456 Y-10.6384
G01 X14.6164 Y-10.6561
G01 X14.5984 Y-10.6649
G01 X14.5984 Y-10.9872
G00 Z0.3000
G00 X14.5829 Y-9.0000
G01 F60.00
G01 Z-0.1500
G01 F240.00
G01 X14.6230 Y-9.0097
G01 X14.6426 Y-9.0151
G01 X14.6619 Y-9.0214
G01 X14.6945 Y-9.0332
G01 X14.7132 Y-9.0410
G01 X14.7538 Y-9.0602
G01 X14.7717 Y-9.0697
G01 X14.7999 Y-9.0865
G01 X15.0057 Y-9.0865
G01 X15.0240 Y-9.0735
G01 X15.0327 Y-9.0679
G01 X15.0504 Y-9.0572
G01 X15.0595 Y-9.0522
G01 X15.0780 Y-9.0429
G01 X15.0969 Y-9.0346
G01 X15.1163 Y-9.0272
G01 X15.1359 Y-9.0208
G01 X15.2122 Y-9.0000
G01 X15.1235 Y-8.9740
G01 X15.1138 Y-8.9708
G01 X15.0946 Y-8.9635
G01 X15.0851 Y-8.9596
G01 X15.0665 Y-8.9509
G01 X15.0483 Y-8.9414
G01 X15.0306 Y-8.9309
G01 X15.0220 Y-8.9254
G01 X15.0050 Y-8.9135
G01 X14.7999 Y-8.9135
G01 X14.7717 Y-8.9303
G01 X14.7538 Y-8.9398
G01 X14.7132 Y-8.9590
G01 X14.6945 Y-8.9668
G01 X14.6619 Y-8.9786
G01 X14.6426 Y-8.9849
G01 X14.6230 Y-8.9903
G01 X14.5829 Y-9.0000
G00 Z0.3000
G00 X14.5984 Y-7.3351
G01 F60.00
G01 Z-0.1500
G01 F240.00
G01 X14.6164 Y-7.3439
G01 X14.6456 Y-7.3616
G01 X14.6711 Y-7.3806
G01 X14.6943 Y-7.4016
G01 X15.0541 Y-7.4016
G01 X15.0445 Y-7.3728
G01 X14.9646 Y-7.2431
G01 X14.8569 Y-7.1354
G01 X14.7272 Y-7.0555
G01 X14.5984 Y-7.0128
G01 X14.5984 Y-7.3351
G00 Z0.3000
M05
G00 Z0.3000
G00 Z45.00


M30
