(G-CODE GENERATED BY FLATCAM v8.994 - www.flatcam.org - Version Date: 2020/11/7)

(Name: SAL-FP_Keyboard-B_Cu.gbr_iso_combined_cnc)
(Type: G-code from Geometry)
(Units: MM)

(Created on Sunday, 15 October 2023 at 02:25)

(This preprocessor is the default preprocessor used by FlatCAM.)
(It is made to work with MACH3 compatible motion controllers.)

(TOOL DIAMETER: 0.1529 mm)
(Feedrate_XY: 240.0 mm/min)
(Feedrate_Z: 60.0 mm/min)
(Feedrate rapids 1500.0 mm/min)

(Z_Cut: -0.15 mm)
(Z_Move: 2.0 mm)
(Z Start: None mm)
(Z End: 15.0 mm)
(X,Y End: None mm)
(Steps per circle: 64)
(Preprocessor Geometry: default)

(X range: -108.4137 ...    0.4137  mm)
(Y range:  -31.8217 ...    0.5517  mm)

(Spindle Speed: 12000.0 RPM)
G21
G90
G94

G01 F240.00

M5
G00 Z15.0000
G00 X0.0000 Y0.0000
T2
M6    
(MSG, Change to Tool Dia = 0.1529)
M0
G00 Z15.0000

M03 S12000.0
G01 F240.00
G00 X-3.4538 Y-1.2872
G01 F60.00
G01 Z-0.1500
G01 F240.00
G01 X-3.4439 Y-1.2982
G01 X-3.4338 Y-1.3105
G01 X-3.4199 Y-1.3299
G01 X-3.4114 Y-1.3434
G01 X-3.3701 Y-1.4131
G01 X-3.3220 Y-1.2872
G01 X-3.4538 Y-1.2872
G00 Z2.0000
G00 X-3.4931 Y-2.6556
G01 F60.00
G01 Z-0.1500
G01 F240.00
G01 X-3.5103 Y-2.6723
G01 X-3.5286 Y-2.6876
G01 X-3.5481 Y-2.7015
G01 X-3.5616 Y-2.7100
G01 X-3.5755 Y-2.7178
G01 X-3.5971 Y-2.7281
G01 X-3.6685 Y-2.7590
G01 X-3.6834 Y-2.7647
G01 X-3.6986 Y-2.7695
G01 X-3.7218 Y-2.7754
G01 X-3.7454 Y-2.7795
G01 X-3.7692 Y-2.7819
G01 X-3.7931 Y-2.7825
G01 X-3.8170 Y-2.7813
G01 X-3.8407 Y-2.7784
G01 X-3.9175 Y-2.7658
G01 X-3.9408 Y-2.7605
G01 X-3.9575 Y-2.7555
G01 X-3.9545 Y-2.7762
G01 X-3.9530 Y-2.7919
G01 X-3.9513 Y-2.8242
G01 X-3.9509 Y-2.8400
G01 X-3.9509 Y-4.5183
G01 X-3.9422 Y-4.5101
G01 X-3.9301 Y-4.4998
G01 X-3.9110 Y-4.4854
G01 X-3.8909 Y-4.4724
G01 X-3.8699 Y-4.4610
G01 X-3.8554 Y-4.4543
G01 X-3.7913 Y-4.4265
G01 X-3.7766 Y-4.4205
G01 X-3.7539 Y-4.4129
G01 X-3.7385 Y-4.4088
G01 X-3.7229 Y-4.4054
G01 X-3.6992 Y-4.4019
G01 X-3.6754 Y-4.4001
G01 X-3.6514 Y-4.4001
G01 X-3.6276 Y-4.4019
G01 X-3.6118 Y-4.4040
G01 X-3.5350 Y-4.4166
G01 X-3.5117 Y-4.4219
G01 X-3.4964 Y-4.4264
G01 X-3.4857 Y-4.4301
G01 X-3.4904 Y-4.3949
G01 X-3.4927 Y-4.3558
G01 X-3.4931 Y-4.3400
G01 X-3.4931 Y-2.6556
G00 Z2.0000
G00 X-3.6154 Y-2.8694
G01 F60.00
G01 Z-0.1500
G01 F240.00
G01 X-3.6432 Y-2.8802
G01 X-3.6642 Y-2.8869
G01 X-3.6854 Y-2.8926
G01 X-3.7070 Y-2.8972
G01 X-3.7178 Y-2.8991
G01 X-3.7287 Y-2.9007
G01 X-3.7506 Y-2.9032
G01 X-3.7726 Y-2.9046
G01 X-3.7836 Y-2.9048
G01 X-3.8056 Y-2.9046
G01 X-3.8286 Y-2.9031
G01 X-3.8286 Y-4.3095
G01 X-3.8093 Y-4.3023
G01 X-3.7989 Y-4.2988
G01 X-3.7777 Y-4.2926
G01 X-3.7671 Y-4.2898
G01 X-3.7455 Y-4.2852
G01 X-3.7238 Y-4.2817
G01 X-3.7129 Y-4.2803
G01 X-3.6909 Y-4.2784
G01 X-3.6689 Y-4.2776
G01 X-3.6469 Y-4.2779
G01 X-3.6359 Y-4.2784
G01 X-3.6154 Y-4.2802
G01 X-3.6154 Y-2.8694
G00 Z2.0000
G00 X-5.8108 Y-1.2872
G01 F60.00
G01 Z-0.1500
G01 F240.00
G01 X-5.8030 Y-1.2941
G01 X-5.7914 Y-1.3051
G01 X-5.7752 Y-1.3227
G01 X-5.7652 Y-1.3351
G01 X-5.7557 Y-1.3479
G01 X-5.7421 Y-1.3692
G01 X-5.7325 Y-1.3555
G01 X-5.7226 Y-1.3428
G01 X-5.6745 Y-1.2872
G01 X-5.8108 Y-1.2872
G00 Z2.0000
G00 X-7.8428 Y-1.2872
G01 F60.00
G01 Z-0.1500
G01 F240.00
G01 X-7.8350 Y-1.2941
G01 X-7.8234 Y-1.3051
G01 X-7.8072 Y-1.3227
G01 X-7.7972 Y-1.3351
G01 X-7.7877 Y-1.3479
G01 X-7.7741 Y-1.3692
G01 X-7.7645 Y-1.3555
G01 X-7.7546 Y-1.3428
G01 X-7.7065 Y-1.2872
G01 X-7.8428 Y-1.2872
G00 Z2.0000
G00 X-9.8006 Y-1.3692
G01 F60.00
G01 Z-0.1500
G01 F240.00
G01 X-9.7910 Y-1.3555
G01 X-9.7811 Y-1.3428
G01 X-9.7330 Y-1.2872
G01 X-9.8693 Y-1.2872
G01 X-9.8615 Y-1.2941
G01 X-9.8499 Y-1.3051
G01 X-9.8337 Y-1.3227
G01 X-9.8237 Y-1.3351
G01 X-9.8142 Y-1.3479
G01 X-9.8006 Y-1.3692
G00 Z2.0000
G00 X-12.1787 Y-1.4170
G01 F60.00
G01 Z-0.1500
G01 F240.00
G01 X-12.1720 Y-1.4028
G01 X-12.1645 Y-1.3888
G01 X-12.1563 Y-1.3751
G01 X-12.1475 Y-1.3618
G01 X-12.1329 Y-1.3428
G01 X-12.0849 Y-1.2872
G01 X-12.2322 Y-1.2872
G01 X-12.1787 Y-1.4170
G00 Z2.0000
G00 X-11.9286 Y-4.2781
G01 F60.00
G01 Z-0.1500
G01 F240.00
G01 X-11.9164 Y-4.2779
G01 X-11.8944 Y-4.2783
G01 X-11.8724 Y-4.2798
G01 X-11.8505 Y-4.2824
G01 X-11.7814 Y-4.2923
G01 X-11.7597 Y-4.2960
G01 X-11.7382 Y-4.3007
G01 X-11.7154 Y-4.3070
G01 X-11.7154 Y-2.9045
G01 X-11.7411 Y-2.9041
G01 X-11.7631 Y-2.9026
G01 X-11.7850 Y-2.9000
G01 X-11.8541 Y-2.8901
G01 X-11.8758 Y-2.8864
G01 X-11.8866 Y-2.8842
G01 X-11.9080 Y-2.8789
G01 X-11.9286 Y-2.8727
G01 X-11.9286 Y-4.2781
G00 Z2.0000
G00 X-12.0590 Y-4.4347
G01 F60.00
G01 Z-0.1500
G01 F240.00
G01 X-12.0397 Y-4.4260
G01 X-12.0249 Y-4.4201
G01 X-12.0098 Y-4.4149
G01 X-11.9945 Y-4.4105
G01 X-11.9790 Y-4.4069
G01 X-11.9633 Y-4.4040
G01 X-11.9475 Y-4.4020
G01 X-11.9316 Y-4.4007
G01 X-11.9077 Y-4.4002
G01 X-11.8838 Y-4.4016
G01 X-11.8679 Y-4.4034
G01 X-11.7988 Y-4.4134
G01 X-11.7831 Y-4.4160
G01 X-11.7675 Y-4.4195
G01 X-11.7521 Y-4.4237
G01 X-11.7295 Y-4.4314
G01 X-11.7075 Y-4.4408
G01 X-11.6862 Y-4.4518
G01 X-11.6659 Y-4.4644
G01 X-11.6465 Y-4.4784
G01 X-11.6342 Y-4.4885
G01 X-11.5931 Y-4.5242
G01 X-11.5931 Y-2.8400
G01 X-11.5927 Y-2.8242
G01 X-11.5910 Y-2.7919
G01 X-11.5895 Y-2.7762
G01 X-11.5860 Y-2.7521
G01 X-11.5958 Y-2.7564
G01 X-11.6106 Y-2.7623
G01 X-11.6257 Y-2.7675
G01 X-11.6410 Y-2.7719
G01 X-11.6565 Y-2.7755
G01 X-11.6722 Y-2.7784
G01 X-11.6880 Y-2.7804
G01 X-11.7039 Y-2.7817
G01 X-11.7278 Y-2.7822
G01 X-11.7438 Y-2.7815
G01 X-11.7596 Y-2.7800
G01 X-11.8367 Y-2.7690
G01 X-11.8602 Y-2.7647
G01 X-11.8834 Y-2.7587
G01 X-11.9060 Y-2.7510
G01 X-11.9280 Y-2.7416
G01 X-11.9423 Y-2.7344
G01 X-11.9561 Y-2.7266
G01 X-11.9696 Y-2.7180
G01 X-11.9890 Y-2.7040
G01 X-12.0013 Y-2.6939
G01 X-12.0509 Y-2.6509
G01 X-12.0509 Y-4.3400
G01 X-12.0513 Y-4.3558
G01 X-12.0530 Y-4.3881
G01 X-12.0545 Y-4.4038
G01 X-12.0590 Y-4.4347
G00 Z2.0000
G00 X-14.0471 Y-4.3683
G01 F60.00
G01 Z-0.1500
G01 F240.00
G01 X-14.0464 Y-4.3757
G01 X-14.0428 Y-4.4000
G01 X-14.0414 Y-4.4073
G01 X-14.0344 Y-4.4348
G01 X-14.0250 Y-4.4614
G01 X-14.0221 Y-4.4684
G01 X-14.0099 Y-4.4939
G01 X-13.9934 Y-4.5214
G01 X-13.9743 Y-4.5471
G01 X-13.9528 Y-4.5708
G01 X-13.9291 Y-4.5923
G01 X-13.9034 Y-4.6114
G01 X-13.8759 Y-4.6279
G01 X-13.8504 Y-4.6401
G01 X-13.8434 Y-4.6430
G01 X-13.8168 Y-4.6524
G01 X-13.7893 Y-4.6594
G01 X-13.7820 Y-4.6608
G01 X-13.7577 Y-4.6644
G01 X-13.7503 Y-4.6652
G01 X-13.7220 Y-4.6664
G01 X-12.6220 Y-4.6664
G01 X-12.5937 Y-4.6652
G01 X-12.5863 Y-4.6644
G01 X-12.5583 Y-4.6602
G01 X-12.5309 Y-4.6534
G01 X-12.5237 Y-4.6512
G01 X-12.4971 Y-4.6416
G01 X-12.4715 Y-4.6296
G01 X-12.4648 Y-4.6261
G01 X-12.4406 Y-4.6114
G01 X-12.4179 Y-4.5947
G01 X-12.4121 Y-4.5899
G01 X-12.3912 Y-4.5708
G01 X-12.3721 Y-4.5499
G01 X-12.3673 Y-4.5441
G01 X-12.3506 Y-4.5214
G01 X-12.3359 Y-4.4972
G01 X-12.3324 Y-4.4905
G01 X-12.3219 Y-4.4684
G01 X-12.3190 Y-4.4614
G01 X-12.3096 Y-4.4348
G01 X-12.3018 Y-4.4037
G01 X-12.2971 Y-4.3720
G01 X-12.2956 Y-4.3400
G01 X-12.2956 Y-1.8362
G01 X-12.2971 Y-1.8080
G01 X-12.3018 Y-1.7763
G01 X-12.3096 Y-1.7452
G01 X-12.3197 Y-1.7168
G01 X-12.5656 Y-1.1205
G01 X-12.4876 Y-1.0425
G01 X-3.0564 Y-1.0425
G01 X-2.9915 Y-1.1075
G01 X-3.2250 Y-1.7186
G01 X-3.2344 Y-1.7452
G01 X-3.2414 Y-1.7727
G01 X-3.2428 Y-1.7800
G01 X-3.2464 Y-1.8043
G01 X-3.2472 Y-1.8117
G01 X-3.2484 Y-1.8400
G01 X-3.2484 Y-4.3419
G01 X-3.2469 Y-4.3717
G01 X-3.2422 Y-4.4037
G01 X-3.2344 Y-4.4348
G01 X-3.2236 Y-4.4649
G01 X-3.2099 Y-4.4939
G01 X-3.1934 Y-4.5214
G01 X-3.1743 Y-4.5471
G01 X-3.1554 Y-4.5681
G01 X-3.1501 Y-4.5734
G01 X-3.1319 Y-4.5899
G01 X-3.1261 Y-4.5947
G01 X-3.1034 Y-4.6114
G01 X-3.0792 Y-4.6261
G01 X-3.0725 Y-4.6296
G01 X-3.0469 Y-4.6416
G01 X-3.0168 Y-4.6524
G01 X-2.9857 Y-4.6602
G01 X-2.9521 Y-4.6650
G01 X-2.9220 Y-4.6664
G01 X-1.8220 Y-4.6664
G01 X-1.7883 Y-4.6647
G01 X-1.7620 Y-4.6608
G01 X-1.7547 Y-4.6594
G01 X-1.7272 Y-4.6524
G01 X-1.7006 Y-4.6430
G01 X-1.6936 Y-4.6401
G01 X-1.6681 Y-4.6279
G01 X-1.6406 Y-4.6114
G01 X-1.6179 Y-4.5947
G01 X-1.6121 Y-4.5899
G01 X-1.5912 Y-4.5708
G01 X-1.5721 Y-4.5499
G01 X-1.5673 Y-4.5441
G01 X-1.5506 Y-4.5214
G01 X-1.5332 Y-4.4922
G01 X-1.5219 Y-4.4684
G01 X-1.5190 Y-4.4614
G01 X-1.5096 Y-4.4348
G01 X-1.5026 Y-4.4073
G01 X-1.5012 Y-4.4000
G01 X-1.4971 Y-4.3720
G01 X-1.4956 Y-4.3400
G01 X-1.4956 Y-1.8400
G01 X-1.4971 Y-1.8080
G01 X-1.5018 Y-1.7763
G01 X-1.5096 Y-1.7452
G01 X-1.5190 Y-1.7186
G01 X-1.5219 Y-1.7116
G01 X-1.5324 Y-1.6895
G01 X-1.5359 Y-1.6828
G01 X-1.5506 Y-1.6586
G01 X-1.5697 Y-1.6329
G01 X-1.5912 Y-1.6092
G01 X-1.6121 Y-1.5901
G01 X-1.6179 Y-1.5853
G01 X-1.6376 Y-1.5707
G01 X-1.6438 Y-1.5666
G01 X-1.6681 Y-1.5521
G01 X-1.6988 Y-1.5377
G01 X-1.7272 Y-1.5276
G01 X-1.7565 Y-1.5202
G01 X-1.7881 Y-1.5153
G01 X-1.8045 Y-1.5143
G01 X-2.5718 Y-0.7731
G01 X-2.7575 Y-0.5875
G01 X-2.7741 Y-0.5724
G01 X-2.7799 Y-0.5676
G01 X-2.7964 Y-0.5554
G01 X-2.8011 Y-0.5524
G01 X-2.8204 Y-0.5409
G01 X-2.8440 Y-0.5297
G01 X-2.8651 Y-0.5221
G01 X-2.8722 Y-0.5199
G01 X-2.8940 Y-0.5146
G01 X-2.9180 Y-0.5109
G01 X-2.9460 Y-0.5095
G01 X-12.5980 Y-0.5095
G01 X-12.6241 Y-0.5107
G01 X-12.6500 Y-0.5146
G01 X-12.6718 Y-0.5199
G01 X-12.6789 Y-0.5221
G01 X-12.7000 Y-0.5297
G01 X-12.7203 Y-0.5392
G01 X-12.7269 Y-0.5428
G01 X-12.7461 Y-0.5544
G01 X-12.7685 Y-0.5712
G01 X-12.7865 Y-0.5875
G01 X-12.9832 Y-0.7843
G01 X-13.7469 Y-1.5147
G01 X-13.7559 Y-1.5153
G01 X-13.7857 Y-1.5198
G01 X-13.8131 Y-1.5266
G01 X-13.8203 Y-1.5288
G01 X-13.8469 Y-1.5384
G01 X-13.8725 Y-1.5504
G01 X-13.8792 Y-1.5539
G01 X-13.9002 Y-1.5666
G01 X-13.9064 Y-1.5707
G01 X-13.9291 Y-1.5877
G01 X-13.9501 Y-1.6066
G01 X-13.9554 Y-1.6119
G01 X-13.9743 Y-1.6329
G01 X-13.9934 Y-1.6586
G01 X-14.0081 Y-1.6828
G01 X-14.0116 Y-1.6895
G01 X-14.0221 Y-1.7116
G01 X-14.0250 Y-1.7186
G01 X-14.0344 Y-1.7452
G01 X-14.0422 Y-1.7763
G01 X-14.0469 Y-1.8080
G01 X-14.0484 Y-1.8400
G01 X-14.0484 Y-4.3400
G01 X-14.0471 Y-4.3683
G00 Z2.0000
G00 X-14.1693 Y-4.3743
G01 F60.00
G01 Z-0.1500
G01 F240.00
G01 X-14.1674 Y-4.3937
G01 X-14.1630 Y-4.4228
G01 X-14.1600 Y-4.4371
G01 X-14.1528 Y-4.4656
G01 X-14.1500 Y-4.4749
G01 X-14.1384 Y-4.5072
G01 X-14.1327 Y-4.5207
G01 X-14.1178 Y-4.5515
G01 X-14.0951 Y-4.5893
G01 X-14.0689 Y-4.6247
G01 X-14.0393 Y-4.6573
G01 X-14.0067 Y-4.6869
G01 X-13.9793 Y-4.7075
G01 X-13.9672 Y-4.7158
G01 X-13.9420 Y-4.7310
G01 X-13.9248 Y-4.7402
G01 X-13.8937 Y-4.7546
G01 X-13.8523 Y-4.7694
G01 X-13.8096 Y-4.7801
G01 X-13.7660 Y-4.7866
G01 X-13.7220 Y-4.7888
G01 X-12.6220 Y-4.7888
G01 X-12.5787 Y-4.7867
G01 X-12.5441 Y-4.7818
G01 X-12.5297 Y-4.7791
G01 X-12.4917 Y-4.7694
G01 X-12.4503 Y-4.7546
G01 X-12.4105 Y-4.7358
G01 X-12.3768 Y-4.7158
G01 X-12.3647 Y-4.7075
G01 X-12.3411 Y-4.6900
G01 X-12.3299 Y-4.6805
G01 X-12.3047 Y-4.6573
G01 X-12.2815 Y-4.6321
G01 X-12.2720 Y-4.6209
G01 X-12.2489 Y-4.5893
G01 X-12.2262 Y-4.5515
G01 X-12.2074 Y-4.5117
G01 X-12.1940 Y-4.4749
G01 X-12.1900 Y-4.4609
G01 X-12.1819 Y-4.4276
G01 X-12.1766 Y-4.3937
G01 X-12.1750 Y-4.3791
G01 X-12.1733 Y-4.3449
G01 X-12.1732 Y-1.8400
G01 X-12.1747 Y-1.8057
G01 X-12.1766 Y-1.7863
G01 X-12.1810 Y-1.7572
G01 X-12.1829 Y-1.7477
G01 X-12.1926 Y-1.7097
G01 X-12.2056 Y-1.6728
G01 X-12.4150 Y-1.1649
G01 X-3.1443 Y-1.1649
G01 X-3.3386 Y-1.6734
G01 X-3.3484 Y-1.7005
G01 X-3.3528 Y-1.7144
G01 X-3.3621 Y-1.7524
G01 X-3.3681 Y-1.7912
G01 X-3.3693 Y-1.8057
G01 X-3.3708 Y-1.8400
G01 X-3.3708 Y-4.3400
G01 X-3.3687 Y-4.3833
G01 X-3.3674 Y-4.3937
G01 X-3.3621 Y-4.4276
G01 X-3.3514 Y-4.4703
G01 X-3.3384 Y-4.5072
G01 X-3.3327 Y-4.5207
G01 X-3.3178 Y-4.5515
G01 X-3.2978 Y-4.5852
G01 X-3.2895 Y-4.5973
G01 X-3.2689 Y-4.6247
G01 X-3.2461 Y-4.6503
G01 X-3.2358 Y-4.6607
G01 X-3.2067 Y-4.6869
G01 X-3.1753 Y-4.7104
G01 X-3.1631 Y-4.7184
G01 X-3.1335 Y-4.7358
G01 X-3.1027 Y-4.7507
G01 X-3.0892 Y-4.7564
G01 X-3.0523 Y-4.7694
G01 X-3.0191 Y-4.7780
G01 X-3.0048 Y-4.7810
G01 X-2.9660 Y-4.7866
G01 X-2.9220 Y-4.7888
G01 X-1.8220 Y-4.7888
G01 X-1.7787 Y-4.7867
G01 X-1.7683 Y-4.7854
G01 X-1.7344 Y-4.7801
G01 X-1.6917 Y-4.7694
G01 X-1.6594 Y-4.7581
G01 X-1.6458 Y-4.7527
G01 X-1.6105 Y-4.7358
G01 X-1.5727 Y-4.7131
G01 X-1.5450 Y-4.6929
G01 X-1.5299 Y-4.6805
G01 X-1.5082 Y-4.6607
G01 X-1.4979 Y-4.6503
G01 X-1.4751 Y-4.6247
G01 X-1.4489 Y-4.5893
G01 X-1.4262 Y-4.5515
G01 X-1.4113 Y-4.5207
G01 X-1.4039 Y-4.5026
G01 X-1.3940 Y-4.4749
G01 X-1.3912 Y-4.4656
G01 X-1.3819 Y-4.4276
G01 X-1.3759 Y-4.3888
G01 X-1.3747 Y-4.3743
G01 X-1.3732 Y-4.3400
G01 X-1.3732 Y-1.8400
G01 X-1.3754 Y-1.7960
G01 X-1.3819 Y-1.7524
G01 X-1.3926 Y-1.7097
G01 X-1.4039 Y-1.6774
G01 X-1.4093 Y-1.6638
G01 X-1.4218 Y-1.6372
G01 X-1.4310 Y-1.6200
G01 X-1.4489 Y-1.5907
G01 X-1.4751 Y-1.5553
G01 X-1.5047 Y-1.5227
G01 X-1.5299 Y-1.4995
G01 X-1.5450 Y-1.4871
G01 X-1.5687 Y-1.4696
G01 X-1.5768 Y-1.4642
G01 X-1.6105 Y-1.4442
G01 X-1.6413 Y-1.4293
G01 X-1.6548 Y-1.4236
G01 X-1.6917 Y-1.4106
G01 X-1.7297 Y-1.4009
G01 X-1.7495 Y-1.3974
G01 X-2.4860 Y-0.6859
G01 X-2.6711 Y-0.5010
G01 X-2.6993 Y-0.4754
G01 X-2.7259 Y-0.4554
G01 X-2.7382 Y-0.4475
G01 X-2.7627 Y-0.4331
G01 X-2.7972 Y-0.4167
G01 X-2.8285 Y-0.4054
G01 X-2.8425 Y-0.4013
G01 X-2.8701 Y-0.3946
G01 X-2.9030 Y-0.3895
G01 X-2.9176 Y-0.3883
G01 X-2.9460 Y-0.3871
G01 X-12.5980 Y-0.3871
G01 X-12.6361 Y-0.3890
G01 X-12.6739 Y-0.3946
G01 X-12.7062 Y-0.4025
G01 X-12.7201 Y-0.4069
G01 X-12.7468 Y-0.4167
G01 X-12.7726 Y-0.4287
G01 X-12.7856 Y-0.4354
G01 X-12.8140 Y-0.4527
G01 X-12.8370 Y-0.4694
G01 X-12.8484 Y-0.4785
G01 X-12.8730 Y-0.5010
G01 X-13.0677 Y-0.6958
G01 X-13.8026 Y-1.3986
G01 X-13.8191 Y-1.4020
G01 X-13.8476 Y-1.4092
G01 X-13.8569 Y-1.4120
G01 X-13.8937 Y-1.4254
G01 X-13.9292 Y-1.4420
G01 X-13.9420 Y-1.4490
G01 X-13.9672 Y-1.4642
G01 X-13.9753 Y-1.4696
G01 X-14.0067 Y-1.4931
G01 X-14.0323 Y-1.5159
G01 X-14.0427 Y-1.5262
G01 X-14.0689 Y-1.5553
G01 X-14.0951 Y-1.5907
G01 X-14.1178 Y-1.6285
G01 X-14.1327 Y-1.6593
G01 X-14.1384 Y-1.6728
G01 X-14.1514 Y-1.7097
G01 X-14.1621 Y-1.7524
G01 X-14.1686 Y-1.7960
G01 X-14.1708 Y-1.8400
G01 X-14.1708 Y-4.3400
G01 X-14.1693 Y-4.3743
G00 Z2.0000
G00 X-11.5694 Y-7.9170
G01 F60.00
G01 Z-0.1500
G01 F240.00
G01 X-11.4708 Y-7.8184
G01 X-11.4708 Y-5.7888
G01 X-11.5732 Y-5.7888
G01 X-11.5732 Y-7.8799
G01 X-11.5694 Y-7.9170
G00 Z2.0000
G00 X-11.5627 Y-8.0833
G01 F60.00
G01 Z-0.1500
G01 F240.00
G01 X-11.3472 Y-7.8678
G01 X-11.3484 Y-7.8400
G01 X-11.3484 Y-5.6664
G01 X-11.6956 Y-5.6664
G01 X-11.6955 Y-7.8861
G01 X-11.6863 Y-7.9766
G01 X-11.6508 Y-8.0833
G01 X-11.5627 Y-8.0833
G00 Z2.0000
G00 X-9.9607 Y-8.1002
G01 F60.00
G01 Z-0.1500
G01 F240.00
G01 X-9.9454 Y-8.0880
G01 X-9.9330 Y-8.0791
G01 X-9.8823 Y-8.0464
G01 X-9.8615 Y-8.0341
G01 X-9.8472 Y-8.0269
G01 X-9.8252 Y-8.0173
G01 X-9.8101 Y-8.0119
G01 X-9.7870 Y-8.0051
G01 X-9.7634 Y-8.0001
G01 X-9.7396 Y-7.9969
G01 X-9.6619 Y-7.9913
G01 X-9.6459 Y-7.9905
G01 X-9.6300 Y-7.9906
G01 X-9.6061 Y-7.9921
G01 X-9.5903 Y-7.9941
G01 X-9.5708 Y-7.9978
G01 X-9.5787 Y-7.9668
G01 X-9.5821 Y-7.9514
G01 X-9.5884 Y-7.9116
G01 X-9.5911 Y-7.8865
G01 X-9.5927 Y-7.8558
G01 X-9.5931 Y-7.8400
G01 X-9.5930 Y-2.8321
G01 X-9.5915 Y-2.7997
G01 X-9.5903 Y-2.7840
G01 X-9.5884 Y-2.7684
G01 X-9.5836 Y-2.7363
G01 X-9.5787 Y-2.7132
G01 X-9.5707 Y-2.6818
G01 X-9.5661 Y-2.6667
G01 X-9.5553 Y-2.6362
G01 X-9.5496 Y-2.6215
G01 X-9.5432 Y-2.6070
G01 X-9.5293 Y-2.5778
G01 X-9.5219 Y-2.5639
G01 X-9.5011 Y-2.5293
G01 X-9.4924 Y-2.5162
G01 X-9.4778 Y-2.4964
G01 X-9.5450 Y-2.4836
G01 X-9.5605 Y-2.4799
G01 X-9.5758 Y-2.4753
G01 X-9.5983 Y-2.4672
G01 X-9.6201 Y-2.4574
G01 X-9.6412 Y-2.4460
G01 X-9.6547 Y-2.4375
G01 X-9.6741 Y-2.4236
G01 X-9.6925 Y-2.4082
G01 X-9.7491 Y-2.3548
G01 X-9.7604 Y-2.3435
G01 X-9.7762 Y-2.3256
G01 X-9.7860 Y-2.3131
G01 X-9.7996 Y-2.2933
G01 X-9.8112 Y-2.2735
G01 X-9.8195 Y-2.2874
G01 X-9.8283 Y-2.3007
G01 X-9.8427 Y-2.3198
G01 X-9.8531 Y-2.3319
G01 X-9.8641 Y-2.3434
G01 X-9.8757 Y-2.3544
G01 X-9.8940 Y-2.3698
G01 X-9.9068 Y-2.3792
G01 X-9.9269 Y-2.3922
G01 X-9.9870 Y-2.4280
G01 X-10.0009 Y-2.4358
G01 X-10.0151 Y-2.4429
G01 X-10.0372 Y-2.4522
G01 X-10.0522 Y-2.4575
G01 X-10.0675 Y-2.4620
G01 X-10.0896 Y-2.4672
G01 X-10.0756 Y-2.4839
G01 X-10.0562 Y-2.5098
G01 X-10.0472 Y-2.5227
G01 X-10.0387 Y-2.5360
G01 X-10.0221 Y-2.5639
G01 X-10.0147 Y-2.5778
G01 X-9.9975 Y-2.6142
G01 X-9.9915 Y-2.6288
G01 X-9.9804 Y-2.6593
G01 X-9.9755 Y-2.6742
G01 X-9.9653 Y-2.7132
G01 X-9.9619 Y-2.7286
G01 X-9.9592 Y-2.7441
G01 X-9.9537 Y-2.7840
G01 X-9.9525 Y-2.7997
G01 X-9.9510 Y-2.8321
G01 X-9.9509 Y-7.8400
G01 X-9.9513 Y-7.8558
G01 X-9.9537 Y-7.8960
G01 X-9.9556 Y-7.9116
G01 X-9.9607 Y-7.9449
G01 X-9.9607 Y-8.1002
G00 Z2.0000
G00 X-9.8306 Y-7.8902
G01 F60.00
G01 Z-0.1500
G01 F240.00
G01 X-9.8060 Y-7.8839
G01 X-9.7843 Y-7.8796
G01 X-9.7733 Y-7.8778
G01 X-9.7513 Y-7.8752
G01 X-9.7144 Y-7.8724
G01 X-9.7154 Y-7.8400
G01 X-9.7154 Y-2.8400
G01 X-9.7149 Y-2.8182
G01 X-9.7137 Y-2.7937
G01 X-9.7121 Y-2.7720
G01 X-9.7094 Y-2.7504
G01 X-9.7058 Y-2.7262
G01 X-9.7021 Y-2.7047
G01 X-9.6973 Y-2.6835
G01 X-9.6914 Y-2.6597
G01 X-9.6856 Y-2.6387
G01 X-9.6787 Y-2.6180
G01 X-9.6705 Y-2.5949
G01 X-9.6619 Y-2.5729
G01 X-9.6843 Y-2.5619
G01 X-9.7035 Y-2.5512
G01 X-9.7221 Y-2.5395
G01 X-9.7402 Y-2.5269
G01 X-9.7576 Y-2.5134
G01 X-9.7743 Y-2.4991
G01 X-9.8136 Y-2.4621
G01 X-9.8277 Y-2.4730
G01 X-9.8457 Y-2.4856
G01 X-9.8644 Y-2.4973
G01 X-9.9058 Y-2.5220
G01 X-9.8857 Y-2.5646
G01 X-9.8773 Y-2.5847
G01 X-9.8617 Y-2.6283
G01 X-9.8584 Y-2.6387
G01 X-9.8526 Y-2.6597
G01 X-9.8467 Y-2.6835
G01 X-9.8419 Y-2.7047
G01 X-9.8382 Y-2.7262
G01 X-9.8346 Y-2.7504
G01 X-9.8331 Y-2.7612
G01 X-9.8310 Y-2.7829
G01 X-9.8287 Y-2.8291
G01 X-9.8286 Y-7.8400
G01 X-9.8291 Y-7.8618
G01 X-9.8306 Y-7.8902
G00 Z2.0000
G00 X-7.7797 Y-8.2206
G01 F60.00
G01 Z-0.1500
G01 F240.00
G01 X-7.7663 Y-8.2084
G01 X-7.7494 Y-8.1943
G01 X-7.7318 Y-8.1811
G01 X-7.7227 Y-8.1748
G01 X-7.7042 Y-8.1629
G01 X-7.6851 Y-8.1520
G01 X-7.6654 Y-8.1420
G01 X-7.6494 Y-8.1347
G01 X-7.6583 Y-8.1154
G01 X-7.6667 Y-8.0953
G01 X-7.6823 Y-8.0517
G01 X-7.6886 Y-8.0308
G01 X-7.6998 Y-7.9859
G01 X-7.7041 Y-7.9646
G01 X-7.7058 Y-7.9538
G01 X-7.7094 Y-7.9296
G01 X-7.7122 Y-7.9065
G01 X-7.7132 Y-7.8949
G01 X-7.7149 Y-7.8618
G01 X-7.7154 Y-7.8400
G01 X-7.7154 Y-2.8400
G01 X-7.7149 Y-2.8182
G01 X-7.7137 Y-2.7937
G01 X-7.7121 Y-2.7720
G01 X-7.7094 Y-2.7504
G01 X-7.7058 Y-2.7262
G01 X-7.7041 Y-2.7154
G01 X-7.6998 Y-2.6941
G01 X-7.6886 Y-2.6492
G01 X-7.6823 Y-2.6283
G01 X-7.6667 Y-2.5847
G01 X-7.6583 Y-2.5646
G01 X-7.6511 Y-2.5491
G01 X-7.6640 Y-2.5421
G01 X-7.6829 Y-2.5308
G01 X-7.6921 Y-2.5248
G01 X-7.7101 Y-2.5121
G01 X-7.7275 Y-2.4985
G01 X-7.7726 Y-2.4595
G01 X-7.7831 Y-2.4690
G01 X-7.8000 Y-2.4831
G01 X-7.8087 Y-2.4898
G01 X-7.8267 Y-2.5026
G01 X-7.8452 Y-2.5145
G01 X-7.8643 Y-2.5254
G01 X-7.8840 Y-2.5354
G01 X-7.8966 Y-2.5412
G01 X-7.8814 Y-2.5746
G01 X-7.8735 Y-2.5949
G01 X-7.8617 Y-2.6283
G01 X-7.8554 Y-2.6492
G01 X-7.8442 Y-2.6941
G01 X-7.8419 Y-2.7047
G01 X-7.8382 Y-2.7262
G01 X-7.8346 Y-2.7504
G01 X-7.8319 Y-2.7720
G01 X-7.8303 Y-2.7937
G01 X-7.8291 Y-2.8182
G01 X-7.8286 Y-2.8400
G01 X-7.8287 Y-7.8509
G01 X-7.8310 Y-7.8971
G01 X-7.8331 Y-7.9188
G01 X-7.8399 Y-7.9646
G01 X-7.8442 Y-7.9859
G01 X-7.8554 Y-8.0308
G01 X-7.8617 Y-8.0517
G01 X-7.8773 Y-8.0953
G01 X-7.8857 Y-8.1154
G01 X-7.8949 Y-8.1353
G01 X-7.8760 Y-8.1460
G01 X-7.8666 Y-8.1518
G01 X-7.8483 Y-8.1640
G01 X-7.8394 Y-8.1705
G01 X-7.8220 Y-8.1841
G01 X-7.7797 Y-8.2206
G00 Z2.0000
G00 X-7.7729 Y-8.4119
G01 F60.00
G01 Z-0.1500
G01 F240.00
G01 X-7.7387 Y-8.3598
G01 X-7.7294 Y-8.3469
G01 X-7.7194 Y-8.3345
G01 X-7.7032 Y-8.3169
G01 X-7.6918 Y-8.3058
G01 X-7.6797 Y-8.2953
G01 X-7.6608 Y-8.2807
G01 X-7.6408 Y-8.2675
G01 X-7.6199 Y-8.2559
G01 X-7.6055 Y-8.2490
G01 X-7.5346 Y-8.2174
G01 X-7.5129 Y-8.2093
G01 X-7.4981 Y-8.2047
G01 X-7.4831 Y-8.2008
G01 X-7.4672 Y-8.1976
G01 X-7.4878 Y-8.1702
G01 X-7.4968 Y-8.1573
G01 X-7.5053 Y-8.1440
G01 X-7.5219 Y-8.1161
G01 X-7.5293 Y-8.1022
G01 X-7.5432 Y-8.0730
G01 X-7.5496 Y-8.0585
G01 X-7.5553 Y-8.0438
G01 X-7.5685 Y-8.0058
G01 X-7.5787 Y-7.9668
G01 X-7.5821 Y-7.9514
G01 X-7.5884 Y-7.9116
G01 X-7.5904 Y-7.8949
G01 X-7.5915 Y-7.8803
G01 X-7.5930 Y-7.8479
G01 X-7.5931 Y-2.8400
G01 X-7.5927 Y-2.8242
G01 X-7.5903 Y-2.7840
G01 X-7.5884 Y-2.7684
G01 X-7.5836 Y-2.7363
G01 X-7.5805 Y-2.7209
G01 X-7.5727 Y-2.6894
G01 X-7.5685 Y-2.6742
G01 X-7.5636 Y-2.6593
G01 X-7.5525 Y-2.6288
G01 X-7.5465 Y-2.6142
G01 X-7.5293 Y-2.5778
G01 X-7.5219 Y-2.5639
G01 X-7.5053 Y-2.5360
G01 X-7.4968 Y-2.5227
G01 X-7.4878 Y-2.5098
G01 X-7.4637 Y-2.4780
G01 X-7.4991 Y-2.4729
G01 X-7.5147 Y-2.4698
G01 X-7.5302 Y-2.4660
G01 X-7.5530 Y-2.4588
G01 X-7.5753 Y-2.4500
G01 X-7.5897 Y-2.4432
G01 X-7.6106 Y-2.4316
G01 X-7.6241 Y-2.4231
G01 X-7.6371 Y-2.4139
G01 X-7.6558 Y-2.3989
G01 X-7.7086 Y-2.3532
G01 X-7.7261 Y-2.3369
G01 X-7.7370 Y-2.3253
G01 X-7.7523 Y-2.3069
G01 X-7.7663 Y-2.2875
G01 X-7.7782 Y-2.2679
G01 X-7.8107 Y-2.3176
G01 X-7.8201 Y-2.3305
G01 X-7.8301 Y-2.3429
G01 X-7.8462 Y-2.3605
G01 X-7.8577 Y-2.3716
G01 X-7.8759 Y-2.3871
G01 X-7.8886 Y-2.3967
G01 X-7.9086 Y-2.4099
G01 X-7.9295 Y-2.4215
G01 X-7.9439 Y-2.4284
G01 X-8.0077 Y-2.4569
G01 X-8.0299 Y-2.4659
G01 X-8.0451 Y-2.4709
G01 X-8.0605 Y-2.4752
G01 X-8.0793 Y-2.4793
G01 X-8.0562 Y-2.5098
G01 X-8.0472 Y-2.5227
G01 X-8.0387 Y-2.5360
G01 X-8.0221 Y-2.5639
G01 X-8.0147 Y-2.5778
G01 X-8.0008 Y-2.6070
G01 X-7.9944 Y-2.6215
G01 X-7.9887 Y-2.6362
G01 X-7.9755 Y-2.6742
G01 X-7.9653 Y-2.7132
G01 X-7.9619 Y-2.7286
G01 X-7.9592 Y-2.7441
G01 X-7.9537 Y-2.7840
G01 X-7.9525 Y-2.7997
G01 X-7.9510 Y-2.8321
G01 X-7.9509 Y-7.8400
G01 X-7.9513 Y-7.8558
G01 X-7.9537 Y-7.8960
G01 X-7.9556 Y-7.9116
G01 X-7.9604 Y-7.9437
G01 X-7.9635 Y-7.9591
G01 X-7.9733 Y-7.9982
G01 X-7.9779 Y-8.0133
G01 X-7.9887 Y-8.0438
G01 X-7.9975 Y-8.0658
G01 X-8.0113 Y-8.0951
G01 X-8.0183 Y-8.1092
G01 X-8.0261 Y-8.1229
G01 X-8.0429 Y-8.1507
G01 X-8.0516 Y-8.1638
G01 X-8.0708 Y-8.1899
G01 X-8.0828 Y-8.2049
G01 X-8.0504 Y-8.2097
G01 X-8.0348 Y-8.2128
G01 X-8.0116 Y-8.2188
G01 X-7.9965 Y-8.2237
G01 X-7.9816 Y-8.2295
G01 X-7.9598 Y-8.2394
G01 X-7.9458 Y-8.2469
G01 X-7.9254 Y-8.2595
G01 X-7.9124 Y-8.2686
G01 X-7.8937 Y-8.2836
G01 X-7.8409 Y-8.3294
G01 X-7.8234 Y-8.3457
G01 X-7.8072 Y-8.3633
G01 X-7.7972 Y-8.3757
G01 X-7.7832 Y-8.3951
G01 X-7.7729 Y-8.4119
G00 Z2.0000
G00 X-5.7328 Y-8.4065
G01 F60.00
G01 Z-0.1500
G01 F240.00
G01 X-5.7202 Y-8.3859
G01 X-5.7062 Y-8.3665
G01 X-5.6909 Y-8.3481
G01 X-5.6741 Y-8.3310
G01 X-5.6562 Y-8.3152
G01 X-5.6372 Y-8.3008
G01 X-5.6239 Y-8.2919
G01 X-5.5833 Y-8.2677
G01 X-5.5833 Y-7.9449
G01 X-5.5884 Y-7.9116
G01 X-5.5904 Y-7.8949
G01 X-5.5927 Y-7.8558
G01 X-5.5931 Y-7.8400
G01 X-5.5930 Y-2.8321
G01 X-5.5915 Y-2.7997
G01 X-5.5903 Y-2.7840
G01 X-5.5848 Y-2.7441
G01 X-5.5821 Y-2.7286
G01 X-5.5787 Y-2.7132
G01 X-5.5685 Y-2.6742
G01 X-5.5636 Y-2.6593
G01 X-5.5525 Y-2.6288
G01 X-5.5465 Y-2.6142
G01 X-5.5293 Y-2.5778
G01 X-5.5219 Y-2.5639
G01 X-5.5053 Y-2.5360
G01 X-5.4924 Y-2.5162
G01 X-5.4732 Y-2.4901
G01 X-5.4635 Y-2.4777
G01 X-5.4513 Y-2.4637
G01 X-5.4749 Y-2.4599
G01 X-5.4905 Y-2.4564
G01 X-5.5059 Y-2.4522
G01 X-5.5285 Y-2.4445
G01 X-5.5433 Y-2.4384
G01 X-5.5577 Y-2.4316
G01 X-5.5717 Y-2.4241
G01 X-5.5921 Y-2.4116
G01 X-5.6051 Y-2.4024
G01 X-5.6177 Y-2.3925
G01 X-5.6766 Y-2.3416
G01 X-5.6884 Y-2.3309
G01 X-5.6996 Y-2.3196
G01 X-5.7103 Y-2.3077
G01 X-5.7203 Y-2.2954
G01 X-5.7330 Y-2.2777
G01 X-5.7460 Y-2.2972
G01 X-5.7554 Y-2.3097
G01 X-5.8052 Y-2.3695
G01 X-5.8157 Y-2.3814
G01 X-5.8268 Y-2.3929
G01 X-5.8445 Y-2.4090
G01 X-5.8569 Y-2.4190
G01 X-5.8698 Y-2.4283
G01 X-5.8832 Y-2.4370
G01 X-5.9040 Y-2.4488
G01 X-5.9183 Y-2.4558
G01 X-5.9404 Y-2.4649
G01 X-5.9555 Y-2.4701
G01 X-6.0298 Y-2.4933
G01 X-6.0453 Y-2.4973
G01 X-6.0629 Y-2.5009
G01 X-6.0516 Y-2.5162
G01 X-6.0429 Y-2.5293
G01 X-6.0221 Y-2.5639
G01 X-6.0147 Y-2.5778
G01 X-6.0008 Y-2.6070
G01 X-5.9944 Y-2.6215
G01 X-5.9887 Y-2.6362
G01 X-5.9779 Y-2.6667
G01 X-5.9733 Y-2.6818
G01 X-5.9653 Y-2.7132
G01 X-5.9604 Y-2.7363
G01 X-5.9556 Y-2.7684
G01 X-5.9537 Y-2.7840
G01 X-5.9525 Y-2.7997
G01 X-5.9510 Y-2.8321
G01 X-5.9509 Y-7.8400
G01 X-5.9513 Y-7.8558
G01 X-5.9537 Y-7.8960
G01 X-5.9592 Y-7.9359
G01 X-5.9619 Y-7.9514
G01 X-5.9653 Y-7.9668
G01 X-5.9733 Y-7.9982
G01 X-5.9779 Y-8.0133
G01 X-5.9887 Y-8.0438
G01 X-5.9944 Y-8.0585
G01 X-6.0008 Y-8.0730
G01 X-6.0147 Y-8.1022
G01 X-6.0221 Y-8.1161
G01 X-6.0429 Y-8.1507
G01 X-6.0516 Y-8.1638
G01 X-6.0662 Y-8.1836
G01 X-5.9989 Y-8.1964
G01 X-5.9834 Y-8.2002
G01 X-5.9681 Y-8.2047
G01 X-5.9456 Y-8.2128
G01 X-5.9238 Y-8.2226
G01 X-5.9097 Y-8.2301
G01 X-5.8893 Y-8.2425
G01 X-5.8699 Y-8.2565
G01 X-5.8515 Y-8.2718
G01 X-5.7949 Y-8.3253
G01 X-5.7836 Y-8.3365
G01 X-5.7678 Y-8.3544
G01 X-5.7579 Y-8.3670
G01 X-5.7444 Y-8.3867
G01 X-5.7328 Y-8.4065
G00 Z2.0000
G00 X-5.7304 Y-8.2179
G01 F60.00
G01 Z-0.1500
G01 F240.00
G01 X-5.7163 Y-8.2070
G01 X-5.7057 Y-8.1994
G01 X-5.7057 Y-7.9548
G01 X-5.7094 Y-7.9296
G01 X-5.7122 Y-7.9065
G01 X-5.7132 Y-7.8949
G01 X-5.7149 Y-7.8618
G01 X-5.7154 Y-7.8400
G01 X-5.7153 Y-2.8291
G01 X-5.7130 Y-2.7829
G01 X-5.7109 Y-2.7612
G01 X-5.7041 Y-2.7154
G01 X-5.7021 Y-2.7047
G01 X-5.6973 Y-2.6835
G01 X-5.6914 Y-2.6597
G01 X-5.6856 Y-2.6387
G01 X-5.6787 Y-2.6180
G01 X-5.6705 Y-2.5949
G01 X-5.6626 Y-2.5746
G01 X-5.6583 Y-2.5646
G01 X-5.6401 Y-2.5259
G01 X-5.6601 Y-2.5132
G01 X-5.6781 Y-2.5005
G01 X-5.6955 Y-2.4869
G01 X-5.7240 Y-2.4624
G01 X-5.7411 Y-2.4802
G01 X-5.7572 Y-2.4952
G01 X-5.7655 Y-2.5024
G01 X-5.7827 Y-2.5162
G01 X-5.8005 Y-2.5291
G01 X-5.8190 Y-2.5412
G01 X-5.8380 Y-2.5523
G01 X-5.8576 Y-2.5624
G01 X-5.8819 Y-2.5733
G01 X-5.8735 Y-2.5949
G01 X-5.8653 Y-2.6180
G01 X-5.8584 Y-2.6387
G01 X-5.8526 Y-2.6597
G01 X-5.8467 Y-2.6835
G01 X-5.8419 Y-2.7047
G01 X-5.8382 Y-2.7262
G01 X-5.8346 Y-2.7504
G01 X-5.8319 Y-2.7720
G01 X-5.8303 Y-2.7937
G01 X-5.8291 Y-2.8182
G01 X-5.8286 Y-2.8400
G01 X-5.8286 Y-7.8400
G01 X-5.8291 Y-7.8618
G01 X-5.8303 Y-7.8863
G01 X-5.8319 Y-7.9080
G01 X-5.8346 Y-7.9296
G01 X-5.8382 Y-7.9538
G01 X-5.8419 Y-7.9753
G01 X-5.8467 Y-7.9965
G01 X-5.8526 Y-8.0203
G01 X-5.8584 Y-8.0413
G01 X-5.8653 Y-8.0620
G01 X-5.8735 Y-8.0851
G01 X-5.8821 Y-8.1071
G01 X-5.8597 Y-8.1181
G01 X-5.8405 Y-8.1288
G01 X-5.8218 Y-8.1405
G01 X-5.8038 Y-8.1531
G01 X-5.7863 Y-8.1666
G01 X-5.7696 Y-8.1809
G01 X-5.7304 Y-8.2179
G00 Z2.0000
G00 X-4.2053 Y-8.4360
G01 F60.00
G01 Z-0.1500
G01 F240.00
G01 X-4.1014 Y-8.3719
G01 X-3.9901 Y-8.2606
G01 X-3.9074 Y-8.1266
G01 X-3.8577 Y-7.9766
G01 X-3.8485 Y-7.8861
G01 X-3.8485 Y-5.6664
G01 X-4.1956 Y-5.6664
G01 X-4.1956 Y-7.8400
G01 X-4.1973 Y-7.8739
G01 X-4.2015 Y-7.9018
G01 X-4.2053 Y-7.9180
G01 X-4.2053 Y-8.4360
G00 Z2.0000
G00 X-4.0830 Y-7.9328
G01 F60.00
G01 Z-0.1500
G01 F240.00
G01 X-4.0830 Y-8.1783
G01 X-4.0190 Y-8.0745
G01 X-3.9780 Y-7.9508
G01 X-3.9708 Y-7.8799
G01 X-3.9708 Y-5.7888
G01 X-4.0732 Y-5.7888
G01 X-4.0732 Y-7.8400
G01 X-4.0754 Y-7.8840
G01 X-4.0802 Y-7.9179
G01 X-4.0830 Y-7.9328
G00 Z2.0000
G00 X-13.4592 Y-9.4832
G01 F60.00
G01 Z-0.1500
G01 F240.00
G01 X-13.4519 Y-9.4750
G01 X-13.4409 Y-9.4634
G01 X-13.4293 Y-9.4525
G01 X-13.4202 Y-9.4446
G01 X-13.4299 Y-9.4411
G01 X-13.4447 Y-9.4350
G01 X-13.4621 Y-9.4268
G01 X-13.4592 Y-9.4832
G00 Z2.0000
G00 X-16.0045 Y-10.0341
G01 F60.00
G01 Z-0.1500
G01 F240.00
G01 X-16.0065 Y-10.0504
G01 X-16.0187 Y-10.1329
G01 X-16.0214 Y-10.1485
G01 X-16.0249 Y-10.1638
G01 X-16.0436 Y-10.2387
G01 X-15.9091 Y-10.3732
G01 X-15.8617 Y-10.3851
G01 X-15.8464 Y-10.3897
G01 X-15.8240 Y-10.3980
G01 X-15.8094 Y-10.4044
G01 X-15.7982 Y-10.4100
G01 X-15.8005 Y-10.3642
G01 X-16.0045 Y-10.0341
G00 Z2.0000
G00 X-16.4594 Y-9.0650
G01 F60.00
G01 Z-0.1500
G01 F240.00
G01 X-16.2725 Y-9.3676
G01 X-16.2557 Y-9.3921
G01 X-16.2504 Y-9.4025
G01 X-16.2444 Y-9.4130
G01 X-15.6788 Y-10.3285
G01 X-15.6785 Y-10.3548
G01 X-15.6765 Y-10.3964
G01 X-15.6753 Y-10.4107
G01 X-15.6668 Y-10.4667
G01 X-15.6533 Y-10.5214
G01 X-15.6489 Y-10.5353
G01 X-15.6348 Y-10.5746
G01 X-15.6273 Y-10.5926
G01 X-15.6051 Y-10.6390
G01 X-15.5789 Y-10.6833
G01 X-15.5680 Y-10.6995
G01 X-15.5372 Y-10.7407
G01 X-15.5028 Y-10.7790
G01 X-15.4890 Y-10.7928
G01 X-15.4507 Y-10.8272
G01 X-15.4095 Y-10.8580
G01 X-15.3975 Y-10.8663
G01 X-15.3533 Y-10.8928
G01 X-15.3403 Y-10.8995
G01 X-15.2937 Y-10.9213
G01 X-15.2361 Y-10.9419
G01 X-15.1767 Y-10.9568
G01 X-15.1258 Y-10.9646
G01 X-15.1064 Y-10.9665
G01 X-15.0550 Y-10.9688
G01 X-14.2050 Y-10.9688
G01 X-14.1497 Y-10.9663
G01 X-14.1342 Y-10.9646
G01 X-14.0833 Y-10.9568
G01 X-14.0333 Y-10.9445
G01 X-14.0193 Y-10.9404
G01 X-13.9754 Y-10.9248
G01 X-13.9574 Y-10.9173
G01 X-13.9110 Y-10.8951
G01 X-13.8585 Y-10.8636
G01 X-13.8093 Y-10.8272
G01 X-13.7710 Y-10.7928
G01 X-13.7572 Y-10.7790
G01 X-13.7228 Y-10.7407
G01 X-13.6920 Y-10.6995
G01 X-13.6837 Y-10.6875
G01 X-13.6572 Y-10.6433
G01 X-13.6505 Y-10.6303
G01 X-13.6287 Y-10.5837
G01 X-13.6081 Y-10.5261
G01 X-13.5932 Y-10.4667
G01 X-13.5854 Y-10.4158
G01 X-13.5838 Y-10.4013
G01 X-13.5812 Y-10.3450
G01 X-13.5815 Y-9.4852
G01 X-13.5842 Y-9.4339
G01 X-13.5932 Y-9.3733
G01 X-13.6081 Y-9.3139
G01 X-13.6252 Y-9.2654
G01 X-13.6306 Y-9.2518
G01 X-13.6505 Y-9.2097
G01 X-13.6597 Y-9.1925
G01 X-13.6863 Y-9.1485
G01 X-13.7168 Y-9.1070
G01 X-13.7260 Y-9.0956
G01 X-13.7572 Y-9.0610
G01 X-13.7674 Y-9.0505
G01 X-13.8056 Y-9.0160
G01 X-13.8170 Y-9.0068
G01 X-13.8585 Y-8.9764
G01 X-13.9025 Y-8.9497
G01 X-13.9153 Y-8.9426
G01 X-13.9618 Y-8.9206
G01 X-13.9754 Y-8.9152
G01 X-14.0239 Y-8.8981
G01 X-14.0833 Y-8.8832
G01 X-14.1439 Y-8.8742
G01 X-14.1952 Y-8.8715
G01 X-14.2215 Y-8.8712
G01 X-15.4850 Y-8.0906
G01 X-17.5763 Y-5.9994
G01 X-17.6229 Y-5.9574
G01 X-17.6772 Y-5.9171
G01 X-17.7352 Y-5.8823
G01 X-17.7874 Y-5.8574
G01 X-17.8054 Y-5.8499
G01 X-17.8600 Y-5.8307
G01 X-17.9256 Y-5.8142
G01 X-17.9925 Y-5.8043
G01 X-18.0600 Y-5.8010
G01 X-26.6312 Y-5.8010
G01 X-26.6313 Y-5.5351
G01 X-26.6322 Y-5.5205
G01 X-26.6342 Y-5.5060
G01 X-26.6372 Y-5.4917
G01 X-26.6413 Y-5.4776
G01 X-26.6464 Y-5.4639
G01 X-26.6503 Y-5.4550
G01 X-26.6571 Y-5.4420
G01 X-26.6621 Y-5.4337
G01 X-26.6703 Y-5.4216
G01 X-26.6795 Y-5.4102
G01 X-26.6860 Y-5.4029
G01 X-26.6965 Y-5.3927
G01 X-26.7039 Y-5.3863
G01 X-26.7155 Y-5.3775
G01 X-26.7278 Y-5.3695
G01 X-26.7406 Y-5.3625
G01 X-26.7539 Y-5.3564
G01 X-26.7630 Y-5.3528
G01 X-26.7770 Y-5.3484
G01 X-26.7864 Y-5.3461
G01 X-26.8057 Y-5.3427
G01 X-26.8154 Y-5.3418
G01 X-26.8300 Y-5.3412
G01 X-27.8300 Y-5.3412
G01 X-27.8495 Y-5.3422
G01 X-27.8640 Y-5.3442
G01 X-27.8783 Y-5.3472
G01 X-27.8924 Y-5.3513
G01 X-27.9061 Y-5.3564
G01 X-27.9194 Y-5.3625
G01 X-27.9322 Y-5.3695
G01 X-27.9445 Y-5.3775
G01 X-27.9561 Y-5.3863
G01 X-27.9671 Y-5.3960
G01 X-27.9773 Y-5.4065
G01 X-27.9867 Y-5.4177
G01 X-27.9953 Y-5.4296
G01 X-28.0029 Y-5.4420
G01 X-28.0097 Y-5.4550
G01 X-28.0155 Y-5.4685
G01 X-28.0202 Y-5.4823
G01 X-28.0239 Y-5.4964
G01 X-28.0266 Y-5.5108
G01 X-28.0282 Y-5.5254
G01 X-28.0288 Y-5.5400
G01 X-28.0288 Y-7.4400
G01 X-28.0282 Y-7.4546
G01 X-28.0266 Y-7.4692
G01 X-28.0239 Y-7.4836
G01 X-28.0202 Y-7.4977
G01 X-28.0155 Y-7.5115
G01 X-28.0097 Y-7.5250
G01 X-28.0029 Y-7.5380
G01 X-27.9953 Y-7.5504
G01 X-27.9867 Y-7.5623
G01 X-27.9773 Y-7.5735
G01 X-27.9671 Y-7.5840
G01 X-27.9561 Y-7.5937
G01 X-27.9445 Y-7.6025
G01 X-27.9322 Y-7.6105
G01 X-27.9150 Y-7.6197
G01 X-27.9015 Y-7.6255
G01 X-27.8877 Y-7.6302
G01 X-27.8736 Y-7.6339
G01 X-27.8592 Y-7.6366
G01 X-27.8446 Y-7.6382
G01 X-27.8300 Y-7.6388
G01 X-26.8300 Y-7.6388
G01 X-26.8154 Y-7.6382
G01 X-26.7960 Y-7.6358
G01 X-26.7770 Y-7.6316
G01 X-26.7630 Y-7.6272
G01 X-26.7450 Y-7.6197
G01 X-26.7320 Y-7.6129
G01 X-26.7237 Y-7.6079
G01 X-26.7116 Y-7.5997
G01 X-26.7039 Y-7.5937
G01 X-26.6929 Y-7.5840
G01 X-26.6860 Y-7.5771
G01 X-26.6795 Y-7.5698
G01 X-26.6703 Y-7.5584
G01 X-26.6621 Y-7.5463
G01 X-26.6571 Y-7.5380
G01 X-26.6483 Y-7.5205
G01 X-26.6445 Y-7.5115
G01 X-26.6398 Y-7.4977
G01 X-26.6361 Y-7.4836
G01 X-26.6334 Y-7.4692
G01 X-26.6318 Y-7.4546
G01 X-26.6313 Y-7.4449
G01 X-26.6312 Y-7.1790
G01 X-18.3454 Y-7.1790
G01 X-16.4594 Y-9.0650
G00 Z2.0000
G00 X-16.3628 Y-8.9886
G01 F60.00
G01 Z-0.1500
G01 F240.00
G01 X-16.1684 Y-9.3033
G01 X-16.1494 Y-9.3307
G01 X-16.1439 Y-9.3422
G01 X-16.1404 Y-9.3487
G01 X-15.5564 Y-10.2938
G01 X-15.5564 Y-10.3469
G01 X-15.5542 Y-10.3919
G01 X-15.5468 Y-10.4428
G01 X-15.5349 Y-10.4906
G01 X-15.5196 Y-10.5334
G01 X-15.5168 Y-10.5403
G01 X-15.4963 Y-10.5830
G01 X-15.4739 Y-10.6204
G01 X-15.4698 Y-10.6267
G01 X-15.4426 Y-10.6631
G01 X-15.4122 Y-10.6969
G01 X-15.4069 Y-10.7022
G01 X-15.3731 Y-10.7326
G01 X-15.3320 Y-10.7630
G01 X-15.2946 Y-10.7854
G01 X-15.2880 Y-10.7889
G01 X-15.2469 Y-10.8083
G01 X-15.2041 Y-10.8237
G01 X-15.1969 Y-10.8259
G01 X-15.1528 Y-10.8368
G01 X-15.1023 Y-10.8442
G01 X-15.0550 Y-10.8464
G01 X-14.2050 Y-10.8464
G01 X-14.1561 Y-10.8441
G01 X-14.1072 Y-10.8368
G01 X-14.0631 Y-10.8259
G01 X-14.0559 Y-10.8237
G01 X-14.0131 Y-10.8083
G01 X-13.9720 Y-10.7889
G01 X-13.9654 Y-10.7854
G01 X-13.9296 Y-10.7639
G01 X-13.9233 Y-10.7598
G01 X-13.8869 Y-10.7326
G01 X-13.8504 Y-10.6996
G01 X-13.8174 Y-10.6631
G01 X-13.7870 Y-10.6220
G01 X-13.7646 Y-10.5846
G01 X-13.7611 Y-10.5780
G01 X-13.7417 Y-10.5369
G01 X-13.7263 Y-10.4941
G01 X-13.7241 Y-10.4869
G01 X-13.7132 Y-10.4428
G01 X-13.7058 Y-10.3923
G01 X-13.7036 Y-10.3450
G01 X-13.7036 Y-9.4931
G01 X-13.7060 Y-9.4458
G01 X-13.7132 Y-9.3972
G01 X-13.7251 Y-9.3494
G01 X-13.7404 Y-9.3066
G01 X-13.7432 Y-9.2997
G01 X-13.7611 Y-9.2620
G01 X-13.7646 Y-9.2554
G01 X-13.7880 Y-9.2164
G01 X-13.8186 Y-9.1754
G01 X-13.8478 Y-9.1431
G01 X-13.8531 Y-9.1378
G01 X-13.8869 Y-9.1074
G01 X-13.9233 Y-9.0802
G01 X-13.9296 Y-9.0761
G01 X-13.9686 Y-9.0528
G01 X-14.0131 Y-9.0317
G01 X-14.0594 Y-9.0151
G01 X-14.1035 Y-9.0040
G01 X-14.1109 Y-9.0025
G01 X-14.1577 Y-8.9958
G01 X-14.2031 Y-8.9936
G01 X-14.2562 Y-8.9936
G01 X-15.5614 Y-8.1872
G01 X-17.6606 Y-6.0880
G01 X-17.7005 Y-6.0519
G01 X-17.7452 Y-6.0188
G01 X-17.7929 Y-5.9902
G01 X-17.8397 Y-5.9680
G01 X-17.8466 Y-5.9651
G01 X-17.8955 Y-5.9477
G01 X-17.9494 Y-5.9342
G01 X-18.0045 Y-5.9260
G01 X-18.0600 Y-5.9233
G01 X-26.7536 Y-5.9233
G01 X-26.7536 Y-5.5400
G01 X-26.7541 Y-5.5306
G01 X-26.7563 Y-5.5196
G01 X-26.7601 Y-5.5090
G01 X-26.7654 Y-5.4991
G01 X-26.7709 Y-5.4915
G01 X-26.7773 Y-5.4846
G01 X-26.7860 Y-5.4775
G01 X-26.7956 Y-5.4717
G01 X-26.8042 Y-5.4680
G01 X-26.8096 Y-5.4663
G01 X-26.8169 Y-5.4647
G01 X-26.8244 Y-5.4638
G01 X-26.8300 Y-5.4636
G01 X-27.8338 Y-5.4636
G01 X-27.8449 Y-5.4650
G01 X-27.8504 Y-5.4663
G01 X-27.8575 Y-5.4687
G01 X-27.8677 Y-5.4735
G01 X-27.8770 Y-5.4797
G01 X-27.8854 Y-5.4873
G01 X-27.8925 Y-5.4960
G01 X-27.8983 Y-5.5056
G01 X-27.9006 Y-5.5107
G01 X-27.9032 Y-5.5178
G01 X-27.9056 Y-5.5288
G01 X-27.9064 Y-5.5400
G01 X-27.9064 Y-7.4419
G01 X-27.9053 Y-7.4531
G01 X-27.9042 Y-7.4586
G01 X-27.9020 Y-7.4658
G01 X-27.8974 Y-7.4760
G01 X-27.8914 Y-7.4855
G01 X-27.8866 Y-7.4913
G01 X-27.8827 Y-7.4954
G01 X-27.8740 Y-7.5025
G01 X-27.8644 Y-7.5083
G01 X-27.8575 Y-7.5113
G01 X-27.8522 Y-7.5132
G01 X-27.8412 Y-7.5156
G01 X-27.8300 Y-7.5164
G01 X-26.8300 Y-7.5164
G01 X-26.8225 Y-7.5161
G01 X-26.8151 Y-7.5150
G01 X-26.8078 Y-7.5132
G01 X-26.8007 Y-7.5106
G01 X-26.7923 Y-7.5065
G01 X-26.7830 Y-7.5003
G01 X-26.7759 Y-7.4941
G01 X-26.7686 Y-7.4855
G01 X-26.7635 Y-7.4777
G01 X-26.7587 Y-7.4675
G01 X-26.7554 Y-7.4568
G01 X-26.7539 Y-7.4475
G01 X-26.7536 Y-7.4400
G01 X-26.7536 Y-7.0567
G01 X-18.2947 Y-7.0567
G01 X-16.3628 Y-8.9886
G00 Z2.0000
G00 X-17.1794 Y-8.5180
G01 F60.00
G01 Z-0.1500
G01 F240.00
G01 X-17.1790 Y-8.5294
G01 X-17.1790 Y-8.5454
G01 X-17.1806 Y-8.5692
G01 X-17.1827 Y-8.5851
G01 X-17.1855 Y-8.6007
G01 X-17.1913 Y-8.6240
G01 X-17.1987 Y-8.6467
G01 X-17.2078 Y-8.6688
G01 X-17.2417 Y-8.7389
G01 X-17.2487 Y-8.7524
G01 X-17.1858 Y-8.7493
G01 X-17.1700 Y-8.7489
G01 X-17.1542 Y-8.7493
G01 X-17.0631 Y-8.7539
G01 X-17.0396 Y-8.7565
G01 X-16.9571 Y-8.7687
G01 X-16.9415 Y-8.7714
G01 X-16.9213 Y-8.7761
G01 X-17.1794 Y-8.5180
G00 Z2.0000
G00 X-18.2381 Y-10.3535
G01 F60.00
G01 Z-0.1500
G01 F240.00
G01 X-18.1568 Y-10.2721
G01 X-18.1705 Y-10.2337
G01 X-18.1750 Y-10.2198
G01 X-18.1965 Y-10.1341
G01 X-18.1994 Y-10.1205
G01 X-18.2137 Y-10.0228
G01 X-18.2188 Y-9.9200
G01 X-18.2137 Y-9.8172
G01 X-18.1995 Y-9.7202
G01 X-18.1965 Y-9.7059
G01 X-18.1750 Y-9.6204
G01 X-18.1708 Y-9.6071
G01 X-18.1568 Y-9.5679
G01 X-18.2381 Y-9.4865
G01 X-18.2559 Y-9.5248
G01 X-18.3081 Y-9.7193
G01 X-18.3256 Y-9.9200
G01 X-18.3081 Y-10.1207
G01 X-18.2559 Y-10.3152
G01 X-18.2381 Y-10.3535
G00 Z2.0000
G00 X-18.2771 Y-10.5592
G01 F60.00
G01 Z-0.1500
G01 F240.00
G01 X-18.2746 Y-10.5629
G01 X-18.0132 Y-10.3016
G01 X-18.0266 Y-10.2728
G01 X-18.0560 Y-10.1907
G01 X-18.0782 Y-10.1027
G01 X-18.0920 Y-10.0108
G01 X-18.0964 Y-9.9200
G01 X-18.0920 Y-9.8292
G01 X-18.0783 Y-9.7374
G01 X-18.0561 Y-9.6495
G01 X-18.0266 Y-9.5672
G01 X-18.0132 Y-9.5384
G01 X-18.2746 Y-9.2771
G01 X-18.2771 Y-9.2808
G01 X-18.3713 Y-9.4828
G01 X-18.4290 Y-9.6980
G01 X-18.4484 Y-9.9200
G01 X-18.4290 Y-10.1420
G01 X-18.3713 Y-10.3572
G01 X-18.2771 Y-10.5592
G00 Z2.0000
G00 X-17.5216 Y-10.7771
G01 F60.00
G01 Z-0.1500
G01 F240.00
G01 X-17.5280 Y-10.7744
G01 X-17.5516 Y-10.7632
G01 X-17.8129 Y-11.0246
G01 X-17.8092 Y-11.0271
G01 X-17.6072 Y-11.1213
G01 X-17.5216 Y-11.1443
G01 X-17.5216 Y-10.7771
G00 Z2.0000
G00 X-16.8184 Y-10.7771
G01 F60.00
G01 Z-0.1500
G01 F240.00
G01 X-16.8184 Y-11.1443
G01 X-16.7328 Y-11.1213
G01 X-16.5308 Y-11.0271
G01 X-16.5271 Y-11.0246
G01 X-16.7884 Y-10.7632
G01 X-16.8120 Y-10.7744
G01 X-16.8184 Y-10.7771
G00 Z2.0000
G00 X-17.6640 Y-15.1810
G01 F60.00
G01 Z-0.1500
G01 F240.00
G01 X-17.6514 Y-15.1981
G01 X-17.6435 Y-15.2097
G01 X-17.5975 Y-15.2793
G01 X-17.5836 Y-15.3026
G01 X-17.5770 Y-15.3145
G01 X-17.5648 Y-15.3387
G01 X-17.5592 Y-15.3511
G01 X-17.5487 Y-15.3761
G01 X-17.5395 Y-15.4016
G01 X-17.4757 Y-15.6069
G01 X-17.3808 Y-15.8115
G01 X-17.2594 Y-16.0016
G01 X-17.1138 Y-16.1739
G01 X-16.9465 Y-16.3252
G01 X-16.7605 Y-16.4528
G01 X-16.5592 Y-16.5546
G01 X-16.3461 Y-16.6285
G01 X-16.1251 Y-16.6735
G01 X-15.9563 Y-16.6848
G01 X-15.7872 Y-16.6848
G01 X-15.5637 Y-16.6547
G01 X-15.3461 Y-16.5951
G01 X-15.1385 Y-16.5071
G01 X-14.9444 Y-16.3921
G01 X-14.7674 Y-16.2523
G01 X-14.6105 Y-16.0902
G01 X-14.4767 Y-15.9086
G01 X-14.3683 Y-15.7108
G01 X-14.2873 Y-15.5003
G01 X-14.2767 Y-15.4566
G01 X-14.2689 Y-15.4298
G01 X-14.2645 Y-15.4166
G01 X-14.2519 Y-15.3807
G01 X-14.2471 Y-15.3680
G01 X-14.2419 Y-15.3555
G01 X-14.2306 Y-15.3308
G01 X-14.2181 Y-15.3066
G01 X-14.2114 Y-15.2948
G01 X-14.2045 Y-15.2831
G01 X-14.1898 Y-15.2603
G01 X-14.1740 Y-15.2382
G01 X-14.1657 Y-15.2274
G01 X-14.1571 Y-15.2169
G01 X-14.1363 Y-15.1927
G01 X-14.1475 Y-15.1690
G01 X-14.1531 Y-15.1561
G01 X-14.1632 Y-15.1299
G01 X-14.1937 Y-15.0374
G01 X-14.1975 Y-15.0245
G01 X-14.2041 Y-14.9984
G01 X-14.2095 Y-14.9720
G01 X-14.2117 Y-14.9587
G01 X-14.2151 Y-14.9320
G01 X-14.2173 Y-14.9052
G01 X-14.2199 Y-14.8310
G01 X-14.2575 Y-14.6086
G01 X-14.3243 Y-14.3931
G01 X-14.4192 Y-14.1885
G01 X-14.5406 Y-13.9984
G01 X-14.6862 Y-13.8261
G01 X-14.8535 Y-13.6748
G01 X-15.0395 Y-13.5472
G01 X-15.2408 Y-13.4454
G01 X-15.4539 Y-13.3715
G01 X-15.6749 Y-13.3265
G01 X-15.8437 Y-13.3152
G01 X-16.0128 Y-13.3152
G01 X-16.2363 Y-13.3453
G01 X-16.4539 Y-13.4049
G01 X-16.6615 Y-13.4929
G01 X-16.8556 Y-13.6079
G01 X-17.0326 Y-13.7477
G01 X-17.1895 Y-13.9098
G01 X-17.3233 Y-14.0914
G01 X-17.4317 Y-14.2892
G01 X-17.5127 Y-14.4997
G01 X-17.5650 Y-14.7191
G01 X-17.5872 Y-14.9383
G01 X-17.5912 Y-14.9648
G01 X-17.5963 Y-14.9910
G01 X-17.6027 Y-15.0170
G01 X-17.6135 Y-15.0563
G01 X-17.6216 Y-15.0835
G01 X-17.6262 Y-15.0969
G01 X-17.6311 Y-15.1102
G01 X-17.6419 Y-15.1364
G01 X-17.6540 Y-15.1621
G01 X-17.6640 Y-15.1810
G00 Z2.0000
G00 X-17.8192 Y-15.1922
G01 F60.00
G01 Z-0.1500
G01 F240.00
G01 X-17.8011 Y-15.2093
G01 X-17.7859 Y-15.2253
G01 X-17.7716 Y-15.2420
G01 X-17.7580 Y-15.2594
G01 X-17.7454 Y-15.2774
G01 X-17.7067 Y-15.3356
G01 X-17.6954 Y-15.3536
G01 X-17.6849 Y-15.3721
G01 X-17.6754 Y-15.3911
G01 X-17.6667 Y-15.4105
G01 X-17.6590 Y-15.4304
G01 X-17.6555 Y-15.4404
G01 X-17.5901 Y-15.6509
G01 X-17.4883 Y-15.8704
G01 X-17.3581 Y-16.0743
G01 X-17.2019 Y-16.2591
G01 X-17.0225 Y-16.4214
G01 X-16.8230 Y-16.5583
G01 X-16.6070 Y-16.6674
G01 X-16.3785 Y-16.7468
G01 X-16.1414 Y-16.7950
G01 X-15.9604 Y-16.8071
G01 X-15.7790 Y-16.8071
G01 X-15.5392 Y-16.7748
G01 X-15.3059 Y-16.7109
G01 X-15.0832 Y-16.6165
G01 X-14.8750 Y-16.4932
G01 X-14.6851 Y-16.3432
G01 X-14.5169 Y-16.1693
G01 X-14.3734 Y-15.9745
G01 X-14.2571 Y-15.7624
G01 X-14.1702 Y-15.5366
G01 X-14.1584 Y-15.4878
G01 X-14.1523 Y-15.4669
G01 X-14.1489 Y-15.4565
G01 X-14.1409 Y-15.4334
G01 X-14.1335 Y-15.4135
G01 X-14.1251 Y-15.3939
G01 X-14.1158 Y-15.3748
G01 X-14.1056 Y-15.3561
G01 X-14.0945 Y-15.3379
G01 X-14.0825 Y-15.3203
G01 X-14.0697 Y-15.3033
G01 X-14.0561 Y-15.2869
G01 X-14.0102 Y-15.2342
G01 X-13.9953 Y-15.2180
G01 X-13.9841 Y-15.2068
G01 X-13.9985 Y-15.1867
G01 X-14.0103 Y-15.1681
G01 X-14.0212 Y-15.1490
G01 X-14.0311 Y-15.1293
G01 X-14.0357 Y-15.1193
G01 X-14.0442 Y-15.0990
G01 X-14.0516 Y-15.0783
G01 X-14.0735 Y-15.0119
G01 X-14.0797 Y-14.9917
G01 X-14.0824 Y-14.9815
G01 X-14.0848 Y-14.9713
G01 X-14.0890 Y-14.9506
G01 X-14.0908 Y-14.9402
G01 X-14.0935 Y-14.9192
G01 X-14.0952 Y-14.8982
G01 X-14.0957 Y-14.8877
G01 X-14.0980 Y-14.8187
G01 X-14.1382 Y-14.5801
G01 X-14.2099 Y-14.3491
G01 X-14.3117 Y-14.1296
G01 X-14.4419 Y-13.9257
G01 X-14.5981 Y-13.7409
G01 X-14.7775 Y-13.5786
G01 X-14.9770 Y-13.4417
G01 X-15.1930 Y-13.3326
G01 X-15.4215 Y-13.2532
G01 X-15.6586 Y-13.2050
G01 X-15.8396 Y-13.1929
G01 X-16.0210 Y-13.1929
G01 X-16.2608 Y-13.2252
G01 X-16.4941 Y-13.2891
G01 X-16.7168 Y-13.3835
G01 X-16.9250 Y-13.5068
G01 X-17.1149 Y-13.6568
G01 X-17.2831 Y-13.8307
G01 X-17.4266 Y-14.0255
G01 X-17.5429 Y-14.2376
G01 X-17.6298 Y-14.4634
G01 X-17.6859 Y-14.6988
G01 X-17.7074 Y-14.9128
G01 X-17.7100 Y-14.9336
G01 X-17.7136 Y-14.9542
G01 X-17.7181 Y-14.9747
G01 X-17.7345 Y-15.0349
G01 X-17.7414 Y-15.0560
G01 X-17.7494 Y-15.0768
G01 X-17.7584 Y-15.0971
G01 X-17.7684 Y-15.1170
G01 X-17.7793 Y-15.1363
G01 X-17.7912 Y-15.1550
G01 X-17.8041 Y-15.1732
G01 X-17.8192 Y-15.1922
G00 Z2.0000
G00 X-18.0123 Y-15.2171
G01 F60.00
G01 Z-0.1500
G01 F240.00
G01 X-17.9858 Y-15.2287
G01 X-17.9714 Y-15.2355
G01 X-17.9573 Y-15.2429
G01 X-17.9436 Y-15.2511
G01 X-17.9303 Y-15.2599
G01 X-17.9175 Y-15.2694
G01 X-17.9051 Y-15.2795
G01 X-17.8933 Y-15.2902
G01 X-17.8766 Y-15.3074
G01 X-17.8662 Y-15.3195
G01 X-17.8564 Y-15.3320
G01 X-17.8473 Y-15.3451
G01 X-17.8086 Y-15.4033
G01 X-17.8004 Y-15.4163
G01 X-17.7928 Y-15.4297
G01 X-17.7859 Y-15.4435
G01 X-17.7797 Y-15.4576
G01 X-17.7715 Y-15.4792
G01 X-17.7045 Y-15.6950
G01 X-17.5958 Y-15.9293
G01 X-17.4568 Y-16.1470
G01 X-17.2900 Y-16.3443
G01 X-17.0984 Y-16.5176
G01 X-16.8855 Y-16.6638
G01 X-16.6549 Y-16.7803
G01 X-16.4109 Y-16.8650
G01 X-16.1577 Y-16.9165
G01 X-15.9645 Y-16.9294
G01 X-15.7708 Y-16.9294
G01 X-15.5148 Y-16.8950
G01 X-15.2657 Y-16.8267
G01 X-15.0279 Y-16.7259
G01 X-14.8056 Y-16.5942
G01 X-14.6029 Y-16.4342
G01 X-14.4233 Y-16.2485
G01 X-14.2701 Y-16.0405
G01 X-14.1459 Y-15.8140
G01 X-14.0531 Y-15.5729
G01 X-14.0421 Y-15.5268
G01 X-14.0381 Y-15.5115
G01 X-14.0333 Y-15.4964
G01 X-14.0227 Y-15.4661
G01 X-14.0170 Y-15.4518
G01 X-14.0106 Y-15.4378
G01 X-14.0035 Y-15.4241
G01 X-13.9958 Y-15.4107
G01 X-13.9830 Y-15.3914
G01 X-13.9689 Y-15.3731
G01 X-13.9127 Y-15.3086
G01 X-13.9016 Y-15.2971
G01 X-13.8900 Y-15.2862
G01 X-13.8779 Y-15.2759
G01 X-13.8652 Y-15.2661
G01 X-13.8521 Y-15.2571
G01 X-13.8386 Y-15.2486
G01 X-13.8246 Y-15.2409
G01 X-13.8103 Y-15.2339
G01 X-13.7882 Y-15.2247
G01 X-13.8326 Y-15.1887
G01 X-13.8506 Y-15.1730
G01 X-13.8674 Y-15.1560
G01 X-13.8829 Y-15.1377
G01 X-13.8925 Y-15.1250
G01 X-13.9014 Y-15.1117
G01 X-13.9135 Y-15.0911
G01 X-13.9206 Y-15.0769
G01 X-13.9271 Y-15.0623
G01 X-13.9355 Y-15.0399
G01 X-13.9597 Y-14.9663
G01 X-13.9638 Y-14.9515
G01 X-13.9686 Y-14.9291
G01 X-13.9709 Y-14.9140
G01 X-13.9731 Y-14.8912
G01 X-13.9760 Y-14.8064
G01 X-14.0189 Y-14.5517
G01 X-14.0955 Y-14.3050
G01 X-14.2042 Y-14.0707
G01 X-14.3432 Y-13.8530
G01 X-14.5100 Y-13.6557
G01 X-14.7016 Y-13.4824
G01 X-14.9145 Y-13.3362
G01 X-15.1451 Y-13.2197
G01 X-15.3891 Y-13.1350
G01 X-15.6423 Y-13.0835
G01 X-15.8355 Y-13.0706
G01 X-16.0292 Y-13.0706
G01 X-16.2852 Y-13.1050
G01 X-16.5343 Y-13.1733
G01 X-16.7721 Y-13.2741
G01 X-16.9944 Y-13.4058
G01 X-17.1971 Y-13.5658
G01 X-17.3767 Y-13.7515
G01 X-17.5299 Y-13.9595
G01 X-17.6541 Y-14.1860
G01 X-17.7469 Y-14.4271
G01 X-17.8068 Y-14.6784
G01 X-17.8291 Y-14.9006
G01 X-17.8310 Y-14.9156
G01 X-17.8336 Y-14.9306
G01 X-17.8369 Y-14.9454
G01 X-17.8495 Y-14.9921
G01 X-17.8567 Y-15.0151
G01 X-17.8656 Y-15.0376
G01 X-17.8762 Y-15.0593
G01 X-17.8842 Y-15.0733
G01 X-17.8928 Y-15.0868
G01 X-17.9070 Y-15.1063
G01 X-17.9172 Y-15.1187
G01 X-17.9631 Y-15.1714
G01 X-17.9739 Y-15.1832
G01 X-17.9911 Y-15.1998
G01 X-18.0033 Y-15.2101
G01 X-18.0123 Y-15.2171
G00 Z2.0000
G00 X-18.4267 Y-16.7183
G01 F60.00
G01 Z-0.1500
G01 F240.00
G01 X-18.6804 Y-16.9720
G01 X-18.6708 Y-16.9888
G01 X-18.6231 Y-17.0898
G01 X-18.5848 Y-17.1967
G01 X-18.5769 Y-17.2273
G01 X-18.2182 Y-17.2273
G01 X-18.2565 Y-17.0677
G01 X-18.3483 Y-16.8462
G01 X-18.4267 Y-16.7183
G00 Z2.0000
G00 X-18.5318 Y-16.9965
G01 F60.00
G01 Z-0.1500
G01 F240.00
G01 X-18.5101 Y-17.0430
G01 X-18.4877 Y-17.1050
G01 X-18.3735 Y-17.1050
G01 X-18.4517 Y-16.9163
G01 X-18.5318 Y-16.9965
G00 Z2.0000
G00 X-18.4276 Y-18.3607
G01 F60.00
G01 Z-0.1500
G01 F240.00
G01 X-18.4267 Y-18.3617
G01 X-18.4261 Y-18.3607
G01 X-18.4276 Y-18.3607
G00 Z2.0000
G00 X-20.1614 Y-19.1446
G01 F60.00
G01 Z-0.1500
G01 F240.00
G01 X-19.2554 Y-19.1444
G01 X-19.2658 Y-19.1172
G01 X-19.2725 Y-19.0962
G01 X-19.2754 Y-19.0856
G01 X-19.2805 Y-19.0642
G01 X-19.2827 Y-19.0534
G01 X-19.2871 Y-19.0238
G01 X-19.3877 Y-19.0490
G01 X-19.4079 Y-19.0535
G01 X-19.4282 Y-19.0572
G01 X-19.5371 Y-19.0733
G01 X-19.5587 Y-19.0760
G01 X-19.5804 Y-19.0776
G01 X-19.6882 Y-19.0829
G01 X-19.7100 Y-19.0834
G01 X-19.7318 Y-19.0829
G01 X-19.8396 Y-19.0776
G01 X-19.8613 Y-19.0760
G01 X-19.8829 Y-19.0733
G01 X-19.9897 Y-19.0575
G01 X-20.0111 Y-19.0538
G01 X-20.0323 Y-19.0490
G01 X-20.1376 Y-19.0226
G01 X-20.1447 Y-19.0721
G01 X-20.1484 Y-19.0938
G01 X-20.1531 Y-19.1153
G01 X-20.1614 Y-19.1446
G00 Z2.0000
G00 X-20.3837 Y-19.2687
G01 F60.00
G01 Z-0.1500
G01 F240.00
G01 X-19.0410 Y-19.2687
G01 X-19.0530 Y-19.2566
G01 X-19.0687 Y-19.2386
G01 X-19.0830 Y-19.2195
G01 X-19.0959 Y-19.1993
G01 X-19.1036 Y-19.1854
G01 X-19.1107 Y-19.1711
G01 X-19.1416 Y-19.0996
G01 X-19.1475 Y-19.0848
G01 X-19.1550 Y-19.0621
G01 X-19.1609 Y-19.0389
G01 X-19.1649 Y-19.0153
G01 X-19.1672 Y-18.9915
G01 X-19.1678 Y-18.9676
G01 X-19.1665 Y-18.9437
G01 X-19.1647 Y-18.9279
G01 X-19.1598 Y-18.8978
G01 X-19.1943 Y-18.8634
G01 X-19.2825 Y-18.8950
G01 X-19.2975 Y-18.8999
G01 X-19.3127 Y-18.9041
G01 X-19.4174 Y-18.9303
G01 X-19.4320 Y-18.9336
G01 X-19.4483 Y-18.9365
G01 X-19.5551 Y-18.9523
G01 X-19.5707 Y-18.9542
G01 X-19.5864 Y-18.9554
G01 X-19.6942 Y-18.9607
G01 X-19.7100 Y-18.9611
G01 X-19.7258 Y-18.9607
G01 X-19.8336 Y-18.9554
G01 X-19.8493 Y-18.9542
G01 X-19.8649 Y-18.9523
G01 X-19.9717 Y-18.9365
G01 X-19.9872 Y-18.9338
G01 X-20.0026 Y-18.9303
G01 X-20.1073 Y-18.9041
G01 X-20.1225 Y-18.8999
G01 X-20.1375 Y-18.8950
G01 X-20.2252 Y-18.8636
G01 X-20.2558 Y-18.8943
G01 X-20.2536 Y-18.9140
G01 X-20.2526 Y-18.9379
G01 X-20.2529 Y-18.9538
G01 X-20.2548 Y-18.9776
G01 X-20.2658 Y-19.0547
G01 X-20.2684 Y-19.0704
G01 X-20.2739 Y-19.0937
G01 X-20.2785 Y-19.1090
G01 X-20.2838 Y-19.1240
G01 X-20.2932 Y-19.1460
G01 X-20.3004 Y-19.1603
G01 X-20.3124 Y-19.1809
G01 X-20.3213 Y-19.1942
G01 X-20.3358 Y-19.2132
G01 X-20.3837 Y-19.2687
G00 Z2.0000
G00 X-20.9939 Y-18.3607
G01 F60.00
G01 Z-0.1500
G01 F240.00
G01 X-20.9933 Y-18.3617
G01 X-20.9924 Y-18.3607
G01 X-20.9939 Y-18.3607
G00 Z2.0000
G00 X-21.2018 Y-17.2273
G01 F60.00
G01 Z-0.1500
G01 F240.00
G01 X-20.8431 Y-17.2273
G01 X-20.8352 Y-17.1967
G01 X-20.7969 Y-17.0898
G01 X-20.7492 Y-16.9888
G01 X-20.7396 Y-16.9720
G01 X-20.9933 Y-16.7183
G01 X-21.0717 Y-16.8462
G01 X-21.1635 Y-17.0677
G01 X-21.2018 Y-17.2273
G00 Z2.0000
G00 X-21.0465 Y-17.1050
G01 F60.00
G01 Z-0.1500
G01 F240.00
G01 X-20.9323 Y-17.1050
G01 X-20.9099 Y-17.0430
G01 X-20.8883 Y-16.9968
G01 X-20.9686 Y-16.9169
G01 X-21.0465 Y-17.1050
G00 Z2.0000
G00 X-21.5648 Y-15.1175
G01 F60.00
G01 Z-0.1500
G01 F240.00
G01 X-21.5358 Y-15.1454
G01 X-21.5264 Y-15.1550
G01 X-21.5083 Y-15.1749
G01 X-21.4912 Y-15.1957
G01 X-21.4750 Y-15.2173
G01 X-21.4599 Y-15.2396
G01 X-21.4459 Y-15.2626
G01 X-21.4176 Y-15.3116
G01 X-21.3507 Y-15.3888
G01 X-21.2704 Y-15.4519
G01 X-21.1797 Y-15.4987
G01 X-21.0817 Y-15.5275
G01 X-21.0055 Y-15.5348
G01 X-20.9289 Y-15.5348
G01 X-20.8954 Y-15.5284
G01 X-20.8585 Y-15.5230
G01 X-20.8300 Y-15.5203
G01 X-20.8014 Y-15.5190
G01 X-20.7871 Y-15.5188
G01 X-20.7585 Y-15.5197
G01 X-20.7300 Y-15.5220
G01 X-20.7063 Y-15.5251
G01 X-20.6864 Y-15.4907
G01 X-20.6724 Y-15.4677
G01 X-20.6573 Y-15.4454
G01 X-20.6412 Y-15.4238
G01 X-20.6241 Y-15.4031
G01 X-20.6059 Y-15.3831
G01 X-20.5965 Y-15.3735
G01 X-20.5742 Y-15.3520
G01 X-20.4828 Y-15.2233
G01 X-20.4649 Y-15.1995
G01 X-20.4472 Y-15.1780
G01 X-20.4380 Y-15.1676
G01 X-20.3938 Y-15.1217
G01 X-20.4070 Y-15.0924
G01 X-20.4170 Y-15.0674
G01 X-20.4258 Y-15.0420
G01 X-20.4334 Y-15.0162
G01 X-20.4397 Y-14.9900
G01 X-20.4448 Y-14.9636
G01 X-20.4579 Y-14.8733
G01 X-20.4913 Y-14.7768
G01 X-20.5424 Y-14.6884
G01 X-20.6093 Y-14.6112
G01 X-20.6896 Y-14.5481
G01 X-20.7803 Y-14.5013
G01 X-20.8783 Y-14.4725
G01 X-20.9545 Y-14.4652
G01 X-21.0311 Y-14.4652
G01 X-21.1313 Y-14.4846
G01 X-21.2262 Y-14.5225
G01 X-21.3121 Y-14.5777
G01 X-21.3860 Y-14.6482
G01 X-21.4452 Y-14.7314
G01 X-21.4877 Y-14.8243
G01 X-21.5164 Y-14.9427
G01 X-21.5220 Y-14.9723
G01 X-21.5398 Y-15.0452
G01 X-21.5437 Y-15.0589
G01 X-21.5525 Y-15.0859
G01 X-21.5574 Y-15.0992
G01 X-21.5648 Y-15.1175
G00 Z2.0000
G00 X-21.7178 Y-15.1445
G01 F60.00
G01 Z-0.1500
G01 F240.00
G01 X-21.6968 Y-15.1615
G01 X-21.6804 Y-15.1763
G01 X-21.6223 Y-15.2319
G01 X-21.6149 Y-15.2394
G01 X-21.6007 Y-15.2550
G01 X-21.5939 Y-15.2631
G01 X-21.5809 Y-15.2797
G01 X-21.5747 Y-15.2882
G01 X-21.5628 Y-15.3057
G01 X-21.5518 Y-15.3237
G01 X-21.5177 Y-15.3829
G01 X-21.4355 Y-15.4777
G01 X-21.3369 Y-15.5553
G01 X-21.2253 Y-15.6128
G01 X-21.1049 Y-15.6482
G01 X-21.0113 Y-15.6571
G01 X-20.9173 Y-15.6571
G01 X-20.8749 Y-15.6490
G01 X-20.8437 Y-15.6444
G01 X-20.8213 Y-15.6423
G01 X-20.7989 Y-15.6412
G01 X-20.7877 Y-15.6412
G01 X-20.7765 Y-15.6414
G01 X-20.7541 Y-15.6426
G01 X-20.7318 Y-15.6450
G01 X-20.7096 Y-15.6485
G01 X-20.6398 Y-15.6613
G01 X-20.6309 Y-15.6415
G01 X-20.6208 Y-15.6219
G01 X-20.5805 Y-15.5518
G01 X-20.5751 Y-15.5427
G01 X-20.5637 Y-15.5250
G01 X-20.5515 Y-15.5078
G01 X-20.5450 Y-15.4994
G01 X-20.5316 Y-15.4832
G01 X-20.5174 Y-15.4675
G01 X-20.5025 Y-15.4526
G01 X-20.4813 Y-15.4324
G01 X-20.3831 Y-15.2942
G01 X-20.3685 Y-15.2749
G01 X-20.3547 Y-15.2580
G01 X-20.3400 Y-15.2419
G01 X-20.3268 Y-15.2287
G01 X-20.3015 Y-15.2022
G01 X-20.2858 Y-15.1866
G01 X-20.2693 Y-15.1717
G01 X-20.2608 Y-15.1646
G01 X-20.2438 Y-15.1515
G01 X-20.2565 Y-15.1274
G01 X-20.2903 Y-15.0539
G01 X-20.2945 Y-15.0442
G01 X-20.3024 Y-15.0246
G01 X-20.3093 Y-15.0047
G01 X-20.3152 Y-14.9845
G01 X-20.3178 Y-14.9743
G01 X-20.3223 Y-14.9537
G01 X-20.3258 Y-14.9329
G01 X-20.3385 Y-14.8444
G01 X-20.3796 Y-14.7258
G01 X-20.4423 Y-14.6171
G01 X-20.5245 Y-14.5223
G01 X-20.6231 Y-14.4447
G01 X-20.7347 Y-14.3872
G01 X-20.8551 Y-14.3518
G01 X-20.9487 Y-14.3429
G01 X-21.0427 Y-14.3429
G01 X-21.1660 Y-14.3667
G01 X-21.2825 Y-14.4133
G01 X-21.3880 Y-14.4811
G01 X-21.4789 Y-14.5677
G01 X-21.5516 Y-14.6700
G01 X-21.6038 Y-14.7841
G01 X-21.6364 Y-14.9187
G01 X-21.6394 Y-14.9358
G01 X-21.6439 Y-14.9565
G01 X-21.6579 Y-15.0132
G01 X-21.6642 Y-15.0346
G01 X-21.6717 Y-15.0556
G01 X-21.6758 Y-15.0659
G01 X-21.6848 Y-15.0863
G01 X-21.6896 Y-15.0963
G01 X-21.7001 Y-15.1160
G01 X-21.7057 Y-15.1256
G01 X-21.7178 Y-15.1445
G00 Z2.0000
G00 X-21.9127 Y-15.1847
G01 F60.00
G01 Z-0.1500
G01 F240.00
G01 X-21.9026 Y-15.1873
G01 X-21.8872 Y-15.1918
G01 X-21.8648 Y-15.2001
G01 X-21.8429 Y-15.2100
G01 X-21.8288 Y-15.2174
G01 X-21.8151 Y-15.2256
G01 X-21.7954 Y-15.2391
G01 X-21.7767 Y-15.2541
G01 X-21.7648 Y-15.2648
G01 X-21.7143 Y-15.3130
G01 X-21.6983 Y-15.3294
G01 X-21.6882 Y-15.3410
G01 X-21.6788 Y-15.3530
G01 X-21.6699 Y-15.3654
G01 X-21.6578 Y-15.3849
G01 X-21.6178 Y-15.4542
G01 X-21.5203 Y-15.5667
G01 X-21.4033 Y-15.6587
G01 X-21.2710 Y-15.7269
G01 X-21.1282 Y-15.7688
G01 X-21.0171 Y-15.7794
G01 X-20.9056 Y-15.7794
G01 X-20.8543 Y-15.7696
G01 X-20.8288 Y-15.7659
G01 X-20.8126 Y-15.7643
G01 X-20.7964 Y-15.7635
G01 X-20.7801 Y-15.7636
G01 X-20.7639 Y-15.7645
G01 X-20.7478 Y-15.7662
G01 X-20.7317 Y-15.7688
G01 X-20.6630 Y-15.7814
G01 X-20.6474 Y-15.7847
G01 X-20.6320 Y-15.7887
G01 X-20.6168 Y-15.7935
G01 X-20.5945 Y-15.8021
G01 X-20.5728 Y-15.8124
G01 X-20.5524 Y-15.8240
G01 X-20.5516 Y-15.8095
G01 X-20.5500 Y-15.7936
G01 X-20.5461 Y-15.7700
G01 X-20.5404 Y-15.7468
G01 X-20.5331 Y-15.7240
G01 X-20.5241 Y-15.7019
G01 X-20.5134 Y-15.6804
G01 X-20.4707 Y-15.6064
G01 X-20.4624 Y-15.5935
G01 X-20.4535 Y-15.5811
G01 X-20.4392 Y-15.5633
G01 X-20.4235 Y-15.5465
G01 X-20.3884 Y-15.5128
G01 X-20.2834 Y-15.3651
G01 X-20.2672 Y-15.3440
G01 X-20.2515 Y-15.3263
G01 X-20.2017 Y-15.2754
G01 X-20.1836 Y-15.2595
G01 X-20.1644 Y-15.2450
G01 X-20.1510 Y-15.2362
G01 X-20.1372 Y-15.2281
G01 X-20.1230 Y-15.2206
G01 X-20.1084 Y-15.2139
G01 X-20.0860 Y-15.2052
G01 X-20.0463 Y-15.1932
G01 X-20.0574 Y-15.1848
G01 X-20.0697 Y-15.1746
G01 X-20.0870 Y-15.1581
G01 X-20.0979 Y-15.1465
G01 X-20.1082 Y-15.1343
G01 X-20.1225 Y-15.1151
G01 X-20.1353 Y-15.0949
G01 X-20.1466 Y-15.0738
G01 X-20.1821 Y-14.9961
G01 X-20.1878 Y-14.9819
G01 X-20.1928 Y-14.9675
G01 X-20.1971 Y-14.9528
G01 X-20.2022 Y-14.9305
G01 X-20.2047 Y-14.9154
G01 X-20.2191 Y-14.8154
G01 X-20.2678 Y-14.6747
G01 X-20.3422 Y-14.5458
G01 X-20.4397 Y-14.4333
G01 X-20.5567 Y-14.3413
G01 X-20.6890 Y-14.2731
G01 X-20.8318 Y-14.2312
G01 X-20.9429 Y-14.2206
G01 X-21.0544 Y-14.2206
G01 X-21.2006 Y-14.2488
G01 X-21.3388 Y-14.3041
G01 X-21.4640 Y-14.3846
G01 X-21.5717 Y-14.4873
G01 X-21.6581 Y-14.6085
G01 X-21.7199 Y-14.7439
G01 X-21.7566 Y-14.8953
G01 X-21.7610 Y-14.9200
G01 X-21.7759 Y-14.9812
G01 X-21.7806 Y-14.9967
G01 X-21.7859 Y-15.0119
G01 X-21.7921 Y-15.0268
G01 X-21.7989 Y-15.0414
G01 X-21.8065 Y-15.0557
G01 X-21.8148 Y-15.0695
G01 X-21.8238 Y-15.0829
G01 X-21.8335 Y-15.0958
G01 X-21.8438 Y-15.1082
G01 X-21.8897 Y-15.1609
G01 X-21.9004 Y-15.1727
G01 X-21.9127 Y-15.1847
G00 Z2.0000
G00 X-29.2961 Y-19.4680
G01 F60.00
G01 Z-0.1500
G01 F240.00
G01 X-29.3133 Y-19.4772
G01 X-29.3587 Y-19.5044
G01 X-29.3708 Y-19.5127
G01 X-29.4171 Y-19.5474
G01 X-29.4672 Y-19.5928
G01 X-32.2356 Y-22.3612
G01 X-32.9100 Y-22.3612
G01 X-32.9295 Y-22.3622
G01 X-32.9488 Y-22.3650
G01 X-32.9677 Y-22.3698
G01 X-32.9770 Y-22.3728
G01 X-32.9905 Y-22.3783
G01 X-33.0080 Y-22.3871
G01 X-33.0245 Y-22.3975
G01 X-33.0398 Y-22.4095
G01 X-33.0540 Y-22.4229
G01 X-33.0637 Y-22.4339
G01 X-33.0697 Y-22.4416
G01 X-33.0779 Y-22.4537
G01 X-33.0853 Y-22.4663
G01 X-33.0917 Y-22.4795
G01 X-33.0972 Y-22.4930
G01 X-33.1016 Y-22.5070
G01 X-33.1050 Y-22.5212
G01 X-33.1073 Y-22.5357
G01 X-33.1087 Y-22.5551
G01 X-33.1087 Y-24.4649
G01 X-33.1082 Y-24.4746
G01 X-33.1066 Y-24.4892
G01 X-33.1028 Y-24.5083
G01 X-33.1002 Y-24.5177
G01 X-33.0955 Y-24.5315
G01 X-33.0897 Y-24.5450
G01 X-33.0853 Y-24.5537
G01 X-33.0753 Y-24.5704
G01 X-33.0667 Y-24.5823
G01 X-33.0605 Y-24.5898
G01 X-33.0540 Y-24.5971
G01 X-33.0435 Y-24.6073
G01 X-33.0284 Y-24.6197
G01 X-33.0122 Y-24.6305
G01 X-32.9994 Y-24.6375
G01 X-32.9861 Y-24.6436
G01 X-32.9724 Y-24.6487
G01 X-32.9583 Y-24.6528
G01 X-32.9440 Y-24.6558
G01 X-32.9295 Y-24.6578
G01 X-32.9149 Y-24.6587
G01 X-31.9100 Y-24.6588
G01 X-31.8905 Y-24.6578
G01 X-31.8712 Y-24.6550
G01 X-31.8570 Y-24.6516
G01 X-31.8385 Y-24.6455
G01 X-31.8206 Y-24.6375
G01 X-31.8037 Y-24.6279
G01 X-31.7916 Y-24.6197
G01 X-31.7765 Y-24.6073
G01 X-31.7627 Y-24.5935
G01 X-31.7503 Y-24.5784
G01 X-31.7395 Y-24.5622
G01 X-31.7303 Y-24.5450
G01 X-31.7245 Y-24.5315
G01 X-31.7184 Y-24.5130
G01 X-31.7142 Y-24.4940
G01 X-31.7118 Y-24.4746
G01 X-31.7112 Y-24.4600
G01 X-31.7112 Y-23.7856
G01 X-28.6946 Y-20.7690
G01 X-15.5972 Y-20.7690
G01 X-14.1935 Y-21.3230
G01 X-14.1274 Y-21.3465
G01 X-14.0609 Y-21.3634
G01 X-14.0465 Y-21.3661
G01 X-13.9834 Y-21.3752
G01 X-13.9149 Y-21.3787
G01 X-12.8100 Y-21.3788
G01 X-12.7366 Y-21.3752
G01 X-12.6639 Y-21.3644
G01 X-12.5926 Y-21.3465
G01 X-12.5235 Y-21.3218
G01 X-12.4570 Y-21.2904
G01 X-12.3940 Y-21.2526
G01 X-12.3350 Y-21.2088
G01 X-12.2876 Y-21.1662
G01 X-12.2738 Y-21.1524
G01 X-12.2343 Y-21.1087
G01 X-12.2252 Y-21.0973
G01 X-12.1872 Y-21.0457
G01 X-12.1545 Y-20.9915
G01 X-12.1453 Y-20.9743
G01 X-12.1182 Y-20.9165
G01 X-12.0935 Y-20.8474
G01 X-12.0756 Y-20.7761
G01 X-12.0660 Y-20.7131
G01 X-12.0644 Y-20.6985
G01 X-12.0612 Y-20.6300
G01 X-12.0613 Y-19.5251
G01 X-12.0648 Y-19.4566
G01 X-12.0739 Y-19.3935
G01 X-12.0778 Y-19.3744
G01 X-12.0921 Y-19.3173
G01 X-12.0965 Y-19.3034
G01 X-12.1182 Y-19.2435
G01 X-12.1453 Y-19.1857
G01 X-12.1545 Y-19.1685
G01 X-12.1874 Y-19.1140
G01 X-12.2312 Y-19.0550
G01 X-12.2738 Y-19.0076
G01 X-12.2876 Y-18.9938
G01 X-12.3350 Y-18.9512
G01 X-12.3860 Y-18.9130
G01 X-12.4022 Y-18.9022
G01 X-12.4570 Y-18.8696
G01 X-12.5235 Y-18.8382
G01 X-12.5834 Y-18.8165
G01 X-12.5930 Y-18.8134
G01 X-12.6544 Y-18.7978
G01 X-12.6735 Y-18.7939
G01 X-12.7269 Y-18.7860
G01 X-12.7415 Y-18.7844
G01 X-12.8100 Y-18.7812
G01 X-13.9100 Y-18.7812
G01 X-13.9834 Y-18.7848
G01 X-14.0465 Y-18.7939
G01 X-14.0609 Y-18.7966
G01 X-14.1274 Y-18.8135
G01 X-14.1920 Y-18.8364
G01 X-15.5972 Y-19.3910
G01 X-28.9800 Y-19.3910
G01 X-29.0475 Y-19.3943
G01 X-29.1048 Y-19.4026
G01 X-29.1239 Y-19.4064
G01 X-29.1800 Y-19.4207
G01 X-29.2346 Y-19.4399
G01 X-29.2482 Y-19.4454
G01 X-29.2961 Y-19.4680
G00 Z2.0000
G00 X-29.2438 Y-19.5785
G01 F60.00
G01 Z-0.1500
G01 F240.00
G01 X-29.2504 Y-19.5821
G01 X-29.2917 Y-19.6068
G01 X-29.2979 Y-19.6110
G01 X-29.3395 Y-19.6419
G01 X-29.3807 Y-19.6793
G01 X-32.1850 Y-22.4836
G01 X-32.9138 Y-22.4836
G01 X-32.9231 Y-22.4847
G01 X-32.9304 Y-22.4863
G01 X-32.9393 Y-22.4894
G01 X-32.9460 Y-22.4926
G01 X-32.9525 Y-22.4964
G01 X-32.9599 Y-22.5021
G01 X-32.9666 Y-22.5087
G01 X-32.9714 Y-22.5145
G01 X-32.9746 Y-22.5191
G01 X-32.9783 Y-22.5256
G01 X-32.9826 Y-22.5360
G01 X-32.9842 Y-22.5414
G01 X-32.9856 Y-22.5488
G01 X-32.9864 Y-22.5600
G01 X-32.9864 Y-24.4600
G01 X-32.9861 Y-24.4675
G01 X-32.9846 Y-24.4768
G01 X-32.9820 Y-24.4858
G01 X-32.9783 Y-24.4944
G01 X-32.9736 Y-24.5025
G01 X-32.9679 Y-24.5099
G01 X-32.9613 Y-24.5166
G01 X-32.9555 Y-24.5214
G01 X-32.9493 Y-24.5256
G01 X-32.9444 Y-24.5283
G01 X-32.9340 Y-24.5326
G01 X-32.9231 Y-24.5353
G01 X-32.9119 Y-24.5364
G01 X-31.9100 Y-24.5364
G01 X-31.9044 Y-24.5362
G01 X-31.8969 Y-24.5353
G01 X-31.8896 Y-24.5337
G01 X-31.8825 Y-24.5313
G01 X-31.8756 Y-24.5283
G01 X-31.8707 Y-24.5256
G01 X-31.8645 Y-24.5214
G01 X-31.8587 Y-24.5166
G01 X-31.8521 Y-24.5099
G01 X-31.8475 Y-24.5040
G01 X-31.8435 Y-24.4977
G01 X-31.8401 Y-24.4910
G01 X-31.8374 Y-24.4840
G01 X-31.8354 Y-24.4768
G01 X-31.8341 Y-24.4694
G01 X-31.8336 Y-24.4619
G01 X-31.8336 Y-23.7350
G01 X-28.7453 Y-20.6467
G01 X-15.5739 Y-20.6467
G01 X-14.1462 Y-21.2101
G01 X-14.0918 Y-21.2295
G01 X-14.0322 Y-21.2444
G01 X-13.9714 Y-21.2534
G01 X-13.9100 Y-21.2564
G01 X-12.8081 Y-21.2564
G01 X-12.7486 Y-21.2534
G01 X-12.6915 Y-21.2451
G01 X-12.6841 Y-21.2436
G01 X-12.6264 Y-21.2289
G01 X-12.5703 Y-21.2088
G01 X-12.5180 Y-21.1842
G01 X-12.5114 Y-21.1806
G01 X-12.4620 Y-21.1509
G01 X-12.4126 Y-21.1143
G01 X-12.3698 Y-21.0756
G01 X-12.3644 Y-21.0702
G01 X-12.3257 Y-21.0274
G01 X-12.2911 Y-20.9809
G01 X-12.2871 Y-20.9749
G01 X-12.2575 Y-20.9253
G01 X-12.2312 Y-20.8697
G01 X-12.2105 Y-20.8118
G01 X-12.1964 Y-20.7559
G01 X-12.1949 Y-20.7485
G01 X-12.1864 Y-20.6895
G01 X-12.1836 Y-20.6300
G01 X-12.1836 Y-19.5281
G01 X-12.1866 Y-19.4686
G01 X-12.1949 Y-19.4115
G01 X-12.1964 Y-19.4041
G01 X-12.2105 Y-19.3482
G01 X-12.2299 Y-19.2938
G01 X-12.2328 Y-19.2868
G01 X-12.2575 Y-19.2347
G01 X-12.2891 Y-19.1820
G01 X-12.3257 Y-19.1326
G01 X-12.3644 Y-19.0898
G01 X-12.3698 Y-19.0844
G01 X-12.4126 Y-19.0457
G01 X-12.4589 Y-19.0113
G01 X-12.4651 Y-19.0071
G01 X-12.5147 Y-18.9775
G01 X-12.5703 Y-18.9512
G01 X-12.6283 Y-18.9305
G01 X-12.6841 Y-18.9164
G01 X-12.6915 Y-18.9149
G01 X-12.7505 Y-18.9064
G01 X-12.8100 Y-18.9036
G01 X-13.9100 Y-18.9036
G01 X-13.9714 Y-18.9066
G01 X-14.0340 Y-18.9160
G01 X-14.0918 Y-18.9305
G01 X-14.1480 Y-18.9505
G01 X-15.5739 Y-19.5133
G01 X-28.9800 Y-19.5133
G01 X-29.0355 Y-19.5160
G01 X-29.0869 Y-19.5236
G01 X-29.0942 Y-19.5250
G01 X-29.1445 Y-19.5377
G01 X-29.1934 Y-19.5551
G01 X-29.2003 Y-19.5580
G01 X-29.2438 Y-19.5785
G00 Z2.0000
G00 X-30.9889 Y-20.5025
G01 F60.00
G01 Z-0.1500
G01 F240.00
G01 X-30.9890 Y-20.6379
G01 X-30.9919 Y-20.6997
G01 X-30.9931 Y-20.7154
G01 X-30.9950 Y-20.7310
G01 X-31.0030 Y-20.7844
G01 X-31.0056 Y-20.7999
G01 X-31.0091 Y-20.8153
G01 X-31.0222 Y-20.8677
G01 X-31.0262 Y-20.8822
G01 X-31.0309 Y-20.8966
G01 X-31.0495 Y-20.9486
G01 X-31.0552 Y-20.9634
G01 X-31.0616 Y-20.9778
G01 X-31.0881 Y-21.0336
G01 X-31.0965 Y-21.0491
G01 X-30.6806 Y-20.6332
G01 X-30.7056 Y-20.6306
G01 X-30.7747 Y-20.6207
G01 X-30.7904 Y-20.6180
G01 X-30.8060 Y-20.6146
G01 X-30.8214 Y-20.6104
G01 X-30.8365 Y-20.6054
G01 X-30.8514 Y-20.5997
G01 X-30.8660 Y-20.5932
G01 X-30.8803 Y-20.5861
G01 X-30.8941 Y-20.5782
G01 X-30.9142 Y-20.5652
G01 X-30.9332 Y-20.5506
G01 X-30.9889 Y-20.5025
G00 Z2.0000
G00 X-31.4409 Y-21.3935
G01 F60.00
G01 Z-0.1500
G01 F240.00
G01 X-31.4634 Y-21.4053
G01 X-31.5122 Y-21.4284
G01 X-31.5266 Y-21.4348
G01 X-31.5414 Y-21.4405
G01 X-31.5996 Y-21.4612
G01 X-31.6223 Y-21.4678
G01 X-31.6823 Y-21.4827
G01 X-31.6978 Y-21.4858
G01 X-31.7383 Y-21.4919
G01 X-33.0838 Y-22.1783
G01 X-33.0838 Y-22.2900
G01 X-33.0683 Y-22.2806
G01 X-33.0473 Y-22.2697
G01 X-33.0256 Y-22.2604
G01 X-33.0107 Y-22.2551
G01 X-32.9956 Y-22.2505
G01 X-32.9726 Y-22.2451
G01 X-32.9493 Y-22.2413
G01 X-32.9336 Y-22.2398
G01 X-32.9100 Y-22.2389
G01 X-32.2863 Y-22.2389
G01 X-31.4409 Y-21.3935
G00 Z2.0000
G00 X-31.9655 Y-21.7451
G01 F60.00
G01 Z-0.1500
G01 F240.00
G01 X-32.6936 Y-22.1166
G01 X-32.3370 Y-22.1166
G01 X-31.9655 Y-21.7451
G00 Z2.0000
G00 X-33.0838 Y-24.7300
G01 F60.00
G01 Z-0.1500
G01 F240.00
G01 X-33.0838 Y-25.1229
G01 X-33.0288 Y-25.1447
G01 X-33.0146 Y-25.1512
G01 X-32.9939 Y-25.1622
G01 X-32.9740 Y-25.1746
G01 X-32.9613 Y-25.1837
G01 X-32.9431 Y-25.1985
G01 X-32.9260 Y-25.2145
G01 X-32.9102 Y-25.2318
G01 X-32.9003 Y-25.2439
G01 X-32.8527 Y-25.3088
G01 X-32.8439 Y-25.3221
G01 X-32.8332 Y-25.3406
G01 X-32.7675 Y-25.4451
G01 X-32.6951 Y-25.5175
G01 X-32.6084 Y-25.5720
G01 X-32.5118 Y-25.6058
G01 X-32.4355 Y-25.6144
G01 X-32.3845 Y-25.6144
G01 X-32.3137 Y-25.6064
G01 X-32.3082 Y-25.6058
G01 X-32.2116 Y-25.5720
G01 X-32.1249 Y-25.5175
G01 X-32.0525 Y-25.4451
G01 X-31.9917 Y-25.3479
G01 X-31.9837 Y-25.3323
G01 X-31.9761 Y-25.3191
G01 X-31.9679 Y-25.3063
G01 X-31.9591 Y-25.2940
G01 X-31.9447 Y-25.2762
G01 X-31.8937 Y-25.2175
G01 X-31.8827 Y-25.2059
G01 X-31.8651 Y-25.1897
G01 X-31.8463 Y-25.1749
G01 X-31.8266 Y-25.1614
G01 X-31.8058 Y-25.1495
G01 X-31.7843 Y-25.1392
G01 X-31.7695 Y-25.1332
G01 X-31.7468 Y-25.1256
G01 X-31.6798 Y-25.1059
G01 X-31.6558 Y-25.0999
G01 X-31.6983 Y-25.0573
G01 X-31.7090 Y-25.0455
G01 X-31.7191 Y-25.0331
G01 X-31.7285 Y-25.0203
G01 X-31.7415 Y-25.0002
G01 X-31.7530 Y-24.9792
G01 X-31.7598 Y-24.9648
G01 X-31.7685 Y-24.9425
G01 X-31.7756 Y-24.9197
G01 X-31.7794 Y-24.9042
G01 X-31.7943 Y-24.8359
G01 X-31.7985 Y-24.8123
G01 X-31.8003 Y-24.7964
G01 X-31.8014 Y-24.7804
G01 X-31.8015 Y-24.7622
G01 X-31.8244 Y-24.7695
G01 X-31.8474 Y-24.7749
G01 X-31.8629 Y-24.7776
G01 X-31.8785 Y-24.7795
G01 X-31.9021 Y-24.7810
G01 X-32.9179 Y-24.7810
G01 X-32.9415 Y-24.7795
G01 X-32.9649 Y-24.7764
G01 X-32.9880 Y-24.7715
G01 X-33.0032 Y-24.7673
G01 X-33.0256 Y-24.7596
G01 X-33.0473 Y-24.7503
G01 X-33.0683 Y-24.7394
G01 X-33.0838 Y-24.7300
G00 Z2.0000
G00 X-32.9615 Y-24.9004
G01 F60.00
G01 Z-0.1500
G01 F240.00
G01 X-32.9615 Y-25.0410
G01 X-32.9422 Y-25.0509
G01 X-32.9235 Y-25.0617
G01 X-32.9053 Y-25.0734
G01 X-32.8878 Y-25.0860
G01 X-32.8708 Y-25.0994
G01 X-32.8546 Y-25.1136
G01 X-32.8391 Y-25.1285
G01 X-32.8243 Y-25.1443
G01 X-32.8102 Y-25.1607
G01 X-32.8035 Y-25.1691
G01 X-32.7524 Y-25.2388
G01 X-32.7401 Y-25.2573
G01 X-32.7276 Y-25.2787
G01 X-32.6713 Y-25.3684
G01 X-32.6184 Y-25.4213
G01 X-32.5550 Y-25.4611
G01 X-32.4844 Y-25.4858
G01 X-32.4286 Y-25.4921
G01 X-32.3913 Y-25.4921
G01 X-32.3356 Y-25.4858
G01 X-32.2650 Y-25.4611
G01 X-32.2016 Y-25.4213
G01 X-32.1487 Y-25.3684
G01 X-32.0987 Y-25.2884
G01 X-32.0910 Y-25.2735
G01 X-32.0805 Y-25.2554
G01 X-32.0631 Y-25.2291
G01 X-32.0440 Y-25.2041
G01 X-31.9841 Y-25.1351
G01 X-31.9689 Y-25.1192
G01 X-31.9529 Y-25.1040
G01 X-31.9362 Y-25.0897
G01 X-31.9275 Y-25.0829
G01 X-31.9098 Y-25.0699
G01 X-31.8914 Y-25.0577
G01 X-31.8724 Y-25.0465
G01 X-31.8595 Y-25.0396
G01 X-31.8673 Y-25.0239
G01 X-31.8761 Y-25.0037
G01 X-31.8801 Y-24.9935
G01 X-31.8874 Y-24.9727
G01 X-31.8907 Y-24.9622
G01 X-31.8965 Y-24.9410
G01 X-31.9048 Y-24.9033
G01 X-32.9100 Y-24.9034
G01 X-32.9318 Y-24.9029
G01 X-32.9615 Y-24.9004
G00 Z2.0000
G00 X-32.7695 Y-25.0257
G01 F60.00
G01 Z-0.1500
G01 F240.00
G01 X-32.7521 Y-25.0425
G01 X-32.7332 Y-25.0626
G01 X-32.7241 Y-25.0730
G01 X-32.7068 Y-25.0943
G01 X-32.6602 Y-25.1574
G01 X-32.6441 Y-25.1806
G01 X-32.6291 Y-25.2046
G01 X-32.6220 Y-25.2169
G01 X-32.5750 Y-25.2916
G01 X-32.5416 Y-25.3250
G01 X-32.5016 Y-25.3502
G01 X-32.4570 Y-25.3658
G01 X-32.4218 Y-25.3698
G01 X-32.3982 Y-25.3698
G01 X-32.3630 Y-25.3658
G01 X-32.3184 Y-25.3502
G01 X-32.2784 Y-25.3250
G01 X-32.2450 Y-25.2916
G01 X-32.2055 Y-25.2284
G01 X-32.1917 Y-25.2031
G01 X-32.1778 Y-25.1803
G01 X-32.1627 Y-25.1581
G01 X-32.1467 Y-25.1367
G01 X-32.1296 Y-25.1160
G01 X-32.0839 Y-25.0632
G01 X-32.0650 Y-25.0424
G01 X-32.0482 Y-25.0257
G01 X-32.7695 Y-25.0257
G00 Z2.0000
G00 X-34.1263 Y-26.4836
G01 F60.00
G01 Z-0.1500
G01 F240.00
G01 X-34.0264 Y-26.4836
G01 X-34.0264 Y-26.3837
G01 X-34.1263 Y-26.4836
G00 Z2.0000
G00 X-34.1829 Y-27.9058
G01 F60.00
G01 Z-0.1500
G01 F240.00
G01 X-34.1514 Y-27.8213
G01 X-34.1488 Y-27.7972
G01 X-34.1488 Y-27.2588
G01 X-34.2512 Y-27.2588
G01 X-34.2513 Y-27.7649
G01 X-34.2518 Y-27.7746
G01 X-34.2534 Y-27.7892
G01 X-34.2561 Y-27.8036
G01 X-34.2598 Y-27.8177
G01 X-34.2645 Y-27.8315
G01 X-34.2725 Y-27.8494
G01 X-34.2821 Y-27.8663
G01 X-34.2933 Y-27.8823
G01 X-34.3060 Y-27.8971
G01 X-34.3202 Y-27.9105
G01 X-34.3355 Y-27.9225
G01 X-34.3478 Y-27.9305
G01 X-34.3650 Y-27.9397
G01 X-34.3830 Y-27.9472
G01 X-34.4017 Y-27.9528
G01 X-34.4160 Y-27.9558
G01 X-34.4305 Y-27.9578
G01 X-34.4451 Y-27.9587
G01 X-34.5012 Y-27.9588
G01 X-34.5012 Y-28.0612
G01 X-34.4128 Y-28.0612
G01 X-34.3887 Y-28.0586
G01 X-34.3041 Y-28.0271
G01 X-34.2348 Y-27.9752
G01 X-34.1829 Y-27.9058
G00 Z2.0000
G00 X-34.0744 Y-27.9651
G01 F60.00
G01 Z-0.1500
G01 F240.00
G01 X-34.0314 Y-27.8497
G01 X-34.0264 Y-27.8037
G01 X-34.0264 Y-27.1364
G01 X-34.3736 Y-27.1364
G01 X-34.3736 Y-27.7600
G01 X-34.3741 Y-27.7694
G01 X-34.3758 Y-27.7786
G01 X-34.3787 Y-27.7875
G01 X-34.3835 Y-27.7977
G01 X-34.3886 Y-27.8055
G01 X-34.3959 Y-27.8141
G01 X-34.4045 Y-27.8214
G01 X-34.4123 Y-27.8265
G01 X-34.4225 Y-27.8313
G01 X-34.4332 Y-27.8346
G01 X-34.4425 Y-27.8361
G01 X-34.4500 Y-27.8364
G01 X-34.6236 Y-27.8364
G01 X-34.6236 Y-28.1835
G01 X-34.4063 Y-28.1835
G01 X-34.3603 Y-28.1786
G01 X-34.2449 Y-28.1356
G01 X-34.1474 Y-28.0626
G01 X-34.0744 Y-27.9651
G00 Z2.0000
G00 X-35.2764 Y-27.8364
G01 F60.00
G01 Z-0.1500
G01 F240.00
G01 X-35.4500 Y-27.8364
G01 X-35.4575 Y-27.8361
G01 X-35.4649 Y-27.8350
G01 X-35.4740 Y-27.8326
G01 X-35.4844 Y-27.8283
G01 X-35.4925 Y-27.8236
G01 X-35.4999 Y-27.8179
G01 X-35.5066 Y-27.8113
G01 X-35.5125 Y-27.8040
G01 X-35.5183 Y-27.7944
G01 X-35.5220 Y-27.7858
G01 X-35.5237 Y-27.7804
G01 X-35.5253 Y-27.7731
G01 X-35.5261 Y-27.7675
G01 X-35.5264 Y-27.7600
G01 X-35.5264 Y-27.1364
G01 X-35.8736 Y-27.1364
G01 X-35.8735 Y-27.8037
G01 X-35.8686 Y-27.8497
G01 X-35.8256 Y-27.9651
G01 X-35.7526 Y-28.0626
G01 X-35.6551 Y-28.1356
G01 X-35.5397 Y-28.1786
G01 X-35.4937 Y-28.1836
G01 X-35.2764 Y-28.1836
G01 X-35.2764 Y-27.8364
G00 Z2.0000
G00 X-35.3988 Y-27.9588
G01 F60.00
G01 Z-0.1500
G01 F240.00
G01 X-35.4549 Y-27.9587
G01 X-35.4695 Y-27.9578
G01 X-35.4792 Y-27.9566
G01 X-35.4936 Y-27.9539
G01 X-35.5077 Y-27.9502
G01 X-35.5215 Y-27.9455
G01 X-35.5350 Y-27.9397
G01 X-35.5522 Y-27.9305
G01 X-35.5645 Y-27.9225
G01 X-35.5761 Y-27.9137
G01 X-35.5906 Y-27.9006
G01 X-35.6037 Y-27.8861
G01 X-35.6125 Y-27.8745
G01 X-35.6205 Y-27.8622
G01 X-35.6275 Y-27.8494
G01 X-35.6355 Y-27.8315
G01 X-35.6402 Y-27.8177
G01 X-35.6428 Y-27.8083
G01 X-35.6458 Y-27.7940
G01 X-35.6473 Y-27.7843
G01 X-35.6487 Y-27.7649
G01 X-35.6488 Y-27.2588
G01 X-35.7512 Y-27.2588
G01 X-35.7512 Y-27.7972
G01 X-35.7486 Y-27.8213
G01 X-35.7171 Y-27.9059
G01 X-35.6652 Y-27.9752
G01 X-35.5958 Y-28.0271
G01 X-35.5113 Y-28.0586
G01 X-35.4872 Y-28.0612
G01 X-35.3988 Y-28.0612
G01 X-35.3988 Y-27.9588
G00 Z2.0000
G00 X-35.3118 Y-25.2943
G01 F60.00
G01 Z-0.1500
G01 F240.00
G01 X-34.6234 Y-25.2943
G01 X-34.5209 Y-25.1917
G01 X-34.5209 Y-25.0189
G01 X-34.5454 Y-25.0200
G01 X-34.5594 Y-25.0202
G01 X-34.5875 Y-25.0195
G01 X-34.6707 Y-25.0151
G01 X-34.6975 Y-25.0124
G01 X-34.7109 Y-25.0106
G01 X-34.7242 Y-25.0085
G01 X-34.7506 Y-25.0033
G01 X-34.7637 Y-25.0002
G01 X-34.7897 Y-24.9932
G01 X-34.8153 Y-24.9849
G01 X-34.9030 Y-24.9542
G01 X-34.9382 Y-24.9502
G01 X-34.9618 Y-24.9502
G01 X-34.9970 Y-24.9542
G01 X-35.0416 Y-24.9698
G01 X-35.0816 Y-24.9950
G01 X-35.1150 Y-25.0284
G01 X-35.1539 Y-25.0903
G01 X-35.1617 Y-25.1052
G01 X-35.1751 Y-25.1284
G01 X-35.1896 Y-25.1509
G01 X-35.2052 Y-25.1727
G01 X-35.2217 Y-25.1938
G01 X-35.2761 Y-25.2568
G01 X-35.2950 Y-25.2776
G01 X-35.3118 Y-25.2943
G00 Z2.0000
G00 X-35.4867 Y-25.2730
G01 F60.00
G01 Z-0.1500
G01 F240.00
G01 X-35.4780 Y-25.2906
G01 X-35.4692 Y-25.3108
G01 X-35.4651 Y-25.3210
G01 X-35.4578 Y-25.3418
G01 X-35.4515 Y-25.3629
G01 X-35.4488 Y-25.3736
G01 X-35.4393 Y-25.4166
G01 X-34.5728 Y-25.4166
G01 X-34.3985 Y-25.2424
G01 X-34.3985 Y-24.8679
G01 X-34.4186 Y-24.8752
G01 X-34.4290 Y-24.8785
G01 X-34.4396 Y-24.8816
G01 X-34.4610 Y-24.8870
G01 X-34.4826 Y-24.8913
G01 X-34.4934 Y-24.8931
G01 X-34.5153 Y-24.8958
G01 X-34.5372 Y-24.8974
G01 X-34.5483 Y-24.8978
G01 X-34.5703 Y-24.8977
G01 X-34.6616 Y-24.8931
G01 X-34.6826 Y-24.8910
G01 X-34.7035 Y-24.8879
G01 X-34.7242 Y-24.8839
G01 X-34.7447 Y-24.8788
G01 X-34.7548 Y-24.8759
G01 X-34.7749 Y-24.8694
G01 X-34.8756 Y-24.8342
G01 X-34.9313 Y-24.8279
G01 X-34.9687 Y-24.8279
G01 X-35.0244 Y-24.8342
G01 X-35.0950 Y-24.8589
G01 X-35.1584 Y-24.8987
G01 X-35.2113 Y-24.9516
G01 X-35.2607 Y-25.0305
G01 X-35.2741 Y-25.0556
G01 X-35.2851 Y-25.0735
G01 X-35.3030 Y-25.0994
G01 X-35.3228 Y-25.1239
G01 X-35.3759 Y-25.1849
G01 X-35.3911 Y-25.2008
G01 X-35.4071 Y-25.2160
G01 X-35.4238 Y-25.2303
G01 X-35.4413 Y-25.2437
G01 X-35.4593 Y-25.2563
G01 X-35.4686 Y-25.2623
G01 X-35.4867 Y-25.2730
G00 Z2.0000
G00 X-35.6879 Y-25.2162
G01 F60.00
G01 Z-0.1500
G01 F240.00
G01 X-35.6470 Y-25.2572
G01 X-35.6363 Y-25.2691
G01 X-35.6262 Y-25.2814
G01 X-35.6122 Y-25.3008
G01 X-35.6037 Y-25.3143
G01 X-35.5959 Y-25.3282
G01 X-35.5855 Y-25.3497
G01 X-35.5767 Y-25.3720
G01 X-35.5696 Y-25.3948
G01 X-35.5658 Y-25.4103
G01 X-35.5510 Y-25.4786
G01 X-35.5468 Y-25.5021
G01 X-35.5450 Y-25.5180
G01 X-35.5439 Y-25.5339
G01 X-35.5437 Y-25.5529
G01 X-35.5280 Y-25.5485
G01 X-35.5049 Y-25.5436
G01 X-35.4815 Y-25.5405
G01 X-35.4579 Y-25.5390
G01 X-34.5221 Y-25.5389
G01 X-34.2914 Y-25.3082
G01 X-34.2820 Y-25.2949
G01 X-34.2762 Y-25.2874
G01 X-34.2762 Y-24.6519
G01 X-34.2866 Y-24.6614
G01 X-34.2989 Y-24.6716
G01 X-34.3116 Y-24.6812
G01 X-34.3248 Y-24.6901
G01 X-34.3385 Y-24.6984
G01 X-34.3991 Y-24.7331
G01 X-34.4203 Y-24.7442
G01 X-34.4348 Y-24.7507
G01 X-34.4497 Y-24.7565
G01 X-34.4725 Y-24.7638
G01 X-34.4879 Y-24.7677
G01 X-34.5036 Y-24.7708
G01 X-34.5273 Y-24.7740
G01 X-34.5511 Y-24.7755
G01 X-34.5750 Y-24.7751
G01 X-34.6524 Y-24.7711
G01 X-34.6677 Y-24.7696
G01 X-34.6828 Y-24.7674
G01 X-34.7052 Y-24.7627
G01 X-34.7273 Y-24.7564
G01 X-34.8483 Y-24.7142
G01 X-34.9245 Y-24.7056
G01 X-34.9755 Y-24.7056
G01 X-35.0518 Y-24.7142
G01 X-35.1484 Y-24.7480
G01 X-35.2351 Y-24.8025
G01 X-35.3075 Y-24.8749
G01 X-35.3680 Y-24.9715
G01 X-35.3763 Y-24.9877
G01 X-35.3839 Y-25.0009
G01 X-35.3921 Y-25.0137
G01 X-35.4009 Y-25.0260
G01 X-35.4153 Y-25.0438
G01 X-35.4663 Y-25.1025
G01 X-35.4773 Y-25.1141
G01 X-35.4949 Y-25.1303
G01 X-35.5137 Y-25.1451
G01 X-35.5334 Y-25.1586
G01 X-35.5542 Y-25.1705
G01 X-35.5757 Y-25.1808
G01 X-35.5905 Y-25.1868
G01 X-35.6056 Y-25.1921
G01 X-35.6879 Y-25.2162
G00 Z2.0000
G00 X-37.9015 Y-25.0449
G01 F60.00
G01 Z-0.1500
G01 F240.00
G01 X-37.8797 Y-25.0591
G01 X-37.8682 Y-25.0671
G01 X-37.8459 Y-25.0841
G01 X-37.8350 Y-25.0930
G01 X-37.7720 Y-25.1485
G01 X-37.7523 Y-25.1668
G01 X-37.7428 Y-25.1763
G01 X-37.7244 Y-25.1960
G01 X-37.7155 Y-25.2062
G01 X-37.6986 Y-25.2271
G01 X-37.6827 Y-25.2488
G01 X-37.6751 Y-25.2600
G01 X-37.6550 Y-25.2916
G01 X-37.6216 Y-25.3250
G01 X-37.5816 Y-25.3502
G01 X-37.5370 Y-25.3658
G01 X-37.5018 Y-25.3698
G01 X-37.4782 Y-25.3698
G01 X-37.4430 Y-25.3658
G01 X-37.3984 Y-25.3502
G01 X-37.3584 Y-25.3250
G01 X-37.3250 Y-25.2916
G01 X-37.2855 Y-25.2284
G01 X-37.2717 Y-25.2031
G01 X-37.2578 Y-25.1803
G01 X-37.2427 Y-25.1581
G01 X-37.2267 Y-25.1367
G01 X-37.2096 Y-25.1160
G01 X-37.1639 Y-25.0632
G01 X-37.1450 Y-25.0424
G01 X-37.1282 Y-25.0257
G01 X-37.8942 Y-25.0257
G01 X-37.9015 Y-25.0449
G00 Z2.0000
G00 X-38.0727 Y-25.1010
G01 F60.00
G01 Z-0.1500
G01 F240.00
G01 X-38.0464 Y-25.1097
G01 X-38.0259 Y-25.1178
G01 X-38.0059 Y-25.1269
G01 X-37.9863 Y-25.1370
G01 X-37.9673 Y-25.1480
G01 X-37.9488 Y-25.1600
G01 X-37.9309 Y-25.1729
G01 X-37.9137 Y-25.1866
G01 X-37.8452 Y-25.2472
G01 X-37.8376 Y-25.2545
G01 X-37.8228 Y-25.2696
G01 X-37.8088 Y-25.2853
G01 X-37.7955 Y-25.3017
G01 X-37.7892 Y-25.3102
G01 X-37.7771 Y-25.3275
G01 X-37.7513 Y-25.3684
G01 X-37.6984 Y-25.4213
G01 X-37.6350 Y-25.4611
G01 X-37.5644 Y-25.4858
G01 X-37.5086 Y-25.4921
G01 X-37.4713 Y-25.4921
G01 X-37.4156 Y-25.4858
G01 X-37.3450 Y-25.4611
G01 X-37.2816 Y-25.4213
G01 X-37.2287 Y-25.3684
G01 X-37.1787 Y-25.2884
G01 X-37.1710 Y-25.2735
G01 X-37.1605 Y-25.2554
G01 X-37.1431 Y-25.2291
G01 X-37.1240 Y-25.2041
G01 X-37.0641 Y-25.1351
G01 X-37.0489 Y-25.1192
G01 X-37.0410 Y-25.1115
G01 X-37.0246 Y-25.0968
G01 X-37.0075 Y-25.0829
G01 X-36.9898 Y-25.0699
G01 X-36.9714 Y-25.0577
G01 X-36.9524 Y-25.0465
G01 X-36.9395 Y-25.0396
G01 X-36.9473 Y-25.0239
G01 X-36.9561 Y-25.0037
G01 X-36.9601 Y-24.9935
G01 X-36.9674 Y-24.9727
G01 X-36.9707 Y-24.9622
G01 X-36.9765 Y-24.9410
G01 X-36.9848 Y-24.9033
G01 X-37.9884 Y-24.9034
G01 X-37.9933 Y-24.9291
G01 X-37.9985 Y-24.9505
G01 X-38.0049 Y-24.9716
G01 X-38.0084 Y-24.9820
G01 X-38.0163 Y-25.0026
G01 X-38.0252 Y-25.0227
G01 X-38.0301 Y-25.0326
G01 X-38.0404 Y-25.0520
G01 X-38.0517 Y-25.0709
G01 X-38.0578 Y-25.0801
G01 X-38.0727 Y-25.1010
G00 Z2.0000
G00 X-39.1186 Y-25.4717
G01 F60.00
G01 Z-0.1500
G01 F240.00
G01 X-39.1016 Y-25.4905
G01 X-39.0927 Y-25.5011
G01 X-39.0840 Y-25.5119
G01 X-39.0675 Y-25.5342
G01 X-39.0596 Y-25.5457
G01 X-39.0448 Y-25.5692
G01 X-39.0311 Y-25.5933
G01 X-39.0231 Y-25.6089
G01 X-39.0157 Y-25.5866
G01 X-39.0106 Y-25.5727
G01 X-38.9690 Y-25.4717
G01 X-39.1186 Y-25.4717
G00 Z2.0000
G00 X-40.3918 Y-25.2943
G01 F60.00
G01 Z-0.1500
G01 F240.00
G01 X-39.6705 Y-25.2943
G01 X-39.6879 Y-25.2775
G01 X-39.7068 Y-25.2574
G01 X-39.7247 Y-25.2365
G01 X-39.7332 Y-25.2257
G01 X-39.7798 Y-25.1626
G01 X-39.7959 Y-25.1394
G01 X-39.8109 Y-25.1154
G01 X-39.8180 Y-25.1031
G01 X-39.8650 Y-25.0284
G01 X-39.8984 Y-24.9950
G01 X-39.9384 Y-24.9698
G01 X-39.9830 Y-24.9542
G01 X-40.0182 Y-24.9502
G01 X-40.0418 Y-24.9502
G01 X-40.0770 Y-24.9542
G01 X-40.1216 Y-24.9698
G01 X-40.1616 Y-24.9950
G01 X-40.1950 Y-25.0284
G01 X-40.2339 Y-25.0903
G01 X-40.2483 Y-25.1169
G01 X-40.2622 Y-25.1397
G01 X-40.2773 Y-25.1619
G01 X-40.2933 Y-25.1833
G01 X-40.3104 Y-25.2040
G01 X-40.3561 Y-25.2568
G01 X-40.3750 Y-25.2776
G01 X-40.3918 Y-25.2943
G00 Z2.0000
G00 X-40.5667 Y-25.2730
G01 F60.00
G01 Z-0.1500
G01 F240.00
G01 X-40.5580 Y-25.2906
G01 X-40.5492 Y-25.3108
G01 X-40.5451 Y-25.3210
G01 X-40.5378 Y-25.3418
G01 X-40.5315 Y-25.3629
G01 X-40.5288 Y-25.3736
G01 X-40.5193 Y-25.4166
G01 X-39.5191 Y-25.4167
G01 X-39.5082 Y-25.4171
G01 X-39.4865 Y-25.4187
G01 X-39.4649 Y-25.4214
G01 X-39.4435 Y-25.4251
G01 X-39.4223 Y-25.4299
G01 X-39.4117 Y-25.4327
G01 X-39.3909 Y-25.4390
G01 X-39.3704 Y-25.4463
G01 X-39.3503 Y-25.4546
G01 X-39.3404 Y-25.4592
G01 X-39.3210 Y-25.4689
G01 X-39.3020 Y-25.4797
G01 X-39.2837 Y-25.4913
G01 X-39.2659 Y-25.5038
G01 X-39.2487 Y-25.5172
G01 X-39.2322 Y-25.5315
G01 X-39.2165 Y-25.5465
G01 X-39.2015 Y-25.5622
G01 X-39.1872 Y-25.5787
G01 X-39.1738 Y-25.5959
G01 X-39.1613 Y-25.6137
G01 X-39.1497 Y-25.6320
G01 X-39.1389 Y-25.6510
G01 X-39.1292 Y-25.6704
G01 X-39.1203 Y-25.6903
G01 X-39.1163 Y-25.7004
G01 X-39.1090 Y-25.7209
G01 X-39.1027 Y-25.7417
G01 X-39.0999 Y-25.7523
G01 X-39.0974 Y-25.7628
G01 X-39.0931 Y-25.7842
G01 X-39.0899 Y-25.8057
G01 X-39.0878 Y-25.8274
G01 X-39.0871 Y-25.8382
G01 X-39.0866 Y-25.8600
G01 X-39.0867 Y-27.7709
G01 X-39.0878 Y-27.7926
G01 X-39.0899 Y-27.8143
G01 X-39.0914 Y-27.8251
G01 X-39.0951 Y-27.8465
G01 X-39.0999 Y-27.8677
G01 X-39.1057 Y-27.8887
G01 X-39.1125 Y-27.9094
G01 X-39.1203 Y-27.9297
G01 X-39.1296 Y-27.9506
G01 X-38.9494 Y-27.7703
G01 X-38.9494 Y-25.9261
G01 X-38.9490 Y-25.9067
G01 X-38.9472 Y-25.8793
G01 X-38.9451 Y-25.8601
G01 X-38.9304 Y-25.7488
G01 X-38.9268 Y-25.7259
G01 X-38.9245 Y-25.7145
G01 X-38.9191 Y-25.6919
G01 X-38.9076 Y-25.6495
G01 X-38.9004 Y-25.6274
G01 X-38.8921 Y-25.6058
G01 X-38.8538 Y-25.5134
G01 X-38.8444 Y-25.4922
G01 X-38.8339 Y-25.4715
G01 X-38.8120 Y-25.4333
G01 X-38.7999 Y-25.4136
G01 X-38.7867 Y-25.3944
G01 X-38.7524 Y-25.3494
G01 X-39.2093 Y-25.3494
G01 X-39.2410 Y-25.3484
G01 X-39.2619 Y-25.3470
G01 X-39.2828 Y-25.3445
G01 X-39.3035 Y-25.3411
G01 X-39.3240 Y-25.3367
G01 X-39.3443 Y-25.3313
G01 X-39.3742 Y-25.3214
G01 X-39.4590 Y-25.2878
G01 X-39.4786 Y-25.2789
G01 X-39.4978 Y-25.2691
G01 X-39.5165 Y-25.2583
G01 X-39.5347 Y-25.2466
G01 X-39.5522 Y-25.2340
G01 X-39.5692 Y-25.2206
G01 X-39.5854 Y-25.2064
G01 X-39.5933 Y-25.1990
G01 X-39.6084 Y-25.1837
G01 X-39.6228 Y-25.1676
G01 X-39.6365 Y-25.1509
G01 X-39.6876 Y-25.0812
G01 X-39.6999 Y-25.0627
G01 X-39.7124 Y-25.0413
G01 X-39.7687 Y-24.9516
G01 X-39.8216 Y-24.8987
G01 X-39.8850 Y-24.8589
G01 X-39.9556 Y-24.8342
G01 X-40.0113 Y-24.8279
G01 X-40.0487 Y-24.8279
G01 X-40.1044 Y-24.8342
G01 X-40.1750 Y-24.8589
G01 X-40.2384 Y-24.8987
G01 X-40.2913 Y-24.9516
G01 X-40.3407 Y-25.0305
G01 X-40.3490 Y-25.0465
G01 X-40.3595 Y-25.0646
G01 X-40.3769 Y-25.0909
G01 X-40.3960 Y-25.1159
G01 X-40.4486 Y-25.1767
G01 X-40.4634 Y-25.1930
G01 X-40.4790 Y-25.2085
G01 X-40.4954 Y-25.2232
G01 X-40.5038 Y-25.2303
G01 X-40.5213 Y-25.2437
G01 X-40.5302 Y-25.2501
G01 X-40.5486 Y-25.2623
G01 X-40.5667 Y-25.2730
G00 Z2.0000
G00 X-40.7679 Y-25.2162
G01 F60.00
G01 Z-0.1500
G01 F240.00
G01 X-40.7270 Y-25.2572
G01 X-40.7163 Y-25.2691
G01 X-40.7062 Y-25.2814
G01 X-40.6922 Y-25.3008
G01 X-40.6837 Y-25.3143
G01 X-40.6759 Y-25.3282
G01 X-40.6655 Y-25.3497
G01 X-40.6567 Y-25.3720
G01 X-40.6496 Y-25.3948
G01 X-40.6458 Y-25.4103
G01 X-40.6310 Y-25.4786
G01 X-40.6268 Y-25.5021
G01 X-40.6250 Y-25.5180
G01 X-40.6239 Y-25.5339
G01 X-40.6237 Y-25.5529
G01 X-40.6004 Y-25.5467
G01 X-40.5771 Y-25.5424
G01 X-40.5536 Y-25.5398
G01 X-40.5300 Y-25.5389
G01 X-39.5300 Y-25.5389
G01 X-39.5142 Y-25.5393
G01 X-39.4907 Y-25.5413
G01 X-39.4751 Y-25.5436
G01 X-39.4520 Y-25.5485
G01 X-39.4293 Y-25.5551
G01 X-39.4071 Y-25.5634
G01 X-39.3856 Y-25.5732
G01 X-39.3649 Y-25.5846
G01 X-39.3451 Y-25.5975
G01 X-39.3325 Y-25.6069
G01 X-39.3144 Y-25.6221
G01 X-39.3030 Y-25.6330
G01 X-39.2869 Y-25.6503
G01 X-39.2721 Y-25.6687
G01 X-39.2587 Y-25.6882
G01 X-39.2506 Y-25.7017
G01 X-39.2432 Y-25.7156
G01 X-39.2334 Y-25.7371
G01 X-39.2277 Y-25.7518
G01 X-39.2227 Y-25.7668
G01 X-39.2185 Y-25.7820
G01 X-39.2151 Y-25.7974
G01 X-39.2124 Y-25.8129
G01 X-39.2105 Y-25.8285
G01 X-39.2093 Y-25.8442
G01 X-39.2089 Y-25.8600
G01 X-39.2089 Y-27.7600
G01 X-39.2098 Y-27.7836
G01 X-39.2124 Y-27.8071
G01 X-39.2151 Y-27.8226
G01 X-39.2185 Y-27.8380
G01 X-39.2251 Y-27.8607
G01 X-39.2334 Y-27.8829
G01 X-39.2397 Y-27.8973
G01 X-39.2468 Y-27.9114
G01 X-39.2587 Y-27.9318
G01 X-39.2721 Y-27.9513
G01 X-39.2869 Y-27.9697
G01 X-39.3030 Y-27.9870
G01 X-39.3203 Y-28.0031
G01 X-39.3325 Y-28.0131
G01 X-39.3451 Y-28.0225
G01 X-39.3649 Y-28.0354
G01 X-39.3856 Y-28.0468
G01 X-39.4071 Y-28.0566
G01 X-39.4293 Y-28.0649
G01 X-39.4444 Y-28.0695
G01 X-39.4589 Y-28.0731
G01 X-39.4589 Y-28.1578
G01 X-39.4538 Y-28.1668
G01 X-39.4465 Y-28.1811
G01 X-39.4370 Y-28.2032
G01 X-39.4291 Y-28.2259
G01 X-39.4248 Y-28.2414
G01 X-39.4213 Y-28.2570
G01 X-39.4175 Y-28.2808
G01 X-39.4159 Y-28.2968
G01 X-39.4105 Y-28.3744
G01 X-39.4101 Y-28.3904
G01 X-39.4105 Y-28.4044
G01 X-38.8271 Y-27.8210
G01 X-38.8271 Y-25.9261
G01 X-38.8268 Y-25.9121
G01 X-38.8253 Y-25.8900
G01 X-38.8238 Y-25.8761
G01 X-38.8092 Y-25.7648
G01 X-38.8065 Y-25.7482
G01 X-38.8030 Y-25.7317
G01 X-38.7903 Y-25.6842
G01 X-38.7851 Y-25.6683
G01 X-38.7791 Y-25.6526
G01 X-38.7408 Y-25.5602
G01 X-38.7340 Y-25.5449
G01 X-38.7264 Y-25.5299
G01 X-38.7061 Y-25.4945
G01 X-38.6973 Y-25.4802
G01 X-38.6878 Y-25.4663
G01 X-38.6167 Y-25.3737
G01 X-38.6001 Y-25.3547
G01 X-38.5713 Y-25.3258
G01 X-38.5591 Y-25.3142
G01 X-38.5397 Y-25.2981
G01 X-38.5167 Y-25.2805
G01 X-38.5041 Y-25.2718
G01 X-38.4845 Y-25.2598
G01 X-38.4640 Y-25.2493
G01 X-38.4505 Y-25.2433
G01 X-38.3914 Y-25.2188
G01 X-38.3765 Y-25.2130
G01 X-38.3537 Y-25.2058
G01 X-38.3304 Y-25.2003
G01 X-38.3147 Y-25.1976
G01 X-38.2988 Y-25.1957
G01 X-38.2749 Y-25.1943
G01 X-38.2510 Y-25.1947
G01 X-38.2272 Y-25.1969
G01 X-38.1424 Y-25.2099
G01 X-38.1267 Y-25.2132
G01 X-38.1037 Y-25.2194
G01 X-38.0886 Y-25.2245
G01 X-38.0664 Y-25.2336
G01 X-38.0450 Y-25.2443
G01 X-38.0312 Y-25.2523
G01 X-38.0179 Y-25.2610
G01 X-37.9986 Y-25.2752
G01 X-37.9864 Y-25.2855
G01 X-37.9341 Y-25.3318
G01 X-37.9229 Y-25.3421
G01 X-37.9122 Y-25.3531
G01 X-37.8972 Y-25.3704
G01 X-37.8834 Y-25.3887
G01 X-37.8750 Y-25.4014
G01 X-37.8475 Y-25.4451
G01 X-37.7751 Y-25.5175
G01 X-37.6884 Y-25.5720
G01 X-37.5918 Y-25.6058
G01 X-37.5155 Y-25.6144
G01 X-37.4645 Y-25.6144
G01 X-37.3882 Y-25.6058
G01 X-37.2916 Y-25.5720
G01 X-37.2049 Y-25.5175
G01 X-37.1325 Y-25.4451
G01 X-37.0717 Y-25.3479
G01 X-37.0637 Y-25.3323
G01 X-37.0561 Y-25.3191
G01 X-37.0479 Y-25.3063
G01 X-37.0344 Y-25.2879
G01 X-37.0247 Y-25.2762
G01 X-36.9790 Y-25.2234
G01 X-36.9683 Y-25.2116
G01 X-36.9511 Y-25.1950
G01 X-36.9327 Y-25.1797
G01 X-36.9199 Y-25.1702
G01 X-36.8997 Y-25.1573
G01 X-36.8787 Y-25.1459
G01 X-36.8569 Y-25.1361
G01 X-36.8420 Y-25.1305
G01 X-36.8268 Y-25.1256
G01 X-36.7598 Y-25.1059
G01 X-36.7358 Y-25.0999
G01 X-36.7783 Y-25.0573
G01 X-36.7890 Y-25.0455
G01 X-36.7991 Y-25.0331
G01 X-36.8130 Y-25.0137
G01 X-36.8215 Y-25.0002
G01 X-36.8330 Y-24.9792
G01 X-36.8398 Y-24.9648
G01 X-36.8485 Y-24.9425
G01 X-36.8556 Y-24.9197
G01 X-36.8594 Y-24.9042
G01 X-36.8743 Y-24.8359
G01 X-36.8785 Y-24.8123
G01 X-36.8803 Y-24.7964
G01 X-36.8814 Y-24.7804
G01 X-36.8815 Y-24.7622
G01 X-36.9044 Y-24.7695
G01 X-36.9196 Y-24.7733
G01 X-36.9351 Y-24.7764
G01 X-36.9507 Y-24.7787
G01 X-36.9664 Y-24.7802
G01 X-36.9900 Y-24.7811
G01 X-37.9979 Y-24.7810
G01 X-38.0215 Y-24.7795
G01 X-38.0449 Y-24.7764
G01 X-38.0680 Y-24.7715
G01 X-38.0832 Y-24.7673
G01 X-38.0952 Y-24.7633
G01 X-38.0960 Y-24.7867
G01 X-38.0975 Y-24.8023
G01 X-38.1097 Y-24.8871
G01 X-38.1145 Y-24.9105
G01 X-38.1211 Y-24.9335
G01 X-38.1294 Y-24.9559
G01 X-38.1393 Y-24.9777
G01 X-38.1509 Y-24.9986
G01 X-38.1639 Y-25.0187
G01 X-38.1784 Y-25.0377
G01 X-38.2346 Y-25.1025
G01 X-38.2514 Y-25.1196
G01 X-38.2632 Y-25.1303
G01 X-38.2756 Y-25.1403
G01 X-38.2885 Y-25.1498
G01 X-38.3018 Y-25.1586
G01 X-38.3155 Y-25.1667
G01 X-38.3296 Y-25.1741
G01 X-38.3514 Y-25.1839
G01 X-38.3664 Y-25.1895
G01 X-38.3815 Y-25.1944
G01 X-38.4486 Y-25.2141
G01 X-38.4633 Y-25.2180
G01 X-38.4783 Y-25.2213
G01 X-38.4933 Y-25.2238
G01 X-38.5085 Y-25.2256
G01 X-38.5238 Y-25.2267
G01 X-38.5390 Y-25.2271
G01 X-39.2093 Y-25.2271
G01 X-39.2354 Y-25.2262
G01 X-39.2581 Y-25.2244
G01 X-39.2732 Y-25.2222
G01 X-39.2881 Y-25.2194
G01 X-39.3029 Y-25.2159
G01 X-39.3175 Y-25.2116
G01 X-39.3390 Y-25.2040
G01 X-39.4112 Y-25.1753
G01 X-39.4324 Y-25.1653
G01 X-39.4461 Y-25.1578
G01 X-39.4594 Y-25.1497
G01 X-39.4787 Y-25.1363
G01 X-39.4969 Y-25.1215
G01 X-39.5140 Y-25.1055
G01 X-39.5247 Y-25.0941
G01 X-39.5348 Y-25.0822
G01 X-39.5444 Y-25.0698
G01 X-39.5873 Y-25.0112
G01 X-39.5961 Y-24.9979
G01 X-39.6068 Y-24.9794
G01 X-39.6725 Y-24.8749
G01 X-39.7449 Y-24.8025
G01 X-39.8316 Y-24.7480
G01 X-39.9283 Y-24.7142
G01 X-40.0045 Y-24.7056
G01 X-40.0555 Y-24.7056
G01 X-40.1318 Y-24.7142
G01 X-40.2284 Y-24.7480
G01 X-40.3151 Y-24.8025
G01 X-40.3875 Y-24.8749
G01 X-40.4480 Y-24.9715
G01 X-40.4527 Y-24.9810
G01 X-40.4600 Y-24.9943
G01 X-40.4679 Y-25.0073
G01 X-40.4765 Y-25.0199
G01 X-40.4903 Y-25.0380
G01 X-40.5410 Y-25.0966
G01 X-40.5573 Y-25.1141
G01 X-40.5689 Y-25.1250
G01 X-40.5873 Y-25.1403
G01 X-40.6067 Y-25.1543
G01 X-40.6272 Y-25.1667
G01 X-40.6485 Y-25.1776
G01 X-40.6705 Y-25.1868
G01 X-40.6856 Y-25.1921
G01 X-40.7679 Y-25.2162
G00 Z2.0000
G00 X-41.9615 Y-24.7622
G01 F60.00
G01 Z-0.1500
G01 F240.00
G01 X-41.9844 Y-24.7695
G01 X-42.0074 Y-24.7749
G01 X-42.0307 Y-24.7787
G01 X-42.0464 Y-24.7802
G01 X-42.0621 Y-24.7810
G01 X-42.8229 Y-24.7811
G01 X-42.8414 Y-24.7901
G01 X-42.8589 Y-24.7974
G01 X-42.8731 Y-24.8026
G01 X-42.8876 Y-24.8071
G01 X-42.9022 Y-24.8109
G01 X-43.0664 Y-24.8496
G01 X-43.2438 Y-25.0270
G01 X-43.2438 Y-25.6681
G01 X-43.2334 Y-25.6586
G01 X-43.2211 Y-25.6484
G01 X-43.2084 Y-25.6388
G01 X-43.1952 Y-25.6299
G01 X-43.1815 Y-25.6216
G01 X-43.1209 Y-25.5869
G01 X-43.1069 Y-25.5793
G01 X-43.0925 Y-25.5725
G01 X-43.0778 Y-25.5663
G01 X-43.0552 Y-25.5585
G01 X-43.0321 Y-25.5523
G01 X-43.0086 Y-25.5479
G01 X-42.9848 Y-25.5453
G01 X-42.9689 Y-25.5445
G01 X-42.9529 Y-25.5446
G01 X-42.8675 Y-25.5489
G01 X-42.8448 Y-25.5514
G01 X-42.8297 Y-25.5540
G01 X-42.8148 Y-25.5573
G01 X-42.7927 Y-25.5636
G01 X-42.6718 Y-25.6058
G01 X-42.5955 Y-25.6144
G01 X-42.5445 Y-25.6144
G01 X-42.4682 Y-25.6058
G01 X-42.3716 Y-25.5720
G01 X-42.2849 Y-25.5175
G01 X-42.2127 Y-25.4454
G01 X-42.1515 Y-25.3475
G01 X-42.1400 Y-25.3257
G01 X-42.1321 Y-25.3127
G01 X-42.1235 Y-25.3001
G01 X-42.1097 Y-25.2820
G01 X-42.0590 Y-25.2234
G01 X-42.0427 Y-25.2059
G01 X-42.0311 Y-25.1950
G01 X-42.0127 Y-25.1797
G01 X-41.9999 Y-25.1702
G01 X-41.9866 Y-25.1614
G01 X-41.9658 Y-25.1495
G01 X-41.9443 Y-25.1392
G01 X-41.9220 Y-25.1305
G01 X-41.9068 Y-25.1256
G01 X-41.8398 Y-25.1059
G01 X-41.8158 Y-25.0999
G01 X-41.8583 Y-25.0573
G01 X-41.8690 Y-25.0455
G01 X-41.8791 Y-25.0331
G01 X-41.8930 Y-25.0137
G01 X-41.9015 Y-25.0002
G01 X-41.9130 Y-24.9792
G01 X-41.9198 Y-24.9648
G01 X-41.9285 Y-24.9425
G01 X-41.9356 Y-24.9197
G01 X-41.9394 Y-24.9042
G01 X-41.9543 Y-24.8359
G01 X-41.9585 Y-24.8123
G01 X-41.9603 Y-24.7964
G01 X-41.9614 Y-24.7804
G01 X-41.9615 Y-24.7622
G00 Z2.0000
G00 X-42.0648 Y-24.9033
G01 F60.00
G01 Z-0.1500
G01 F240.00
G01 X-42.7953 Y-24.9034
G01 X-42.8242 Y-24.9150
G01 X-42.8540 Y-24.9247
G01 X-42.8742 Y-24.9300
G01 X-43.0045 Y-24.9606
G01 X-43.1215 Y-25.0776
G01 X-43.1215 Y-25.4521
G01 X-43.1014 Y-25.4448
G01 X-43.0910 Y-25.4415
G01 X-43.0804 Y-25.4384
G01 X-43.0590 Y-25.4330
G01 X-43.0374 Y-25.4287
G01 X-43.0157 Y-25.4255
G01 X-43.0047 Y-25.4242
G01 X-42.9827 Y-25.4226
G01 X-42.9607 Y-25.4221
G01 X-42.9497 Y-25.4223
G01 X-42.8584 Y-25.4269
G01 X-42.8374 Y-25.4290
G01 X-42.8165 Y-25.4321
G01 X-42.7958 Y-25.4361
G01 X-42.7753 Y-25.4412
G01 X-42.7652 Y-25.4441
G01 X-42.7451 Y-25.4506
G01 X-42.6444 Y-25.4858
G01 X-42.5886 Y-25.4921
G01 X-42.5513 Y-25.4921
G01 X-42.4956 Y-25.4858
G01 X-42.4250 Y-25.4611
G01 X-42.3616 Y-25.4213
G01 X-42.3091 Y-25.3687
G01 X-42.2584 Y-25.2878
G01 X-42.2510 Y-25.2735
G01 X-42.2405 Y-25.2554
G01 X-42.2231 Y-25.2291
G01 X-42.2106 Y-25.2123
G01 X-42.1972 Y-25.1961
G01 X-42.1514 Y-25.1433
G01 X-42.1366 Y-25.1270
G01 X-42.1210 Y-25.1115
G01 X-42.1046 Y-25.0968
G01 X-42.0962 Y-25.0897
G01 X-42.0787 Y-25.0763
G01 X-42.0607 Y-25.0637
G01 X-42.0514 Y-25.0577
G01 X-42.0324 Y-25.0465
G01 X-42.0195 Y-25.0396
G01 X-42.0273 Y-25.0239
G01 X-42.0361 Y-25.0037
G01 X-42.0401 Y-24.9935
G01 X-42.0474 Y-24.9727
G01 X-42.0507 Y-24.9622
G01 X-42.0565 Y-24.9410
G01 X-42.0648 Y-24.9033
G00 Z2.0000
G00 X-42.9991 Y-25.3011
G01 F60.00
G01 Z-0.1500
G01 F240.00
G01 X-42.9746 Y-25.3000
G01 X-42.9606 Y-25.2998
G01 X-42.9325 Y-25.3005
G01 X-42.8493 Y-25.3049
G01 X-42.8359 Y-25.3061
G01 X-42.8091 Y-25.3094
G01 X-42.7826 Y-25.3140
G01 X-42.7694 Y-25.3167
G01 X-42.7433 Y-25.3231
G01 X-42.7303 Y-25.3268
G01 X-42.7047 Y-25.3351
G01 X-42.6170 Y-25.3658
G01 X-42.5818 Y-25.3698
G01 X-42.5582 Y-25.3698
G01 X-42.5230 Y-25.3658
G01 X-42.4784 Y-25.3502
G01 X-42.4384 Y-25.3250
G01 X-42.4054 Y-25.2920
G01 X-42.3651 Y-25.2277
G01 X-42.3583 Y-25.2148
G01 X-42.3449 Y-25.1916
G01 X-42.3304 Y-25.1691
G01 X-42.3148 Y-25.1473
G01 X-42.2983 Y-25.1262
G01 X-42.2439 Y-25.0632
G01 X-42.2250 Y-25.0424
G01 X-42.2082 Y-25.0257
G01 X-42.7711 Y-25.0257
G01 X-42.7949 Y-25.0344
G01 X-42.8076 Y-25.0385
G01 X-42.8332 Y-25.0458
G01 X-42.9426 Y-25.0717
G01 X-42.9991 Y-25.1283
G01 X-42.9991 Y-25.3011
G00 Z2.0000
G00 X-45.3063 Y-25.2943
G01 F60.00
G01 Z-0.1500
G01 F240.00
G01 X-44.6809 Y-25.2943
G01 X-44.6809 Y-25.0695
G01 X-44.7023 Y-25.0683
G01 X-44.7303 Y-25.0655
G01 X-44.7442 Y-25.0635
G01 X-44.7719 Y-25.0586
G01 X-44.7856 Y-25.0556
G01 X-44.8128 Y-25.0487
G01 X-44.8930 Y-25.0259
G01 X-44.9058 Y-25.0217
G01 X-44.9311 Y-25.0126
G01 X-44.9560 Y-25.0022
G01 X-44.9682 Y-24.9966
G01 X-44.9923 Y-24.9845
G01 X-45.0179 Y-24.9700
G01 X-45.0630 Y-24.9542
G01 X-45.0982 Y-24.9502
G01 X-45.1218 Y-24.9502
G01 X-45.1570 Y-24.9542
G01 X-45.2016 Y-24.9698
G01 X-45.2416 Y-24.9950
G01 X-45.2750 Y-25.0284
G01 X-45.3002 Y-25.0684
G01 X-45.3158 Y-25.1130
G01 X-45.3211 Y-25.1600
G01 X-45.3079 Y-25.2772
G01 X-45.3063 Y-25.2943
G00 Z2.0000
G00 X-45.4332 Y-25.4166
G01 F60.00
G01 Z-0.1500
G01 F240.00
G01 X-44.6100 Y-25.4166
G01 X-44.5882 Y-25.4171
G01 X-44.5585 Y-25.4196
G01 X-44.5585 Y-24.9361
G01 X-44.5832 Y-24.9412
G01 X-44.6050 Y-24.9444
G01 X-44.6270 Y-24.9465
G01 X-44.6489 Y-24.9476
G01 X-44.6710 Y-24.9475
G01 X-44.6930 Y-24.9464
G01 X-44.7039 Y-24.9454
G01 X-44.7258 Y-24.9426
G01 X-44.7475 Y-24.9388
G01 X-44.7689 Y-24.9338
G01 X-44.7796 Y-24.9310
G01 X-44.8468 Y-24.9120
G01 X-44.8569 Y-24.9090
G01 X-44.8769 Y-24.9023
G01 X-44.8966 Y-24.8946
G01 X-44.9159 Y-24.8861
G01 X-44.9254 Y-24.8814
G01 X-44.9440 Y-24.8715
G01 X-44.9650 Y-24.8589
G01 X-45.0356 Y-24.8342
G01 X-45.0913 Y-24.8279
G01 X-45.1287 Y-24.8279
G01 X-45.1844 Y-24.8342
G01 X-45.2550 Y-24.8589
G01 X-45.3184 Y-24.8987
G01 X-45.3713 Y-24.9516
G01 X-45.4111 Y-25.0150
G01 X-45.4358 Y-25.0856
G01 X-45.4442 Y-25.1600
G01 X-45.4294 Y-25.2909
G01 X-45.4284 Y-25.3018
G01 X-45.4270 Y-25.3235
G01 X-45.4267 Y-25.3453
G01 X-45.4274 Y-25.3670
G01 X-45.4293 Y-25.3887
G01 X-45.4332 Y-25.4166
G00 Z2.0000
G00 X-45.5873 Y-25.5389
G01 F60.00
G01 Z-0.1500
G01 F240.00
G01 X-44.6100 Y-25.5389
G01 X-44.5942 Y-25.5393
G01 X-44.5707 Y-25.5413
G01 X-44.5551 Y-25.5436
G01 X-44.5320 Y-25.5485
G01 X-44.5093 Y-25.5551
G01 X-44.4944 Y-25.5604
G01 X-44.4727 Y-25.5697
G01 X-44.4517 Y-25.5806
G01 X-44.4362 Y-25.5900
G01 X-44.4362 Y-24.7800
G01 X-44.4358 Y-24.7644
G01 X-44.4482 Y-24.7709
G01 X-44.4622 Y-24.7775
G01 X-44.4838 Y-24.7862
G01 X-44.4985 Y-24.7910
G01 X-44.5654 Y-24.8114
G01 X-44.5807 Y-24.8157
G01 X-44.6041 Y-24.8206
G01 X-44.6278 Y-24.8238
G01 X-44.6437 Y-24.8250
G01 X-44.6597 Y-24.8254
G01 X-44.6836 Y-24.8244
G01 X-44.7074 Y-24.8217
G01 X-44.7308 Y-24.8172
G01 X-44.7463 Y-24.8133
G01 X-44.8135 Y-24.7943
G01 X-44.8281 Y-24.7897
G01 X-44.8496 Y-24.7817
G01 X-44.8704 Y-24.7721
G01 X-44.8905 Y-24.7611
G01 X-44.9116 Y-24.7480
G01 X-45.0083 Y-24.7142
G01 X-45.0845 Y-24.7056
G01 X-45.1355 Y-24.7056
G01 X-45.2118 Y-24.7142
G01 X-45.3084 Y-24.7480
G01 X-45.3951 Y-24.8025
G01 X-45.4675 Y-24.8749
G01 X-45.5220 Y-24.9616
G01 X-45.5558 Y-25.0583
G01 X-45.5673 Y-25.1600
G01 X-45.5502 Y-25.3125
G01 X-45.5490 Y-25.3361
G01 X-45.5495 Y-25.3597
G01 X-45.5518 Y-25.3832
G01 X-45.5549 Y-25.4017
G01 X-45.5579 Y-25.4386
G01 X-45.5617 Y-25.4622
G01 X-45.5672 Y-25.4855
G01 X-45.5718 Y-25.5007
G01 X-45.5802 Y-25.5232
G01 X-45.5873 Y-25.5389
G00 Z2.0000
G00 X-47.1727 Y-24.7811
G01 F60.00
G01 Z-0.1500
G01 F240.00
G01 X-48.1274 Y-24.7811
G01 X-48.1182 Y-24.8019
G01 X-48.1125 Y-24.8170
G01 X-48.1077 Y-24.8324
G01 X-48.1019 Y-24.8559
G01 X-48.0990 Y-24.8717
G01 X-48.0969 Y-24.8877
G01 X-48.0907 Y-24.9457
G01 X-48.0895 Y-24.9612
G01 X-48.0890 Y-24.9844
G01 X-48.0902 Y-25.0077
G01 X-48.1073 Y-25.1600
G01 X-48.0958 Y-25.2618
G01 X-48.0620 Y-25.3584
G01 X-48.0075 Y-25.4451
G01 X-47.9351 Y-25.5175
G01 X-47.8484 Y-25.5720
G01 X-47.7518 Y-25.6058
G01 X-47.6755 Y-25.6144
G01 X-47.6245 Y-25.6144
G01 X-47.5482 Y-25.6058
G01 X-47.4516 Y-25.5720
G01 X-47.3649 Y-25.5175
G01 X-47.2925 Y-25.4451
G01 X-47.2380 Y-25.3584
G01 X-47.2042 Y-25.2617
G01 X-47.1927 Y-25.1600
G01 X-47.2098 Y-25.0075
G01 X-47.2110 Y-24.9839
G01 X-47.2105 Y-24.9603
G01 X-47.2082 Y-24.9368
G01 X-47.2051 Y-24.9183
G01 X-47.2021 Y-24.8814
G01 X-47.1983 Y-24.8578
G01 X-47.1928 Y-24.8345
G01 X-47.1882 Y-24.8193
G01 X-47.1798 Y-24.7968
G01 X-47.1727 Y-24.7811
G00 Z2.0000
G00 X-47.3268 Y-24.9034
G01 F60.00
G01 Z-0.1500
G01 F240.00
G01 X-47.9722 Y-24.9034
G01 X-47.9691 Y-24.9329
G01 X-47.9674 Y-24.9542
G01 X-47.9667 Y-24.9756
G01 X-47.9670 Y-24.9970
G01 X-47.9684 Y-25.0184
G01 X-47.9694 Y-25.0291
G01 X-47.9842 Y-25.1600
G01 X-47.9758 Y-25.2344
G01 X-47.9511 Y-25.3050
G01 X-47.9113 Y-25.3684
G01 X-47.8584 Y-25.4213
G01 X-47.7950 Y-25.4611
G01 X-47.7244 Y-25.4858
G01 X-47.6686 Y-25.4921
G01 X-47.6313 Y-25.4921
G01 X-47.5756 Y-25.4858
G01 X-47.5050 Y-25.4611
G01 X-47.4416 Y-25.4213
G01 X-47.3887 Y-25.3684
G01 X-47.3489 Y-25.3050
G01 X-47.3242 Y-25.2344
G01 X-47.3158 Y-25.1600
G01 X-47.3306 Y-25.0291
G01 X-47.3325 Y-25.0074
G01 X-47.3330 Y-24.9965
G01 X-47.3333 Y-24.9748
G01 X-47.3326 Y-24.9530
G01 X-47.3307 Y-24.9313
G01 X-47.3268 Y-24.9034
G00 Z2.0000
G00 X-47.4537 Y-25.0257
G01 F60.00
G01 Z-0.1500
G01 F240.00
G01 X-47.8463 Y-25.0257
G01 X-47.8479 Y-25.0428
G01 X-47.8611 Y-25.1600
G01 X-47.8558 Y-25.2070
G01 X-47.8402 Y-25.2516
G01 X-47.8150 Y-25.2916
G01 X-47.7816 Y-25.3250
G01 X-47.7416 Y-25.3502
G01 X-47.6970 Y-25.3658
G01 X-47.6618 Y-25.3698
G01 X-47.6382 Y-25.3698
G01 X-47.6030 Y-25.3658
G01 X-47.5584 Y-25.3502
G01 X-47.5184 Y-25.3250
G01 X-47.4850 Y-25.2916
G01 X-47.4598 Y-25.2516
G01 X-47.4442 Y-25.2070
G01 X-47.4389 Y-25.1600
G01 X-47.4521 Y-25.0428
G01 X-47.4537 Y-25.0257
G00 Z2.0000
G00 X-48.4597 Y-24.0325
G01 F60.00
G01 Z-0.1500
G01 F240.00
G01 X-48.4562 Y-24.0468
G01 X-48.4543 Y-24.0563
G01 X-48.4489 Y-24.0927
G01 X-48.4477 Y-24.1073
G01 X-48.4462 Y-24.1391
G01 X-48.4461 Y-24.5524
G01 X-48.4246 Y-24.6100
G01 X-48.3713 Y-24.6813
G01 X-48.3374 Y-24.7066
G01 X-48.3262 Y-24.7157
G01 X-48.3158 Y-24.7256
G01 X-48.3030 Y-24.7400
G01 X-48.2502 Y-24.8121
G01 X-48.2425 Y-24.8247
G01 X-48.2379 Y-24.8335
G01 X-48.2319 Y-24.8470
G01 X-48.2284 Y-24.8562
G01 X-48.2229 Y-24.8752
G01 X-48.2192 Y-24.8946
G01 X-48.2182 Y-24.9044
G01 X-48.2162 Y-24.9357
G01 X-48.2131 Y-24.9530
G01 X-48.2114 Y-24.9725
G01 X-48.2114 Y-24.9871
G01 X-48.2125 Y-25.0017
G01 X-48.2304 Y-25.1600
G01 X-48.2158 Y-25.2891
G01 X-48.1729 Y-25.4118
G01 X-48.1038 Y-25.5219
G01 X-48.0119 Y-25.6138
G01 X-47.9018 Y-25.6829
G01 X-47.7791 Y-25.7258
G01 X-47.6824 Y-25.7367
G01 X-47.6176 Y-25.7367
G01 X-47.5209 Y-25.7258
G01 X-47.3982 Y-25.6829
G01 X-47.2881 Y-25.6138
G01 X-47.1962 Y-25.5219
G01 X-47.1271 Y-25.4118
G01 X-47.0842 Y-25.2891
G01 X-47.0696 Y-25.1600
G01 X-47.0875 Y-25.0017
G01 X-47.0886 Y-24.9871
G01 X-47.0886 Y-24.9725
G01 X-47.0869 Y-24.9530
