(G-CODE GENERATED BY FLATCAM v8.994 - www.flatcam.org - Version Date: 2020/11/7)

(Name: SAL-FP_Keyboard-PTH.drl_cnc)
(Type: G-code from Geometry)
(Units: MM)

(Created on Sunday, 15 October 2023 at 01:47)

(This preprocessor is the default preprocessor used by FlatCAM.)
(It is made to work with MACH3 compatible motion controllers.)


(TOOLS DIAMETER: )
(Tool: 1 -> Dia: 1.0007599999999999)
(Tool: 2 -> Dia: 1.50114)

(FEEDRATE Z: )
(Tool: 1 -> Feedrate: 200.0)
(Tool: 2 -> Feedrate: 300.0)

(FEEDRATE RAPIDS: )
(Tool: 1 -> Feedrate Rapids: 1500)
(Tool: 2 -> Feedrate Rapids: 1500)

(Z_CUT: )
(Tool: 1 -> Z_Cut: -1.85)
(Tool: 2 -> Z_Cut: -1.96)

(Tools Offset: )
(Tool: 2 -> Offset Z: 0.0)

(Z_MOVE: )
(Tool: 1 -> Z_Move: 2.0)
(Tool: 2 -> Z_Move: 2.0)

(Z Toolchange: 15 mm)
(X,Y Toolchange: 0.0000, 0.0000 mm)
(Z Start: None mm)
(Z End: 0.5 mm)
(X,Y End: None mm)
(Steps per circle: 64)
(Preprocessor Excellon: default)

(X range:  -96.6602 ...  -12.6090  mm)
(Y range:  -20.8318 ...   -9.4209  mm)

(Spindle Speed: 0 RPM)
G21
G90
G94

G01 F300.00

M5
G00 Z15.0000
T2
G00 X0.0000 Y0.0000                
M6
(MSG, Change to Tool Dia = 1.5011 ||| Total drills for tool T2 = 10)
M0
G00 Z15.0000

G01 F300.00
M03
G00 X-13.3596 Y-20.0812
G01 Z-1.9600
G01 Z0
G00 Z2.0000
G00 X-19.7096 Y-17.5412
G01 Z-1.9600
G01 Z0
G00 Z2.0000
G00 X-32.4096 Y-20.0812
G01 Z-1.9600
G01 Z0
G00 Z2.0000
G00 X-38.7596 Y-17.5412
G01 Z-1.9600
G01 Z0
G00 Z2.0000
G00 X-51.4596 Y-20.0812
G01 Z-1.9600
G01 Z0
G00 Z2.0000
G00 X-57.8096 Y-17.5412
G01 Z-1.9600
G01 Z0
G00 Z2.0000
G00 X-70.5096 Y-20.0812
G01 Z-1.9600
G01 Z0
G00 Z2.0000
G00 X-76.8596 Y-17.5412
G01 Z-1.9600
G01 Z0
G00 Z2.0000
G00 X-89.5596 Y-20.0812
G01 Z-1.9600
G01 Z0
G00 Z2.0000
G00 X-95.9096 Y-17.5412
G01 Z-1.9600
G01 Z0
G00 Z2.0000
M05
G00 Z0.50


M30
