(G-CODE GENERATED BY FLATCAM v8.994 - www.flatcam.org - Version Date: 2020/11/7)

(Name: vmon-F_Cu.gbr_iso_combined_cnc)
(Type: G-code from Geometry)
(Units: MM)

(Created on Monday, 02 June 2025 at 23:16)

(This preprocessor is the default preprocessor used by FlatCAM.)
(It is made to work with MACH3 compatible motion controllers.)

(TOOL DIAMETER: 0.1722 mm)
(Feedrate_XY: 240.0 mm/min)
(Feedrate_Z: 90.0 mm/min)
(Feedrate rapids 1500.0 mm/min)

(Z_Cut: -0.08 mm)
(Z_Move: 0.5 mm)
(Z Start: None mm)
(Z End: 15.0 mm)
(X,Y End: None mm)
(Steps per circle: 64)
(Preprocessor Geometry: default)

(X range:   -0.2227 ...   30.3732  mm)
(Y range:  -16.3732 ...    0.2227  mm)

(Spindle Speed: 12000.0 RPM)
G21
G90
G94

G01 F240.00

M5
G00 Z45.0000
G00 X0.0000 Y0.0000
T2
M6    
(MSG, Change to Tool Dia = 0.1722)
M0
G00 Z45.0000

M03 S12000.0
G01 F240.00
G00 X1.2526 Y-0.9725
G01 F90.00
G01 Z-0.0800
G01 F240.00
G01 X1.2526 Y-1.9640
G01 X1.2547 Y-1.9695
G01 X1.2561 Y-1.9704
G01 X1.2577 Y-1.9701
G01 X1.2584 Y-1.9695
G01 X1.2604 Y-1.9640
G01 X1.2604 Y-1.5800
G01 X1.2611 Y-1.5715
G01 X1.2625 Y-1.5632
G01 X1.2648 Y-1.5551
G01 X1.2670 Y-1.5491
G01 X1.2706 Y-1.5415
G01 X1.2761 Y-1.5325
G01 X1.2827 Y-1.5242
G01 X1.2887 Y-1.5183
G01 X1.2952 Y-1.5129
G01 X1.3041 Y-1.5072
G01 X1.3116 Y-1.5034
G01 X1.3215 Y-1.4997
G01 X1.3339 Y-1.4969
G01 X1.3444 Y-1.4960
G01 X1.4478 Y-1.4960
G01 X1.4583 Y-1.4966
G01 X1.4667 Y-1.4981
G01 X1.4768 Y-1.5010
G01 X1.4847 Y-1.5043
G01 X1.4921 Y-1.5083
G01 X1.5009 Y-1.5143
G01 X1.5073 Y-1.5198
G01 X1.5145 Y-1.5276
G01 X1.8223 Y-1.9670
G01 X1.8271 Y-1.9703
G01 X1.8288 Y-1.9703
G01 X1.8300 Y-1.9691
G01 X1.8302 Y-1.9682
G01 X1.8287 Y-1.9626
G01 X1.5915 Y-1.6235
G01 X1.5865 Y-1.6143
G01 X1.5819 Y-1.6024
G01 X1.5795 Y-1.5921
G01 X1.5784 Y-1.5816
G01 X1.5784 Y-1.5732
G01 X1.5796 Y-1.5627
G01 X1.5815 Y-1.5545
G01 X1.5849 Y-1.5445
G01 X1.5886 Y-1.5369
G01 X1.5941 Y-1.5279
G01 X1.6008 Y-1.5197
G01 X1.6067 Y-1.5137
G01 X1.6150 Y-1.5071
G01 X1.6240 Y-1.5016
G01 X1.6317 Y-1.4980
G01 X1.6430 Y-1.4937
G01 X1.7307 Y-1.4498
G01 X1.7347 Y-1.4473
G01 X1.7385 Y-1.4442
G01 X1.7801 Y-1.4026
G01 X1.7831 Y-1.3989
G01 X1.7857 Y-1.3948
G01 X1.8295 Y-1.3071
G01 X1.8309 Y-1.3035
G01 X1.8318 Y-1.2974
G01 X1.8318 Y-1.1630
G01 X1.8315 Y-1.1591
G01 X1.8295 Y-1.1532
G01 X1.7857 Y-1.0655
G01 X1.7831 Y-1.0615
G01 X1.7801 Y-1.0577
G01 X1.7385 Y-1.0161
G01 X1.7347 Y-1.0131
G01 X1.7307 Y-1.0105
G01 X1.6430 Y-0.9667
G01 X1.6371 Y-0.9647
G01 X1.6332 Y-0.9644
G01 X1.2607 Y-0.9644
G01 X1.2553 Y-0.9664
G01 X1.2547 Y-0.9670
G01 X1.2526 Y-0.9725
G00 Z0.5000
G00 X1.3465 Y-1.4882
G01 F90.00
G01 Z-0.0800
G01 F240.00
G01 X1.6162 Y-1.4882
G01 X1.6267 Y-1.4875
G01 X1.6350 Y-1.4861
G01 X1.6431 Y-1.4839
G01 X1.6528 Y-1.4800
G01 X1.7179 Y-1.4475
G01 X1.7253 Y-1.4433
G01 X1.7323 Y-1.4384
G01 X1.7387 Y-1.4329
G01 X1.7672 Y-1.4044
G01 X1.7730 Y-1.3981
G01 X1.7780 Y-1.3912
G01 X1.7824 Y-1.3839
G01 X1.8150 Y-1.3189
G01 X1.8191 Y-1.3092
G01 X1.8220 Y-1.2991
G01 X1.8234 Y-1.2908
G01 X1.8240 Y-1.2824
G01 X1.8240 Y-1.1800
G01 X1.8236 Y-1.1716
G01 X1.8215 Y-1.1592
G01 X1.8191 Y-1.1511
G01 X1.8167 Y-1.1453
G01 X1.7803 Y-1.0727
G01 X1.7743 Y-1.0639
G01 X1.7687 Y-1.0575
G01 X1.7403 Y-1.0290
G01 X1.7340 Y-1.0232
G01 X1.7271 Y-1.0182
G01 X1.7198 Y-1.0138
G01 X1.6509 Y-0.9795
G01 X1.6431 Y-0.9765
G01 X1.6350 Y-0.9742
G01 X1.6267 Y-0.9728
G01 X1.6204 Y-0.9723
G01 X1.3465 Y-0.9722
G01 X1.3381 Y-0.9726
G01 X1.3297 Y-0.9738
G01 X1.3215 Y-0.9759
G01 X1.3136 Y-0.9787
G01 X1.3059 Y-0.9823
G01 X1.2987 Y-0.9867
G01 X1.2919 Y-0.9917
G01 X1.2856 Y-0.9974
G01 X1.2800 Y-1.0036
G01 X1.2761 Y-1.0087
G01 X1.2716 Y-1.0158
G01 X1.2662 Y-1.0273
G01 X1.2635 Y-1.0353
G01 X1.2621 Y-1.0415
G01 X1.2605 Y-1.0540
G01 X1.2604 Y-1.4021
G01 X1.2613 Y-1.4147
G01 X1.2630 Y-1.4230
G01 X1.2654 Y-1.4311
G01 X1.2678 Y-1.4370
G01 X1.2716 Y-1.4445
G01 X1.2761 Y-1.4516
G01 X1.2800 Y-1.4567
G01 X1.2842 Y-1.4614
G01 X1.2903 Y-1.4673
G01 X1.2952 Y-1.4712
G01 X1.3023 Y-1.4759
G01 X1.3097 Y-1.4799
G01 X1.3175 Y-1.4831
G01 X1.3256 Y-1.4856
G01 X1.3318 Y-1.4869
G01 X1.3402 Y-1.4879
G01 X1.3465 Y-1.4882
G00 Z0.5000
G00 X2.2050 Y-1.4487
G01 F90.00
G01 Z-0.0800
G01 F240.00
G01 X2.2050 Y-1.8212
G01 X2.2054 Y-1.8250
G01 X2.2073 Y-1.8309
G01 X2.2515 Y-1.9192
G01 X2.2585 Y-1.9260
G01 X2.3462 Y-1.9699
G01 X2.3522 Y-1.9718
G01 X2.3560 Y-1.9722
G01 X2.5380 Y-1.9722
G01 X2.5418 Y-1.9718
G01 X2.5478 Y-1.9699
G01 X2.6360 Y-1.9257
G01 X2.6394 Y-1.9217
G01 X2.6396 Y-1.9201
G01 X2.6386 Y-1.9187
G01 X2.6377 Y-1.9184
G01 X2.6325 Y-1.9188
G01 X2.5538 Y-1.9579
G01 X2.5458 Y-1.9607
G01 X2.5397 Y-1.9623
G01 X2.5315 Y-1.9637
G01 X2.5231 Y-1.9643
G01 X2.3730 Y-1.9644
G01 X2.3604 Y-1.9634
G01 X2.3481 Y-1.9607
G01 X2.3383 Y-1.9571
G01 X2.2851 Y-1.9306
G01 X2.2759 Y-1.9252
G01 X2.2674 Y-1.9188
G01 X2.2598 Y-1.9114
G01 X2.2519 Y-1.9013
G01 X2.2466 Y-1.8921
G01 X2.2219 Y-1.8427
G01 X2.2171 Y-1.8310
G01 X2.2141 Y-1.8188
G01 X2.2128 Y-1.8063
G01 X2.2128 Y-1.7087
G01 X2.2130 Y-1.7024
G01 X2.2141 Y-1.6940
G01 X2.2171 Y-1.6817
G01 X2.2220 Y-1.6700
G01 X2.2285 Y-1.6592
G01 X2.2337 Y-1.6525
G01 X2.2380 Y-1.6479
G01 X2.2476 Y-1.6396
G01 X2.2582 Y-1.6328
G01 X2.2698 Y-1.6277
G01 X2.2820 Y-1.6243
G01 X2.6816 Y-1.5444
G01 X2.6870 Y-1.5415
G01 X2.6875 Y-1.5406
G01 X2.6890 Y-1.5355
G01 X2.6890 Y-1.4487
G01 X2.6886 Y-1.4449
G01 X2.6867 Y-1.4389
G01 X2.6425 Y-1.3507
G01 X2.6355 Y-1.3439
G01 X2.5478 Y-1.3000
G01 X2.5418 Y-1.2981
G01 X2.5380 Y-1.2977
G01 X2.3560 Y-1.2977
G01 X2.3522 Y-1.2981
G01 X2.3462 Y-1.3000
G01 X2.2585 Y-1.3439
G01 X2.2515 Y-1.3507
G01 X2.2073 Y-1.4389
G01 X2.2054 Y-1.4449
G01 X2.2050 Y-1.4487
G00 Z0.5000
G00 X2.3158 Y-1.6096
G01 F90.00
G01 Z-0.0800
G01 F240.00
G01 X2.6140 Y-1.5499
G01 X2.6222 Y-1.5476
G01 X2.6320 Y-1.5437
G01 X2.6394 Y-1.5397
G01 X2.6481 Y-1.5337
G01 X2.6560 Y-1.5267
G01 X2.6630 Y-1.5188
G01 X2.6690 Y-1.5101
G01 X2.6738 Y-1.5008
G01 X2.6775 Y-1.4909
G01 X2.6799 Y-1.4806
G01 X2.6811 Y-1.4701
G01 X2.6811 Y-1.4615
G01 X2.6803 Y-1.4531
G01 X2.6786 Y-1.4449
G01 X2.6762 Y-1.4368
G01 X2.6739 Y-1.4310
G01 X2.6464 Y-1.3759
G01 X2.6432 Y-1.3704
G01 X2.6383 Y-1.3634
G01 X2.6313 Y-1.3554
G01 X2.6250 Y-1.3497
G01 X2.6181 Y-1.3446
G01 X2.6089 Y-1.3393
G01 X2.5538 Y-1.3120
G01 X2.5458 Y-1.3092
G01 X2.5397 Y-1.3076
G01 X2.5315 Y-1.3061
G01 X2.5252 Y-1.3056
G01 X2.3730 Y-1.3055
G01 X2.3667 Y-1.3057
G01 X2.3584 Y-1.3067
G01 X2.3461 Y-1.3098
G01 X2.3364 Y-1.3137
G01 X2.2832 Y-1.3403
G01 X2.2777 Y-1.3435
G01 X2.2707 Y-1.3484
G01 X2.2642 Y-1.3539
G01 X2.2584 Y-1.3601
G01 X2.2544 Y-1.3651
G01 X2.2497 Y-1.3722
G01 X2.2210 Y-1.4291
G01 X2.2165 Y-1.4408
G01 X2.2141 Y-1.4511
G01 X2.2128 Y-1.4636
G01 X2.2128 Y-1.5273
G01 X2.2141 Y-1.5399
G01 X2.2159 Y-1.5481
G01 X2.2186 Y-1.5561
G01 X2.2220 Y-1.5639
G01 X2.2262 Y-1.5712
G01 X2.2324 Y-1.5798
G01 X2.2380 Y-1.5861
G01 X2.2443 Y-1.5917
G01 X2.2511 Y-1.5968
G01 X2.2584 Y-1.6011
G01 X2.2660 Y-1.6047
G01 X2.2740 Y-1.6076
G01 X2.2822 Y-1.6096
G01 X2.2905 Y-1.6108
G01 X2.2990 Y-1.6112
G01 X2.3074 Y-1.6108
G01 X2.3158 Y-1.6096
G00 Z0.5000
G00 X3.0162 Y-1.3069
G01 F90.00
G01 Z-0.0800
G01 F240.00
G01 X3.2514 Y-1.9656
G01 X3.2522 Y-1.9673
G01 X3.2552 Y-1.9702
G01 X3.2570 Y-1.9705
G01 X3.2578 Y-1.9702
G01 X3.2608 Y-1.9673
G01 X3.2616 Y-1.9656
G01 X3.4969 Y-1.3069
G01 X3.4968 Y-1.3011
G01 X3.4957 Y-1.2997
G01 X3.4941 Y-1.2994
G01 X3.4933 Y-1.2998
G01 X3.4895 Y-1.3043
G01 X3.3376 Y-1.7296
G01 X3.3334 Y-1.7393
G01 X3.3269 Y-1.7502
G01 X3.3203 Y-1.7585
G01 X3.3112 Y-1.7672
G01 X3.3008 Y-1.7745
G01 X3.2895 Y-1.7802
G01 X3.2795 Y-1.7836
G01 X3.2692 Y-1.7858
G01 X3.2565 Y-1.7868
G01 X3.2460 Y-1.7861
G01 X3.2335 Y-1.7836
G01 X3.2216 Y-1.7794
G01 X3.2104 Y-1.7734
G01 X3.2003 Y-1.7658
G01 X3.1927 Y-1.7585
G01 X3.1849 Y-1.7485
G01 X3.1796 Y-1.7393
G01 X3.1754 Y-1.7296
G01 X3.0235 Y-1.3043
G01 X3.0197 Y-1.2998
G01 X3.0190 Y-1.2994
G01 X3.0173 Y-1.2997
G01 X3.0163 Y-1.3011
G01 X3.0162 Y-1.3069
G00 Z0.5000
G00 X3.8278 Y-1.9259
G01 F90.00
G01 Z-0.0800
G01 F240.00
G01 X3.8698 Y-1.9680
G01 X3.8751 Y-1.9704
G01 X3.8760 Y-1.9704
G01 X3.8813 Y-1.9680
G01 X3.9229 Y-1.9264
G01 X3.9254 Y-1.9211
G01 X3.9254 Y-1.9202
G01 X3.9230 Y-1.9149
G01 X3.8813 Y-1.8733
G01 X3.8760 Y-1.8708
G01 X3.8751 Y-1.8708
G01 X3.8698 Y-1.8733
G01 X3.8282 Y-1.9149
G01 X3.8258 Y-1.9202
G01 X3.8258 Y-1.9211
G01 X3.8278 Y-1.9259
G00 Z0.5000
G00 X4.2000 Y-3.0074
G01 F90.00
G01 Z-0.0800
G01 F240.00
G01 X4.2095 Y-3.1242
G01 X4.2351 Y-3.2181
G01 X4.2743 Y-3.2943
G01 X4.3276 Y-3.3581
G01 X4.3939 Y-3.4094
G01 X4.4734 Y-3.4476
G01 X4.5705 Y-3.4725
G01 X4.6901 Y-3.4817
G01 X4.8102 Y-3.4725
G01 X4.9078 Y-3.4476
G01 X4.9876 Y-3.4093
G01 X5.0542 Y-3.3580
G01 X5.1080 Y-3.2940
G01 X5.1473 Y-3.2185
G01 X5.1727 Y-3.1267
G01 X5.1821 Y-3.0136
G01 X5.1727 Y-2.8976
G01 X5.1471 Y-2.8036
G01 X5.1078 Y-2.7266
G01 X5.0542 Y-2.6618
G01 X4.9877 Y-2.6097
G01 X4.9080 Y-2.5710
G01 X4.8104 Y-2.5458
G01 X4.6899 Y-2.5364
G01 X4.5639 Y-2.5456
G01 X4.4642 Y-2.5703
G01 X4.3855 Y-2.6072
G01 X4.3225 Y-2.6555
G01 X4.2723 Y-2.7161
G01 X4.2346 Y-2.7913
G01 X4.2094 Y-2.8865
G01 X4.2000 Y-3.0074
G00 Z0.5000
G00 X4.2429 Y-3.1171
G01 F90.00
G01 Z-0.0800
G01 F240.00
G01 X4.2717 Y-3.1806
G01 X4.2782 Y-3.1918
G01 X4.2863 Y-3.2019
G01 X4.3337 Y-3.2525
G01 X4.3418 Y-3.2598
G01 X4.3508 Y-3.2660
G01 X4.4200 Y-3.3051
G01 X4.4316 Y-3.3106
G01 X4.4398 Y-3.3133
G01 X4.5352 Y-3.3391
G01 X4.5432 Y-3.3409
G01 X4.5513 Y-3.3419
G01 X4.6898 Y-3.3519
G01 X4.8194 Y-3.3433
G01 X4.8318 Y-3.3416
G01 X4.9262 Y-3.3187
G01 X4.9342 Y-3.3164
G01 X4.9437 Y-3.3124
G01 X5.0120 Y-3.2792
G01 X5.0204 Y-3.2745
G01 X5.0295 Y-3.2678
G01 X5.0741 Y-3.2305
G01 X5.0804 Y-3.2244
G01 X5.0860 Y-3.2177
G01 X5.1184 Y-3.1723
G01 X5.1236 Y-3.1634
G01 X5.1278 Y-3.1540
G01 X5.1460 Y-3.1050
G01 X5.1496 Y-3.0927
G01 X5.1509 Y-3.0843
G01 X5.1573 Y-3.0262
G01 X5.1578 Y-3.0140
G01 X5.1571 Y-3.0059
G01 X5.1471 Y-2.9269
G01 X5.1456 Y-2.9184
G01 X5.1433 Y-2.9102
G01 X5.1410 Y-2.9042
G01 X5.1111 Y-2.8380
G01 X5.1046 Y-2.8268
G01 X5.0965 Y-2.8167
G01 X5.0488 Y-2.7656
G01 X5.0389 Y-2.7570
G01 X5.0298 Y-2.7510
G01 X4.9619 Y-2.7125
G01 X4.9522 Y-2.7078
G01 X4.9420 Y-2.7044
G01 X4.8459 Y-2.6783
G01 X4.8379 Y-2.6765
G01 X4.8297 Y-2.6755
G01 X4.6904 Y-2.6653
G01 X4.5521 Y-2.6743
G01 X4.5394 Y-2.6762
G01 X4.4443 Y-2.6995
G01 X4.4365 Y-2.7018
G01 X4.4252 Y-2.7066
G01 X4.3597 Y-2.7406
G01 X4.3505 Y-2.7464
G01 X4.3422 Y-2.7533
G01 X4.2897 Y-2.8053
G01 X4.2842 Y-2.8115
G01 X4.2805 Y-2.8165
G01 X4.2743 Y-2.8273
G01 X4.2445 Y-2.8885
G01 X4.2398 Y-2.9002
G01 X4.2369 Y-2.9125
G01 X4.2261 Y-2.9919
G01 X4.2253 Y-3.0021
G01 X4.2258 Y-3.0123
G01 X4.2359 Y-3.0924
G01 X4.2385 Y-3.1051
G01 X4.2429 Y-3.1171
G00 Z0.5000
G00 X5.0204 Y-4.0048
G01 F90.00
G01 Z-0.0800
G01 F240.00
G01 X5.1589 Y-4.0048
G01 X5.1589 Y-3.8808
G01 X5.0204 Y-3.8808
G01 X5.0204 Y-4.0048
G00 Z0.5000
G00 X4.2232 Y-4.3492
G01 F90.00
G01 Z-0.0800
G01 F240.00
G01 X4.8670 Y-4.4939
G01 X5.0016 Y-4.5225
G01 X5.0097 Y-4.5246
G01 X5.0215 Y-4.5293
G01 X5.0270 Y-4.5323
G01 X5.0341 Y-4.5369
G01 X5.0391 Y-4.5408
G01 X5.0453 Y-4.5466
G01 X5.0534 Y-4.5562
G01 X5.0601 Y-4.5670
G01 X5.0636 Y-4.5747
G01 X5.0657 Y-4.5806
G01 X5.0679 Y-4.5888
G01 X5.0690 Y-4.5950
G01 X5.0698 Y-4.6076
G01 X5.0693 Y-4.6161
G01 X5.0684 Y-4.6223
G01 X5.0652 Y-4.6346
G01 X5.0602 Y-4.6462
G01 X5.0560 Y-4.6535
G01 X5.0523 Y-4.6587
G01 X5.0469 Y-4.6652
G01 X5.0424 Y-4.6696
G01 X5.0326 Y-4.6776
G01 X5.0217 Y-4.6840
G01 X5.0099 Y-4.6887
G01 X5.0018 Y-4.6909
G01 X4.8081 Y-4.7325
G01 X4.2232 Y-4.8853
G01 X4.2232 Y-5.0611
G01 X4.8083 Y-5.2177
G01 X4.9250 Y-5.2426
G01 X4.9997 Y-5.2568
G01 X5.0100 Y-5.2594
G01 X5.0178 Y-5.2623
G01 X5.0236 Y-5.2650
G01 X5.0343 Y-5.2717
G01 X5.0439 Y-5.2799
G01 X5.0497 Y-5.2860
G01 X5.0535 Y-5.2910
G01 X5.0581 Y-5.2981
G01 X5.0611 Y-5.3037
G01 X5.0658 Y-5.3154
G01 X5.0687 Y-5.3277
G01 X5.0695 Y-5.3340
G01 X5.0698 Y-5.3424
G01 X5.0687 Y-5.3550
G01 X5.0670 Y-5.3632
G01 X5.0651 Y-5.3693
G01 X5.0620 Y-5.3771
G01 X5.0592 Y-5.3828
G01 X5.0523 Y-5.3934
G01 X5.0440 Y-5.4028
G01 X5.0377 Y-5.4084
G01 X5.0326 Y-5.4122
G01 X5.0217 Y-5.4186
G01 X5.0159 Y-5.4212
G01 X5.0080 Y-5.4240
G01 X4.2232 Y-5.5933
G01 X4.2232 Y-5.6830
G01 X5.1589 Y-5.4408
G01 X5.1589 Y-5.2693
G01 X4.5507 Y-5.1084
G01 X4.3226 Y-5.0554
G01 X4.3145 Y-5.0531
G01 X4.3066 Y-5.0499
G01 X4.3009 Y-5.0471
G01 X4.2902 Y-5.0402
G01 X4.2807 Y-5.0319
G01 X4.2751 Y-5.0256
G01 X4.2713 Y-5.0205
G01 X4.2648 Y-5.0095
G01 X4.2601 Y-4.9978
G01 X4.2584 Y-4.9917
G01 X4.2568 Y-4.9833
G01 X4.2560 Y-4.9707
G01 X4.2571 Y-4.9580
G01 X4.2588 Y-4.9497
G01 X4.2606 Y-4.9437
G01 X4.2656 Y-4.9320
G01 X4.2687 Y-4.9265
G01 X4.2735 Y-4.9195
G01 X4.2819 Y-4.9100
G01 X4.2866 Y-4.9057
G01 X4.2933 Y-4.9006
G01 X4.3043 Y-4.8942
G01 X4.3161 Y-4.8894
G01 X4.3242 Y-4.8873
G01 X4.5495 Y-4.8395
G01 X5.1589 Y-4.6805
G01 X5.1589 Y-4.5092
G01 X4.2232 Y-4.2634
G01 X4.2232 Y-4.3492
G00 Z0.5000
G00 X4.1999 Y-6.3682
G01 F90.00
G01 Z-0.0800
G01 F240.00
G01 X4.2058 Y-6.4709
G01 X4.2215 Y-6.5523
G01 X4.2443 Y-6.6152
G01 X4.2723 Y-6.6630
G01 X4.3082 Y-6.7022
G01 X4.3470 Y-6.7280
G01 X4.3929 Y-6.7441
G01 X4.4519 Y-6.7503
G01 X4.4987 Y-6.7463
G01 X4.5359 Y-6.7359
G01 X4.5643 Y-6.7210
G01 X4.6067 Y-6.6827
G01 X4.6442 Y-6.6243
G01 X4.6772 Y-6.5325
G01 X4.7281 Y-6.3142
G01 X4.7559 Y-6.2112
G01 X4.7580 Y-6.2050
G01 X4.7613 Y-6.1975
G01 X4.7878 Y-6.1443
G01 X4.7920 Y-6.1369
G01 X4.7968 Y-6.1299
G01 X4.8009 Y-6.1250
G01 X4.8275 Y-6.0969
G01 X4.8340 Y-6.0910
G01 X4.8392 Y-6.0870
G01 X4.8466 Y-6.0824
G01 X4.8782 Y-6.0658
G01 X4.8896 Y-6.0612
G01 X4.8975 Y-6.0590
G01 X4.9036 Y-6.0579
G01 X4.9434 Y-6.0521
G01 X4.9521 Y-6.0519
G01 X4.9630 Y-6.0529
G01 X5.0080 Y-6.0601
G01 X5.0161 Y-6.0622
G01 X5.0240 Y-6.0650
G01 X5.0316 Y-6.0687
G01 X5.0669 Y-6.0889
G01 X5.0757 Y-6.0951
G01 X5.0837 Y-6.1022
G01 X5.0894 Y-6.1087
G01 X5.1154 Y-6.1412
G01 X5.1202 Y-6.1482
G01 X5.1243 Y-6.1557
G01 X5.1284 Y-6.1656
G01 X5.1509 Y-6.2319
G01 X5.1530 Y-6.2401
G01 X5.1543 Y-6.2485
G01 X5.1637 Y-6.3626
G01 X5.1639 Y-6.3718
G01 X5.1588 Y-6.4663
G01 X5.1576 Y-6.4745
G01 X5.1455 Y-6.5352
G01 X5.1439 Y-6.5410
G01 X5.1412 Y-6.5487
G01 X5.1235 Y-6.5896
G01 X5.1186 Y-6.5987
G01 X5.1127 Y-6.6071
G01 X5.0845 Y-6.6408
G01 X5.0770 Y-6.6484
G01 X5.0686 Y-6.6550
G01 X5.0294 Y-6.6817
G01 X5.0408 Y-6.7577
G01 X5.0549 Y-6.7495
G01 X5.0918 Y-6.7163
G01 X5.1215 Y-6.6760
G01 X5.1516 Y-6.6081
G01 X5.1735 Y-6.5091
G01 X5.1822 Y-6.3693
G01 X5.1761 Y-6.2619
G01 X5.1598 Y-6.1760
G01 X5.1357 Y-6.1082
G01 X5.1058 Y-6.0554
G01 X5.0675 Y-6.0117
G01 X5.0270 Y-5.9836
G01 X4.9806 Y-5.9665
G01 X4.9229 Y-5.9602
G01 X4.8539 Y-5.9677
G01 X4.8090 Y-5.9856
G01 X4.7710 Y-6.0146
G01 X4.7383 Y-6.0548
G01 X4.7106 Y-6.1084
G01 X4.6813 Y-6.1933
G01 X4.6273 Y-6.4202
G01 X4.6036 Y-6.5083
G01 X4.6001 Y-6.5186
G01 X4.5727 Y-6.5736
G01 X4.5682 Y-6.5811
G01 X4.5644 Y-6.5864
G01 X4.5555 Y-6.5960
G01 X4.5189 Y-6.6284
G01 X4.5103 Y-6.6349
G01 X4.5028 Y-6.6392
G01 X4.4929 Y-6.6435
G01 X4.4825 Y-6.6466
G01 X4.4371 Y-6.6568
G01 X4.4285 Y-6.6581
G01 X4.4220 Y-6.6585
G01 X4.4090 Y-6.6578
G01 X4.3643 Y-6.6507
G01 X4.3519 Y-6.6472
G01 X4.3402 Y-6.6418
G01 X4.3078 Y-6.6228
G01 X4.3025 Y-6.6193
G01 X4.2960 Y-6.6140
G01 X4.2914 Y-6.6096
G01 X4.2858 Y-6.6033
G01 X4.2618 Y-6.5715
G01 X4.2553 Y-6.5610
G01 X4.2510 Y-6.5515
G01 X4.2297 Y-6.4851
G01 X4.2282 Y-6.4786
G01 X4.2271 Y-6.4698
G01 X4.2192 Y-6.3681
G01 X4.2240 Y-6.2925
G01 X4.2246 Y-6.2861
G01 X4.2262 Y-6.2778
G01 X4.2382 Y-6.2286
G01 X4.2415 Y-6.2180
G01 X4.2451 Y-6.2099
G01 X4.2624 Y-6.1758
G01 X4.2680 Y-6.1664
G01 X4.2719 Y-6.1611
G01 X4.2763 Y-6.1561
G01 X4.3020 Y-6.1285
G01 X4.3083 Y-6.1224
G01 X4.3188 Y-6.1146
G01 X4.3492 Y-6.0963
G01 X4.3412 Y-6.0198
G01 X4.3336 Y-6.0238
G01 X4.2964 Y-6.0550
G01 X4.2644 Y-6.0955
G01 X4.2312 Y-6.1631
G01 X4.2086 Y-6.2514
G01 X4.1999 Y-6.3682
G00 Z0.5000
G00 X4.2307 Y-8.1862
G01 F90.00
G01 Z-0.0800
G01 F240.00
G01 X4.2278 Y-8.1610
G01 X4.2274 Y-8.1544
G01 X4.2276 Y-8.1478
G01 X4.2374 Y-8.0753
G01 X4.2395 Y-8.0649
G01 X4.2414 Y-8.0588
G01 X4.2446 Y-8.0510
G01 X4.2725 Y-7.9944
G01 X4.2778 Y-7.9855
G01 X4.2856 Y-7.9759
G01 X4.3322 Y-7.9299
G01 X4.3420 Y-7.9216
G01 X4.3530 Y-7.9148
G01 X4.4189 Y-7.8807
G01 X4.4281 Y-7.8766
G01 X4.4358 Y-7.8741
G01 X4.5351 Y-7.8495
G01 X4.5478 Y-7.8477
G01 X4.6863 Y-7.8385
G01 X4.6932 Y-7.8387
G01 X4.8375 Y-7.8485
G01 X4.8459 Y-7.8501
G01 X4.9438 Y-7.8740
G01 X4.9515 Y-7.8763
G01 X4.9626 Y-7.8810
G01 X5.0321 Y-7.9166
G01 X5.0411 Y-7.9222
G01 X5.0494 Y-7.9290
G01 X5.0958 Y-7.9739
G01 X5.1027 Y-7.9816
G01 X5.1076 Y-7.9882
G01 X5.1119 Y-7.9954
G01 X5.1403 Y-8.0523
G01 X5.1443 Y-8.0623
G01 X5.1469 Y-8.0727
G01 X5.1572 Y-8.1453
G01 X5.1578 Y-8.1541
G01 X5.1576 Y-8.1607
G01 X5.1551 Y-8.1834
G01 X5.1639 Y-8.1644
G01 X5.1772 Y-8.1120
G01 X5.1820 Y-8.0506
G01 X5.1738 Y-7.9699
G01 X5.1519 Y-7.9062
G01 X5.1170 Y-7.8528
G01 X5.0653 Y-7.8050
G01 X5.0028 Y-7.7680
G01 X4.9218 Y-7.7383
G01 X4.8182 Y-7.7181
G01 X4.6874 Y-7.7106
G01 X4.5578 Y-7.7179
G01 X4.4552 Y-7.7373
G01 X4.3752 Y-7.7658
G01 X4.3139 Y-7.8011
G01 X4.2630 Y-7.8468
G01 X4.2291 Y-7.8972
G01 X4.2080 Y-7.9567
G01 X4.2002 Y-8.0318
G01 X4.2077 Y-8.1160
G01 X4.2275 Y-8.1807
G01 X4.2307 Y-8.1862
G00 Z0.5000
G00 X4.9892 Y-8.4166
G01 F90.00
G01 Z-0.0800
G01 F240.00
G01 X4.9399 Y-8.4395
G01 X4.9306 Y-8.4429
G01 X4.8324 Y-8.4661
G01 X4.8204 Y-8.4678
G01 X4.7014 Y-8.4757
G01 X4.6946 Y-8.4759
G01 X4.5704 Y-8.4678
G01 X4.5586 Y-8.4662
G01 X4.4589 Y-8.4430
G01 X4.4484 Y-8.4391
G01 X4.3993 Y-8.4167
G01 X4.3955 Y-8.4264
G01 X4.3904 Y-8.4356
G01 X4.3843 Y-8.4441
G01 X4.3787 Y-8.4504
G01 X4.3709 Y-8.4574
G01 X4.3640 Y-8.4623
G01 X4.3549 Y-8.4674
G01 X4.3471 Y-8.4706
G01 X4.3350 Y-8.4741
G01 X4.3225 Y-8.4757
G01 X4.2232 Y-8.4791
G01 X4.2232 Y-8.5929
G01 X4.3918 Y-8.5875
G01 X5.5927 Y-8.5875
G01 X5.5927 Y-8.4718
G01 X5.2583 Y-8.4718
G01 X5.0746 Y-8.4779
G01 X5.0640 Y-8.4776
G01 X5.0514 Y-8.4756
G01 X5.0393 Y-8.4717
G01 X5.0279 Y-8.4660
G01 X5.0174 Y-8.4587
G01 X5.0082 Y-8.4500
G01 X5.0003 Y-8.4400
G01 X4.9940 Y-8.4289
G01 X4.9914 Y-8.4230
G01 X4.9892 Y-8.4166
G00 Z0.5000
G00 X3.8129 Y-9.7540
G01 F90.00
G01 Z-0.0800
G01 F240.00
G01 X5.1589 Y-9.7540
G01 X5.1589 Y-9.6383
G01 X4.8271 Y-9.6382
G01 X4.8187 Y-9.6376
G01 X4.8103 Y-9.6361
G01 X4.8021 Y-9.6339
G01 X4.7961 Y-9.6316
G01 X4.7866 Y-9.6269
G01 X4.7777 Y-9.6211
G01 X4.7696 Y-9.6142
G01 X4.7624 Y-9.6064
G01 X4.6725 Y-9.4773
G01 X4.6661 Y-9.4664
G01 X4.6613 Y-9.4547
G01 X4.6583 Y-9.4424
G01 X4.6574 Y-9.4340
G01 X4.6572 Y-9.4276
G01 X4.6576 Y-9.4192
G01 X4.6594 Y-9.4088
G01 X4.6624 Y-9.3987
G01 X4.6666 Y-9.3890
G01 X4.6720 Y-9.3799
G01 X4.6785 Y-9.3716
G01 X4.6859 Y-9.3641
G01 X4.6942 Y-9.3575
G01 X5.1589 Y-9.0830
G01 X5.1589 Y-8.9722
G01 X4.6128 Y-9.3109
G01 X4.6054 Y-9.3148
G01 X4.5957 Y-9.3186
G01 X4.5855 Y-9.3212
G01 X4.5752 Y-9.3225
G01 X4.5668 Y-9.3227
G01 X4.5585 Y-9.3221
G01 X4.5523 Y-9.3210
G01 X4.5441 Y-9.3190
G01 X4.5363 Y-9.3162
G01 X4.5287 Y-9.3126
G01 X4.5215 Y-9.3083
G01 X4.5148 Y-9.3033
G01 X4.2232 Y-9.0407
G01 X4.2232 Y-9.1172
G01 X4.6520 Y-9.4870
G01 X4.6581 Y-9.4928
G01 X4.6623 Y-9.4975
G01 X4.6674 Y-9.5043
G01 X4.6707 Y-9.5097
G01 X4.6761 Y-9.5212
G01 X4.6798 Y-9.5333
G01 X4.6817 Y-9.5458
G01 X4.6817 Y-9.5585
G01 X4.6798 Y-9.5710
G01 X4.6761 Y-9.5831
G01 X4.6707 Y-9.5946
G01 X4.6650 Y-9.6034
G01 X4.6582 Y-9.6115
G01 X4.6504 Y-9.6187
G01 X4.6419 Y-9.6249
G01 X4.6326 Y-9.6300
G01 X4.6228 Y-9.6339
G01 X4.6105 Y-9.6370
G01 X4.6000 Y-9.6382
G01 X3.8129 Y-9.6383
G01 X3.8129 Y-9.7540
G00 Z0.5000
G00 X4.2341 Y-10.5346
G01 F90.00
G01 Z-0.0800
G01 F240.00
G01 X4.2359 Y-10.5239
G01 X4.2391 Y-10.5136
G01 X4.2581 Y-10.4638
G01 X4.2619 Y-10.4560
G01 X4.2665 Y-10.4487
G01 X4.2972 Y-10.4073
G01 X4.3057 Y-10.3979
G01 X4.3121 Y-10.3924
G01 X4.3523 Y-10.3609
G01 X4.3593 Y-10.3560
G01 X4.3648 Y-10.3527
G01 X4.4346 Y-10.3217
G01 X4.4428 Y-10.3185
G01 X4.4513 Y-10.3163
G01 X4.5424 Y-10.2967
G01 X4.5554 Y-10.2949
G01 X4.6840 Y-10.2873
G01 X4.6926 Y-10.2875
G01 X4.8310 Y-10.2966
G01 X4.8373 Y-10.2972
G01 X4.8456 Y-10.2988
G01 X4.9438 Y-10.3226
G01 X4.9544 Y-10.3259
G01 X4.9625 Y-10.3295
G01 X5.0302 Y-10.3638
G01 X5.0376 Y-10.3681
G01 X5.0428 Y-10.3717
G01 X5.0509 Y-10.3786
G01 X5.0957 Y-10.4217
G01 X5.1040 Y-10.4310
G01 X5.1087 Y-10.4378
G01 X5.1119 Y-10.4432
G01 X5.1412 Y-10.5016
G01 X5.1449 Y-10.5117
G01 X5.1473 Y-10.5222
G01 X5.1572 Y-10.5920
G01 X5.1578 Y-10.6008
G01 X5.1576 Y-10.6074
G01 X5.1548 Y-10.6326
G01 X5.1638 Y-10.6137
G01 X5.1772 Y-10.5614
G01 X5.1820 Y-10.4994
G01 X5.1737 Y-10.4177
G01 X5.1515 Y-10.3537
G01 X5.1164 Y-10.3005
G01 X5.0644 Y-10.2531
G01 X5.0011 Y-10.2163
G01 X4.9197 Y-10.1868
G01 X4.8164 Y-10.1668
G01 X4.6869 Y-10.1594
G01 X4.5578 Y-10.1665
G01 X4.4553 Y-10.1857
G01 X4.3753 Y-10.2138
G01 X4.3138 Y-10.2486
G01 X4.2632 Y-10.2936
G01 X4.2294 Y-10.3437
G01 X4.2082 Y-10.4038
G01 X4.2002 Y-10.4804
G01 X4.2079 Y-10.5635
G01 X4.2282 Y-10.6276
G01 X4.2304 Y-10.6312
G01 X4.2278 Y-10.6074
G01 X4.2275 Y-10.5968
G01 X4.2341 Y-10.5346
G00 Z0.5000
G00 X4.9887 Y-10.8660
G01 F90.00
G01 Z-0.0800
G01 F240.00
G01 X4.9379 Y-10.8891
G01 X4.9289 Y-10.8924
G01 X4.8310 Y-10.9151
G01 X4.8193 Y-10.9167
G01 X4.6996 Y-10.9246
G01 X4.6906 Y-10.9245
G01 X4.5676 Y-10.9165
G01 X4.5577 Y-10.9153
G01 X4.4555 Y-10.8916
G01 X4.4463 Y-10.8882
G01 X4.4069 Y-10.8701
G01 X4.4017 Y-10.8810
G01 X4.3947 Y-10.8915
G01 X4.3877 Y-10.8994
G01 X4.3782 Y-10.9077
G01 X4.3675 Y-10.9145
G01 X4.3559 Y-10.9196
G01 X4.3458 Y-10.9225
G01 X4.3333 Y-10.9244
G01 X4.3248 Y-10.9246
G01 X4.1468 Y-10.9205
G01 X3.8129 Y-10.9205
G01 X3.8129 Y-11.0363
G01 X4.9923 Y-11.0363
G01 X5.1589 Y-11.0417
G01 X5.1589 Y-10.9270
G01 X5.0633 Y-10.9223
G01 X5.0529 Y-10.9209
G01 X5.0407 Y-10.9175
G01 X5.0328 Y-10.9143
G01 X5.0236 Y-10.9092
G01 X5.0167 Y-10.9044
G01 X5.0087 Y-10.8974
G01 X5.0017 Y-10.8895
G01 X4.9969 Y-10.8825
G01 X4.9927 Y-10.8752
G01 X4.9887 Y-10.8660
G00 Z0.5000
G00 X3.9653 Y-12.2196
G01 F90.00
G01 Z-0.0800
G01 F240.00
G01 X4.1675 Y-12.2903
G01 X4.1791 Y-12.2957
G01 X4.1897 Y-12.3027
G01 X4.1992 Y-12.3112
G01 X4.2048 Y-12.3176
G01 X4.2085 Y-12.3228
G01 X4.2119 Y-12.3282
G01 X4.2157 Y-12.3358
G01 X4.2181 Y-12.3417
G01 X4.2206 Y-12.3498
G01 X4.2223 Y-12.3582
G01 X4.2232 Y-12.3688
G01 X4.2232 Y-12.4395
G01 X4.2457 Y-12.4395
G01 X4.2457 Y-12.3853
G01 X4.2462 Y-12.3768
G01 X4.2474 Y-12.3685
G01 X4.2494 Y-12.3603
G01 X4.2523 Y-12.3523
G01 X4.2549 Y-12.3465
G01 X4.2602 Y-12.3374
G01 X4.2653 Y-12.3306
G01 X4.2725 Y-12.3229
G01 X4.2789 Y-12.3174
G01 X4.2876 Y-12.3114
G01 X4.2969 Y-12.3065
G01 X4.3068 Y-12.3029
G01 X4.3150 Y-12.3008
G01 X4.3234 Y-12.2996
G01 X4.3318 Y-12.2992
G01 X4.9803 Y-12.2992
G01 X5.0568 Y-12.2918
G01 X5.1030 Y-12.2758
G01 X5.1324 Y-12.2546
G01 X5.1541 Y-12.2254
G01 X5.1696 Y-12.1833
G01 X5.1762 Y-12.1195
G01 X5.1680 Y-12.0018
G01 X5.1593 Y-11.9641
G01 X5.1493 Y-11.9641
G01 X5.1499 Y-11.9739
G01 X5.1496 Y-11.9821
G01 X5.1444 Y-12.0274
G01 X5.1424 Y-12.0374
G01 X5.1392 Y-12.0470
G01 X5.1246 Y-12.0818
G01 X5.1207 Y-12.0896
G01 X5.1159 Y-12.0969
G01 X5.1105 Y-12.1037
G01 X5.0885 Y-12.1284
G01 X5.0824 Y-12.1343
G01 X5.0742 Y-12.1407
G01 X5.0651 Y-12.1461
G01 X5.0163 Y-12.1699
G01 X5.0067 Y-12.1736
G01 X4.9987 Y-12.1757
G01 X4.9905 Y-12.1771
G01 X4.9165 Y-12.1858
G01 X4.9084 Y-12.1864
G01 X4.3297 Y-12.1864
G01 X4.3171 Y-12.1852
G01 X4.3068 Y-12.1827
G01 X4.2969 Y-12.1790
G01 X4.2858 Y-12.1731
G01 X4.2772 Y-12.1669
G01 X4.2680 Y-12.1581
G01 X4.2614 Y-12.1499
G01 X4.2549 Y-12.1390
G01 X4.2515 Y-12.1313
G01 X4.2489 Y-12.1233
G01 X4.2470 Y-12.1150
G01 X4.2458 Y-12.1045
G01 X4.2457 Y-11.9764
G01 X4.2232 Y-11.9764
G01 X4.2232 Y-12.1003
G01 X4.2223 Y-12.1130
G01 X4.2206 Y-12.1212
G01 X4.2189 Y-12.1273
G01 X4.2158 Y-12.1352
G01 X4.2130 Y-12.1409
G01 X4.2099 Y-12.1464
G01 X4.2050 Y-12.1533
G01 X4.1965 Y-12.1627
G01 X4.1917 Y-12.1669
G01 X4.1849 Y-12.1719
G01 X4.1739 Y-12.1782
G01 X4.1681 Y-12.1806
G01 X4.1601 Y-12.1833
G01 X4.1539 Y-12.1848
G01 X4.1456 Y-12.1860
G01 X4.1371 Y-12.1864
G01 X3.9653 Y-12.1864
G01 X3.9653 Y-12.2196
G00 Z0.5000
G00 X4.6521 Y-12.9468
G01 F90.00
G01 Z-0.0800
G01 F240.00
G01 X4.6569 Y-12.9370
G01 X4.6640 Y-12.9266
G01 X4.6725 Y-12.9173
G01 X4.6823 Y-12.9094
G01 X4.6912 Y-12.9039
G01 X4.7027 Y-12.8988
G01 X4.7149 Y-12.8955
G01 X4.7273 Y-12.8940
G01 X4.7940 Y-12.8940
G01 X4.8737 Y-12.9029
G01 X4.8823 Y-12.9048
G01 X4.8885 Y-12.9067
G01 X4.9561 Y-12.9305
G01 X4.9647 Y-12.9341
G01 X4.9661 Y-12.9254
G01 X4.9690 Y-12.9153
G01 X4.9722 Y-12.9075
G01 X4.9772 Y-12.8984
G01 X4.9833 Y-12.8898
G01 X4.9904 Y-12.8821
G01 X4.9967 Y-12.8766
G01 X5.0053 Y-12.8706
G01 X5.0164 Y-12.8649
G01 X5.0283 Y-12.8608
G01 X5.0927 Y-12.8486
G01 X5.1258 Y-12.8350
G01 X5.1455 Y-12.8205
G01 X5.1582 Y-12.8033
G01 X5.1687 Y-12.7734
G01 X5.1739 Y-12.7192
G01 X5.1722 Y-12.6747
G01 X5.1679 Y-12.6379
G01 X5.1660 Y-12.6287
G01 X5.1573 Y-12.6681
G01 X5.1546 Y-12.6759
G01 X5.1501 Y-12.6853
G01 X5.1458 Y-12.6924
G01 X5.1394 Y-12.7006
G01 X5.1090 Y-12.7323
G01 X5.1044 Y-12.7365
G01 X5.0979 Y-12.7415
G01 X5.0909 Y-12.7459
G01 X5.0836 Y-12.7496
G01 X5.0759 Y-12.7526
G01 X5.0265 Y-12.7690
G01 X5.0181 Y-12.7707
G01 X5.0117 Y-12.7714
G01 X4.9214 Y-12.7781
G01 X4.5169 Y-12.7781
G01 X4.4338 Y-12.7850
G01 X4.3717 Y-12.8025
G01 X4.3224 Y-12.8287
G01 X4.2815 Y-12.8644
G01 X4.2490 Y-12.9087
G01 X4.2237 Y-12.9649
G01 X4.2065 Y-13.0372
G01 X4.1999 Y-13.1301
G01 X4.2053 Y-13.2244
G01 X4.2198 Y-13.3006
G01 X4.2413 Y-13.3610
G01 X4.2681 Y-13.4085
G01 X4.3028 Y-13.4490
G01 X4.3437 Y-13.4803
G01 X4.3620 Y-13.4891
G01 X4.3675 Y-13.3733
G01 X4.3572 Y-13.3708
G01 X4.3512 Y-13.3688
G01 X4.3434 Y-13.3655
G01 X4.3378 Y-13.3625
G01 X4.2863 Y-13.3291
G01 X4.2798 Y-13.3240
G01 X4.2724 Y-13.3167
G01 X4.2671 Y-13.3102
G01 X4.2469 Y-13.2813
G01 X4.2405 Y-13.2706
G01 X4.2357 Y-13.2591
G01 X4.2225 Y-13.2190
G01 X4.2204 Y-13.2105
G01 X4.2191 Y-13.2018
G01 X4.2144 Y-13.1497
G01 X4.2140 Y-13.1416
G01 X4.2147 Y-13.1316
G01 X4.2216 Y-13.0747
G01 X4.2238 Y-13.0641
G01 X4.2274 Y-13.0539
G01 X4.2462 Y-13.0118
G01 X4.2502 Y-13.0040
G01 X4.2549 Y-12.9967
G01 X4.2603 Y-12.9900
G01 X4.2919 Y-12.9576
G01 X4.3012 Y-12.9493
G01 X4.3099 Y-12.9435
G01 X4.3527 Y-12.9211
G01 X4.3618 Y-12.9173
G01 X4.3698 Y-12.9149
G01 X4.4224 Y-12.9015
G01 X4.4310 Y-12.8998
G01 X4.5138 Y-12.8939
G01 X4.5748 Y-12.8939
G01 X4.5832 Y-12.8945
G01 X4.5895 Y-12.8955
G01 X4.5998 Y-12.8982
G01 X4.6096 Y-12.9022
G01 X4.6189 Y-12.9073
G01 X4.6275 Y-12.9136
G01 X4.6352 Y-12.9208
G01 X4.6420 Y-12.9290
G01 X4.6478 Y-12.9379
G01 X4.6521 Y-12.9468
G00 Z0.5000
G00 X5.1455 Y-13.1600
G01 F90.00
G01 Z-0.0800
G01 F240.00
G01 X5.1531 Y-13.2127
G01 X5.1537 Y-13.2212
G01 X5.1534 Y-13.2298
G01 X5.1523 Y-13.2382
G01 X5.1414 Y-13.2977
G01 X5.1375 Y-13.3100
G01 X5.1319 Y-13.3216
G01 X5.0972 Y-13.3720
G01 X5.0902 Y-13.3800
G01 X5.0807 Y-13.3884
G01 X5.0473 Y-13.4112
G01 X5.0377 Y-13.4166
G01 X5.0275 Y-13.4206
G01 X4.9891 Y-13.4332
G01 X4.9807 Y-13.4355
G01 X4.9700 Y-13.4371
G01 X4.9182 Y-13.4418
G01 X4.9099 Y-13.4421
G01 X4.9015 Y-13.4417
G01 X4.8413 Y-13.4354
G01 X4.8330 Y-13.4339
G01 X4.8230 Y-13.4310
G01 X4.7800 Y-13.4143
G01 X4.7702 Y-13.4098
G01 X4.7647 Y-13.4066
G01 X4.7577 Y-13.4016
G01 X4.7238 Y-13.3734
G01 X4.7160 Y-13.3661
G01 X4.7092 Y-13.3578
G01 X4.6826 Y-13.3152
G01 X4.6786 Y-13.3080
G01 X4.6739 Y-13.2965
G01 X4.6667 Y-13.2703
G01 X4.6698 Y-13.3147
G01 X4.6860 Y-13.3897
G01 X4.7088 Y-13.4466
G01 X4.7364 Y-13.4892
G01 X4.7712 Y-13.5233
G01 X4.8123 Y-13.5475
G01 X4.8646 Y-13.5636
G01 X4.9333 Y-13.5699
G01 X4.9975 Y-13.5648
G01 X5.0475 Y-13.5514
G01 X5.0866 Y-13.5317
G01 X5.1185 Y-13.5056
G01 X5.1442 Y-13.4728
G01 X5.1638 Y-13.4324
G01 X5.1770 Y-13.3810
G01 X5.1820 Y-13.3158
G01 X5.1746 Y-13.2381
G01 X5.1543 Y-13.1748
G01 X5.1455 Y-13.1600
G00 Z0.5000
G00 X4.2341 Y-14.2657
G01 F90.00
G01 Z-0.0800
G01 F240.00
G01 X4.2359 Y-14.2550
G01 X4.2391 Y-14.2446
G01 X4.2581 Y-14.1948
G01 X4.2619 Y-14.1871
G01 X4.2665 Y-14.1798
G01 X4.2972 Y-14.1383
G01 X4.3057 Y-14.1290
G01 X4.3121 Y-14.1234
G01 X4.3523 Y-14.0919
G01 X4.3593 Y-14.0870
G01 X4.3648 Y-14.0838
G01 X4.4346 Y-14.0527
G01 X4.4428 Y-14.0496
G01 X4.4513 Y-14.0473
G01 X4.5424 Y-14.0277
G01 X4.5554 Y-14.0260
G01 X4.6840 Y-14.0184
G01 X4.6926 Y-14.0185
G01 X4.8310 Y-14.0276
G01 X4.8373 Y-14.0283
G01 X4.8456 Y-14.0299
G01 X4.9438 Y-14.0536
G01 X4.9544 Y-14.0569
G01 X4.9625 Y-14.0606
G01 X5.0302 Y-14.0949
G01 X5.0376 Y-14.0991
G01 X5.0428 Y-14.1028
G01 X5.0509 Y-14.1097
G01 X5.0957 Y-14.1528
G01 X5.1040 Y-14.1621
G01 X5.1087 Y-14.1689
G01 X5.1119 Y-14.1742
G01 X5.1412 Y-14.2327
G01 X5.1449 Y-14.2428
G01 X5.1473 Y-14.2533
G01 X5.1572 Y-14.3230
G01 X5.1578 Y-14.3318
G01 X5.1576 Y-14.3384
G01 X5.1548 Y-14.3637
G01 X5.1638 Y-14.3447
G01 X5.1772 Y-14.2924
G01 X5.1820 Y-14.2305
G01 X5.1737 Y-14.1487
G01 X5.1515 Y-14.0848
G01 X5.1164 Y-14.0316
G01 X5.0644 Y-13.9842
G01 X5.0011 Y-13.9473
G01 X4.9197 Y-13.9178
G01 X4.8164 Y-13.8979
G01 X4.6869 Y-13.8904
G01 X4.5578 Y-13.8976
G01 X4.4553 Y-13.9167
G01 X4.3753 Y-13.9449
G01 X4.3138 Y-13.9797
G01 X4.2632 Y-14.0246
G01 X4.2294 Y-14.0747
G01 X4.2082 Y-14.1348
G01 X4.2002 Y-14.2114
G01 X4.2079 Y-14.2946
G01 X4.2282 Y-14.3586
G01 X4.2304 Y-14.3622
G01 X4.2278 Y-14.3385
G01 X4.2275 Y-14.3278
G01 X4.2341 Y-14.2657
G00 Z0.5000
G00 X4.9887 Y-14.5970
G01 F90.00
G01 Z-0.0800
G01 F240.00
G01 X4.9379 Y-14.6202
G01 X4.9289 Y-14.6235
G01 X4.8310 Y-14.6462
G01 X4.8193 Y-14.6478
G01 X4.6996 Y-14.6556
G01 X4.6906 Y-14.6555
G01 X4.5676 Y-14.6475
G01 X4.5577 Y-14.6463
G01 X4.4555 Y-14.6227
G01 X4.4463 Y-14.6193
G01 X4.4069 Y-14.6011
G01 X4.4017 Y-14.6120
G01 X4.3947 Y-14.6225
G01 X4.3862 Y-14.6319
G01 X4.3781 Y-14.6387
G01 X4.3675 Y-14.6455
G01 X4.3559 Y-14.6506
G01 X4.3458 Y-14.6536
G01 X4.3333 Y-14.6555
G01 X4.3248 Y-14.6557
G01 X4.1468 Y-14.6516
G01 X3.8129 Y-14.6516
G01 X3.8129 Y-14.7674
G01 X4.9923 Y-14.7674
G01 X5.1589 Y-14.7727
G01 X5.1589 Y-14.6580
G01 X5.0633 Y-14.6534
G01 X5.0529 Y-14.6520
G01 X5.0407 Y-14.6486
G01 X5.0309 Y-14.6444
G01 X5.0236 Y-14.6403
G01 X5.0167 Y-14.6354
G01 X5.0087 Y-14.6284
G01 X5.0031 Y-14.6222
G01 X4.9969 Y-14.6136
G01 X4.9927 Y-14.6062
G01 X4.9887 Y-14.5970
G00 Z0.5000
G00 X1.6800 Y-14.3866
G01 F90.00
G01 Z-0.0800
G01 F240.00
G01 X1.6894 Y-14.4972
G01 X1.7144 Y-14.5850
G01 X1.7529 Y-14.6560
G01 X1.8057 Y-14.7155
G01 X1.8710 Y-14.7628
G01 X1.9517 Y-14.7989
G01 X2.0521 Y-14.8228
G01 X2.1772 Y-14.8317
G01 X2.2989 Y-14.8230
G01 X2.3967 Y-14.7994
G01 X2.4753 Y-14.7637
G01 X2.5392 Y-14.7169
G01 X2.5907 Y-14.6581
G01 X2.6283 Y-14.5878
G01 X2.6529 Y-14.5007
G01 X2.6621 Y-14.3905
G01 X2.6572 Y-14.3144
G01 X2.6433 Y-14.2463
G01 X2.6211 Y-14.1854
G01 X2.5902 Y-14.1298
G01 X2.5534 Y-14.0838
G01 X2.5098 Y-14.0454
G01 X2.4600 Y-14.0148
G01 X2.4384 Y-14.0061
G01 X2.4333 Y-14.1150
G01 X2.4407 Y-14.1174
G01 X2.4463 Y-14.1197
G01 X2.4971 Y-14.1429
G01 X2.5066 Y-14.1480
G01 X2.5154 Y-14.1542
G01 X2.5552 Y-14.1864
G01 X2.5612 Y-14.1920
G01 X2.5678 Y-14.1997
G01 X2.5979 Y-14.2408
G01 X2.6035 Y-14.2495
G01 X2.6079 Y-14.2588
G01 X2.6261 Y-14.3059
G01 X2.6293 Y-14.3163
G01 X2.6310 Y-14.3249
G01 X2.6373 Y-14.3796
G01 X2.6378 Y-14.3884
G01 X2.6376 Y-14.3950
G01 X2.6369 Y-14.4015
G01 X2.6277 Y-14.4662
G01 X2.6249 Y-14.4789
G01 X2.6228 Y-14.4851
G01 X2.6192 Y-14.4930
G01 X2.5918 Y-14.5470
G01 X2.5864 Y-14.5558
G01 X2.5812 Y-14.5624
G01 X2.5755 Y-14.5684
G01 X2.5292 Y-14.6126
G01 X2.5209 Y-14.6192
G01 X2.5100 Y-14.6258
G01 X2.4423 Y-14.6599
G01 X2.4325 Y-14.6641
G01 X2.4236 Y-14.6668
G01 X2.3251 Y-14.6904
G01 X2.3169 Y-14.6920
G01 X2.3106 Y-14.6926
G01 X2.1715 Y-14.7017
G01 X2.1648 Y-14.7019
G01 X2.0192 Y-14.6922
G01 X2.0109 Y-14.6906
G01 X1.9132 Y-14.6669
G01 X1.9048 Y-14.6641
G01 X1.8967 Y-14.6605
G01 X1.8308 Y-14.6271
G01 X1.8199 Y-14.6205
G01 X1.8101 Y-14.6123
G01 X1.7665 Y-14.5704
G01 X1.7608 Y-14.5643
G01 X1.7546 Y-14.5560
G01 X1.7503 Y-14.5489
G01 X1.7235 Y-14.4958
G01 X1.7193 Y-14.4859
G01 X1.7159 Y-14.4734
G01 X1.7062 Y-14.4055
G01 X1.7053 Y-14.3948
G01 X1.7058 Y-14.3841
G01 X1.7121 Y-14.3261
G01 X1.7140 Y-14.3152
G01 X1.7173 Y-14.3046
G01 X1.7347 Y-14.2591
G01 X1.7400 Y-14.2477
G01 X1.7470 Y-14.2372
G01 X1.7748 Y-14.2013
G01 X1.7802 Y-14.1950
G01 X1.7846 Y-14.1907
G01 X1.7909 Y-14.1854
G01 X1.8277 Y-14.1574
G01 X1.8347 Y-14.1527
G01 X1.8441 Y-14.1477
G01 X1.8910 Y-14.1263
G01 X1.8857 Y-14.0190
G01 X1.8533 Y-14.0344
G01 X1.8039 Y-14.0705
G01 X1.7611 Y-14.1164
G01 X1.7272 Y-14.1695
G01 X1.7020 Y-14.2306
G01 X1.6858 Y-14.3023
G01 X1.6800 Y-14.3866
G00 Z0.5000
G00 X1.2929 Y-13.4851
G01 F90.00
G01 Z-0.0800
G01 F240.00
G01 X1.2929 Y-13.6009
G01 X2.6389 Y-13.6009
G01 X2.6389 Y-13.4851
G01 X2.1256 Y-13.4850
G01 X2.0312 Y-13.4770
G01 X2.0208 Y-13.4755
G01 X1.9368 Y-13.4516
G01 X1.9269 Y-13.4478
G01 X1.9146 Y-13.4413
G01 X1.9096 Y-13.4512
G01 X1.9024 Y-13.4615
G01 X1.8937 Y-13.4707
G01 X1.8856 Y-13.4773
G01 X1.8767 Y-13.4829
G01 X1.8652 Y-13.4881
G01 X1.8531 Y-13.4915
G01 X1.8407 Y-13.4932
G01 X1.8323 Y-13.4933
G01 X1.6172 Y-13.4851
G01 X1.2929 Y-13.4851
G00 Z0.5000
G00 X1.7307 Y-13.2178
G01 F90.00
G01 Z-0.0800
G01 F240.00
G01 X1.7245 Y-13.1773
G01 X1.7239 Y-13.1707
G01 X1.7238 Y-13.1641
G01 X1.7245 Y-13.1554
G01 X1.7324 Y-13.0947
G01 X1.7348 Y-13.0841
G01 X1.7376 Y-13.0759
G01 X1.7626 Y-13.0217
G01 X1.7682 Y-13.0124
G01 X1.7749 Y-13.0039
G01 X1.8116 Y-12.9654
G01 X1.8196 Y-12.9580
G01 X1.8303 Y-12.9505
G01 X1.8876 Y-12.9187
G01 X1.8949 Y-12.9155
G01 X1.9038 Y-12.9126
G01 X1.9777 Y-12.8930
G01 X1.9856 Y-12.8913
G01 X1.9936 Y-12.8903
G01 X2.0985 Y-12.8827
G01 X2.6389 Y-12.8826
G01 X2.6389 Y-12.7678
G01 X2.0236 Y-12.7678
G01 X1.9270 Y-12.7741
G01 X1.8549 Y-12.7901
G01 X1.8004 Y-12.8130
G01 X1.7594 Y-12.8413
G01 X1.7263 Y-12.8774
G01 X1.7023 Y-12.9206
G01 X1.6862 Y-12.9755
G01 X1.6801 Y-13.0466
G01 X1.6855 Y-13.1108
G01 X1.7003 Y-13.1640
G01 X1.7235 Y-13.2091
G01 X1.7307 Y-13.2178
G00 Z0.5000
G00 X1.3458 Y-11.9782
G01 F90.00
G01 Z-0.0800
G01 F240.00
G01 X1.3523 Y-12.0725
G01 X1.3698 Y-12.1504
G01 X1.3966 Y-12.2152
G01 X1.4322 Y-12.2698
G01 X1.4772 Y-12.3162
G01 X1.5290 Y-12.3514
G01 X1.5766 Y-12.3712
G01 X1.5846 Y-12.2583
G01 X1.5351 Y-12.2352
G01 X1.5260 Y-12.2299
G01 X1.5175 Y-12.2235
G01 X1.4818 Y-12.1929
G01 X1.4729 Y-12.1841
G01 X1.4665 Y-12.1757
G01 X1.4400 Y-12.1366
G01 X1.4348 Y-12.1279
G01 X1.4300 Y-12.1167
G01 X1.4118 Y-12.0636
G01 X1.4095 Y-12.0518
G01 X1.4034 Y-11.9922
G01 X1.4030 Y-11.9835
G01 X1.4034 Y-11.9748
G01 X1.4097 Y-11.9132
G01 X1.4115 Y-11.9026
G01 X1.4145 Y-11.8924
G01 X1.4326 Y-11.8432
G01 X1.4360 Y-11.8356
G01 X1.4413 Y-11.8265
G01 X1.4709 Y-11.7869
G01 X1.4792 Y-11.7774
G01 X1.4889 Y-11.7691
G01 X1.5273 Y-11.7410
G01 X1.5328 Y-11.7374
G01 X1.5386 Y-11.7343
G01 X1.5467 Y-11.7309
G01 X1.5944 Y-11.7133
G01 X1.6026 Y-11.7110
G01 X1.6131 Y-11.7092
G01 X1.6705 Y-11.7032
G01 X1.6814 Y-11.7027
G01 X1.6901 Y-11.7034
G01 X1.7499 Y-11.7108
G01 X1.7561 Y-11.7118
G01 X1.7643 Y-11.7139
G01 X1.7741 Y-11.7175
G01 X1.8214 Y-11.7384
G01 X1.8326 Y-11.7444
G01 X1.8378 Y-11.7480
G01 X1.8444 Y-11.7533
G01 X1.8822 Y-11.7875
G01 X1.8892 Y-11.7947
G01 X1.8740 Y-11.7411
G01 X1.8438 Y-11.6827
G01 X1.8077 Y-11.6405
G01 X1.7637 Y-11.6098
G01 X1.7111 Y-11.5906
G01 X1.6432 Y-11.5834
G01 X1.5734 Y-11.5901
G01 X1.5174 Y-11.6083
G01 X1.4706 Y-11.6370
G01 X1.4289 Y-11.6788
G01 X1.3959 Y-11.7299
G01 X1.3699 Y-11.7945
G01 X1.3524 Y-11.8761
G01 X1.3458 Y-11.9782
G00 Z0.5000
G00 X1.9353 Y-11.8777
G01 F90.00
G01 Z-0.0800
G01 F240.00
G01 X1.9511 Y-11.9325
G01 X1.9535 Y-11.9431
G01 X1.9609 Y-12.0309
G01 X1.9611 Y-12.0460
G01 X2.0216 Y-12.0460
G01 X2.0218 Y-12.0253
G01 X2.0289 Y-11.9308
G01 X2.0307 Y-11.9210
G01 X2.0448 Y-11.8679
G01 X2.0385 Y-11.8733
G01 X2.0333 Y-11.8770
G01 X2.0261 Y-11.8813
G01 X2.0204 Y-11.8840
G01 X2.0126 Y-11.8870
G01 X2.0066 Y-11.8888
G01 X1.9942 Y-11.8909
G01 X1.9879 Y-11.8913
G01 X1.9774 Y-11.8912
G01 X1.9712 Y-11.8907
G01 X1.9629 Y-11.8892
G01 X1.9568 Y-11.8876
G01 X1.9488 Y-11.8848
G01 X1.9412 Y-11.8812
G01 X1.9353 Y-11.8777
G00 Z0.5000
G00 X2.0750 Y-11.7989
G01 F90.00
G01 Z-0.0800
G01 F240.00
G01 X2.0865 Y-11.7782
G01 X2.0901 Y-11.7731
G01 X2.0954 Y-11.7666
G01 X2.1386 Y-11.7238
G01 X2.1464 Y-11.7172
G01 X2.1550 Y-11.7116
G01 X2.2105 Y-11.6847
G01 X2.2222 Y-11.6804
G01 X2.2344 Y-11.6779
G01 X2.2992 Y-11.6692
G01 X2.3054 Y-11.6689
G01 X2.3136 Y-11.6692
G01 X2.3857 Y-11.6768
G01 X2.3958 Y-11.6788
G01 X2.4055 Y-11.6819
G01 X2.4584 Y-11.7022
G01 X2.4658 Y-11.7057
G01 X2.4712 Y-11.7088
G01 X2.4796 Y-11.7148
G01 X2.5192 Y-11.7468
G01 X2.5256 Y-11.7528
G01 X2.5299 Y-11.7577
G01 X2.5351 Y-11.7647
G01 X2.5626 Y-11.8058
G01 X2.5687 Y-11.8167
G01 X2.5726 Y-11.8263
G01 X2.5901 Y-11.8789
G01 X2.5929 Y-11.8894
G01 X2.5942 Y-11.8980
G01 X2.6005 Y-11.9652
G01 X2.6009 Y-11.9741
G01 X2.6003 Y-11.9830
G01 X2.5903 Y-12.0692
G01 X2.5882 Y-12.0777
G01 X2.5853 Y-12.0859
G01 X2.5605 Y-12.1458
G01 X2.5558 Y-12.1555
G01 X2.5524 Y-12.1610
G01 X2.5473 Y-12.1679
G01 X2.5052 Y-12.2162
G01 X2.4974 Y-12.2237
G01 X2.4888 Y-12.2301
G01 X2.4293 Y-12.2649
G01 X2.4228 Y-12.2684
G01 X2.4170 Y-12.2708
G01 X2.4111 Y-12.2729
G01 X2.4009 Y-12.2756
G01 X2.4116 Y-12.3986
G01 X2.4738 Y-12.3731
G01 X2.5281 Y-12.3365
G01 X2.5737 Y-12.2889
G01 X2.6094 Y-12.2323
G01 X2.6371 Y-12.1629
G01 X2.6554 Y-12.0773
G01 X2.6622 Y-11.9723
G01 X2.6549 Y-11.8601
G01 X2.6356 Y-11.7716
G01 X2.6073 Y-11.7026
G01 X2.5713 Y-11.6488
G01 X2.5257 Y-11.6051
G01 X2.4724 Y-11.5740
G01 X2.4069 Y-11.5539
G01 X2.3251 Y-11.5465
G01 X2.2560 Y-11.5545
G01 X2.2023 Y-11.5758
G01 X2.1562 Y-11.6111
G01 X2.1194 Y-11.6588
G01 X2.0905 Y-11.7246
G01 X2.0750 Y-11.7989
G00 Z0.5000
G00 X1.3458 Y-10.8077
G01 F90.00
G01 Z-0.0800
G01 F240.00
G01 X1.3524 Y-10.9036
G01 X1.3700 Y-10.9808
G01 X1.3966 Y-11.0430
G01 X1.4312 Y-11.0939
G01 X1.4751 Y-11.1364
G01 X1.5291 Y-11.1706
G01 X1.5908 Y-11.1946
G01 X1.5974 Y-11.0772
G01 X1.5885 Y-11.0739
G01 X1.5400 Y-11.0526
G01 X1.5320 Y-11.0486
G01 X1.5228 Y-11.0425
G01 X1.4868 Y-11.0154
G01 X1.4785 Y-11.0082
G01 X1.4740 Y-11.0034
G01 X1.4699 Y-10.9983
G01 X1.4432 Y-10.9629
G01 X1.4375 Y-10.9542
G01 X1.4320 Y-10.9429
G01 X1.4144 Y-10.8950
G01 X1.4118 Y-10.8868
G01 X1.4098 Y-10.8763
G01 X1.4034 Y-10.8146
G01 X1.4030 Y-10.8062
G01 X1.4036 Y-10.7957
G01 X1.4120 Y-10.7238
G01 X1.4140 Y-10.7132
G01 X1.4180 Y-10.7009
G01 X1.4416 Y-10.6480
G01 X1.4453 Y-10.6405
G01 X1.4498 Y-10.6334
G01 X1.4578 Y-10.6237
G01 X1.4962 Y-10.5851
G01 X1.5059 Y-10.5771
G01 X1.5167 Y-10.5706
G01 X1.5751 Y-10.5444
G01 X1.5855 Y-10.5411
G01 X1.5962 Y-10.5391
G01 X1.6675 Y-10.5307
G01 X1.6780 Y-10.5301
G01 X1.6884 Y-10.5308
G01 X1.7378 Y-10.5370
G01 X1.7458 Y-10.5384
G01 X1.7536 Y-10.5405
G01 X1.8092 Y-10.5614
G01 X1.8173 Y-10.5649
G01 X1.8249 Y-10.5692
G01 X1.8826 Y-10.6058
G01 X1.8924 Y-10.6135
G01 X1.9760 Y-10.6896
G01 X1.9814 Y-10.6952
G01 X2.1021 Y-10.8330
G01 X2.2296 Y-10.9793
G01 X2.3398 Y-11.0864
G01 X2.4523 Y-11.1730
G01 X2.5475 Y-11.2259
G01 X2.6389 Y-11.2259
G01 X2.6389 Y-10.3878
G01 X2.5744 Y-10.3878
G01 X2.5744 Y-10.9717
G01 X2.5740 Y-10.9801
G01 X2.5719 Y-10.9926
G01 X2.5679 Y-11.0046
G01 X2.5633 Y-11.0141
G01 X2.5563 Y-11.0246
G01 X2.5478 Y-11.0340
G01 X2.5381 Y-11.0420
G01 X2.5273 Y-11.0485
G01 X2.5156 Y-11.0534
G01 X2.5096 Y-11.0552
G01 X2.5013 Y-11.0569
G01 X2.4950 Y-11.0576
G01 X2.4866 Y-11.0578
G01 X2.4782 Y-11.0572
G01 X2.4719 Y-11.0563
G01 X2.4597 Y-11.0530
G01 X2.4519 Y-11.0498
G01 X2.4463 Y-11.0469
G01 X2.3810 Y-11.0104
G01 X2.3708 Y-11.0033
G01 X2.3077 Y-10.9499
G01 X2.2989 Y-10.9413
G01 X2.1817 Y-10.8089
G01 X2.0633 Y-10.6604
G01 X2.0037 Y-10.5910
G01 X1.9431 Y-10.5314
G01 X1.8791 Y-10.4811
G01 X1.8128 Y-10.4429
G01 X1.7443 Y-10.4190
G01 X1.6647 Y-10.4107
G01 X1.5872 Y-10.4177
G01 X1.5254 Y-10.4364
G01 X1.4751 Y-10.4651
G01 X1.4319 Y-10.5056
G01 X1.3980 Y-10.5553
G01 X1.3711 Y-10.6193
G01 X1.3528 Y-10.7021
G01 X1.3458 Y-10.8077
G00 Z0.5000
G00 X1.7032 Y-9.2989
G01 F90.00
G01 Z-0.0800
G01 F240.00
G01 X2.3701 Y-9.5148
G01 X2.5160 Y-9.5565
G01 X2.5240 Y-9.5592
G01 X2.5355 Y-9.5647
G01 X2.5460 Y-9.5719
G01 X2.5553 Y-9.5805
G01 X2.5633 Y-9.5904
G01 X2.5697 Y-9.6014
G01 X2.5744 Y-9.6132
G01 X2.5774 Y-9.6256
G01 X2.5785 Y-9.6382
G01 X2.5777 Y-9.6509
G01 X2.5750 Y-9.6634
G01 X2.5706 Y-9.6753
G01 X2.5677 Y-9.6810
G01 X2.5632 Y-9.6882
G01 X2.5552 Y-9.6981
G01 X2.5459 Y-9.7067
G01 X2.5354 Y-9.7138
G01 X2.5278 Y-9.7177
G01 X2.5219 Y-9.7201
G01 X2.2611 Y-9.7945
G01 X1.7032 Y-9.9690
G01 X1.7032 Y-10.0877
G01 X2.6389 Y-9.7528
G01 X2.6389 Y-9.5292
G01 X1.7032 Y-9.1839
G01 X1.7032 Y-9.2989
G00 Z0.5000
G00 X1.3459 Y-8.4645
G01 F90.00
G01 Z-0.0800
G01 F240.00
G01 X1.3543 Y-8.5657
G01 X1.3760 Y-8.6425
G01 X1.4081 Y-8.7009
G01 X1.4531 Y-8.7500
G01 X1.5174 Y-8.7940
G01 X1.6077 Y-8.8326
G01 X1.7074 Y-8.8582
G01 X1.8379 Y-8.8759
G01 X2.0037 Y-8.8825
G01 X2.1791 Y-8.8743
G01 X2.3167 Y-8.8522
G01 X2.4225 Y-8.8200
G01 X2.5020 Y-8.7807
G01 X2.5609 Y-8.7360
G01 X2.6039 Y-8.6859
G01 X2.6348 Y-8.6281
G01 X2.6547 Y-8.5585
G01 X2.6620 Y-8.4726
G01 X2.6551 Y-8.3887
G01 X2.6362 Y-8.3199
G01 X2.6069 Y-8.2624
G01 X2.5663 Y-8.2126
G01 X2.5117 Y-8.1683
G01 X2.4304 Y-8.1251
G01 X2.3229 Y-8.0900
G01 X2.1828 Y-8.0659
G01 X2.0039 Y-8.0569
G01 X1.8205 Y-8.0656
G01 X1.6785 Y-8.0887
G01 X1.5712 Y-8.1220
G01 X1.4921 Y-8.1624
G01 X1.4398 Y-8.2037
G01 X1.4006 Y-8.2514
G01 X1.3718 Y-8.3080
G01 X1.3530 Y-8.3777
G01 X1.3459 Y-8.4645
G00 Z0.5000
G00 X1.4053 Y-8.4045
G01 F90.00
G01 Z-0.0800
G01 F240.00
G01 X1.3994 Y-8.4570
G01 X1.3989 Y-8.4675
G01 X1.3993 Y-8.4759
G01 X1.4054 Y-8.5319
G01 X1.4066 Y-8.5400
G01 X1.4081 Y-8.5459
G01 X1.4107 Y-8.5537
G01 X1.4273 Y-8.5966
G01 X1.4329 Y-8.6084
G01 X1.4389 Y-8.6175
G01 X1.4665 Y-8.6520
G01 X1.4719 Y-8.6582
G01 X1.4764 Y-8.6625
G01 X1.4845 Y-8.6689
G01 X1.5197 Y-8.6936
G01 X1.5284 Y-8.6989
G01 X1.5358 Y-8.7024
G01 X1.5873 Y-8.7239
G01 X1.5967 Y-8.7273
G01 X1.6794 Y-8.7468
G01 X1.8100 Y-8.7613
G01 X2.0041 Y-8.7669
G01 X2.1966 Y-8.7610
G01 X2.3281 Y-8.7457
G01 X2.4076 Y-8.7266
G01 X2.4166 Y-8.7239
G01 X2.4720 Y-8.7009
G01 X2.4793 Y-8.6975
G01 X2.4878 Y-8.6923
G01 X2.5227 Y-8.6682
G01 X2.5307 Y-8.6619
G01 X2.5380 Y-8.6547
G01 X2.5680 Y-8.6178
G01 X2.5741 Y-8.6087
G01 X2.5781 Y-8.6009
G01 X2.5962 Y-8.5557
G01 X2.5989 Y-8.5478
G01 X2.6014 Y-8.5355
G01 X2.6080 Y-8.4759
G01 X2.6081 Y-8.4672
G01 X2.6076 Y-8.4608
G01 X2.6014 Y-8.4084
G01 X2.6000 Y-8.3999
G01 X2.5963 Y-8.3875
G01 X2.5776 Y-8.3423
G01 X2.5719 Y-8.3315
G01 X2.5647 Y-8.3216
G01 X2.5343 Y-8.2855
G01 X2.5281 Y-8.2795
G01 X2.5213 Y-8.2742
G01 X2.4830 Y-8.2481
G01 X2.4736 Y-8.2426
G01 X2.4149 Y-8.2179
G01 X2.4065 Y-8.2149
G01 X2.3224 Y-8.1947
G01 X2.1914 Y-8.1794
G01 X2.0041 Y-8.1735
G01 X1.8098 Y-8.1793
G01 X1.6787 Y-8.1942
G01 X1.5946 Y-8.2142
G01 X1.5867 Y-8.2170
G01 X1.5353 Y-8.2382
G01 X1.5272 Y-8.2421
G01 X1.5195 Y-8.2467
G01 X1.4830 Y-8.2717
G01 X1.4767 Y-8.2767
G01 X1.4723 Y-8.2809
G01 X1.4668 Y-8.2869
G01 X1.4394 Y-8.3202
G01 X1.4358 Y-8.3251
G01 X1.4316 Y-8.3321
G01 X1.4273 Y-8.3413
G01 X1.4102 Y-8.3840
G01 X1.4071 Y-8.3941
G01 X1.4053 Y-8.4045
G00 Z0.5000
G00 X1.3459 Y-7.2980
G01 F90.00
G01 Z-0.0800
G01 F240.00
G01 X1.3543 Y-7.3992
G01 X1.3760 Y-7.4760
G01 X1.4081 Y-7.5344
G01 X1.4531 Y-7.5834
G01 X1.5174 Y-7.6275
G01 X1.6077 Y-7.6661
G01 X1.7074 Y-7.6917
G01 X1.8379 Y-7.7094
G01 X2.0037 Y-7.7160
G01 X2.1791 Y-7.7078
G01 X2.3167 Y-7.6857
G01 X2.4225 Y-7.6535
G01 X2.5020 Y-7.6142
G01 X2.5609 Y-7.5695
G01 X2.6039 Y-7.5194
G01 X2.6348 Y-7.4616
G01 X2.6547 Y-7.3920
G01 X2.6620 Y-7.3061
G01 X2.6551 Y-7.2222
G01 X2.6362 Y-7.1534
G01 X2.6069 Y-7.0959
G01 X2.5663 Y-7.0461
G01 X2.5117 Y-7.0018
G01 X2.4304 Y-6.9586
G01 X2.3229 Y-6.9235
G01 X2.1828 Y-6.8994
G01 X2.0039 Y-6.8904
G01 X1.8205 Y-6.8991
G01 X1.6785 Y-6.9222
G01 X1.5712 Y-6.9555
G01 X1.4921 Y-6.9959
G01 X1.4398 Y-7.0372
G01 X1.4006 Y-7.0849
G01 X1.3718 Y-7.1415
G01 X1.3530 Y-7.2112
G01 X1.3459 Y-7.2980
G00 Z0.5000
G00 X1.4053 Y-7.2380
G01 F90.00
G01 Z-0.0800
G01 F240.00
G01 X1.3994 Y-7.2905
G01 X1.3989 Y-7.3010
G01 X1.3993 Y-7.3094
G01 X1.4054 Y-7.3654
G01 X1.4063 Y-7.3714
G01 X1.4081 Y-7.3794
G01 X1.4107 Y-7.3872
G01 X1.4273 Y-7.4301
G01 X1.4329 Y-7.4419
G01 X1.4389 Y-7.4510
G01 X1.4665 Y-7.4855
G01 X1.4705 Y-7.4902
G01 X1.4764 Y-7.4960
G01 X1.4845 Y-7.5024
G01 X1.5197 Y-7.5271
G01 X1.5284 Y-7.5324
G01 X1.5358 Y-7.5359
G01 X1.5873 Y-7.5574
G01 X1.5967 Y-7.5607
G01 X1.6794 Y-7.5803
G01 X1.8100 Y-7.5948
G01 X2.0041 Y-7.6004
G01 X2.1966 Y-7.5945
G01 X2.3281 Y-7.5792
G01 X2.4076 Y-7.5601
G01 X2.4166 Y-7.5574
G01 X2.4720 Y-7.5344
G01 X2.4793 Y-7.5310
G01 X2.4878 Y-7.5258
G01 X2.5227 Y-7.5017
G01 X2.5307 Y-7.4954
G01 X2.5380 Y-7.4882
G01 X2.5680 Y-7.4513
G01 X2.5741 Y-7.4422
G01 X2.5781 Y-7.4344
G01 X2.5962 Y-7.3892
G01 X2.5989 Y-7.3813
G01 X2.6014 Y-7.3690
G01 X2.6080 Y-7.3094
G01 X2.6081 Y-7.3007
G01 X2.6076 Y-7.2943
G01 X2.6014 Y-7.2419
G01 X2.6000 Y-7.2334
G01 X2.5963 Y-7.2210
G01 X2.5776 Y-7.1758
G01 X2.5719 Y-7.1650
G01 X2.5647 Y-7.1551
G01 X2.5343 Y-7.1190
G01 X2.5281 Y-7.1130
G01 X2.5213 Y-7.1077
G01 X2.4830 Y-7.0816
G01 X2.4736 Y-7.0761
G01 X2.4149 Y-7.0514
G01 X2.4065 Y-7.0484
G01 X2.3224 Y-7.0282
G01 X2.1914 Y-7.0129
G01 X2.0041 Y-7.0070
G01 X1.8098 Y-7.0128
G01 X1.6787 Y-7.0277
G01 X1.5952 Y-7.0475
G01 X1.5867 Y-7.0505
G01 X1.5353 Y-7.0717
G01 X1.5272 Y-7.0755
G01 X1.5195 Y-7.0802
G01 X1.4830 Y-7.1052
G01 X1.4782 Y-7.1089
G01 X1.4723 Y-7.1144
G01 X1.4668 Y-7.1204
G01 X1.4394 Y-7.1537
G01 X1.4358 Y-7.1586
G01 X1.4316 Y-7.1656
G01 X1.4273 Y-7.1748
G01 X1.4102 Y-7.2175
G01 X1.4071 Y-7.2276
G01 X1.4053 Y-7.2380
G00 Z0.5000
G00 X1.3458 Y-6.1457
G01 F90.00
G01 Z-0.0800
G01 F240.00
G01 X1.3523 Y-6.2399
G01 X1.3698 Y-6.3178
G01 X1.3966 Y-6.3826
G01 X1.4322 Y-6.4373
G01 X1.4772 Y-6.4837
G01 X1.5290 Y-6.5189
G01 X1.5766 Y-6.5387
G01 X1.5846 Y-6.4258
G01 X1.5351 Y-6.4026
G01 X1.5260 Y-6.3974
G01 X1.5175 Y-6.3910
G01 X1.4818 Y-6.3604
G01 X1.4729 Y-6.3515
G01 X1.4665 Y-6.3432
G01 X1.4400 Y-6.3041
G01 X1.4348 Y-6.2954
G01 X1.4300 Y-6.2842
G01 X1.4118 Y-6.2311
G01 X1.4095 Y-6.2193
G01 X1.4034 Y-6.1597
G01 X1.4030 Y-6.1510
G01 X1.4034 Y-6.1422
G01 X1.4097 Y-6.0807
G01 X1.4115 Y-6.0701
G01 X1.4145 Y-6.0599
G01 X1.4326 Y-6.0107
G01 X1.4370 Y-6.0012
G01 X1.4413 Y-5.9940
G01 X1.4709 Y-5.9544
G01 X1.4792 Y-5.9448
G01 X1.4889 Y-5.9366
G01 X1.5273 Y-5.9085
G01 X1.5328 Y-5.9049
G01 X1.5386 Y-5.9018
G01 X1.5467 Y-5.8983
G01 X1.5944 Y-5.8808
G01 X1.6026 Y-5.8785
G01 X1.6131 Y-5.8767
G01 X1.6705 Y-5.8707
G01 X1.6814 Y-5.8702
G01 X1.6901 Y-5.8709
G01 X1.7499 Y-5.8783
G01 X1.7561 Y-5.8793
G01 X1.7643 Y-5.8813
G01 X1.7741 Y-5.8850
G01 X1.8214 Y-5.9059
G01 X1.8326 Y-5.9119
G01 X1.8395 Y-5.9167
G01 X1.8444 Y-5.9208
G01 X1.8822 Y-5.9550
G01 X1.8892 Y-5.9622
G01 X1.8740 Y-5.9086
G01 X1.8438 Y-5.8502
G01 X1.8077 Y-5.8080
G01 X1.7637 Y-5.7773
G01 X1.7111 Y-5.7581
G01 X1.6432 Y-5.7509
G01 X1.5734 Y-5.7576
G01 X1.5174 Y-5.7758
G01 X1.4706 Y-5.8045
G01 X1.4289 Y-5.8463
G01 X1.3959 Y-5.8974
G01 X1.3699 Y-5.9620
G01 X1.3524 Y-6.0436
G01 X1.3458 Y-6.1457
G00 Z0.5000
G00 X1.9353 Y-6.0452
G01 F90.00
G01 Z-0.0800
G01 F240.00
G01 X1.9511 Y-6.1000
G01 X1.9535 Y-6.1106
G01 X1.9609 Y-6.1984
G01 X1.9611 Y-6.2135
G01 X2.0216 Y-6.2135
G01 X2.0218 Y-6.1928
G01 X2.0289 Y-6.0983
G01 X2.0307 Y-6.0884
G01 X2.0448 Y-6.0354
G01 X2.0385 Y-6.0408
G01 X2.0333 Y-6.0445
G01 X2.0280 Y-6.0477
G01 X2.0204 Y-6.0515
G01 X2.0126 Y-6.0545
G01 X2.0066 Y-6.0562
G01 X1.9942 Y-6.0584
G01 X1.9879 Y-6.0588
G01 X1.9774 Y-6.0587
G01 X1.9691 Y-6.0579
G01 X1.9629 Y-6.0567
G01 X1.9548 Y-6.0545
G01 X1.9488 Y-6.0523
G01 X1.9412 Y-6.0487
G01 X1.9353 Y-6.0452
G00 Z0.5000
G00 X2.0750 Y-5.9664
G01 F90.00
G01 Z-0.0800
G01 F240.00
G01 X2.0865 Y-5.9457
G01 X2.0901 Y-5.9405
G01 X2.0954 Y-5.9341
G01 X2.1386 Y-5.8912
G01 X2.1464 Y-5.8847
G01 X2.1550 Y-5.8790
G01 X2.2105 Y-5.8522
G01 X2.2222 Y-5.8479
G01 X2.2344 Y-5.8453
G01 X2.2992 Y-5.8367
G01 X2.3054 Y-5.8364
G01 X2.3136 Y-5.8367
G01 X2.3857 Y-5.8443
G01 X2.3958 Y-5.8462
G01 X2.4055 Y-5.8493
G01 X2.4584 Y-5.8697
G01 X2.4658 Y-5.8732
G01 X2.4712 Y-5.8763
G01 X2.4796 Y-5.8823
G01 X2.5192 Y-5.9143
G01 X2.5256 Y-5.9203
G01 X2.5299 Y-5.9252
G01 X2.5351 Y-5.9321
G01 X2.5626 Y-5.9733
G01 X2.5687 Y-5.9841
G01 X2.5726 Y-5.9938
G01 X2.5901 Y-6.0464
G01 X2.5929 Y-6.0569
G01 X2.5942 Y-6.0655
G01 X2.6005 Y-6.1326
G01 X2.6009 Y-6.1416
G01 X2.6003 Y-6.1505
G01 X2.5903 Y-6.2367
G01 X2.5882 Y-6.2451
G01 X2.5853 Y-6.2534
G01 X2.5605 Y-6.3133
G01 X2.5558 Y-6.3230
G01 X2.5512 Y-6.3302
G01 X2.5473 Y-6.3354
G01 X2.5052 Y-6.3837
G01 X2.4974 Y-6.3911
G01 X2.4888 Y-6.3976
G01 X2.4293 Y-6.4324
G01 X2.4228 Y-6.4359
G01 X2.4170 Y-6.4383
G01 X2.4111 Y-6.4404
G01 X2.4009 Y-6.4430
G01 X2.4116 Y-6.5661
G01 X2.4738 Y-6.5406
G01 X2.5281 Y-6.5040
G01 X2.5737 Y-6.4564
G01 X2.6094 Y-6.3997
G01 X2.6371 Y-6.3303
G01 X2.6554 Y-6.2448
G01 X2.6622 Y-6.1398
G01 X2.6549 Y-6.0276
G01 X2.6356 Y-5.9391
G01 X2.6073 Y-5.8701
G01 X2.5713 Y-5.8163
G01 X2.5257 Y-5.7725
G01 X2.4724 Y-5.7415
G01 X2.4069 Y-5.7214
G01 X2.3251 Y-5.7139
G01 X2.2560 Y-5.7220
G01 X2.2023 Y-5.7433
G01 X2.1562 Y-5.7786
G01 X2.1194 Y-5.8263
G01 X2.0905 Y-5.8921
G01 X2.0750 Y-5.9664
G00 Z0.5000
G00 X5.2037 Y-1.9644
G01 F90.00
G01 Z-0.0800
G01 F240.00
G01 X5.4734 Y-1.9644
G01 X5.4818 Y-1.9639
G01 X5.4901 Y-1.9627
G01 X5.5002 Y-1.9601
G01 X5.5100 Y-1.9562
G01 X5.5750 Y-1.9237
G01 X5.5825 Y-1.9195
G01 X5.5894 Y-1.9146
G01 X5.5959 Y-1.9090
G01 X5.6287 Y-1.8759
G01 X5.6352 Y-1.8674
G01 X5.6405 Y-1.8582
G01 X5.6730 Y-1.7931
G01 X5.6762 Y-1.7854
G01 X5.6791 Y-1.7753
G01 X5.6805 Y-1.7670
G01 X5.6812 Y-1.7586
G01 X5.6810 Y-1.6499
G01 X5.6803 Y-1.6436
G01 X5.6786 Y-1.6354
G01 X5.6762 Y-1.6273
G01 X5.6739 Y-1.6215
G01 X5.6385 Y-1.5507
G01 X5.6340 Y-1.5435
G01 X5.6273 Y-1.5352
G01 X5.5975 Y-1.5056
G01 X5.5909 Y-1.5004
G01 X5.5838 Y-1.4959
G01 X5.5763 Y-1.4921
G01 X5.5704 Y-1.4897
G01 X5.4576 Y-1.4521
G01 X5.4472 Y-1.4496
G01 X5.4366 Y-1.4485
G01 X5.2037 Y-1.4483
G01 X5.1952 Y-1.4488
G01 X5.1889 Y-1.4496
G01 X5.1807 Y-1.4515
G01 X5.1727 Y-1.4541
G01 X5.1649 Y-1.4575
G01 X5.1576 Y-1.4617
G01 X5.1507 Y-1.4666
G01 X5.1443 Y-1.4721
G01 X5.1385 Y-1.4782
G01 X5.1309 Y-1.4884
G01 X5.1268 Y-1.4957
G01 X5.1241 Y-1.5015
G01 X5.1219 Y-1.5074
G01 X5.1197 Y-1.5156
G01 X5.1185 Y-1.5218
G01 X5.1177 Y-1.5302
G01 X5.1176 Y-1.8783
G01 X5.1182 Y-1.8888
G01 X5.1192 Y-1.8951
G01 X5.1213 Y-1.9033
G01 X5.1241 Y-1.9112
G01 X5.1268 Y-1.9170
G01 X5.1309 Y-1.9243
G01 X5.1358 Y-1.9312
G01 X5.1399 Y-1.9361
G01 X5.1458 Y-1.9421
G01 X5.1524 Y-1.9474
G01 X5.1576 Y-1.9510
G01 X5.1649 Y-1.9552
G01 X5.1727 Y-1.9586
G01 X5.1787 Y-1.9607
G01 X5.1869 Y-1.9627
G01 X5.1952 Y-1.9639
G01 X5.2037 Y-1.9644
G00 Z0.5000
G00 X5.2037 Y-1.4405
G01 F90.00
G01 Z-0.0800
G01 F240.00
G01 X5.4257 Y-1.4405
G01 X5.4362 Y-1.4399
G01 X5.4466 Y-1.4380
G01 X5.4546 Y-1.4356
G01 X5.4624 Y-1.4324
G01 X5.5274 Y-1.3999
G01 X5.5348 Y-1.3957
G01 X5.5418 Y-1.3908
G01 X5.5483 Y-1.3852
G01 X5.5768 Y-1.3568
G01 X5.5825 Y-1.3505
G01 X5.5887 Y-1.3418
G01 X5.5929 Y-1.3344
G01 X5.6254 Y-1.2693
G01 X5.6279 Y-1.2635
G01 X5.6305 Y-1.2556
G01 X5.6326 Y-1.2453
G01 X5.6335 Y-1.2348
G01 X5.6336 Y-1.1800
G01 X5.6329 Y-1.1695
G01 X5.6305 Y-1.1571
G01 X5.6263 Y-1.1453
G01 X5.5898 Y-1.0727
G01 X5.5838 Y-1.0639
G01 X5.5783 Y-1.0575
G01 X5.5498 Y-1.0290
G01 X5.5435 Y-1.0232
G01 X5.5366 Y-1.0182
G01 X5.5293 Y-1.0138
G01 X5.4604 Y-0.9795
G01 X5.4526 Y-0.9765
G01 X5.4445 Y-0.9742
G01 X5.4383 Y-0.9731
G01 X5.4299 Y-0.9723
G01 X5.2037 Y-0.9722
G01 X5.1952 Y-0.9726
G01 X5.1869 Y-0.9738
G01 X5.1787 Y-0.9759
G01 X5.1707 Y-0.9787
G01 X5.1631 Y-0.9823
G01 X5.1558 Y-0.9867
G01 X5.1490 Y-0.9917
G01 X5.1428 Y-0.9974
G01 X5.1371 Y-1.0036
G01 X5.1333 Y-1.0087
G01 X5.1287 Y-1.0158
G01 X5.1233 Y-1.0273
G01 X5.1213 Y-1.0333
G01 X5.1192 Y-1.0415
G01 X5.1177 Y-1.0540
G01 X5.1176 Y-1.3544
G01 X5.1185 Y-1.3671
G01 X5.1201 Y-1.3754
G01 X5.1226 Y-1.3835
G01 X5.1249 Y-1.3893
G01 X5.1287 Y-1.3969
G01 X5.1333 Y-1.4040
G01 X5.1371 Y-1.4091
G01 X5.1413 Y-1.4138
G01 X5.1474 Y-1.4196
G01 X5.1541 Y-1.4248
G01 X5.1612 Y-1.4294
G01 X5.1668 Y-1.4323
G01 X5.1747 Y-1.4355
G01 X5.1827 Y-1.4380
G01 X5.1889 Y-1.4393
G01 X5.1973 Y-1.4403
G01 X5.2037 Y-1.4405
G00 Z0.5000
G00 X5.1098 Y-0.9725
G01 F90.00
G01 Z-0.0800
G01 F240.00
G01 X5.1098 Y-1.9647
G01 X5.1118 Y-1.9695
G01 X5.1124 Y-1.9701
G01 X5.1179 Y-1.9722
G01 X5.4904 Y-1.9722
G01 X5.4966 Y-1.9712
G01 X5.5001 Y-1.9699
G01 X5.5878 Y-1.9260
G01 X5.5919 Y-1.9235
G01 X5.5956 Y-1.9204
G01 X5.6372 Y-1.8788
G01 X5.6403 Y-1.8751
G01 X5.6428 Y-1.8710
G01 X5.6867 Y-1.7833
G01 X5.6886 Y-1.7774
G01 X5.6890 Y-1.7736
G01 X5.6890 Y-1.6392
G01 X5.6881 Y-1.6330
G01 X5.6867 Y-1.6294
G01 X5.6428 Y-1.5417
G01 X5.6403 Y-1.5377
G01 X5.6372 Y-1.5339
G01 X5.5956 Y-1.4923
G01 X5.5841 Y-1.4823
G01 X5.5758 Y-1.4727
G01 X5.5690 Y-1.4620
G01 X5.5646 Y-1.4524
G01 X5.5609 Y-1.4403
G01 X5.5591 Y-1.4277
G01 X5.5589 Y-1.4172
G01 X5.5605 Y-1.4046
G01 X5.5632 Y-1.3944
G01 X5.5671 Y-1.3846
G01 X5.5711 Y-1.3771
G01 X5.5758 Y-1.3701
G01 X5.5811 Y-1.3636
G01 X5.5896 Y-1.3550
G01 X5.5927 Y-1.3512
G01 X5.5952 Y-1.3472
G01 X5.6391 Y-1.2595
G01 X5.6404 Y-1.2559
G01 X5.6414 Y-1.2497
G01 X5.6414 Y-1.1630
G01 X5.6410 Y-1.1591
G01 X5.6391 Y-1.1532
G01 X5.5952 Y-1.0655
G01 X5.5927 Y-1.0615
G01 X5.5896 Y-1.0577
G01 X5.5480 Y-1.0161
G01 X5.5443 Y-1.0131
G01 X5.5402 Y-1.0105
G01 X5.4525 Y-0.9667
G01 X5.4489 Y-0.9653
G01 X5.4428 Y-0.9644
G01 X5.1179 Y-0.9644
G01 X5.1124 Y-0.9664
G01 X5.1118 Y-0.9670
G01 X5.1098 Y-0.9725
G00 Z0.5000
G00 X6.0638 Y-1.2537
G01 F90.00
G01 Z-0.0800
G01 F240.00
G01 X6.0643 Y-1.2553
G01 X6.0658 Y-1.2562
G01 X6.0716 Y-1.2556
G01 X6.1592 Y-1.2117
G01 X6.1633 Y-1.2092
G01 X6.1670 Y-1.2061
G01 X6.2024 Y-1.1708
G01 X6.2071 Y-1.1666
G01 X6.2139 Y-1.1616
G01 X6.2230 Y-1.1563
G01 X6.2327 Y-1.1521
G01 X6.2429 Y-1.1492
G01 X6.2533 Y-1.1475
G01 X6.2618 Y-1.1471
G01 X6.2702 Y-1.1475
G01 X6.2786 Y-1.1487
G01 X6.2867 Y-1.1508
G01 X6.2947 Y-1.1536
G01 X6.3023 Y-1.1572
G01 X6.3096 Y-1.1616
G01 X6.3164 Y-1.1666
G01 X6.3226 Y-1.1723
G01 X6.3283 Y-1.1785
G01 X6.3333 Y-1.1853
G01 X6.3377 Y-1.1926
G01 X6.3413 Y-1.2002
G01 X6.3441 Y-1.2082
G01 X6.3462 Y-1.2164
G01 X6.3474 Y-1.2247
G01 X6.3479 Y-1.2332
G01 X6.3479 Y-1.8783
G01 X6.3474 Y-1.8867
G01 X6.3462 Y-1.8951
G01 X6.3441 Y-1.9033
G01 X6.3421 Y-1.9092
G01 X6.3377 Y-1.9188
G01 X6.3321 Y-1.9278
G01 X6.3255 Y-1.9361
G01 X6.3180 Y-1.9435
G01 X6.3096 Y-1.9498
G01 X6.3005 Y-1.9552
G01 X6.2908 Y-1.9593
G01 X6.2806 Y-1.9623
G01 X6.2702 Y-1.9639
G01 X6.2618 Y-1.9644
G01 X6.0703 Y-1.9644
G01 X6.0648 Y-1.9664
G01 X6.0639 Y-1.9678
G01 X6.0642 Y-1.9695
G01 X6.0648 Y-1.9701
G01 X6.0703 Y-1.9722
G01 X6.6332 Y-1.9722
G01 X6.6387 Y-1.9701
G01 X6.6396 Y-1.9687
G01 X6.6393 Y-1.9670
G01 X6.6387 Y-1.9664
G01 X6.6332 Y-1.9644
G01 X6.4418 Y-1.9644
G01 X6.4312 Y-1.9637
G01 X6.4208 Y-1.9618
G01 X6.4108 Y-1.9586
G01 X6.3993 Y-1.9532
G01 X6.3905 Y-1.9474
G01 X6.3824 Y-1.9406
G01 X6.3752 Y-1.9329
G01 X6.3679 Y-1.9225
G01 X6.3622 Y-1.9112
G01 X6.3588 Y-1.9012
G01 X6.3566 Y-1.8909
G01 X6.3557 Y-1.8783
G01 X6.3557 Y-0.9725
G01 X6.3542 Y-0.9672
G01 X6.3536 Y-0.9664
G01 X6.3523 Y-0.9657
G01 X6.3507 Y-0.9659
G01 X6.3463 Y-0.9695
G01 X6.2582 Y-1.1015
G01 X6.2532 Y-1.1084
G01 X6.2475 Y-1.1147
G01 X6.1688 Y-1.1933
G01 X6.1592 Y-1.2016
G01 X6.1502 Y-1.2074
G01 X6.0681 Y-1.2486
G01 X6.0641 Y-1.2529
G01 X6.0638 Y-1.2537
G00 Z0.5000
G00 X12.6244 Y-3.8389
G01 F90.00
G01 Z-0.0800
G01 F240.00
G01 X12.9734 Y-3.8389
G01 X12.9876 Y-3.8153
G01 X13.0039 Y-3.7934
G01 X13.0227 Y-3.7727
G01 X13.0403 Y-3.7566
G01 X13.0468 Y-3.7512
G01 X13.0678 Y-3.7360
G01 X13.0883 Y-3.7237
G01 X13.0939 Y-3.7208
G01 X13.1133 Y-3.7116
G01 X13.1195 Y-3.7092
G01 X13.1419 Y-3.7012
G01 X13.1639 Y-3.6956
G01 X13.1639 Y-3.3619
G01 X13.1148 Y-3.3663
G01 X12.9712 Y-3.4111
G01 X12.8436 Y-3.4882
G01 X12.7382 Y-3.5936
G01 X12.6611 Y-3.7212
G01 X12.6244 Y-3.8389
G00 Z0.5000
G00 X12.8159 Y-3.7115
G01 F90.00
G01 Z-0.0800
G01 F240.00
G01 X12.9063 Y-3.7115
G01 X12.9326 Y-3.6826
G01 X12.9402 Y-3.6754
G01 X12.9627 Y-3.6553
G01 X12.9867 Y-3.6372
G01 X12.9953 Y-3.6312
G01 X13.0209 Y-3.6155
G01 X13.0365 Y-3.6070
G01 X13.0365 Y-3.5242
G01 X13.0239 Y-3.5281
G01 X12.9228 Y-3.5892
G01 X12.8392 Y-3.6728
G01 X12.8159 Y-3.7115
G00 Z0.5000
G00 X13.8361 Y-3.6956
G01 F90.00
G01 Z-0.0800
G01 F240.00
G01 X13.8583 Y-3.7013
G01 X13.8805 Y-3.7092
G01 X13.8869 Y-3.7117
G01 X13.9099 Y-3.7227
G01 X13.9306 Y-3.7350
G01 X13.9374 Y-3.7396
G01 X13.9566 Y-3.7539
G01 X13.9742 Y-3.7698
G01 X13.9802 Y-3.7758
G01 X13.9962 Y-3.7935
G01 X14.0140 Y-3.8178
G01 X14.0261 Y-3.8379
G01 X14.0292 Y-3.8439
G01 X14.0391 Y-3.8649
G01 X14.0478 Y-3.8888
G01 X14.1065 Y-3.8888
G01 X14.1857 Y-3.8095
G01 X14.1908 Y-3.7896
G01 X14.2003 Y-3.7628
G01 X14.2036 Y-3.7550
G01 X14.2150 Y-3.7309
G01 X14.2329 Y-3.7007
G01 X14.2512 Y-3.6760
G01 X14.2718 Y-3.6528
G01 X14.2778 Y-3.6468
G01 X14.2992 Y-3.6276
G01 X14.3240 Y-3.6091
G01 X14.3540 Y-3.5910
G01 X14.3832 Y-3.5771
G01 X14.4149 Y-3.5658
G01 X14.4428 Y-3.5587
G01 X14.4511 Y-3.5570
G01 X14.4795 Y-3.5529
G01 X14.5104 Y-3.5513
G01 X14.7004 Y-3.5513
G01 X14.7039 Y-3.5383
G01 X14.7137 Y-3.5108
G01 X14.7276 Y-3.4809
G01 X14.7455 Y-3.4508
G01 X14.7664 Y-3.4229
G01 X14.7844 Y-3.4029
G01 X14.7904 Y-3.3969
G01 X14.8114 Y-3.3780
G01 X14.8348 Y-3.3605
G01 X14.8418 Y-3.3558
G01 X14.8666 Y-3.3411
G01 X14.8982 Y-3.3262
G01 X14.9274 Y-3.3159
G01 X14.9594 Y-3.3079
G01 X14.9921 Y-3.3030
G01 X15.0229 Y-3.3014
G01 X15.6106 Y-3.3014
G01 X15.6638 Y-3.2482
G01 X15.6638 Y-3.1979
G01 X15.6651 Y-3.1713
G01 X15.6659 Y-3.1628
G01 X15.6707 Y-3.1323
G01 X15.6783 Y-3.1021
G01 X15.6886 Y-3.0732
G01 X15.7025 Y-3.0434
G01 X15.7138 Y-3.0241
G01 X15.7138 Y-2.9477
G01 X15.6905 Y-2.9393
G01 X15.6689 Y-2.9292
G01 X15.6633 Y-2.9263
G01 X15.6428 Y-2.9140
G01 X15.6185 Y-2.8962
G01 X15.6008 Y-2.8802
G01 X15.5948 Y-2.8742
G01 X15.5788 Y-2.8565
G01 X15.5645 Y-2.8374
G01 X15.5599 Y-2.8304
G01 X15.5476 Y-2.8097
G01 X15.5367 Y-2.7869
G01 X15.5342 Y-2.7805
G01 X15.5262 Y-2.7581
G01 X15.5206 Y-2.7361
G01 X15.1869 Y-2.7361
G01 X15.1880 Y-2.7527
G01 X15.1876 Y-2.7609
G01 X15.1867 Y-2.7670
G01 X15.1724 Y-2.8396
G01 X15.1701 Y-2.8478
G01 X15.1670 Y-2.8558
G01 X15.1609 Y-2.8671
G01 X15.1533 Y-2.8774
G01 X15.1019 Y-2.9309
G01 X15.0957 Y-2.9367
G01 X15.0907 Y-2.9407
G01 X15.0836 Y-2.9454
G01 X15.0760 Y-2.9493
G01 X15.0681 Y-2.9525
G01 X14.9966 Y-2.9717
G01 X14.9865 Y-2.9732
G01 X14.9796 Y-2.9736
G01 X14.8904 Y-2.9827
G01 X14.7425 Y-3.0317
G01 X14.6104 Y-3.1132
G01 X14.5007 Y-3.2229
G01 X14.4181 Y-3.3567
G01 X14.4148 Y-3.3634
G01 X14.4105 Y-3.3707
G01 X14.3704 Y-3.4282
G01 X14.3638 Y-3.4364
G01 X14.3563 Y-3.4439
G01 X14.3461 Y-3.4514
G01 X14.3368 Y-3.4566
G01 X14.2664 Y-3.4859
G01 X14.2563 Y-3.4891
G01 X14.2457 Y-3.4911
G01 X14.2351 Y-3.4917
G01 X14.2244 Y-3.4910
G01 X14.1514 Y-3.4780
G01 X14.1389 Y-3.4748
G01 X14.1309 Y-3.4716
G01 X14.1251 Y-3.4687
G01 X14.1133 Y-3.4621
G01 X14.0288 Y-3.4111
G01 X13.8852 Y-3.3663
G01 X13.8361 Y-3.3619
G01 X13.8361 Y-3.6956
G00 Z0.5000
G00 X13.9635 Y-3.6070
G01 F90.00
G01 Z-0.0800
G01 F240.00
G01 X13.9745 Y-3.6128
G01 X14.0007 Y-3.6285
G01 X14.0133 Y-3.6372
G01 X14.0335 Y-3.6523
G01 X14.0414 Y-3.6588
G01 X14.0637 Y-3.6789
G01 X14.0711 Y-3.6863
G01 X14.0869 Y-3.7037
G01 X14.1012 Y-3.6736
G01 X14.1088 Y-3.6598
G01 X14.1270 Y-3.6299
G01 X14.1442 Y-3.6062
G01 X14.1237 Y-3.6025
G01 X14.1081 Y-3.5986
G01 X14.0928 Y-3.5937
G01 X14.0780 Y-3.5876
G01 X14.0683 Y-3.5829
G01 X14.0511 Y-3.5734
G01 X13.9761 Y-3.5281
G01 X13.9635 Y-3.5242
G01 X13.9635 Y-3.6070
G00 Z0.5000
G00 X14.5299 Y-3.4183
G01 F90.00
G01 Z-0.0800
G01 F240.00
G01 X14.5270 Y-3.4238
G01 X14.6137 Y-3.4238
G01 X14.6214 Y-3.4099
G01 X14.6396 Y-3.3800
G01 X14.6658 Y-3.3445
G01 X14.6735 Y-3.3355
G01 X14.6972 Y-3.3097
G01 X14.7230 Y-3.2860
G01 X14.7373 Y-3.2741
G01 X14.7632 Y-3.2551
G01 X14.7719 Y-3.2492
G01 X14.8019 Y-3.2312
G01 X14.8159 Y-3.2240
G01 X14.8420 Y-3.2117
G01 X14.8574 Y-3.2055
G01 X14.8904 Y-3.1939
G01 X14.9243 Y-3.1852
G01 X14.9397 Y-3.1819
G01 X14.9744 Y-3.1768
G01 X14.9900 Y-3.1754
G01 X15.0198 Y-3.1740
G01 X15.5374 Y-3.1740
G01 X15.5381 Y-3.1598
G01 X15.5392 Y-3.1493
G01 X15.5435 Y-3.1199
G01 X15.5463 Y-3.1044
G01 X15.5565 Y-3.0647
G01 X15.5679 Y-3.0323
G01 X15.5726 Y-3.0204
G01 X15.5659 Y-3.0159
G01 X15.5459 Y-3.0011
G01 X15.5337 Y-2.9913
G01 X15.5076 Y-2.9674
G01 X15.4872 Y-2.9453
G01 X15.4771 Y-2.9332
G01 X15.4574 Y-2.9066
G01 X15.4399 Y-2.8781
G01 X15.4320 Y-2.8635
G01 X15.2975 Y-2.8635
G01 X15.2942 Y-2.8777
G01 X15.2911 Y-2.8878
G01 X15.2875 Y-2.8978
G01 X15.2812 Y-2.9124
G01 X15.2764 Y-2.9219
G01 X15.2712 Y-2.9311
G01 X15.2625 Y-2.9444
G01 X15.2561 Y-2.9529
G01 X15.2494 Y-2.9611
G01 X15.2422 Y-2.9689
G01 X15.1862 Y-3.0267
G01 X15.1783 Y-3.0337
G01 X15.1701 Y-3.0404
G01 X15.1572 Y-3.0496
G01 X15.1482 Y-3.0552
G01 X15.1390 Y-3.0603
G01 X15.1295 Y-3.0650
G01 X15.1198 Y-3.0692
G01 X15.1099 Y-3.0729
G01 X15.0947 Y-3.0775
G01 X15.0332 Y-3.0939
G01 X15.0185 Y-3.0972
G01 X15.0035 Y-3.0995
G01 X14.9881 Y-3.1008
G01 X14.9173 Y-3.1080
G01 X14.7967 Y-3.1480
G01 X14.6900 Y-3.2138
G01 X14.6013 Y-3.3025
G01 X14.5299 Y-3.4183
G00 Z0.5000
G00 X15.3439 Y-3.0465
G01 F90.00
G01 Z-0.0800
G01 F240.00
G01 X15.4070 Y-3.0465
G01 X15.3872 Y-3.0246
G01 X15.3735 Y-3.0076
G01 X15.3614 Y-3.0250
G01 X15.3509 Y-3.0383
G01 X15.3439 Y-3.0465
G00 Z0.5000
G00 X15.1869 Y-2.0639
G01 F90.00
G01 Z-0.0800
G01 F240.00
G01 X15.5206 Y-2.0639
G01 X15.5260 Y-2.0426
G01 X15.5342 Y-2.0195
G01 X15.5368 Y-2.0128
G01 X15.5458 Y-1.9939
G01 X15.5487 Y-1.9883
G01 X15.5612 Y-1.9674
G01 X15.5764 Y-1.9467
G01 X15.5816 Y-1.9403
G01 X15.5977 Y-1.9227
G01 X15.6185 Y-1.9038
G01 X15.6411 Y-1.8871
G01 X15.6639 Y-1.8734
G01 X15.6639 Y-1.5244
G01 X15.5462 Y-1.5611
G01 X15.4186 Y-1.6382
G01 X15.3132 Y-1.7436
G01 X15.2361 Y-1.8712
G01 X15.1913 Y-2.0148
G01 X15.1869 Y-2.0639
G00 Z0.5000
G00 X15.3492 Y-1.9365
G01 F90.00
G01 Z-0.0800
G01 F240.00
G01 X15.4320 Y-1.9365
G01 X15.4378 Y-1.9255
G01 X15.4539 Y-1.8987
G01 X15.4598 Y-1.8900
G01 X15.4773 Y-1.8665
G01 X15.4872 Y-1.8547
G01 X15.5076 Y-1.8326
G01 X15.5365 Y-1.8063
G01 X15.5365 Y-1.7159
G01 X15.4978 Y-1.7392
G01 X15.4142 Y-1.8228
G01 X15.3531 Y-1.9239
G01 X15.3492 Y-1.9365
G00 Z0.5000
G00 X16.9159 Y-2.0402
G01 F90.00
G01 Z-0.0800
G01 F240.00
G01 X16.8943 Y-2.0437
G01 X16.8774 Y-2.0454
G01 X16.8605 Y-2.0463
G01 X16.8436 Y-2.0464
G01 X16.8267 Y-2.0456
G01 X16.7570 Y-2.0406
G01 X16.7337 Y-2.0381
G01 X16.7374 Y-2.0637
G01 X16.7391 Y-2.0803
G01 X16.7405 Y-2.1083
G01 X16.7410 Y-2.1250
G01 X16.7410 Y-2.6689
G01 X16.7578 Y-2.6695
G01 X16.7681 Y-2.6703
G01 X16.7869 Y-2.6696
G01 X16.8038 Y-2.6698
G01 X16.8207 Y-2.6709
G01 X16.8375 Y-2.6728
G01 X16.8542 Y-2.6756
G01 X16.8708 Y-2.6792
G01 X16.8871 Y-2.6836
G01 X16.9094 Y-2.6904
G01 X16.9090 Y-2.6750
G01 X16.9090 Y-2.1250
G01 X16.9095 Y-2.1083
G01 X16.9109 Y-2.0803
G01 X16.9126 Y-2.0637
G01 X16.9159 Y-2.0402
G00 Z0.5000
G00 X17.1703 Y-2.7349
G01 F90.00
G01 Z-0.0800
G01 F240.00
G01 X17.1762 Y-2.7581
G01 X17.1858 Y-2.7847
G01 X17.1976 Y-2.8097
G01 X17.2099 Y-2.8304
G01 X17.2145 Y-2.8374
G01 X17.2302 Y-2.8581
G01 X17.2477 Y-2.8773
G01 X17.2653 Y-2.8934
G01 X17.2701 Y-2.8975
G01 X17.2876 Y-2.9105
G01 X17.2946 Y-2.9151
G01 X17.3151 Y-2.9273
G01 X17.3405 Y-2.9393
G01 X17.3663 Y-2.9486
G01 X17.3901 Y-2.9547
G01 X17.3983 Y-2.9563
G01 X17.4241 Y-2.9599
G01 X17.4500 Y-2.9611
G01 X17.8521 Y-2.9611
G01 X17.8780 Y-2.9597
G01 X17.9017 Y-2.9563
G01 X17.9099 Y-2.9547
G01 X17.9351 Y-2.9481
G01 X17.9574 Y-2.9401
G01 X17.9630 Y-2.9378
G01 X17.9852 Y-2.9272
G01 X18.0054 Y-2.9151
G01 X18.0124 Y-2.9105
G01 X18.0315 Y-2.8962
G01 X18.0492 Y-2.8802
G01 X18.0552 Y-2.8742
G01 X18.0712 Y-2.8565
G01 X18.0855 Y-2.8374
G01 X18.0901 Y-2.8304
G01 X18.1023 Y-2.8099
G01 X18.1133 Y-2.7869
G01 X18.1158 Y-2.7805
G01 X18.1238 Y-2.7581
G01 X18.1298 Y-2.7345
G01 X18.2426 Y-2.8474
G01 X18.2602 Y-2.8635
G01 X18.2658 Y-2.8681
G01 X18.2852 Y-2.8825
G01 X18.3101 Y-2.8974
G01 X18.3353 Y-2.9093
G01 X18.3579 Y-2.9176
G01 X18.3660 Y-2.9200
G01 X18.3912 Y-2.9261
G01 X18.4171 Y-2.9298
G01 X18.4408 Y-2.9311
G01 X18.5073 Y-2.9312
G01 X18.5175 Y-2.9448
G01 X18.5301 Y-2.9589
G01 X18.5346 Y-2.9634
G01 X18.5470 Y-2.9747
G01 X18.5519 Y-2.9788
G01 X18.5671 Y-2.9901
G01 X18.5850 Y-3.0011
G01 X18.5925 Y-3.0051
G01 X18.6094 Y-3.0130
G01 X18.6312 Y-3.0209
G01 X18.6539 Y-3.0266
G01 X18.6748 Y-3.0297
G01 X18.7000 Y-3.0311
G01 X20.0521 Y-3.0311
G01 X20.0731 Y-3.0300
G01 X20.0919 Y-3.0273
G01 X20.1002 Y-3.0256
G01 X20.1206 Y-3.0203
G01 X20.1404 Y-3.0131
G01 X20.1593 Y-3.0043
G01 X20.1794 Y-2.9925
G01 X20.1917 Y-2.9836
G01 X20.1931 Y-3.0073
G01 X20.1981 Y-3.0400
G01 X20.2058 Y-3.0701
G01 X20.2162 Y-3.0995
G01 X20.2310 Y-3.1310
G01 X20.2457 Y-3.1557
G01 X20.2504 Y-3.1628
G01 X20.2690 Y-3.1874
G01 X20.2898 Y-3.2102
G01 X21.1638 Y-4.0843
G01 X21.1638 Y-7.5000
G01 X21.1652 Y-7.5309
G01 X21.1702 Y-7.5656
G01 X21.1771 Y-7.5935
G01 X21.1789 Y-7.5996
G01 X21.1878 Y-7.6247
G01 X21.1911 Y-7.6325
G01 X21.2035 Y-7.6585
G01 X21.2204 Y-7.6868
G01 X21.2401 Y-7.7133
G01 X21.2593 Y-7.7347
G01 X21.2653 Y-7.7407
G01 X21.2850 Y-7.7585
G01 X21.2899 Y-7.7624
G01 X21.3132 Y-7.7796
G01 X21.3397 Y-7.7955
G01 X21.3732 Y-7.8114
G01 X21.4021 Y-7.8217
G01 X21.4220 Y-7.8268
G01 X21.5466 Y-7.9514
G01 X21.5403 Y-7.9566
G01 X21.5227 Y-7.9727
G01 X21.5039 Y-7.9934
G01 X21.4871 Y-8.0161
G01 X21.4737 Y-8.0383
G01 X21.4607 Y-8.0655
G01 X21.4512 Y-8.0919
G01 X21.4444 Y-8.1192
G01 X21.4408 Y-8.1428
G01 X21.4400 Y-8.1512
G01 X21.4389 Y-8.1750
G01 X21.4389 Y-8.5771
G01 X21.4403 Y-8.6030
G01 X21.4437 Y-8.6267
G01 X21.4448 Y-8.6329
G01 X21.4506 Y-8.6560
G01 X21.4592 Y-8.6805
G01 X21.4622 Y-8.6880
G01 X21.4726 Y-8.7097
G01 X21.4871 Y-8.7339
G01 X21.5038 Y-8.7565
G01 X21.5198 Y-8.7742
G01 X21.5258 Y-8.7802
G01 X21.5435 Y-8.7962
G01 X21.5639 Y-8.8114
G01 X21.5696 Y-8.8151
G01 X21.5901 Y-8.8273
G01 X21.6155 Y-8.8393
G01 X21.6379 Y-8.8475
G01 X21.6460 Y-8.8499
G01 X21.6692 Y-8.8556
G01 X21.6928 Y-8.8592
G01 X21.7012 Y-8.8600
G01 X21.7250 Y-8.8611
G01 X22.2750 Y-8.8611
G01 X22.3009 Y-8.8599
G01 X22.3267 Y-8.8563
G01 X22.3349 Y-8.8547
G01 X22.3581 Y-8.8488
G01 X22.3843 Y-8.8394
G01 X22.4097 Y-8.8274
G01 X22.4304 Y-8.8151
G01 X22.4374 Y-8.8105
G01 X22.4581 Y-8.7948
G01 X22.4773 Y-8.7773
G01 X22.4962 Y-8.7565
G01 X22.5129 Y-8.7339
G01 X22.5273 Y-8.7099
G01 X22.5390 Y-8.6854
G01 X22.5487 Y-8.6583
G01 X22.5556 Y-8.6308
G01 X22.5597 Y-8.6030
G01 X22.5611 Y-8.5750
G01 X22.5610 Y-8.1708
G01 X22.5597 Y-8.1470
G01 X22.5556 Y-8.1192
G01 X22.5488 Y-8.0919
G01 X22.5384 Y-8.0633
G01 X22.5273 Y-8.0401
G01 X22.5151 Y-8.0196
G01 X22.5104 Y-8.0126
G01 X22.4962 Y-7.9935
G01 X22.4773 Y-7.9727
G01 X22.4597 Y-7.9566
G01 X22.4533 Y-7.9514
G01 X22.4326 Y-7.9362
G01 X22.4099 Y-7.9227
G01 X22.3883 Y-7.9124
G01 X22.3805 Y-7.9092
G01 X22.3565 Y-7.9008
G01 X22.3308 Y-7.8944
G01 X22.3051 Y-7.8905
G01 X22.2792 Y-7.8890
G01 X22.2637 Y-7.8889
G01 X22.2524 Y-7.8651
G01 X22.2380 Y-7.8410
G01 X22.2209 Y-7.8181
G01 X22.2038 Y-7.7991
G01 X21.8362 Y-7.4315
G01 X21.8362 Y-3.9429
G01 X21.8346 Y-3.9118
G01 X21.8298 Y-3.8795
G01 X21.8218 Y-3.8477
G01 X21.8122 Y-3.8203
G01 X21.8089 Y-3.8125
G01 X21.7984 Y-3.7903
G01 X21.7944 Y-3.7828
G01 X21.7795 Y-3.7581
G01 X21.7585 Y-3.7300
G01 X21.7377 Y-3.7073
G01 X20.7652 Y-2.7348
G01 X20.7440 Y-2.7154
G01 X20.7385 Y-2.7108
G01 X20.7178 Y-2.6954
G01 X20.7107 Y-2.6907
G01 X20.6841 Y-2.6750
G01 X20.6600 Y-2.6636
G01 X20.6522 Y-2.6603
G01 X20.6240 Y-2.6504
G01 X20.5931 Y-2.6427
G01 X20.5605 Y-2.6379
G01 X20.5253 Y-2.6363
G01 X20.3670 Y-2.4780
G01 X20.3515 Y-2.4638
G01 X20.3319 Y-2.4491
G01 X20.3132 Y-2.4377
G01 X20.2911 Y-2.4271
G01 X20.2740 Y-2.4208
G01 X20.2681 Y-2.4046
G01 X20.2601 Y-2.3875
G01 X20.2569 Y-2.3814
G01 X20.2463 Y-2.3638
G01 X20.2351 Y-2.3486
G01 X20.2297 Y-2.3420
G01 X20.2169 Y-2.3281
G01 X20.2014 Y-2.3139
G01 X20.1812 Y-2.2987
G01 X20.1650 Y-2.2889
G01 X20.1575 Y-2.2849
G01 X20.1406 Y-2.2770
G01 X20.1225 Y-2.2704
G01 X20.1149 Y-2.2681
G01 X20.0981 Y-2.2639
G01 X20.0731 Y-2.2600
G01 X20.0500 Y-2.2589
G01 X18.6958 Y-2.2590
G01 X18.6769 Y-2.2600
G01 X18.6539 Y-2.2634
G01 X18.6315 Y-2.2691
G01 X18.6096 Y-2.2769
G01 X18.5890 Y-2.2866
G01 X18.5688 Y-2.2987
G01 X18.5502 Y-2.3125
G01 X18.5329 Y-2.3282
G01 X18.3993 Y-2.1947
G01 X18.3811 Y-2.1784
G01 X18.3625 Y-2.1645
G01 X18.3554 Y-2.1598
G01 X18.3349 Y-2.1476
G01 X18.3097 Y-2.1357
G01 X18.2871 Y-2.1274
G01 X18.2796 Y-2.1251
G01 X18.2538 Y-2.1189
G01 X18.2281 Y-2.1152
G01 X18.2042 Y-2.1139
G01 X18.1357 Y-2.1138
G01 X18.1347 Y-2.0970
G01 X18.1310 Y-2.0713
G01 X18.1231 Y-2.0399
G01 X18.1141 Y-2.0149
G01 X18.1042 Y-1.9939
G01 X18.1002 Y-1.9865
G01 X18.0867 Y-1.9643
G01 X18.0712 Y-1.9435
G01 X18.0552 Y-1.9258
G01 X18.0492 Y-1.9198
G01 X18.0316 Y-1.9039
G01 X18.0124 Y-1.8895
G01 X18.0054 Y-1.8849
G01 X17.9849 Y-1.8727
G01 X17.9597 Y-1.8608
G01 X17.9333 Y-1.8513
G01 X17.9058 Y-1.8444
G01 X17.8780 Y-1.8403
G01 X17.8521 Y-1.8389
G01 X17.4500 Y-1.8389
G01 X17.4220 Y-1.8403
G01 X17.3983 Y-1.8437
G01 X17.3921 Y-1.8448
G01 X17.3710 Y-1.8501
G01 X17.3629 Y-1.8525
G01 X17.3405 Y-1.8607
G01 X17.3170 Y-1.8717
G01 X17.2946 Y-1.8849
G01 X17.2876 Y-1.8896
G01 X17.2685 Y-1.9038
G01 X17.2508 Y-1.9198
G01 X17.2448 Y-1.9258
G01 X17.2289 Y-1.9434
G01 X17.2145 Y-1.9626
G01 X17.2099 Y-1.9696
G01 X17.1977 Y-1.9901
G01 X17.1868 Y-2.0128
G01 X17.1775 Y-2.0379
G01 X17.1751 Y-2.0460
G01 X17.1694 Y-2.0692
G01 X17.1658 Y-2.0928
G01 X17.1650 Y-2.1012
G01 X17.1639 Y-2.1250
G01 X17.1639 Y-2.6750
G01 X17.1653 Y-2.7030
G01 X17.1687 Y-2.7267
G01 X17.1703 Y-2.7349
G00 Z0.5000
G00 X18.4999 Y-3.2432
G01 F90.00
G01 Z-0.0800
G01 F240.00
G01 X18.5292 Y-3.3049
G01 X18.5495 Y-3.2977
G01 X18.5736 Y-3.2907
G01 X18.6042 Y-3.2835
G01 X18.6249 Y-3.2800
G01 X18.6124 Y-3.2781
G01 X18.5960 Y-3.2748
G01 X18.5718 Y-3.2688
G01 X18.5566 Y-3.2645
G01 X18.5416 Y-3.2596
G01 X18.5195 Y-3.2515
G01 X18.4999 Y-3.2432
G00 Z0.5000
G00 X18.6249 Y-4.5500
G01 F90.00
G01 Z-0.0800
G01 F240.00
G01 X18.6124 Y-4.5481
G01 X18.5960 Y-4.5448
G01 X18.5718 Y-4.5388
G01 X18.5566 Y-4.5345
G01 X18.5416 Y-4.5296
G01 X18.5195 Y-4.5215
G01 X18.5040 Y-4.5151
G01 X18.4882 Y-4.5077
G01 X18.4598 Y-4.5618
G01 X18.4513 Y-4.5764
G01 X18.4420 Y-4.5906
G01 X18.4320 Y-4.6042
G01 X18.4213 Y-4.6174
G01 X18.4101 Y-4.6300
G01 X18.3962 Y-4.6439
G01 X18.4034 Y-4.6439
G01 X18.4272 Y-4.6268
G01 X18.4561 Y-4.6090
G01 X18.4765 Y-4.5979
G01 X18.4968 Y-4.5882
G01 X18.5118 Y-4.5816
G01 X18.5416 Y-4.5704
G01 X18.5655 Y-4.5629
G01 X18.5960 Y-4.5552
G01 X18.6124 Y-4.5519
G01 X18.6249 Y-4.5500
G00 Z0.5000
G00 X18.3164 Y-5.7261
G01 F90.00
G01 Z-0.0800
G01 F240.00
G01 X18.3355 Y-5.7383
G01 X18.3553 Y-5.7531
G01 X18.3740 Y-5.7692
G01 X18.3915 Y-5.7867
G01 X18.4024 Y-5.7990
G01 X18.4127 Y-5.8119
G01 X18.4598 Y-5.8769
G01 X18.4765 Y-5.8679
G01 X18.5042 Y-5.8548
G01 X18.5197 Y-5.8484
G01 X18.5416 Y-5.8404
G01 X18.5655 Y-5.8329
G01 X18.5879 Y-5.8271
G01 X18.6042 Y-5.8235
G01 X18.6249 Y-5.8200
G01 X18.6124 Y-5.8181
G01 X18.5960 Y-5.8148
G01 X18.5642 Y-5.8068
G01 X18.5416 Y-5.7996
G01 X18.5113 Y-5.7882
G01 X18.4835 Y-5.7755
G01 X18.4612 Y-5.7639
G01 X18.4414 Y-5.7522
G01 X18.4272 Y-5.7432
G01 X18.4034 Y-5.7261
G01 X18.3164 Y-5.7261
G00 Z0.5000
G00 X17.5908 Y-5.8149
G01 F90.00
G01 Z-0.0800
G01 F240.00
G01 X17.6032 Y-5.8086
G01 X17.6176 Y-5.8024
G01 X17.6325 Y-5.7972
G01 X17.6426 Y-5.7943
G01 X17.6579 Y-5.7910
G01 X17.6683 Y-5.7894
G01 X17.6942 Y-5.7871
G01 X17.7054 Y-5.7865
G01 X18.0888 Y-5.7865
G01 X18.0991 Y-5.7870
G01 X18.1144 Y-5.7887
G01 X18.1297 Y-5.7915
G01 X18.1397 Y-5.7940
G01 X18.2127 Y-5.8175
G01 X18.2318 Y-5.8253
G01 X18.2500 Y-5.8349
G01 X18.2631 Y-5.8432
G01 X18.2755 Y-5.8524
G01 X18.2909 Y-5.8661
G01 X18.3016 Y-5.8773
G01 X18.3115 Y-5.8893
G01 X18.3535 Y-5.9471
G01 X18.3644 Y-5.9646
G01 X18.3735 Y-5.9831
G01 X18.3808 Y-6.0024
G01 X18.3862 Y-6.0223
G01 X18.3896 Y-6.0415
G01 X18.4497 Y-6.0415
G01 X18.4654 Y-6.0274
G01 X18.4735 Y-6.0207
G01 X18.4937 Y-6.0057
G01 X18.5024 Y-5.9999
G01 X18.5293 Y-5.9840
G01 X18.5513 Y-5.9734
G01 X18.5656 Y-5.9672
G01 X18.5945 Y-5.9571
G01 X18.6046 Y-5.9543
G01 X18.6291 Y-5.9485
G01 X18.6394 Y-5.9467
G01 X18.6644 Y-5.9432
G01 X18.6895 Y-5.9417
G01 X18.7000 Y-5.9415
G01 X20.0500 Y-5.9415
G01 X20.0752 Y-5.9425
G01 X20.0856 Y-5.9432
G01 X20.0960 Y-5.9445
G01 X20.1158 Y-5.9475
G01 X20.1260 Y-5.9495
G01 X20.1561 Y-5.9573
G01 X20.1793 Y-5.9654
G01 X20.1897 Y-5.9694
G01 X20.2214 Y-5.9844
G01 X20.2431 Y-5.9971
G01 X20.2520 Y-6.0027
G01 X20.2605 Y-6.0088
G01 X20.2765 Y-6.0207
G01 X20.2863 Y-6.0289
G01 X20.2863 Y-5.6111
G01 X20.2765 Y-5.6193
G01 X20.2605 Y-5.6312
G01 X20.2520 Y-5.6373
G01 X20.2431 Y-5.6429
G01 X20.2207 Y-5.6560
G01 X20.1893 Y-5.6708
G01 X20.1793 Y-5.6746
G01 X20.1555 Y-5.6829
G01 X20.1260 Y-5.6905
G01 X20.1158 Y-5.6925
G01 X20.0960 Y-5.6955
G01 X20.0856 Y-5.6968
G01 X20.0752 Y-5.6975
G01 X20.0500 Y-5.6985
G01 X18.7000 Y-5.6985
G01 X18.6895 Y-5.6983
G01 X18.6644 Y-5.6968
G01 X18.6394 Y-5.6933
G01 X18.6291 Y-5.6915
G01 X18.6046 Y-5.6857
G01 X18.5939 Y-5.6827
G01 X18.5655 Y-5.6727
G01 X18.5558 Y-5.6687
G01 X18.5333 Y-5.6580
G01 X18.5240 Y-5.6531
G01 X18.5024 Y-5.6401
G01 X18.4937 Y-5.6343
G01 X18.4735 Y-5.6193
G01 X18.4654 Y-5.6126
G01 X18.4498 Y-5.5986
G01 X18.2092 Y-5.5986
G01 X18.1777 Y-5.6133
G01 X18.1677 Y-5.6171
G01 X18.1346 Y-5.6287
G01 X18.1245 Y-5.6315
G01 X18.0905 Y-5.6397
G01 X18.0558 Y-5.6451
G01 X18.0454 Y-5.6464
G01 X18.0350 Y-5.6472
G01 X18.0000 Y-5.6487
G01 X17.7571 Y-5.6487
G01 X17.5908 Y-5.8149
G00 Z0.5000
G00 X15.9714 Y-4.9465
G01 F90.00
G01 Z-0.0800
G01 F240.00
G01 X15.9576 Y-4.9253
G01 X15.9493 Y-4.9107
G01 X15.9418 Y-4.8958
G01 X15.9350 Y-4.8805
G01 X15.9290 Y-4.8649
G01 X15.9214 Y-4.8409
G01 X15.9156 Y-4.8165
G01 X15.9127 Y-4.8000
G01 X15.9107 Y-4.7834
G01 X15.9091 Y-4.7584
G01 X15.9091 Y-4.7285
G01 X15.0250 Y-4.7285
G01 X14.9838 Y-4.7268
G01 X14.9588 Y-4.7247
G01 X14.9262 Y-4.7200
G01 X14.9097 Y-4.7171
G01 X14.8934 Y-4.7134
G01 X14.8579 Y-4.7043
G01 X14.8443 Y-4.7001
G01 X14.8145 Y-4.6895
G01 X14.7954 Y-4.6820
G01 X14.7836 Y-4.6767
G01 X14.7539 Y-4.6625
G01 X14.7391 Y-4.6546
G01 X14.7108 Y-4.6378
G01 X14.6967 Y-4.6289
G01 X14.6830 Y-4.6192
G01 X14.6521 Y-4.5959
G01 X14.6374 Y-4.5834
G01 X14.6211 Y-4.5686
G01 X14.6004 Y-4.5872
G01 X14.5830 Y-4.6013
G01 X14.5575 Y-4.6201
G01 X14.5365 Y-4.6338
G01 X14.5051 Y-4.6522
G01 X14.4724 Y-4.6681
G01 X14.4505 Y-4.6775
G01 X14.4230 Y-4.6875
G01 X14.3990 Y-4.6951
G01 X14.3631 Y-4.7041
G01 X14.3471 Y-4.7072
G01 X14.3139 Y-4.7122
G01 X14.2956 Y-4.7141
G01 X14.2584 Y-4.7160
G01 X14.1949 Y-4.7161
G01 X14.1822 Y-4.7309
G01 X14.1575 Y-4.7575
G01 X14.1454 Y-4.7691
G01 X14.1246 Y-4.7878
G01 X14.1116 Y-4.7984
G01 X14.0892 Y-4.8152
G01 X14.0755 Y-4.8248
G01 X14.0614 Y-4.8337
G01 X14.0361 Y-4.8487
G01 X14.0222 Y-4.8561
G01 X13.9961 Y-4.8686
G01 X13.9814 Y-4.8750
G01 X13.9479 Y-4.8874
G01 X13.9320 Y-4.8927
G01 X13.9159 Y-4.8971
G01 X13.8887 Y-4.9038
G01 X13.8640 Y-4.9084
G01 X13.8280 Y-4.9134
G01 X13.7917 Y-4.9155
G01 X13.7750 Y-4.9160
G01 X13.2250 Y-4.9160
G01 X13.2083 Y-4.9155
G01 X13.1803 Y-4.9141
G01 X13.1637 Y-4.9124
G01 X13.1403 Y-4.9091
G01 X13.1437 Y-4.9300
G01 X13.1454 Y-4.9469
G01 X13.1463 Y-4.9638
G01 X13.1464 Y-4.9807
G01 X13.1456 Y-4.9976
G01 X13.1406 Y-5.0673
G01 X13.1380 Y-5.0913
G01 X13.1637 Y-5.0876
G01 X13.1803 Y-5.0859
G01 X13.2083 Y-5.0845
G01 X13.2250 Y-5.0840
G01 X13.7750 Y-5.0840
G01 X13.8113 Y-5.0854
G01 X13.8363 Y-5.0876
G01 X13.8640 Y-5.0916
G01 X13.8805 Y-5.0944
G01 X13.9182 Y-5.1035
G01 X13.9332 Y-5.1077
G01 X13.9479 Y-5.1126
G01 X13.9760 Y-5.1228
G01 X13.9914 Y-5.1293
G01 X14.0151 Y-5.1404
G01 X14.0300 Y-5.1479
G01 X14.0446 Y-5.1562
G01 X14.0685 Y-5.1706
G01 X14.0824 Y-5.1799
G01 X14.1056 Y-5.1970
G01 X14.1185 Y-5.2071
G01 X14.1337 Y-5.2203
G01 X14.1693 Y-5.2112
G01 X14.1931 Y-5.2062
G01 X14.2337 Y-5.2002
G01 X14.2588 Y-5.1980
G01 X14.3000 Y-5.1964
G01 X14.5426 Y-5.1964
G01 X14.5610 Y-5.1717
G01 X14.5729 Y-5.1570
G01 X14.6013 Y-5.1256
G01 X14.6131 Y-5.1138
G01 X14.6430 Y-5.0867
G01 X14.6544 Y-5.0772
G01 X14.6830 Y-5.0558
G01 X14.7037 Y-5.0416
G01 X14.7391 Y-5.0204
G01 X14.7539 Y-5.0125
G01 X14.7899 Y-4.9954
G01 X14.8062 Y-4.9886
G01 X14.8455 Y-4.9745
G01 X14.8615 Y-4.9697
G01 X14.9015 Y-4.9596
G01 X14.9262 Y-4.9550
G01 X14.9588 Y-4.9503
G01 X14.9754 Y-4.9487
G01 X15.0083 Y-4.9470
G01 X15.0250 Y-4.9465
G01 X15.9714 Y-4.9465
G00 Z0.5000
G00 X14.8643 Y-4.8375
G01 F90.00
G01 Z-0.0800
G01 F240.00
G01 X14.8386 Y-4.8311
G01 X14.8132 Y-4.8239
G01 X14.7715 Y-4.8095
G01 X14.7453 Y-4.7992
G01 X14.7069 Y-4.7814
G01 X14.6864 Y-4.7711
G01 X14.6664 Y-4.7597
G01 X14.6453 Y-4.7471
G01 X14.6207 Y-4.7313
G01 X14.6020 Y-4.7431
G01 X14.5752 Y-4.7590
G01 X14.5549 Y-4.7698
G01 X14.5268 Y-4.7833
G01 X14.5091 Y-4.7912
G01 X14.4968 Y-4.7962
G01 X14.4659 Y-4.8075
G01 X14.4441 Y-4.8147
G01 X14.4219 Y-4.8208
G01 X14.3907 Y-4.8285
G01 X14.3688 Y-4.8328
G01 X14.3578 Y-4.8346
G01 X14.3305 Y-4.8385
G01 X14.3053 Y-4.8412
G01 X14.2730 Y-4.8429
G01 X14.2517 Y-4.8435
G01 X14.2310 Y-4.8635
G01 X14.2078 Y-4.8843
G01 X14.1990 Y-4.8917
G01 X14.1900 Y-4.8989
G01 X14.1651 Y-4.9175
G01 X14.1463 Y-4.9307
G01 X14.1367 Y-4.9370
G01 X14.1079 Y-4.9544
G01 X14.0889 Y-4.9651
G01 X14.0793 Y-4.9700
G01 X14.0400 Y-4.9886
G01 X14.0114 Y-5.0000
G01 X14.0225 Y-5.0042
G01 X14.0437 Y-5.0131
G01 X14.0695 Y-5.0252
G01 X14.0901 Y-5.0355
G01 X14.1101 Y-5.0469
G01 X14.1367 Y-5.0630
G01 X14.1463 Y-5.0693
G01 X14.1644 Y-5.0819
G01 X14.2068 Y-5.0753
G01 X14.2296 Y-5.0725
G01 X14.2525 Y-5.0708
G01 X14.2770 Y-5.0696
G01 X14.3000 Y-5.0690
G01 X14.4806 Y-5.0690
G01 X14.5012 Y-5.0462
G01 X14.5170 Y-5.0295
G01 X14.5337 Y-5.0137
G01 X14.5595 Y-4.9904
G01 X14.5752 Y-4.9774
G01 X14.6071 Y-4.9534
G01 X14.6259 Y-4.9402
G01 X14.6453 Y-4.9279
G01 X14.6763 Y-4.9095
G01 X14.6966 Y-4.8986
G01 X14.7291 Y-4.8831
G01 X14.7489 Y-4.8743
G01 X14.7715 Y-4.8655
G01 X14.8055 Y-4.8535
G01 X14.8275 Y-4.8468
G01 X14.8643 Y-4.8375
G00 Z0.5000
G00 X15.8861 Y-8.2764
G01 F90.00
G01 Z-0.0800
G01 F240.00
G01 X16.1139 Y-8.2764
G01 X16.1139 Y-7.9750
G01 X16.1153 Y-7.9498
G01 X16.1184 Y-7.9289
G01 X16.1241 Y-7.9062
G01 X16.1320 Y-7.8844
G01 X16.1399 Y-7.8675
G01 X16.1439 Y-7.8600
G01 X16.1549 Y-7.8421
G01 X16.1662 Y-7.8269
G01 X16.1703 Y-7.8220
G01 X16.1816 Y-7.8096
G01 X16.1861 Y-7.8051
G01 X16.2002 Y-7.7925
G01 X16.2139 Y-7.7822
G01 X16.2139 Y-7.5300
G01 X16.1205 Y-7.5668
G01 X16.0189 Y-7.6439
G01 X15.9418 Y-7.7455
G01 X15.8948 Y-7.8648
G01 X15.8861 Y-7.9371
G01 X15.8861 Y-8.2764
G00 Z0.5000
G00 X16.8678 Y-9.6172
G01 F90.00
G01 Z-0.0800
G01 F240.00
G01 X16.8828 Y-9.5914
G01 X16.8918 Y-9.5772
G01 X16.8746 Y-9.5865
G01 X16.8510 Y-9.5978
G01 X16.8678 Y-9.6172
G00 Z0.5000
G00 X17.7361 Y-9.6572
G01 F90.00
G01 Z-0.0800
G01 F240.00
G01 X17.7498 Y-9.6675
G01 X17.7669 Y-9.6831
G01 X17.7825 Y-9.7002
G01 X17.7963 Y-9.7188
G01 X17.8084 Y-9.7390
G01 X17.8179 Y-9.7591
G01 X17.8259 Y-9.7815
G01 X17.8316 Y-9.8039
G01 X17.8350 Y-9.8269
G01 X17.8361 Y-9.8479
G01 X17.8361 Y-10.1514
G01 X18.0639 Y-10.1514
G01 X18.0639 Y-9.8121
G01 X18.0552 Y-9.7398
G01 X18.0082 Y-9.6205
G01 X17.9311 Y-9.5189
G01 X17.8295 Y-9.4418
G01 X17.7361 Y-9.4050
G01 X17.7361 Y-9.6572
G00 Z0.5000
G00 X18.1861 Y-8.2861
G01 F90.00
G01 Z-0.0800
G01 F240.00
G01 X18.1861 Y-8.3097
G01 X18.1879 Y-8.3330
G01 X18.2264 Y-8.4655
G01 X18.2958 Y-8.5829
G01 X18.3921 Y-8.6792
G01 X18.5093 Y-8.7485
G01 X18.6420 Y-8.7871
G01 X18.6639 Y-8.7888
G01 X18.6639 Y-8.5550
G01 X18.6345 Y-8.5476
G01 X18.6099 Y-8.5389
G01 X18.6021 Y-8.5357
G01 X18.5783 Y-8.5244
G01 X18.5522 Y-8.5087
G01 X18.5308 Y-8.4930
G01 X18.5260 Y-8.4891
G01 X18.5081 Y-8.4729
G01 X18.5021 Y-8.4669
G01 X18.4845 Y-8.4474
G01 X18.4675 Y-8.4246
G01 X18.4527 Y-8.4003
G01 X18.4487 Y-8.3929
G01 X18.4378 Y-8.3696
G01 X18.4273 Y-8.3403
G01 X18.4199 Y-8.3107
G01 X18.4161 Y-8.2861
G01 X18.1861 Y-8.2861
G00 Z0.5000
G00 X19.8241 Y-7.2234
G01 F90.00
G01 Z-0.0800
G01 F240.00
G01 X19.6259 Y-7.2234
G01 X19.6571 Y-7.2517
G01 X19.6733 Y-7.2679
G01 X19.7036 Y-7.3013
G01 X19.7110 Y-7.3101
G01 X19.7250 Y-7.3281
G01 X19.7323 Y-7.3185
G01 X19.7466 Y-7.3011
G01 X19.7764 Y-7.2682
G01 X19.7921 Y-7.2525
G01 X19.8241 Y-7.2234
G00 Z0.5000
G00 X20.1490 Y-7.0858
G01 F90.00
G01 Z-0.0800
G01 F240.00
G01 X20.1293 Y-7.0894
G01 X20.0981 Y-7.0936
G01 X20.0814 Y-7.0948
G01 X20.0500 Y-7.0960
G01 X18.7679 Y-7.0960
G01 X18.7683 Y-7.1192
G01 X18.7669 Y-7.1840
G01 X19.1750 Y-7.1840
G01 X19.1917 Y-7.1845
G01 X19.2233 Y-7.1861
G01 X19.2423 Y-7.1881
G01 X19.2772 Y-7.1934
G01 X19.2936 Y-7.1967
G01 X19.3232 Y-7.2040
G01 X19.3402 Y-7.2087
G01 X19.3552 Y-7.2137
G01 X19.3842 Y-7.2242
G01 X19.3997 Y-7.2306
G01 X19.4344 Y-7.2470
G01 X19.4564 Y-7.2591
G01 X19.4894 Y-7.2794
G01 X19.5215 Y-7.3027
G01 X19.5406 Y-7.3180
G01 X19.5692 Y-7.3440
G01 X19.5867 Y-7.3619
G01 X19.6125 Y-7.3910
G01 X19.6359 Y-7.4219
G01 X19.6456 Y-7.4356
G01 X19.6668 Y-7.4702
G01 X19.6782 Y-7.4911
G01 X19.6945 Y-7.5255
G01 X19.7039 Y-7.5490
G01 X19.7166 Y-7.5857
G01 X19.7250 Y-7.6176
G01 X19.7337 Y-7.5848
G01 X19.7461 Y-7.5490
G01 X19.7556 Y-7.5253
G01 X19.7683 Y-7.4982
G01 X19.7799 Y-7.4759
G01 X19.7999 Y-7.4426
G01 X19.8092 Y-7.4287
G01 X19.8326 Y-7.3970
G01 X19.8484 Y-7.3783
G01 X19.8744 Y-7.3502
G01 X19.8869 Y-7.3383
G01 X19.9160 Y-7.3125
G01 X19.9469 Y-7.2891
G01 X19.9676 Y-7.2749
G01 X19.9991 Y-7.2559
G01 X20.0150 Y-7.2473
G01 X20.0239 Y-7.2430
G01 X20.0412 Y-7.2135
G01 X20.0501 Y-7.1994
G01 X20.0598 Y-7.1857
G01 X20.0804 Y-7.1584
G01 X20.0927 Y-7.1441
G01 X20.1116 Y-7.1234
G01 X20.1490 Y-7.0858
G00 Z0.5000
G00 X20.2863 Y-6.8811
G01 F90.00
G01 Z-0.0800
G01 F240.00
G01 X20.2765 Y-6.8893
G01 X20.2605 Y-6.9012
G01 X20.2520 Y-6.9073
G01 X20.2431 Y-6.9129
G01 X20.2250 Y-6.9236
G01 X20.2164 Y-6.9282
G01 X20.1940 Y-6.9387
G01 X20.1844 Y-6.9428
G01 X20.1555 Y-6.9529
G01 X20.1454 Y-6.9557
G01 X20.1209 Y-6.9615
G01 X20.0908 Y-6.9662
G01 X20.0804 Y-6.9672
G01 X20.0605 Y-6.9683
G01 X20.0500 Y-6.9685
G01 X18.6948 Y-6.9685
G01 X18.6644 Y-6.9668
G01 X18.6394 Y-6.9633
G01 X18.6291 Y-6.9615
G01 X18.5987 Y-6.9541
G01 X18.5892 Y-6.9512
G01 X18.5710 Y-6.9447
G01 X18.6084 Y-6.9989
G01 X18.6161 Y-7.0123
G01 X18.6249 Y-7.0310
G01 X18.6318 Y-7.0504
G01 X18.6368 Y-7.0705
G01 X18.6386 Y-7.0806
G01 X18.6403 Y-7.0960
G01 X18.6409 Y-7.1166
G01 X18.6396 Y-7.1778
G01 X18.6387 Y-7.1933
G01 X18.6375 Y-7.2035
G01 X18.6348 Y-7.2187
G01 X18.6295 Y-7.2387
G01 X18.6242 Y-7.2532
G01 X18.6201 Y-7.2627
G01 X18.6131 Y-7.2765
G01 X18.6079 Y-7.2854
G01 X18.5993 Y-7.2983
G01 X18.5670 Y-7.3411
G01 X18.5977 Y-7.3304
G01 X18.6292 Y-7.3222
G01 X18.6394 Y-7.3199
G01 X18.6809 Y-7.3137
G01 X18.7145 Y-7.3117
G01 X18.7250 Y-7.3115
G01 X19.1750 Y-7.3115
G01 X19.2135 Y-7.3132
G01 X19.2254 Y-7.3144
G01 X19.2502 Y-7.3181
G01 X19.2606 Y-7.3199
G01 X19.2708 Y-7.3222
G01 X19.3029 Y-7.3305
G01 X19.3330 Y-7.3411
G01 X19.3434 Y-7.3451
G01 X19.3724 Y-7.3585
G01 X19.3817 Y-7.3633
G01 X19.4098 Y-7.3798
G01 X19.4186 Y-7.3854
G01 X19.4272 Y-7.3914
G01 X19.4494 Y-7.4080
G01 X19.4573 Y-7.4145
G01 X19.4851 Y-7.4399
G01 X19.4923 Y-7.4475
G01 X19.5140 Y-7.4718
G01 X19.5336 Y-7.4978
G01 X19.5396 Y-7.5064
G01 X19.5566 Y-7.5342
G01 X19.5620 Y-7.5438
G01 X19.5801 Y-7.5820
G01 X19.5839 Y-7.5920
G01 X19.5946 Y-7.6227
G01 X19.6028 Y-7.6542
G01 X19.6051 Y-7.6644
G01 X19.6101 Y-7.6966
G01 X19.6115 Y-7.7074
G01 X19.6133 Y-7.7395
G01 X19.6135 Y-7.7500
G01 X19.6135 Y-8.2500
G01 X19.6118 Y-8.2885
G01 X19.6101 Y-8.3034
G01 X19.6051 Y-8.3356
G01 X19.5974 Y-8.3672
G01 X19.5945 Y-8.3779
G01 X19.5839 Y-8.4080
G01 X19.5792 Y-8.4200
G01 X19.5642 Y-8.4521
G01 X19.5576 Y-8.4640
G01 X19.6168 Y-8.4339
G01 X19.6263 Y-8.4297
G01 X19.6407 Y-8.4242
G01 X19.6606 Y-8.4185
G01 X19.6758 Y-8.4156
G01 X19.6911 Y-8.4137
G01 X19.7066 Y-8.4129
G01 X19.7220 Y-8.4133
G01 X19.7375 Y-8.4148
G01 X19.8030 Y-8.4251
G01 X19.8134 Y-8.4270
G01 X19.8237 Y-8.4295
G01 X19.8389 Y-8.4341
G01 X19.8488 Y-8.4378
G01 X19.8586 Y-8.4419
G01 X19.8728 Y-8.4491
G01 X19.8898 Y-8.4596
G01 X19.8835 Y-8.4474
G01 X19.8705 Y-8.4193
G01 X19.8586 Y-8.3872
G01 X19.8539 Y-8.3723
G01 X19.8460 Y-8.3407
G01 X19.8431 Y-8.3252
G01 X19.8386 Y-8.2930
G01 X19.8367 Y-8.2605
G01 X19.8365 Y-8.2500
G01 X19.8365 Y-7.7448
G01 X19.8381 Y-7.7122
G01 X19.8399 Y-7.6966
G01 X19.8449 Y-7.6644
G01 X19.8526 Y-7.6328
G01 X19.8570 Y-7.6174
G01 X19.8680 Y-7.5868
G01 X19.8741 Y-7.5726
G01 X19.8883 Y-7.5433
G01 X19.9048 Y-7.5152
G01 X19.9104 Y-7.5064
G01 X19.9299 Y-7.4797
G01 X19.9395 Y-7.4677
G01 X19.9647 Y-7.4402
G01 X19.9889 Y-7.4179
G01 X20.0009 Y-7.4077
G01 X20.0270 Y-7.3883
G01 X20.0402 Y-7.3798
G01 X20.0675 Y-7.3637
G01 X20.1023 Y-7.3470
G01 X20.1183 Y-7.3406
G01 X20.1328 Y-7.3097
G01 X20.1404 Y-7.2959
G01 X20.1561 Y-7.2702
G01 X20.1794 Y-7.2386
G01 X20.1871 Y-7.2297
G01 X20.2075 Y-7.2075
G01 X20.3009 Y-7.1141
G01 X20.2963 Y-7.0956
G01 X20.2943 Y-7.0853
G01 X20.2899 Y-7.0558
G01 X20.2881 Y-7.0402
G01 X20.2863 Y-7.0000
G01 X20.2863 Y-6.8811
G00 Z0.5000
G00 X20.1251 Y-5.8200
G01 F90.00
G01 Z-0.0800
G01 F240.00
G01 X20.1458 Y-5.8235
G01 X20.1589 Y-5.8264
G01 X20.1589 Y-5.8136
G01 X20.1458 Y-5.8165
G01 X20.1251 Y-5.8200
G00 Z0.5000
G00 X20.1589 Y-4.5564
G01 F90.00
G01 Z-0.0800
G01 F240.00
G01 X20.1589 Y-4.5436
G01 X20.1458 Y-4.5465
G01 X20.1251 Y-4.5500
G01 X20.1458 Y-4.5535
G01 X20.1589 Y-4.5564
G00 Z0.5000
G00 X23.5865 Y-5.0350
G01 F90.00
G01 Z-0.0800
G01 F240.00
G01 X23.5865 Y-5.3350
G01 X23.5878 Y-5.3654
G01 X23.5888 Y-5.3758
G01 X23.5925 Y-5.4008
G01 X23.5945 Y-5.4110
G01 X23.5993 Y-5.4304
G01 X23.6021 Y-5.4405
G01 X23.6054 Y-5.4505
G01 X23.6122 Y-5.4694
G01 X23.6163 Y-5.4790
G01 X23.6290 Y-5.5057
G01 X23.6421 Y-5.5281
G01 X23.6507 Y-5.5413
G01 X23.6657 Y-5.5615
G01 X23.6758 Y-5.5736
G01 X23.6929 Y-5.5921
G01 X23.7114 Y-5.6092
G01 X23.7235 Y-5.6193
G01 X23.7437 Y-5.6343
G01 X23.7569 Y-5.6429
G01 X23.7786 Y-5.6556
G01 X23.8058 Y-5.6687
G01 X23.8207 Y-5.6746
G01 X23.8439 Y-5.6827
G01 X23.8689 Y-5.6892
G01 X23.8842 Y-5.6925
G01 X23.9144 Y-5.6968
G01 X23.9395 Y-5.6983
G01 X23.9500 Y-5.6985
G01 X25.3000 Y-5.6985
G01 X25.3252 Y-5.6975
G01 X25.3356 Y-5.6968
G01 X25.3658 Y-5.6925
G01 X25.3760 Y-5.6905
G01 X25.3954 Y-5.6857
G01 X25.4055 Y-5.6829
G01 X25.4155 Y-5.6796
G01 X25.4393 Y-5.6708
G01 X25.4707 Y-5.6560
G01 X25.4976 Y-5.6401
G01 X25.5105 Y-5.6312
G01 X25.5265 Y-5.6193
G01 X25.5346 Y-5.6126
G01 X25.5571 Y-5.5921
G01 X25.5776 Y-5.5696
G01 X25.5875 Y-5.5574
G01 X25.5993 Y-5.5413
G01 X25.6051 Y-5.5326
G01 X25.6206 Y-5.5064
G01 X25.6356 Y-5.4747
G01 X25.6446 Y-5.4505
G01 X25.6504 Y-5.4316
G01 X25.6555 Y-5.4110
G01 X25.6575 Y-5.4008
G01 X25.6618 Y-5.3706
G01 X25.6635 Y-5.3402
G01 X25.6635 Y-5.0350
G01 X25.6633 Y-5.0245
G01 X25.6622 Y-5.0046
G01 X25.6612 Y-4.9942
G01 X25.6575 Y-4.9692
G01 X25.6555 Y-4.9590
G01 X25.6479 Y-4.9295
G01 X25.6396 Y-4.9057
G01 X25.6358 Y-4.8957
G01 X25.6232 Y-4.8686
G01 X25.6162 Y-4.8558
G01 X25.6023 Y-4.8330
G01 X25.5875 Y-4.8126
G01 X25.5776 Y-4.8004
G01 X25.5607 Y-4.7817
G01 X25.5495 Y-4.7707
G01 X25.5306 Y-4.7540
G01 X25.5105 Y-4.7388
G01 X25.4976 Y-4.7299
G01 X25.4714 Y-4.7144
G01 X25.4487 Y-4.7034
G01 X25.4345 Y-4.6973
G01 X25.4061 Y-4.6873
G01 X25.3811 Y-4.6808
G01 X25.3658 Y-4.6775
G01 X25.3356 Y-4.6732
G01 X25.3252 Y-4.6725
G01 X25.3000 Y-4.6715
G01 X23.9500 Y-4.6715
G01 X23.9395 Y-4.6717
G01 X23.9144 Y-4.6732
G01 X23.8894 Y-4.6767
G01 X23.8791 Y-4.6785
G01 X23.8546 Y-4.6843
G01 X23.8445 Y-4.6871
G01 X23.8156 Y-4.6972
G01 X23.8060 Y-4.7013
G01 X23.7836 Y-4.7118
G01 X23.7750 Y-4.7164
G01 X23.7569 Y-4.7271
G01 X23.7480 Y-4.7327
G01 X23.7395 Y-4.7388
G01 X23.7235 Y-4.7507
G01 X23.7154 Y-4.7574
G01 X23.6929 Y-4.7779
G01 X23.6857 Y-4.7855
G01 X23.6690 Y-4.8044
G01 X23.6625 Y-4.8126
G01 X23.6477 Y-4.8330
G01 X23.6319 Y-4.8590
G01 X23.6270 Y-4.8683
G01 X23.6163 Y-4.8908
G01 X23.6123 Y-4.9005
G01 X23.6054 Y-4.9195
G01 X23.5996 Y-4.9384
G01 X23.5945 Y-4.9590
G01 X23.5925 Y-4.9692
G01 X23.5882 Y-4.9994
G01 X23.5875 Y-5.0098
G01 X23.5865 Y-5.0350
G00 Z0.5000
G00 X23.7139 Y-5.0350
G01 F90.00
G01 Z-0.0800
G01 F240.00
G01 X23.7139 Y-5.3371
G01 X23.7150 Y-5.3581
G01 X23.7180 Y-5.3790
G01 X23.7229 Y-5.3995
G01 X23.7254 Y-5.4075
G01 X23.7319 Y-5.4254
G01 X23.7399 Y-5.4425
G01 X23.7436 Y-5.4495
G01 X23.7537 Y-5.4662
G01 X23.7649 Y-5.4814
G01 X23.7703 Y-5.4880
G01 X23.7831 Y-5.5019
G01 X23.7970 Y-5.5147
G01 X23.8036 Y-5.5201
G01 X23.8188 Y-5.5313
G01 X23.8350 Y-5.5411
G01 X23.8425 Y-5.5451
G01 X23.8594 Y-5.5530
G01 X23.8775 Y-5.5596
G01 X23.8851 Y-5.5619
G01 X23.9039 Y-5.5666
G01 X23.9269 Y-5.5700
G01 X23.9500 Y-5.5711
G01 X25.3000 Y-5.5711
G01 X25.3252 Y-5.5697
G01 X25.3461 Y-5.5666
G01 X25.3665 Y-5.5615
G01 X25.3864 Y-5.5546
G01 X25.3942 Y-5.5514
G01 X25.4110 Y-5.5434
G01 X25.4312 Y-5.5313
G01 X25.4498 Y-5.5175
G01 X25.4639 Y-5.5049
G01 X25.4699 Y-5.4989
G01 X25.4811 Y-5.4864
G01 X25.4851 Y-5.4814
G01 X25.4963 Y-5.4662
G01 X25.5082 Y-5.4463
G01 X25.5180 Y-5.4256
G01 X25.5246 Y-5.4075
G01 X25.5269 Y-5.3999
G01 X25.5316 Y-5.3811
G01 X25.5350 Y-5.3581
G01 X25.5361 Y-5.3371
G01 X25.5361 Y-5.0329
G01 X25.5350 Y-5.0119
G01 X25.5323 Y-4.9931
G01 X25.5306 Y-4.9848
G01 X25.5253 Y-4.9644
G01 X25.5181 Y-4.9446
G01 X25.5101 Y-4.9275
G01 X25.5064 Y-4.9205
G01 X25.4963 Y-4.9038
G01 X25.4851 Y-4.8886
G01 X25.4797 Y-4.8820
G01 X25.4669 Y-4.8681
G01 X25.4530 Y-4.8553
G01 X25.4464 Y-4.8499
G01 X25.4312 Y-4.8387
G01 X25.4150 Y-4.8289
G01 X25.4075 Y-4.8249
G01 X25.3906 Y-4.8170
G01 X25.3725 Y-4.8104
G01 X25.3649 Y-4.8081
G01 X25.3461 Y-4.8034
G01 X25.3231 Y-4.8000
G01 X25.3000 Y-4.7989
G01 X23.9500 Y-4.7989
G01 X23.9311 Y-4.7997
G01 X23.9227 Y-4.8006
G01 X23.9039 Y-4.8034
G01 X23.8815 Y-4.8091
G01 X23.8596 Y-4.8169
G01 X23.8390 Y-4.8266
G01 X23.8188 Y-4.8387
G01 X23.8002 Y-4.8525
G01 X23.7831 Y-4.8681
G01 X23.7703 Y-4.8820
G01 X23.7662 Y-4.8869
G01 X23.7549 Y-4.9021
G01 X23.7439 Y-4.9200
G01 X23.7399 Y-4.9275
G01 X23.7328 Y-4.9426
G01 X23.7304 Y-4.9486
G01 X23.7241 Y-4.9662
G01 X23.7184 Y-4.9889
G01 X23.7150 Y-5.0119
G01 X23.7139 Y-5.0350
G00 Z0.5000
G00 X23.8017 Y-4.5330
G01 F90.00
G01 Z-0.0800
G01 F240.00
G01 X23.7995 Y-4.5677
G01 X23.8155 Y-4.5629
G01 X23.8460 Y-4.5552
G01 X23.8624 Y-4.5519
G01 X23.8749 Y-4.5500
G01 X23.8624 Y-4.5481
G01 X23.8460 Y-4.5448
G01 X23.8218 Y-4.5388
G01 X23.8017 Y-4.5330
G00 Z0.5000
G00 X23.7139 Y-3.7650
G01 F90.00
G01 Z-0.0800
G01 F240.00
G01 X23.7139 Y-4.0671
G01 X23.7150 Y-4.0881
G01 X23.7180 Y-4.1090
G01 X23.7229 Y-4.1295
G01 X23.7254 Y-4.1375
G01 X23.7319 Y-4.1554
G01 X23.7399 Y-4.1725
G01 X23.7431 Y-4.1786
G01 X23.7537 Y-4.1962
G01 X23.7649 Y-4.2114
G01 X23.7703 Y-4.2180
G01 X23.7831 Y-4.2319
G01 X23.7970 Y-4.2447
G01 X23.8036 Y-4.2501
G01 X23.8188 Y-4.2613
G01 X23.8350 Y-4.2711
G01 X23.8425 Y-4.2751
G01 X23.8594 Y-4.2830
G01 X23.8775 Y-4.2896
G01 X23.8851 Y-4.2919
G01 X23.9039 Y-4.2966
G01 X23.9269 Y-4.3000
G01 X23.9500 Y-4.3011
G01 X25.3000 Y-4.3011
G01 X25.3252 Y-4.2997
G01 X25.3461 Y-4.2966
G01 X25.3665 Y-4.2915
G01 X25.3864 Y-4.2846
G01 X25.3942 Y-4.2814
G01 X25.4110 Y-4.2734
G01 X25.4312 Y-4.2613
G01 X25.4498 Y-4.2475
G01 X25.4639 Y-4.2349
G01 X25.4699 Y-4.2289
G01 X25.4811 Y-4.2164
G01 X25.4851 Y-4.2114
G01 X25.4963 Y-4.1962
G01 X25.5082 Y-4.1763
G01 X25.5180 Y-4.1556
G01 X25.5246 Y-4.1375
G01 X25.5269 Y-4.1299
G01 X25.5316 Y-4.1111
G01 X25.5350 Y-4.0881
G01 X25.5361 Y-4.0671
G01 X25.5361 Y-3.7629
G01 X25.5350 Y-3.7419
G01 X25.5323 Y-3.7231
G01 X25.5306 Y-3.7148
G01 X25.5253 Y-3.6944
G01 X25.5181 Y-3.6746
G01 X25.5101 Y-3.6575
G01 X25.5069 Y-3.6514
G01 X25.4963 Y-3.6338
G01 X25.4851 Y-3.6186
G01 X25.4797 Y-3.6120
G01 X25.4669 Y-3.5981
G01 X25.4530 Y-3.5853
G01 X25.4464 Y-3.5799
G01 X25.4312 Y-3.5687
G01 X25.4150 Y-3.5589
G01 X25.4075 Y-3.5549
G01 X25.3906 Y-3.5470
G01 X25.3725 Y-3.5404
G01 X25.3649 Y-3.5381
G01 X25.3461 Y-3.5334
G01 X25.3231 Y-3.5300
G01 X25.3000 Y-3.5289
G01 X23.9500 Y-3.5289
G01 X23.9311 Y-3.5297
G01 X23.9227 Y-3.5306
G01 X23.9039 Y-3.5334
G01 X23.8815 Y-3.5391
G01 X23.8596 Y-3.5469
G01 X23.8390 Y-3.5566
G01 X23.8188 Y-3.5687
G01 X23.8002 Y-3.5825
G01 X23.7831 Y-3.5981
G01 X23.7703 Y-3.6120
G01 X23.7662 Y-3.6169
G01 X23.7549 Y-3.6321
G01 X23.7439 Y-3.6500
G01 X23.7399 Y-3.6575
G01 X23.7328 Y-3.6726
G01 X23.7304 Y-3.6786
G01 X23.7241 Y-3.6962
G01 X23.7184 Y-3.7189
G01 X23.7150 Y-3.7419
G01 X23.7139 Y-3.7650
G00 Z0.5000
G00 X23.5865 Y-3.7650
G01 F90.00
G01 Z-0.0800
G01 F240.00
G01 X23.5865 Y-4.0650
G01 X23.5878 Y-4.0954
G01 X23.5888 Y-4.1058
G01 X23.5925 Y-4.1308
G01 X23.5945 Y-4.1410
G01 X23.5993 Y-4.1604
G01 X23.6021 Y-4.1705
G01 X23.6054 Y-4.1805
G01 X23.6122 Y-4.1994
G01 X23.6163 Y-4.2090
G01 X23.6298 Y-4.2371
G01 X23.6421 Y-4.2581
G01 X23.6507 Y-4.2713
G01 X23.6657 Y-4.2915
G01 X23.6758 Y-4.3036
G01 X23.6929 Y-4.3221
G01 X23.7114 Y-4.3392
G01 X23.7235 Y-4.3493
G01 X23.7437 Y-4.3643
G01 X23.7569 Y-4.3729
G01 X23.7786 Y-4.3856
G01 X23.8058 Y-4.3987
G01 X23.8207 Y-4.4046
G01 X23.8439 Y-4.4127
G01 X23.8689 Y-4.4192
G01 X23.8842 Y-4.4225
G01 X23.9144 Y-4.4268
G01 X23.9395 Y-4.4283
G01 X23.9500 Y-4.4285
G01 X25.3000 Y-4.4285
G01 X25.3252 Y-4.4275
G01 X25.3356 Y-4.4268
G01 X25.3658 Y-4.4225
G01 X25.3760 Y-4.4205
G01 X25.3954 Y-4.4157
G01 X25.4055 Y-4.4129
G01 X25.4155 Y-4.4096
G01 X25.4393 Y-4.4008
G01 X25.4707 Y-4.3860
G01 X25.4976 Y-4.3701
G01 X25.5105 Y-4.3612
G01 X25.5265 Y-4.3493
G01 X25.5346 Y-4.3426
G01 X25.5571 Y-4.3221
G01 X25.5776 Y-4.2996
G01 X25.5875 Y-4.2874
G01 X25.5993 Y-4.2713
G01 X25.6051 Y-4.2626
G01 X25.6206 Y-4.2364
G01 X25.6356 Y-4.2047
G01 X25.6446 Y-4.1805
G01 X25.6504 Y-4.1616
G01 X25.6555 Y-4.1410
G01 X25.6575 Y-4.1308
G01 X25.6618 Y-4.1006
G01 X25.6635 Y-4.0702
G01 X25.6635 Y-3.7650
G01 X25.6633 Y-3.7545
G01 X25.6622 Y-3.7346
G01 X25.6612 Y-3.7242
G01 X25.6575 Y-3.6992
G01 X25.6555 Y-3.6890
G01 X25.6479 Y-3.6595
G01 X25.6396 Y-3.6357
G01 X25.6358 Y-3.6257
G01 X25.6253 Y-3.6030
G01 X25.6174 Y-3.5879
G01 X25.6023 Y-3.5630
G01 X25.5875 Y-3.5426
G01 X25.5776 Y-3.5304
G01 X25.5607 Y-3.5117
G01 X25.5495 Y-3.5007
G01 X25.5306 Y-3.4840
G01 X25.5105 Y-3.4688
G01 X25.4976 Y-3.4599
G01 X25.4714 Y-3.4444
G01 X25.4487 Y-3.4334
G01 X25.4345 Y-3.4273
G01 X25.4061 Y-3.4173
G01 X25.3811 Y-3.4108
G01 X25.3658 Y-3.4075
G01 X25.3356 Y-3.4032
G01 X25.3252 Y-3.4025
G01 X25.3000 Y-3.4015
G01 X23.9500 Y-3.4015
G01 X23.9395 Y-3.4017
G01 X23.9144 Y-3.4032
G01 X23.8894 Y-3.4067
G01 X23.8791 Y-3.4085
G01 X23.8546 Y-3.4143
G01 X23.8445 Y-3.4171
G01 X23.8157 Y-3.4272
G01 X23.8061 Y-3.4312
G01 X23.7836 Y-3.4418
G01 X23.7750 Y-3.4464
G01 X23.7569 Y-3.4571
G01 X23.7480 Y-3.4627
G01 X23.7395 Y-3.4688
G01 X23.7235 Y-3.4807
G01 X23.7154 Y-3.4874
G01 X23.6929 Y-3.5079
G01 X23.6857 Y-3.5155
G01 X23.6690 Y-3.5344
G01 X23.6625 Y-3.5426
G01 X23.6477 Y-3.5630
G01 X23.6319 Y-3.5890
G01 X23.6270 Y-3.5983
G01 X23.6163 Y-3.6208
G01 X23.6123 Y-3.6305
G01 X23.6054 Y-3.6495
G01 X23.5996 Y-3.6684
G01 X23.5945 Y-3.6890
G01 X23.5925 Y-3.6992
G01 X23.5882 Y-3.7294
G01 X23.5875 Y-3.7398
G01 X23.5865 Y-3.7650
G00 Z0.5000
G00 X23.8017 Y-3.2630
G01 F90.00
G01 Z-0.0800
G01 F240.00
G01 X23.7995 Y-3.2977
G01 X23.8155 Y-3.2929
G01 X23.8460 Y-3.2852
G01 X23.8624 Y-3.2819
G01 X23.8749 Y-3.2800
G01 X23.8624 Y-3.2781
G01 X23.8460 Y-3.2748
G01 X23.8218 Y-3.2688
G01 X23.8017 Y-3.2630
G00 Z0.5000
G00 X23.7139 Y-2.4950
G01 F90.00
G01 Z-0.0800
G01 F240.00
G01 X23.7139 Y-2.7971
G01 X23.7150 Y-2.8181
G01 X23.7177 Y-2.8369
G01 X23.7194 Y-2.8452
G01 X23.7241 Y-2.8635
G01 X23.7304 Y-2.8814
G01 X23.7336 Y-2.8892
G01 X23.7419 Y-2.9066
G01 X23.7514 Y-2.9226
G01 X23.7561 Y-2.9296
G01 X23.7675 Y-2.9448
G01 X23.7831 Y-2.9619
G01 X23.8002 Y-2.9775
G01 X23.8154 Y-2.9889
G01 X23.8224 Y-2.9936
G01 X23.8369 Y-3.0022
G01 X23.8425 Y-3.0051
G01 X23.8594 Y-3.0130
G01 X23.8775 Y-3.0196
G01 X23.8832 Y-3.0214
G01 X23.8998 Y-3.0256
G01 X23.9081 Y-3.0273
G01 X23.9269 Y-3.0300
G01 X23.9500 Y-3.0311
G01 X25.3042 Y-3.0310
G01 X25.3231 Y-3.0300
G01 X25.3419 Y-3.0273
G01 X25.3481 Y-3.0261
G01 X25.3645 Y-3.0221
G01 X25.3725 Y-3.0196
G01 X25.3904 Y-3.0131
G01 X25.4110 Y-3.0034
G01 X25.4312 Y-2.9913
G01 X25.4514 Y-2.9761
G01 X25.4654 Y-2.9634
G01 X25.4699 Y-2.9589
G01 X25.4825 Y-2.9448
G01 X25.4927 Y-2.9312
G01 X26.2639 Y-2.9312
G01 X26.2640 Y-3.7542
G01 X26.2648 Y-3.7626
G01 X26.2670 Y-3.7730
G01 X26.2705 Y-3.7829
G01 X26.2741 Y-3.7906
G01 X26.2784 Y-3.7978
G01 X26.2848 Y-3.8062
G01 X26.2906 Y-3.8124
G01 X26.2987 Y-3.8192
G01 X26.3039 Y-3.8227
G01 X26.3113 Y-3.8269
G01 X26.3230 Y-3.8318
G01 X26.3353 Y-3.8348
G01 X26.3479 Y-3.8361
G01 X27.3521 Y-3.8361
G01 X27.3584 Y-3.8357
G01 X27.3668 Y-3.8344
G01 X27.3790 Y-3.8311
G01 X27.3906 Y-3.8259
G01 X27.4013 Y-3.8192
G01 X27.4109 Y-3.8109
G01 X27.4192 Y-3.8013
G01 X27.4259 Y-3.7906
G01 X27.4311 Y-3.7790
G01 X27.4335 Y-3.7709
G01 X27.4348 Y-3.7647
