%
(adaptive_clear)
(T2 D=3.175 CR=0 - ZMIN=-2.5 - flat end mill)
G90
G17
G21
(When using Fusion for Personal Use, the feedrate of rapid)
(moves is reduced to match the feedrate of cutting moves,)
(which can increase machining time. Unrestricted rapid moves)
(are available with a Fusion Subscription.)
G28 G91 Z0
G90

(2D Adaptive1)
T2 M6
S5000 M3
G17 G90
G54
M7
G0 X7.733 Y-6.823
Z15
G1 Z2.5 F1000
G3 X5.137 Y-6.279 Z2.39 I-1.476 J-0.577 F333.33
X5.678 Y-8.873 Z2.28 I1.119 J-1.12
X7.836 Y-7.339 Z2.171 I0.577 J1.473
X5.568 Y-5.978 Z2.061 I-1.579 J-0.061
X5.23 Y-8.599 Z1.951 I0.688 J-1.421
X7.764 Y-7.858 Z1.841 I1.025 J1.199
X6.072 Y-5.837 Z1.732 I-1.507 J0.457
X4.9 Y-8.194 Z1.622 I0.185 J-1.562
X7.525 Y-8.323 Z1.512 I1.355 J0.794
X6.593 Y-5.869 Z1.402 I-1.269 J0.922
X4.721 Y-7.704 Z1.293 I-0.336 J-1.53
X7.149 Y-8.682 Z1.183 I1.534 J0.305
X7.072 Y-6.07 Z1.073 I-0.893 J1.281
X4.713 Y-7.185 Z0.963 I-0.815 J-1.329
X6.677 Y-8.897 Z0.854 I1.542 J-0.214
X7.457 Y-6.415 Z0.744 I-0.421 J1.496
X4.874 Y-6.695 Z0.634 I-1.2 J-0.985
X6.164 Y-8.947 Z0.524 I1.382 J-0.704
X7.708 Y-6.865 Z0.415 I0.091 J1.546
X5.185 Y-6.285 Z0.305 I-1.451 J-0.535
X5.664 Y-8.827 Z0.195 I1.071 J-1.114
X7.799 Y-7.37 Z0.085 I0.591 J1.427
X5.611 Y-5.999 Z-0.024 I-1.542 J-0.03
X5.232 Y-8.551 Z-0.134 I0.645 J-1.4
X7.719 Y-7.876 Z-0.244 I1.023 J1.151
X6.106 Y-5.871 Z-0.354 I-1.462 J0.475
X4.917 Y-8.149 Z-0.463 I0.151 J-1.528
X7.478 Y-8.325 Z-0.573 I1.338 J0.749
X6.614 Y-5.911 Z-0.683 I-1.222 J0.924
X4.751 Y-7.668 Z-0.793 I-0.357 J-1.488
X7.104 Y-8.67 Z-0.902 I1.504 J0.269
X7.079 Y-6.116 Z-1.012 I-0.848 J1.269
X4.752 Y-7.161 Z-1.122 I-0.822 J-1.283
X6.639 Y-8.871 Z-1.232 I1.503 J-0.238
X7.449 Y-6.46 Z-1.341 I-0.383 J1.47
X4.918 Y-6.684 Z-1.451 I-1.192 J-0.94
X6.136 Y-8.911 Z-1.561 I1.338 J-0.715
X7.686 Y-6.905 Z-1.671 I0.119 J1.51
X5.231 Y-6.289 Z-1.78 I-1.429 J-0.495
X5.65 Y-8.783 Z-1.89 I1.025 J-1.11
X7.765 Y-7.4 Z-2 I0.605 J1.383
X4.745 I-1.51 J0
X7.765 I1.51 J0
G1 X7.768 Y-7.24 F1000
X7.898 Y-6.714
G3 X7.485 Y-5.505 I-1.159 J0.279
X5.389 Y-5.105 I-1.369 J-1.483
X4.693 Y-9.347 I0.809 J-2.311
X8.508 Y-8.492 I1.571 J1.929
X9.011 Y-6.337 I-3.033 J1.844
X6.17 Y-3.927 I-2.842 J-0.471
X2.858 Y-6.264 I-0.099 J-3.375
X8.969 Y-9.765 I3.395 J-1.158
X10.037 Y-5.733 I-3.156 J2.993
X8.835 Y-3.818 I-3.951 J-1.145
G1 X8.688 Y-3.72
X8.523 Y-3.659
X8.347 Y-3.638
X4.069 Y-3.637
G2 X3.193 Y-3.539 I-0.19 J2.256
X2.841 Y-3.36 I0.622 J1.657
G1 X2.813 Y-3.348
X2.784 Y-3.339
X2.756 Y-3.332
X2.72 Y-3.328
X2.683 Y-3.327
X2.647 Y-3.331
X2.61 Y-3.34
X2.57 Y-3.355
X2.529 Y-3.376
X2.497 Y-3.4
X2.464 Y-3.431
X2.411 Y-3.502
X2.42 Y-3.53
X2.454 Y-3.629
X2.499 Y-3.723
G3 X2.927 Y-3.493 I0.214 J0.115
X2.857 Y-3.412 I-0.214 J-0.115
X2.464 Y-3.43 I-0.185 J-0.252
G1 X2.427 Y-3.476
X2.4 Y-3.522
X2.384 Y-3.559
X2.374 Y-3.595
X2.369 Y-3.632
X2.368 Y-3.668
Y-11.108
X2.37 Y-11.181 F900
X2.378 Y-11.218
X2.389 Y-11.254
X2.402 Y-11.283
X2.419 Y-11.312
X2.464 Y-11.369
X2.497 Y-11.4
X2.525 Y-11.421
X2.553 Y-11.438
X2.582 Y-11.451
X2.61 Y-11.46
X2.647 Y-11.469
X2.683 Y-11.473
X2.72 Y-11.472
X2.756 Y-11.468
X2.793 Y-11.459 F1000
G2 X4.069 Y-11.167 I1.058 J-1.689
G1 X8.008 Y-11.163
G3 X9.529 Y-10.547 I-0.146 J2.547
X11.242 Y-7.3 I-2.957 J3.635
X10.309 Y-3.826 I-4.856 J0.558
G1 X10.152 Y-3.727
X9.981 Y-3.66
X9.799 Y-3.638
X8.347
G3 X8.041 Y-3.939 Z-1.811 I0.011 J-0.317
G1 X8.04 Y-3.966 Z-1.8
X8.028 Y-4.214
X7.714 Y-10.586
X7.702 Y-10.83
Y-10.834
G3 X8.008 Y-11.162 Z-2 I0.317 J-0.011
G1 X9.401 Y-11.163
G3 X10.763 Y-10.584 I-0.129 J2.197
X12.111 Y-8.525 I-2.796 J3.302
X11.744 Y-4.006 I-5.548 J1.824
X11.099 Y-3.637 I-0.652 J-0.392
G1 X9.799 Y-3.638
G3 X9.493 Y-3.936 Z-1.812 I0.011 J-0.317
G1 X9.492 Y-3.966 Z-1.8
X9.477 Y-4.213
X9.109 Y-10.586
X9.095 Y-10.827
Y-10.834
G3 X9.401 Y-11.162 Z-2 I0.317 J-0.011
G1 X10.634 Y-11.163
G3 X11.923 Y-10.621 I-0.097 J2.036
X13.081 Y-9.002 I-2.587 J3.073
X13.452 Y-5.505 I-5.791 J2.382
X12.99 Y-4.006 I-4.795 J-0.658
X12.347 Y-3.637 I-0.646 J-0.381
G1 X11.099 Y-3.638
G3 X10.794 Y-3.933 Z-1.813 I0.011 J-0.317
G1 X10.791 Y-3.966 Z-1.8
X10.775 Y-4.213
X10.344 Y-10.587
X10.328 Y-10.824
X10.327 Y-10.834
G3 X10.634 Y-11.163 Z-2 I0.318 J-0.011
G1 X11.801
G3 X13.255 Y-10.472 I-0.1 J2.086
X14.374 Y-8.608 I-3.048 J3.098
X14.414 Y-4.492 I-6.552 J2.121
G1 X14.305 Y-4.212
G3 X13.771 Y-3.665 I-0.802 J-0.249
G1 X13.565 Y-3.638
X12.347
G3 X12.042 Y-3.93 Z-1.814 I0.011 J-0.317
G1 X12.038 Y-3.966 Z-1.8
X12.019 Y-4.213
X11.514 Y-10.587
X11.495 Y-10.82
X11.494 Y-10.834
G3 X11.801 Y-11.163 Z-2 I0.318 J-0.011
G1 X12.968
G3 X14.41 Y-10.468 I-0.106 J2.063
X15.37 Y-9.015 I-2.85 J2.927
X15.869 Y-6.333 I-6.222 J2.546
X15.588 Y-4.416 I-6.209 J0.067
G1 X15.495 Y-4.183
G3 X14.973 Y-3.666 I-0.774 J-0.259
G1 X14.767 Y-3.638
X13.565
G3 X13.26 Y-3.927 Z-1.815 I0.011 J-0.317
G1 X13.256 Y-3.966 Z-1.8
X13.235 Y-4.213
X12.682 Y-10.587
X12.662 Y-10.818
Y-10.826
X12.661 Y-10.834
G3 X12.968 Y-11.163 Z-2 I0.318 J-0.011
G1 X14.135
G3 X15.392 Y-10.622 I-0.091 J1.944
X16.548 Y-8.938 I-2.715 J3.103
X17.039 Y-6.142 I-6.479 J2.579
X16.759 Y-4.36 I-5.736 J0.013
X16.354 Y-3.747 I-1.109 J-0.292
G1 X16.164 Y-3.666
X15.961 Y-3.638
X14.767
G3 X14.462 Y-3.926 Z-1.816 I0.011 J-0.317
G1 X14.458 Y-3.966 Z-1.8
X14.436 Y-4.213
X13.851 Y-10.587
X13.83 Y-10.816
X13.829 Y-10.825
X13.828 Y-10.834
G3 X14.135 Y-11.163 Z-2 I0.318 J-0.011
G1 X15.302
G3 X16.564 Y-10.602 I-0.112 J1.954
X17.737 Y-8.848 I-2.824 J3.158
X18.104 Y-4.956 I-6.792 J2.603
X17.812 Y-4.042 I-3.571 J-0.636
X17.151 Y-3.638 I-0.663 J-0.342
G1 X15.961
G3 X15.656 Y-3.925 Z-1.816 I0.011 J-0.317
G1 X15.652 Y-3.965 Z-1.8
X15.629 Y-4.213
X15.019 Y-10.587
X14.997 Y-10.815
X14.996 Y-10.825
Y-10.834
G3 X15.302 Y-11.162 Z-2 I0.317 J-0.011
G1 X16.469 Y-11.163
G3 X17.737 Y-10.583 I-0.132 J1.966
X18.738 Y-9.214 I-2.661 J2.995
X19.383 Y-6.491 I-6.27 J2.923
X19.195 Y-4.558 I-6.259 J0.366
X18.881 Y-3.87 I-1.814 J-0.412
G1 X18.722 Y-3.745
X18.537 Y-3.665
X18.337 Y-3.638
X17.151
G3 X16.846 Y-3.924 Z-1.817 I0.011 J-0.317
G1 X16.842 Y-3.965 Z-1.8
X16.817 Y-4.213
X16.186 Y-10.587
X16.164 Y-10.814
X16.163 Y-10.824
Y-10.834
G3 X16.469 Y-11.162 Z-2 I0.317 J-0.011
G1 X17.636 Y-11.163
G3 X18.914 Y-10.565 I-0.149 J1.982
X19.927 Y-9.156 I-2.743 J3.04
X20.558 Y-5.794 I-6.543 J2.968
X20.277 Y-4.255 I-4.95 J-0.109
X19.905 Y-3.741 I-0.902 J-0.262
G1 X19.72 Y-3.665
X19.521 Y-3.638
X18.337
G3 X18.032 Y-3.923 Z-1.817 I0.011 J-0.317
G1 X18.028 Y-3.965 Z-1.8
X18.003 Y-4.212
X17.354 Y-10.587
X17.331 Y-10.813
X17.33 Y-10.824
Y-10.834
G3 X17.636 Y-11.162 Z-2 I0.317 J-0.011
G1 X18.737 Y-11.163
G3 X20.013 Y-10.615 I-0.092 J1.973
X21.03 Y-9.28 I-2.602 J3.036
X21.651 Y-4.974 I-6.49 J3.134
X21.368 Y-4.051 I-3.542 J-0.582
X20.7 Y-3.636 I-0.67 J-0.333
G1 X19.521 Y-3.638
G3 X19.217 Y-3.919 Z-1.819 I0.011 J-0.317
G1 X19.212 Y-3.965 Z-1.8
X19.184 Y-4.212
X18.458 Y-10.588
X18.433 Y-10.809
X18.432 Y-10.822
X18.431 Y-10.834
G3 X18.737 Y-11.162 Z-2 I0.317 J-0.011
G1 X19.904 Y-11.163
G3 X21.178 Y-10.612 I-0.099 J1.977
X22.202 Y-9.265 I-2.605 J3.043
X22.916 Y-5.959 I-6.371 J3.106
X22.663 Y-4.33 I-5.186 J0.029
X22.272 Y-3.746 I-1.038 J-0.273
G1 X22.082 Y-3.666
X21.879 Y-3.638
X20.7
G3 X20.397 Y-3.918 Z-1.819 I0.012 J-0.317
G1 X20.391 Y-3.965 Z-1.8
X20.362 Y-4.212
X19.626 Y-10.588
X19.6 Y-10.809
X19.599 Y-10.822
X19.598 Y-10.834
G3 X19.904 Y-11.162 Z-2 I0.317 J-0.011
G1 X21.071 Y-11.163
G3 X22.346 Y-10.609 I-0.104 J1.983
X23.38 Y-9.248 I-2.642 J3.079
X24.091 Y-5.937 I-6.4 J3.107
X23.839 Y-4.325 I-5.13 J0.024
X23.449 Y-3.746 I-1.028 J-0.271
G1 X23.259 Y-3.666
X23.056 Y-3.638
X21.879
G3 X21.575 Y-3.918 Z-1.819 I0.011 J-0.317
G1 X21.569 Y-3.965 Z-1.8
X21.54 Y-4.212
X20.793 Y-10.588
X20.767 Y-10.808
X20.766 Y-10.821
X20.765 Y-10.834
G3 X21.071 Y-11.162 Z-2 I0.317 J-0.011
G1 X22.238 Y-11.163
G3 X23.517 Y-10.605 I-0.108 J1.992
X24.553 Y-9.24 I-2.651 J3.087
X25.266 Y-5.926 I-6.416 J3.113
X25.015 Y-4.323 I-5.108 J0.021
X24.626 Y-3.746 I-1.024 J-0.27
G1 X24.436 Y-3.666
X24.233 Y-3.638
X23.056
G3 X22.752 Y-3.917 Z-1.819 I0.011 J-0.317
G1 X22.746 Y-3.965 Z-1.8
X22.717 Y-4.212
X21.96 Y-10.588
X21.934 Y-10.808
X21.933 Y-10.821
X21.932 Y-10.834
G3 X22.238 Y-11.162 Z-2 I0.317 J-0.011
G1 X23.405 Y-11.163
G3 X24.686 Y-10.606 I-0.107 J1.996
X25.725 Y-9.239 I-2.654 J3.095
X26.351 Y-4.939 I-6.478 J3.138
X26.075 Y-4.049 I-3.477 J-0.589
X25.409 Y-3.637 I-0.668 J-0.335
G1 X24.233 Y-3.638
G3 X23.929 Y-3.917 Z-1.82 I0.011 J-0.317
G1 X23.923 Y-3.965 Z-1.8
X23.893 Y-4.212
X23.128 Y-10.588
X23.101 Y-10.807
X23.1 Y-10.821
X23.099 Y-10.834
G3 X23.405 Y-11.163 Z-2 I0.318 J-0.011
G1 X24.572
G3 X25.853 Y-10.608 I-0.104 J1.997
X26.894 Y-9.243 I-2.649 J3.099
X27.527 Y-4.945 I-6.471 J3.148
X27.153 Y-3.898 I-2.85 J-0.426
G1 X26.988 Y-3.759
X26.794 Y-3.668
X26.582 Y-3.638
X25.409
G3 X25.105 Y-3.917 Z-1.82 I0.011 J-0.317
G1 X25.099 Y-3.965 Z-1.8
X25.069 Y-4.212
X24.295 Y-10.588
X24.268 Y-10.807
X24.267 Y-10.821
X24.266 Y-10.834
G3 X24.572 Y-11.163 Z-2 I0.318 J-0.011
G1 X25.74
G3 X27.02 Y-10.612 I-0.101 J1.997
X28.062 Y-9.252 I-2.64 J3.101
X28.762 Y-5.496 I-6.345 J3.126
G2 X29 Y-4.771 I0.708 J0.169
G1 X29.53 Y-4.408
X29.659 Y-4.358
G3 X30.132 Y-3.639 I-0.268 J0.691
G1 X30.12 Y-3.63 Z-1.996
X30.113 Y-3.623 Z-1.986
X30.11 Y-3.62 Z-1.971
Z5
X24.713 Y-10.779
Z-1.365
Z-1.683
X24.72 Y-10.783 Z-1.753
X24.74 Y-10.795 Z-1.82
X24.773 Y-10.814 Z-1.88
X24.816 Y-10.84 Z-1.931
X24.868 Y-10.871 Z-1.969
X24.925 Y-10.905 Z-1.992
X24.986 Y-10.941 Z-2
G3 X25.74 Y-11.162 I0.809 J1.36
G1 X26.907 Y-11.163
G3 X28.379 Y-10.522 I-0.021 J2.058
X29.619 Y-8.499 I-3.191 J3.348
X30.022 Y-6.705 I-7.387 J2.602
X30.133 Y-6.319 I-0.596 J0.38
X29.804 Y-6.012 Z-1.8 I-0.318 J-0.011
X29.547 Y-6.158 I0.011 J-0.318
G1 X26.693 Y-10.608
X26.65 Y-10.674
X26.624 Y-10.724
X26.607 Y-10.778
X26.6 Y-10.834
G3 X26.907 Y-11.163 Z-2 I0.318 J-0.011
G1 X28.431
G2 X29.285 Y-11.253 I0.188 J-2.319
X29.706 Y-11.461 I-1.354 J-3.264 F900
G1 X29.744 Y-11.468
X29.78 Y-11.472
X29.817 Y-11.473 F1000
X29.853 Y-11.469
X29.89 Y-11.46
X29.918 Y-11.451
X29.947 Y-11.438
X29.975 Y-11.421
X30.003 Y-11.4
X30.043 Y-11.358
X30.072 Y-11.324
X30.067 Y-11.295
X30.055 Y-11.218
X30.043 Y-11.141
G3 X29.584 Y-11.027 I-0.254 J-0.041
G1 X29.575 Y-11.039
G3 X29.612 Y-11.369 I0.214 J-0.143
X30.003 Y-11.4 I0.215 J0.227
G1 X30.036 Y-11.369
X30.081 Y-11.312
X30.098 Y-11.283
X30.111 Y-11.254
X30.122 Y-11.218
X30.13 Y-11.181
X30.132 Y-11.108
Y-3.829
Y-3.668 F900
X30.131 Y-3.632
X30.126 Y-3.595
X30.115 Y-3.559
X30.1 Y-3.522
X30.073 Y-3.476
X30.036 Y-3.431
X30.003 Y-3.4
X29.971 Y-3.376
X29.93 Y-3.355
X29.89 Y-3.34
X29.853 Y-3.331
X29.817 Y-3.327 F1000
X29.78 Y-3.328
G3 X29.454 Y-3.48 I0.138 J-0.72
G2 X28.431 Y-3.634 I-0.815 J1.936
G1 X26.582 Y-3.638
G3 X26.277 Y-3.935 I0.012 J-0.317
G1 X26.276 Y-3.955 Z-1.999
X26.29 Y-4.008 Z-1.991
X26.303 Y-4.059 Z-1.973
X26.315 Y-4.106 Z-1.946
X26.346 Y-4.142 Z-1.906
X26.371 Y-4.171 Z-1.858
X26.39 Y-4.193 Z-1.803
X26.402 Y-4.206 Z-1.744
X26.406 Y-4.211 Z-1.683
Z5
X7.226 Y-27.123
Z2.5
G3 X4.63 Y-26.579 Z2.39 I-1.476 J-0.577 F333.33
X5.172 Y-29.171 Z2.28 I1.118 J-1.119
X7.327 Y-27.639 Z2.171 I0.576 J1.471
X5.061 Y-26.28 Z2.061 I-1.577 J-0.061
X4.725 Y-28.896 Z1.951 I0.688 J-1.418
X7.254 Y-28.157 Z1.841 I1.023 J1.196
X5.565 Y-26.138 Z1.732 I-1.505 J0.457
X4.393 Y-28.493 Z1.622 I0.184 J-1.561
X7.017 Y-28.622 Z1.512 I1.354 J0.793
X6.085 Y-26.17 Z1.402 I-1.268 J0.921
X4.214 Y-28.004 Z1.293 I-0.336 J-1.529
X6.642 Y-28.983 Z1.183 I1.534 J0.305
X6.565 Y-26.369 Z1.073 I-0.893 J1.282
X4.205 Y-27.485 Z0.963 I-0.815 J-1.33
X6.17 Y-29.198 Z0.854 I1.543 J-0.214
X6.95 Y-26.714 Z0.744 I-0.422 J1.497
X4.367 Y-26.994 Z0.634 I-1.2 J-0.985
X5.656 Y-29.247 Z0.524 I1.381 J-0.705
X7.201 Y-27.165 Z0.415 I0.092 J1.546
X4.678 Y-26.585 Z0.305 I-1.451 J-0.535
X5.157 Y-29.125 Z0.195 I1.07 J-1.113
X7.29 Y-27.67 Z0.085 I0.591 J1.425
X5.105 Y-26.301 Z-0.024 I-1.54 J-0.03
X4.727 Y-28.848 Z-0.134 I0.644 J-1.397
X7.209 Y-28.175 Z-0.244 I1.021 J1.148
X5.599 Y-26.172 Z-0.354 I-1.46 J0.475
X4.41 Y-28.448 Z-0.463 I0.15 J-1.527
X6.969 Y-28.624 Z-0.573 I1.337 J0.748
X6.106 Y-26.213 Z-0.683 I-1.22 J0.923
X4.244 Y-27.967 Z-0.793 I-0.357 J-1.486
X6.596 Y-28.97 Z-0.902 I1.504 J0.268
X6.571 Y-26.416 Z-1.012 I-0.847 J1.269
X4.246 Y-27.461 Z-1.122 I-0.821 J-1.283
X6.132 Y-29.171 Z-1.232 I1.502 J-0.238
X6.941 Y-26.76 Z-1.341 I-0.384 J1.47
X4.412 Y-26.984 Z-1.451 I-1.191 J-0.939
X5.629 Y-29.21 Z-1.561 I1.336 J-0.715
X7.179 Y-27.204 Z-1.671 I0.119 J1.51
X4.723 Y-26.589 Z-1.78 I-1.429 J-0.496
X5.143 Y-29.082 Z-1.89 I1.025 J-1.109
X7.257 Y-27.7 Z-2 I0.605 J1.382
X4.239 I-1.509 J0
X7.257 I1.509 J0
G1 X7.273 Y-27.058 F1000
G3 X6.742 Y-25.82 I-0.907 J0.344
G1 X6.514 Y-25.788
X5.09
G3 X3.95 Y-26.337 I0.011 J-1.48
G1 X3.867 Y-26.53
X3.838 Y-26.737
G3 X4.166 Y-27.043 Z-1.8 I0.317 J0.011
G1 X4.224 Y-27.036
X4.28 Y-27.018
X4.332 Y-26.99
X4.391 Y-26.95
X5.256 Y-26.368
G3 X5.396 Y-26.116 I-0.177 J0.263
X5.09 Y-25.788 Z-2 I-0.317 J0.011
G1 X4.615
X4.361 F900
X4.215
X4.142 Y-25.8
X4.069 Y-25.818
X4.043 Y-25.829
X4.017 Y-25.843
X3.993 Y-25.858
X3.97 Y-25.876
X3.944 Y-25.901
X3.923 Y-25.926 F1000
X3.9 Y-25.957
G3 X3.838 Y-26.28 I0.473 J-0.258
G1 Y-28.323
G3 X4.382 Y-29.494 I1.505 J-0.013
G1 X4.579 Y-29.582
X4.79 Y-29.612
G3 X5.096 Y-29.284 Z-1.8 I-0.011 J0.317
G1 X5.089 Y-29.228
X5.072 Y-29.173
X5.046 Y-29.122
X5.004 Y-29.058
X4.421 Y-28.161
G3 X4.166 Y-28.017 I-0.266 J-0.173
X3.838 Y-28.323 Z-2 I-0.011 J-0.317
G1 Y-29.198
X3.843 Y-29.271
X3.858 Y-29.344
X3.867 Y-29.377
X3.881 Y-29.409
X3.899 Y-29.442
X3.923 Y-29.474
X3.936 Y-29.49
X3.969 Y-29.523
X4.003 Y-29.548
X4.036 Y-29.567
X4.069 Y-29.582
X4.142 Y-29.6
X4.215 Y-29.612
X4.507
X6.403
G3 X7.549 Y-29.059 I-0.01 J1.486
G1 X7.633 Y-28.866
X7.662 Y-28.659
G3 X7.334 Y-28.353 Z-1.8 I-0.317 J-0.011
G1 X7.276 Y-28.36
X7.22 Y-28.378
X7.168 Y-28.406
X7.109 Y-28.446
X6.237 Y-29.032
G3 X6.097 Y-29.284 I0.177 J-0.263
X6.403 Y-29.612 Z-2 I0.317 J-0.011
G1 X7.278
X7.351 Y-29.601
X7.424 Y-29.583
X7.459 Y-29.569
X7.493 Y-29.55
X7.528 Y-29.524
X7.57 Y-29.481
X7.597 Y-29.447
X7.617 Y-29.413
X7.632 Y-29.378
X7.642 Y-29.344
X7.657 Y-29.271
X7.662 Y-29.198
Y-26.28
X7.66 Y-26.2
X7.658 Y-26.135
X7.644 Y-26.062
X7.633 Y-26.025
X7.618 Y-25.989
X7.597 Y-25.954
X7.57 Y-25.919
X7.526 Y-25.874
X7.481 Y-25.843
X7.453 Y-25.828
X7.424 Y-25.817
X7.351 Y-25.799
X7.278 Y-25.788
X6.514
G3 X6.208 Y-26.085 I0.011 J-0.317
G1 X6.207 Y-26.105 Z-1.999
X6.221 Y-26.158 Z-1.991
X6.234 Y-26.209 Z-1.973
X6.246 Y-26.256 Z-1.946
X6.277 Y-26.292 Z-1.906
X6.303 Y-26.321 Z-1.858
X6.321 Y-26.343 Z-1.803
X6.333 Y-26.356 Z-1.744
X6.337 Y-26.361 Z-1.683
Z5
X16.426 Y-36.323
Z2.5
G3 X13.83 Y-35.779 Z2.39 I-1.476 J-0.577 F333.33
X14.371 Y-38.373 Z2.28 I1.119 J-1.12
X16.529 Y-36.839 Z2.171 I0.577 J1.473
X14.261 Y-35.478 Z2.061 I-1.579 J-0.061
X13.923 Y-38.099 Z1.951 I0.688 J-1.421
X16.457 Y-37.358 Z1.841 I1.025 J1.199
X14.765 Y-35.337 Z1.732 I-1.507 J0.457
X13.593 Y-37.694 Z1.622 I0.185 J-1.562
X16.218 Y-37.823 Z1.512 I1.355 J0.794
X15.286 Y-35.369 Z1.402 I-1.269 J0.922
X13.414 Y-37.204 Z1.293 I-0.336 J-1.53
X15.842 Y-38.182 Z1.183 I1.534 J0.305
X15.765 Y-35.57 Z1.073 I-0.893 J1.281
X13.406 Y-36.685 Z0.963 I-0.815 J-1.329
X15.37 Y-38.397 Z0.854 I1.542 J-0.214
X16.15 Y-35.915 Z0.744 I-0.421 J1.496
X13.567 Y-36.195 Z0.634 I-1.2 J-0.985
X14.857 Y-38.446 Z0.524 I1.381 J-0.704
X16.4 Y-36.365 Z0.415 I0.091 J1.545
X13.879 Y-35.786 Z0.305 I-1.45 J-0.535
X14.358 Y-38.325 Z0.195 I1.07 J-1.113
X16.49 Y-36.87 Z0.085 I0.59 J1.425
X14.305 Y-35.501 Z-0.024 I-1.54 J-0.03
X13.926 Y-38.049 Z-0.134 I0.644 J-1.398
X16.41 Y-37.375 Z-0.244 I1.022 J1.149
X14.799 Y-35.373 Z-0.354 I-1.46 J0.474
X13.612 Y-37.648 Z-0.463 I0.151 J-1.526
X16.169 Y-37.824 Z-0.573 I1.336 J0.748
X15.307 Y-35.414 Z-0.683 I-1.22 J0.923
X13.446 Y-37.167 Z-0.793 I-0.357 J-1.485
X15.795 Y-38.168 Z-0.902 I1.502 J0.268
X15.77 Y-35.618 Z-1.012 I-0.846 J1.267
X13.448 Y-36.661 Z-1.122 I-0.82 J-1.281
X15.332 Y-38.369 Z-1.232 I1.5 J-0.238
X16.14 Y-35.962 Z-1.341 I-0.383 J1.468
X13.614 Y-36.185 Z-1.451 I-1.19 J-0.938
X14.83 Y-38.407 Z-1.561 I1.334 J-0.714
X16.375 Y-36.406 Z-1.671 I0.118 J1.506
X13.926 Y-35.792 Z-1.78 I-1.425 J-0.494
X14.345 Y-38.28 Z-1.89 I1.023 J-1.107
X16.454 Y-36.9 Z-2 I0.603 J1.38
X13.442 I-1.506 J0
X16.454 I1.506 J0
G1 X16.473 Y-36.258 F1000
G3 X15.942 Y-35.02 I-0.907 J0.344
G1 X15.714 Y-34.987
X14.281
G3 X13.148 Y-35.538 I0.017 J-1.475
G1 X13.067 Y-35.731
X13.038 Y-35.937
G3 X13.366 Y-36.243 Z-1.8 I0.317 J0.011
G1 X13.425 Y-36.235
X13.481 Y-36.217
X13.533 Y-36.188
X13.591 Y-36.149
X14.448 Y-35.568
G3 X14.587 Y-35.316 I-0.178 J0.263
X14.281 Y-34.988 Z-2 I-0.317 J0.011
G1 X13.551 Y-34.987
X13.405 Y-34.99
X13.332 Y-35.002
X13.296 Y-35.01
X13.259 Y-35.022
X13.235 Y-35.034
X13.204 Y-35.051
X13.174 Y-35.074
X13.14 Y-35.105
X13.114 Y-35.136
X13.086 Y-35.179
X13.07 Y-35.216
X13.058 Y-35.252
X13.044 Y-35.325
X13.039 Y-35.362
X13.038 Y-35.398
Y-37.514
G3 X13.581 Y-38.693 I1.511 J-0.019
G1 X13.778 Y-38.781
X13.991 Y-38.813
G3 X14.298 Y-38.484 Z-1.8 I-0.011 J0.318
G1 X14.29 Y-38.428
X14.273 Y-38.374
X14.247 Y-38.323
X14.205 Y-38.258
X13.622 Y-37.353
G3 X13.366 Y-37.208 I-0.267 J-0.172
X13.038 Y-37.514 Z-2 I-0.011 J-0.317
G1 Y-38.066
Y-38.389 F900
X13.042 Y-38.462
X13.056 Y-38.535
X13.064 Y-38.566
X13.076 Y-38.598
X13.092 Y-38.63
X13.114 Y-38.661
X13.129 Y-38.681
X13.162 Y-38.716 F1000
X13.194 Y-38.742
G3 X13.551 Y-38.812 I0.275 J0.456
G1 X15.594 Y-38.813
G3 X16.748 Y-38.262 I-0.004 J1.492
G1 X16.833 Y-38.067
X16.862 Y-37.858
G3 X16.534 Y-37.552 Z-1.8 I-0.317 J-0.011
G1 X16.476 Y-37.559
X16.421 Y-37.577
X16.369 Y-37.605
X16.309 Y-37.645
X15.429 Y-38.231
G3 X15.288 Y-38.484 I0.176 J-0.264
X15.594 Y-38.812 Z-2 I0.317 J-0.011
G1 X16.469
X16.542 Y-38.803
X16.615 Y-38.787
X16.651 Y-38.773
X16.688 Y-38.753
X16.724 Y-38.727
X16.761 Y-38.691
X16.77 Y-38.681
X16.799 Y-38.644
X16.819 Y-38.608
X16.834 Y-38.571
X16.844 Y-38.535
X16.858 Y-38.462
X16.862 Y-38.389
Y-35.471
Y-35.398
X16.861 Y-35.362
X16.856 Y-35.325
X16.841 Y-35.252
X16.83 Y-35.216
X16.813 Y-35.179
X16.791 Y-35.144
X16.761 Y-35.108
X16.713 Y-35.063
X16.689 Y-35.047
X16.665 Y-35.034
X16.615 Y-35.013
X16.542 Y-34.997
X16.469 Y-34.988
X15.714 Y-34.987
G3 X15.407 Y-35.285 I0.011 J-0.318
G1 X15.408 Y-35.305 Z-1.999
X15.421 Y-35.358 Z-1.991
X15.434 Y-35.409 Z-1.973
X15.446 Y-35.456 Z-1.946
X15.477 Y-35.492 Z-1.906
X15.503 Y-35.521 Z-1.858
X15.522 Y-35.543 Z-1.803
X15.533 Y-35.556 Z-1.744
X15.537 Y-35.561 Z-1.683
Z5
X16.426 Y-27.122
Z2.5
G3 X13.83 Y-26.578 Z2.39 I-1.476 J-0.578 F333.33
X14.371 Y-29.172 Z2.28 I1.119 J-1.12
X16.528 Y-27.638 Z2.171 I0.577 J1.472
X14.261 Y-26.279 Z2.061 I-1.578 J-0.062
X13.925 Y-28.897 Z1.951 I0.688 J-1.419
X16.455 Y-28.157 Z1.841 I1.023 J1.197
X14.765 Y-26.138 Z1.732 I-1.505 J0.457
X13.595 Y-28.492 Z1.622 I0.185 J-1.56
X16.216 Y-28.621 Z1.512 I1.353 J0.793
X15.286 Y-26.17 Z1.402 I-1.267 J0.921
X13.416 Y-28.003 Z1.293 I-0.336 J-1.528
X15.841 Y-28.981 Z1.183 I1.532 J0.304
X15.765 Y-26.369 Z1.073 I-0.892 J1.281
X13.405 Y-27.485 Z0.963 I-0.815 J-1.33
X15.371 Y-29.198 Z0.854 I1.543 J-0.214
X16.152 Y-26.713 Z0.744 I-0.422 J1.498
X13.565 Y-26.993 Z0.634 I-1.202 J-0.986
X14.857 Y-29.248 Z0.524 I1.383 J-0.705
X16.403 Y-27.164 Z0.415 I0.091 J1.548
X13.877 Y-26.583 Z0.305 I-1.453 J-0.536
X14.357 Y-29.127 Z0.195 I1.072 J-1.115
X16.492 Y-27.67 Z0.085 I0.591 J1.427
X14.305 Y-26.299 Z-0.024 I-1.542 J-0.03
X13.926 Y-28.849 Z-0.134 I0.644 J-1.399
X16.411 Y-28.175 Z-0.244 I1.022 J1.149
X14.799 Y-26.171 Z-0.354 I-1.461 J0.475
X13.611 Y-28.448 Z-0.463 I0.151 J-1.527
X16.17 Y-28.624 Z-0.573 I1.337 J0.749
X15.307 Y-26.211 Z-0.683 I-1.221 J0.924
X13.443 Y-27.967 Z-0.793 I-0.357 J-1.488
X15.797 Y-28.97 Z-0.902 I1.505 J0.268
X15.773 Y-26.414 Z-1.012 I-0.848 J1.27
X13.443 Y-27.46 Z-1.122 I-0.823 J-1.285
X15.333 Y-29.173 Z-1.232 I1.505 J-0.239
X16.145 Y-26.758 Z-1.341 I-0.384 J1.473
X13.609 Y-26.982 Z-1.451 I-1.195 J-0.941
X14.829 Y-29.212 Z-1.561 I1.339 J-0.716
X16.381 Y-27.203 Z-1.671 I0.119 J1.512
X13.922 Y-26.587 Z-1.78 I-1.431 J-0.497
X14.343 Y-29.084 Z-1.89 I1.027 J-1.111
X16.458 Y-27.7 Z-2 I0.605 J1.384
X13.438 I-1.51 J0
X16.458 I1.51 J0
G1 X16.473 Y-27.058 F1000
G3 X15.942 Y-25.82 I-0.907 J0.344
G1 X15.714 Y-25.788
X14.281
G3 X13.149 Y-26.339 I0.017 J-1.473
G1 X13.067 Y-26.531
X13.038 Y-26.737
G3 X13.366 Y-27.042 Z-1.8 I0.317 J0.012
G1 X13.425 Y-27.035
X13.481 Y-27.017
X13.533 Y-26.988
X13.591 Y-26.949
X14.448 Y-26.368
G3 X14.587 Y-26.116 I-0.178 J0.263
X14.281 Y-25.788 Z-2 I-0.317 J0.011
G1 X13.551
X13.405 Y-25.79
X13.332 Y-25.802
X13.296 Y-25.81
X13.259 Y-25.822
X13.218 Y-25.843
X13.192 Y-25.86
X13.166 Y-25.881
X13.138 Y-25.909
X13.114 Y-25.937
X13.096 Y-25.963
G3 X13.038 Y-26.28 I0.491 J-0.254
G1 Y-28.323
G3 X13.583 Y-29.494 I1.505 J-0.012
G1 X13.779 Y-29.582
X13.991 Y-29.612
G3 X14.297 Y-29.284 Z-1.8 I-0.011 J0.317
G1 X14.29 Y-29.227
X14.273 Y-29.173
X14.246 Y-29.122
X14.204 Y-29.058
X13.621 Y-28.161
G3 X13.366 Y-28.017 I-0.266 J-0.173
X13.038 Y-28.323 Z-2 I-0.011 J-0.317
G1 Y-28.843
Y-29.198 F900
X13.043 Y-29.271
X13.058 Y-29.344
X13.066 Y-29.374
X13.078 Y-29.403
X13.094 Y-29.433
X13.114 Y-29.463
X13.137 Y-29.49 F1000
X13.167 Y-29.521
G3 X13.551 Y-29.611 I0.298 J0.407
G1 X15.594 Y-29.612
G3 X16.748 Y-29.061 I-0.004 J1.492
G1 X16.833 Y-28.867
X16.862 Y-28.658
G3 X16.534 Y-28.352 Z-1.8 I-0.317 J-0.011
G1 X16.476 Y-28.359
X16.421 Y-28.377
X16.369 Y-28.405
X16.309 Y-28.445
X15.429 Y-29.031
G3 X15.288 Y-29.284 I0.176 J-0.264
X15.594 Y-29.612 Z-2 I0.317 J-0.011
G1 X16.469
X16.542 Y-29.603
X16.615 Y-29.587
X16.651 Y-29.573
X16.688 Y-29.553
X16.724 Y-29.527
X16.763 Y-29.49
X16.793 Y-29.453
X16.815 Y-29.417
X16.831 Y-29.381
X16.842 Y-29.344
X16.857 Y-29.271
X16.862 Y-29.198
Y-26.28
X16.86 Y-26.2
X16.858 Y-26.135
X16.844 Y-26.062
X16.833 Y-26.025
X16.818 Y-25.989
X16.794 Y-25.948
X16.761 Y-25.908
X16.721 Y-25.87
X16.681 Y-25.843
X16.648 Y-25.826
X16.615 Y-25.813
X16.542 Y-25.797
X16.469 Y-25.788
X15.714
G3 X15.408 Y-26.085 I0.011 J-0.317
G1 Y-26.105 Z-1.999
X15.422 Y-26.158 Z-1.991
X15.435 Y-26.209 Z-1.973
X15.447 Y-26.256 Z-1.946
X15.478 Y-26.292 Z-1.906
X15.503 Y-26.321 Z-1.858
X15.522 Y-26.343 Z-1.803
X15.534 Y-26.356 Z-1.744
X15.538 Y-26.361 Z-1.683
Z5
X16.426 Y-17.923
Z2.5
G3 X13.83 Y-17.379 Z2.39 I-1.476 J-0.577 F333.33
X14.372 Y-19.971 Z2.28 I1.119 J-1.119
X16.527 Y-18.439 Z2.171 I0.576 J1.471
X14.262 Y-17.08 Z2.061 I-1.577 J-0.061
X13.926 Y-19.696 Z1.951 I0.687 J-1.418
X16.453 Y-18.957 Z1.841 I1.022 J1.196
X14.765 Y-16.94 Z1.732 I-1.503 J0.457
X13.596 Y-19.291 Z1.622 I0.184 J-1.558
X16.215 Y-19.421 Z1.512 I1.352 J0.792
X15.285 Y-16.973 Z1.402 I-1.266 J0.92
X13.418 Y-18.803 Z1.293 I-0.335 J-1.526
X15.84 Y-19.779 Z1.183 I1.53 J0.304
X15.763 Y-17.173 Z1.073 I-0.891 J1.278
X13.409 Y-18.286 Z0.963 I-0.813 J-1.326
X15.37 Y-19.994 Z0.854 I1.539 J-0.213
X16.148 Y-17.517 Z0.744 I-0.421 J1.493
X13.57 Y-17.796 Z0.634 I-1.198 J-0.982
X14.857 Y-20.042 Z0.524 I1.378 J-0.702
X16.397 Y-17.966 Z0.415 I0.091 J1.542
X13.881 Y-17.388 Z0.305 I-1.447 J-0.534
X14.359 Y-19.921 Z0.195 I1.068 J-1.11
X16.486 Y-18.47 Z0.085 I0.589 J1.421
X14.307 Y-17.105 Z-0.024 I-1.536 J-0.03
X13.93 Y-19.645 Z-0.134 I0.642 J-1.393
X16.405 Y-18.973 Z-0.244 I1.018 J1.145
X14.8 Y-16.977 Z-0.354 I-1.455 J0.473
X13.616 Y-19.245 Z-0.463 I0.149 J-1.521
X16.165 Y-19.421 Z-0.573 I1.332 J0.746
X15.305 Y-17.018 Z-0.683 I-1.216 J0.92
X13.451 Y-18.766 Z-0.793 I-0.355 J-1.481
X15.793 Y-19.763 Z-0.902 I1.497 J0.267
X15.767 Y-17.222 Z-1.012 I-0.844 J1.262
X13.453 Y-18.262 Z-1.122 I-0.817 J-1.277
X15.33 Y-19.964 Z-1.232 I1.495 J-0.237
X16.136 Y-17.565 Z-1.341 I-0.381 J1.463
X13.619 Y-17.788 Z-1.451 I-1.186 J-0.934
X14.83 Y-20 Z-1.561 I1.329 J-0.71
X16.37 Y-18.007 Z-1.671 I0.118 J1.5
X13.93 Y-17.396 Z-1.78 I-1.42 J-0.493
X14.347 Y-19.873 Z-1.89 I1.019 J-1.102
X16.447 Y-18.5 Z-2 I0.601 J1.373
X13.449 I-1.499 J0
X16.447 I1.499 J0
G1 X16.473 Y-17.858 F1000
G3 X15.942 Y-16.62 I-0.907 J0.344
G1 X15.714 Y-16.587
X14.281
G3 X13.148 Y-17.138 I0.017 J-1.474
G1 X13.067 Y-17.331
X13.038 Y-17.537
G3 X13.366 Y-17.842 Z-1.8 I0.317 J0.012
G1 X13.425 Y-17.835
X13.481 Y-17.817
X13.533 Y-17.788
X13.591 Y-17.749
X14.448 Y-17.168
G3 X14.587 Y-16.916 I-0.178 J0.263
X14.281 Y-16.588 Z-2 I-0.317 J0.011
G1 X13.551 Y-16.587
X13.405 Y-16.59
X13.332 Y-16.602
X13.296 Y-16.61
X13.259 Y-16.622
X13.231 Y-16.635
X13.202 Y-16.652
X13.18 Y-16.668
X13.158 Y-16.687
X13.114 Y-16.739
X13.094 Y-16.768
G3 X13.038 Y-17.09 I0.505 J-0.253
G1 Y-19.132
G3 X13.584 Y-20.296 I1.498 J-0.007
G1 X13.78 Y-20.382
X13.99 Y-20.413
G3 X14.297 Y-20.084 Z-1.8 I-0.011 J0.318
G1 X14.289 Y-20.027
X14.272 Y-19.972
X14.245 Y-19.921
X14.203 Y-19.858
X13.62 Y-18.969
G3 X13.366 Y-18.826 I-0.265 J-0.174
X13.038 Y-19.132 Z-2 I-0.011 J-0.317
G1 Y-19.643
Y-20.007 F900
X13.045 Y-20.08
X13.06 Y-20.153
X13.069 Y-20.181
X13.08 Y-20.208
X13.095 Y-20.236
X13.114 Y-20.263
X13.145 Y-20.299 F1000
X13.173 Y-20.326
G3 X13.551 Y-20.411 I0.293 J0.423
G1 X15.594 Y-20.413
G3 X16.749 Y-19.862 I-0.004 J1.493
G1 X16.833 Y-19.667
X16.862 Y-19.458
G3 X16.534 Y-19.152 Z-1.8 I-0.317 J-0.011
G1 X16.476 Y-19.159
X16.421 Y-19.177
X16.369 Y-19.205
X16.309 Y-19.245
X15.429 Y-19.831
G3 X15.288 Y-20.084 I0.176 J-0.264
X15.594 Y-20.412 Z-2 I0.317 J-0.011
G1 X16.469
X16.542 Y-20.403
X16.615 Y-20.387
X16.65 Y-20.374
X16.684 Y-20.356
X16.719 Y-20.331
X16.761 Y-20.292
X16.79 Y-20.258
X16.812 Y-20.223
X16.828 Y-20.188
X16.84 Y-20.153
X16.855 Y-20.08
X16.861 Y-20.044
X16.862 Y-20.007
Y-17.09
X16.861 Y-17.009
X16.859 Y-16.944 F900
X16.845 Y-16.871
X16.836 Y-16.834
X16.822 Y-16.798
X16.797 Y-16.753
X16.761 Y-16.709
X16.728 Y-16.677
X16.696 Y-16.652
X16.655 Y-16.629 F1000
X16.615 Y-16.613
X16.542 Y-16.597
X16.469 Y-16.588
X15.714 Y-16.587
G3 X15.407 Y-16.885 I0.011 J-0.318
G1 X15.408 Y-16.905 Z-1.999
X15.421 Y-16.958 Z-1.991
X15.434 Y-17.009 Z-1.973
X15.446 Y-17.056 Z-1.946
X15.477 Y-17.092 Z-1.906
X15.503 Y-17.121 Z-1.858
X15.522 Y-17.143 Z-1.803
X15.533 Y-17.156 Z-1.744
X15.537 Y-17.161 Z-1.683
Z5
X25.626 Y-27.123
Z2.5
G3 X23.03 Y-26.579 Z2.39 I-1.476 J-0.577 F333.33
X23.572 Y-29.171 Z2.28 I1.118 J-1.119
X25.727 Y-27.639 Z2.171 I0.576 J1.471
X23.461 Y-26.28 Z2.061 I-1.577 J-0.061
X23.125 Y-28.896 Z1.951 I0.688 J-1.418
X25.654 Y-28.157 Z1.841 I1.023 J1.196
X23.965 Y-26.138 Z1.732 I-1.505 J0.457
X22.794 Y-28.492 Z1.622 I0.184 J-1.56
X25.417 Y-28.622 Z1.512 I1.354 J0.793
X24.485 Y-26.17 Z1.402 I-1.268 J0.921
X22.613 Y-28.004 Z1.293 I-0.336 J-1.529
X25.042 Y-28.983 Z1.183 I1.535 J0.305
X24.965 Y-26.369 Z1.073 I-0.893 J1.282
X22.605 Y-27.485 Z0.963 I-0.815 J-1.33
X24.57 Y-29.198 Z0.854 I1.543 J-0.214
X25.35 Y-26.714 Z0.744 I-0.422 J1.497
X22.767 Y-26.994 Z0.634 I-1.2 J-0.985
X24.057 Y-29.245 Z0.524 I1.381 J-0.704
X25.6 Y-27.165 Z0.415 I0.091 J1.545
X23.079 Y-26.586 Z0.305 I-1.45 J-0.535
X23.558 Y-29.123 Z0.195 I1.069 J-1.112
X25.688 Y-27.67 Z0.085 I0.59 J1.423
X23.506 Y-26.303 Z-0.024 I-1.538 J-0.03
X23.129 Y-28.846 Z-0.134 I0.643 J-1.395
X25.606 Y-28.174 Z-0.244 I1.019 J1.146
X23.999 Y-26.175 Z-0.354 I-1.457 J0.474
X22.814 Y-28.446 Z-0.463 I0.15 J-1.523
X25.367 Y-28.622 Z-0.573 I1.334 J0.747
X24.506 Y-26.216 Z-0.683 I-1.218 J0.921
X22.647 Y-27.967 Z-0.793 I-0.357 J-1.483
X24.995 Y-28.967 Z-0.902 I1.501 J0.268
X24.97 Y-26.418 Z-1.012 I-0.846 J1.266
X22.648 Y-27.461 Z-1.122 I-0.82 J-1.281
X24.531 Y-29.169 Z-1.232 I1.5 J-0.238
X25.339 Y-26.762 Z-1.341 I-0.383 J1.468
X22.815 Y-26.986 Z-1.451 I-1.189 J-0.937
X24.03 Y-29.205 Z-1.561 I1.333 J-0.712
X25.574 Y-27.206 Z-1.671 I0.118 J1.505
X23.127 Y-26.593 Z-1.78 I-1.424 J-0.494
X23.546 Y-29.077 Z-1.89 I1.021 J-1.105
X25.651 Y-27.7 Z-2 I0.602 J1.377
X22.645 I-1.503 J0
X25.651 I1.503 J0
G1 X25.673 Y-27.058 F1000
G3 X25.142 Y-25.82 I-0.907 J0.344
G1 X24.914 Y-25.788
X23.471
G3 X22.348 Y-26.34 I0.023 J-1.466
G1 X22.266 Y-26.531
X22.237 Y-26.735
G3 X22.566 Y-27.042 Z-1.8 I0.318 J0.011
G1 X22.625 Y-27.034
X22.682 Y-27.015
X22.734 Y-26.986
X22.791 Y-26.948
X23.639 Y-26.367
G3 X23.777 Y-26.116 I-0.179 J0.262
X23.471 Y-25.788 Z-2 I-0.317 J0.011
G1 X22.973
X22.742 F900
X22.596 Y-25.791
X22.523 Y-25.804
X22.486 Y-25.813
X22.45 Y-25.827
X22.42 Y-25.843
X22.391 Y-25.862
X22.362 Y-25.887
X22.33 Y-25.92 F1000
X22.304 Y-25.952
G3 X22.238 Y-26.28 I0.452 J-0.262
G1 X22.237 Y-28.323
G3 X22.782 Y-29.495 I1.506 J-0.013
G1 X22.979 Y-29.582
X23.19 Y-29.612
G3 X23.496 Y-29.284 Z-1.8 I-0.011 J0.317
G1 X23.49 Y-29.228
X23.472 Y-29.173
X23.446 Y-29.122
X23.404 Y-29.058
X22.821 Y-28.161
G3 X22.566 Y-28.017 I-0.266 J-0.173
X22.238 Y-28.323 Z-2 I-0.011 J-0.317
G1 X22.237 Y-28.794
Y-29.198 F900
X22.243 Y-29.271
X22.258 Y-29.344
X22.275 Y-29.396
X22.288 Y-29.422
X22.304 Y-29.448 F1000
X22.339 Y-29.49
X22.394 Y-29.54
X22.422 Y-29.559
G3 X22.742 Y-29.613 I0.252 J0.522
G1 X24.784 Y-29.612
G3 X25.946 Y-29.062 I0.002 J1.499
G1 X26.032 Y-28.867
X26.063 Y-28.657
G3 X25.735 Y-28.351 Z-1.8 I-0.317 J-0.011
G1 X25.677 Y-28.358
X25.622 Y-28.376
X25.57 Y-28.403
X25.509 Y-28.444
X24.62 Y-29.03
G3 X24.478 Y-29.284 I0.175 J-0.265
X24.784 Y-29.612 Z-2 I0.317 J-0.011
G1 X25.659
X25.696 Y-29.611
X25.732 Y-29.605
X25.805 Y-29.59
X25.842 Y-29.577
X25.878 Y-29.559
X25.915 Y-29.535
X25.951 Y-29.503
X25.963 Y-29.49
X25.993 Y-29.453
X26.015 Y-29.417
X26.031 Y-29.381
X26.042 Y-29.344
X26.057 Y-29.271
X26.063 Y-29.198
Y-26.28
X26.06 Y-26.2
X26.058 Y-26.135
X26.044 Y-26.062
X26.033 Y-26.025
X26.018 Y-25.989
X25.991 Y-25.943
X25.973 Y-25.92
X25.951 Y-25.897
X25.916 Y-25.867
X25.881 Y-25.843
X25.843 Y-25.824
X25.805 Y-25.811
X25.732 Y-25.795
X25.696 Y-25.789
X25.659 Y-25.788
X24.914
G3 X24.608 Y-26.085 I0.011 J-0.317
G1 X24.607 Y-26.105 Z-1.999
X24.621 Y-26.158 Z-1.991
X24.634 Y-26.209 Z-1.973
X24.646 Y-26.256 Z-1.946
X24.677 Y-26.292 Z-1.906
X24.703 Y-26.321 Z-1.858
X24.722 Y-26.343 Z-1.803
X24.733 Y-26.356 Z-1.744
X24.737 Y-26.361 Z-1.683
Z5
X28.976 Y-36.798
Z2.5
G3 X26.38 Y-36.254 Z2.39 I-1.476 J-0.577 F333.33
X26.921 Y-38.848 Z2.28 I1.119 J-1.12
X29.078 Y-37.314 Z2.171 I0.577 J1.472
X26.811 Y-35.954 Z2.061 I-1.578 J-0.061
X26.474 Y-38.574 Z1.951 I0.688 J-1.42
X29.007 Y-37.833 Z1.841 I1.024 J1.199
X27.315 Y-35.812 Z1.732 I-1.507 J0.457
X26.143 Y-38.169 Z1.622 I0.185 J-1.562
X28.768 Y-38.298 Z1.512 I1.355 J0.794
X27.836 Y-35.845 Z1.402 I-1.268 J0.922
X25.965 Y-37.679 Z1.293 I-0.336 J-1.529
X28.391 Y-38.657 Z1.183 I1.533 J0.305
X28.315 Y-36.045 Z1.073 I-0.892 J1.281
X25.956 Y-37.16 Z0.963 I-0.815 J-1.329
X27.921 Y-38.872 Z0.854 I1.542 J-0.214
X28.701 Y-36.39 Z0.744 I-0.422 J1.496
X26.116 Y-36.669 Z0.634 I-1.201 J-0.985
X27.407 Y-38.924 Z0.524 I1.383 J-0.705
X28.954 Y-36.839 Z0.415 I0.092 J1.548
X26.426 Y-36.258 Z0.305 I-1.454 J-0.536
X26.906 Y-38.804 Z0.195 I1.073 J-1.116
X29.044 Y-37.345 Z0.085 I0.592 J1.429
X26.854 Y-35.972 Z-0.024 I-1.544 J-0.03
X26.474 Y-38.528 Z-0.134 I0.645 J-1.402
X28.965 Y-37.852 Z-0.244 I1.024 J1.153
X27.349 Y-35.843 Z-0.354 I-1.465 J0.476
X26.158 Y-38.125 Z-0.463 I0.151 J-1.531
X28.722 Y-38.302 Z-0.573 I1.34 J0.75
X27.858 Y-35.885 Z-0.683 I-1.222 J0.926
X25.992 Y-37.643 Z-0.793 I-0.358 J-1.489
X28.348 Y-38.646 Z-0.902 I1.506 J0.269
X28.323 Y-36.09 Z-1.012 I-0.849 J1.27
X25.994 Y-37.136 Z-1.122 I-0.823 J-1.284
X27.883 Y-38.847 Z-1.232 I1.504 J-0.238
X28.693 Y-36.435 Z-1.341 I-0.384 J1.471
X26.161 Y-36.659 Z-1.451 I-1.193 J-0.94
X27.38 Y-38.886 Z-1.561 I1.338 J-0.715
X28.93 Y-36.879 Z-1.671 I0.119 J1.51
X26.473 Y-36.263 Z-1.78 I-1.43 J-0.496
X26.893 Y-38.759 Z-1.89 I1.026 J-1.111
X29.008 Y-37.375 Z-2 I0.605 J1.384
X25.988 I-1.51 J0
X29.008 I1.51 J0
G1 X29.023 Y-36.734 F1000
G3 X28.492 Y-35.495 I-0.907 J0.345
G1 X28.264 Y-35.463
X26.826
G3 X25.698 Y-36.014 I0.02 J-1.471
G1 X25.616 Y-36.206
X25.587 Y-36.411
G3 X25.916 Y-36.718 Z-1.8 I0.318 J0.011
G1 X25.975 Y-36.71
X26.031 Y-36.692
X26.084 Y-36.663
X26.141 Y-36.624
X26.994 Y-36.042
G3 X27.132 Y-35.791 I-0.179 J0.262
X26.826 Y-35.463 Z-2 I-0.317 J0.011
G1 X26.097
X25.951 Y-35.465
X25.912 Y-35.471
X25.859 Y-35.482
X25.832 Y-35.489
X25.805 Y-35.499
X25.769 Y-35.517
X25.732 Y-35.542
X25.692 Y-35.58
X25.659 Y-35.618
G3 X25.588 Y-35.909 I0.455 J-0.266
G1 X25.587 Y-38.032
G3 X26.137 Y-39.175 I1.482 J0.009
G1 X26.331 Y-39.258
X26.538 Y-39.287
G3 X26.844 Y-38.959 Z-1.8 I-0.011 J0.317
G1 X26.837 Y-38.901
X26.819 Y-38.845
X26.791 Y-38.793
X26.751 Y-38.734
X26.168 Y-37.866
G3 X25.916 Y-37.726 I-0.263 J-0.177
X25.588 Y-38.032 Z-2 I-0.011 J-0.317
G1 X25.587 Y-38.827
X25.588 Y-38.9
X25.598 Y-38.973
X25.615 Y-39.045
X25.63 Y-39.082
X25.65 Y-39.118
X25.659 Y-39.131
X25.691 Y-39.17
X25.732 Y-39.208
G3 X26.097 Y-39.286 I0.283 J0.43
G1 X28.139 Y-39.287
G3 X29.297 Y-38.737 I0 J1.495
G1 X29.382 Y-38.543
X29.413 Y-38.333
G3 X29.084 Y-38.026 Z-1.8 I-0.318 J-0.011
G1 X29.027 Y-38.034
X28.971 Y-38.052
X28.92 Y-38.08
X28.859 Y-38.12
X27.975 Y-38.705
G3 X27.833 Y-38.959 I0.175 J-0.265
X28.139 Y-39.287 Z-2 I0.317 J-0.011
G1 X28.701
X29.015 F900
X29.084 Y-39.279
X29.154 Y-39.264
X29.197 Y-39.248
X29.233 Y-39.228
X29.27 Y-39.202
X29.306 Y-39.171
X29.33 Y-39.145 F1000
X29.349 Y-39.118
G3 X29.412 Y-38.827 I-0.492 J0.259
G1 X29.413 Y-35.909
X29.411 Y-35.836 F900
X29.399 Y-35.763
X29.38 Y-35.69
X29.363 Y-35.654
X29.34 Y-35.617
X29.306 Y-35.576
X29.27 Y-35.543
X29.233 Y-35.518
X29.197 Y-35.5 F1000
X29.16 Y-35.487
X29.088 Y-35.471
X29.015 Y-35.463
X28.264
G3 X27.958 Y-35.76 I0.011 J-0.317
G1 Y-35.78 Z-1.999
X27.971 Y-35.833 Z-1.991
X27.984 Y-35.884 Z-1.973
X27.996 Y-35.931 Z-1.946
X28.027 Y-35.967 Z-1.906
X28.053 Y-35.996 Z-1.858
X28.072 Y-36.018 Z-1.803
X28.083 Y-36.031 Z-1.744
X28.087 Y-36.036 Z-1.683
Z5
X6.469 Y-5.856
Z0.5
G3 X4.728 Y-7.7 Z0.397 I-0.212 J-1.544 F333.33
X7.033 Y-8.748 Z0.293 I1.527 J0.3
X7.278 Y-6.232 Z0.19 I-0.777 J1.346
X4.822 Y-6.814 Z0.086 I-1.02 J-1.169
X6.165 Y-8.946 Z-0.017 I1.434 J-0.586
X7.746 Y-6.987 Z-0.121 I0.091 J1.544
X5.383 Y-6.126 Z-0.224 I-1.489 J-0.414
X5.334 Y-8.639 Z-0.328 I0.873 J-1.274
X7.724 Y-7.873 Z-0.431 I0.921 J1.238
X6.228 Y-5.862 Z-0.534 I-1.467 J0.471
X4.811 Y-7.926 Z-0.638 I0.029 J-1.538
X7.22 Y-8.597 Z-0.741 I1.444 J0.525
X7.075 Y-6.103 Z-0.845 I-0.964 J1.195
X4.765 Y-7.046 Z-0.948 I-0.818 J-1.297
X6.404 Y-8.925 Z-1.052 I1.491 J-0.354
X7.649 Y-6.769 Z-1.155 I-0.148 J1.523
X5.209 Y-6.29 Z-1.259 I-1.391 J-0.632
X5.545 Y-8.75 Z-1.362 I1.047 J-1.11
X7.761 Y-7.637 Z-1.466 I0.71 J1.349
X5.993 Y-5.903 Z-1.569 I-1.504 J0.235
X4.926 Y-8.134 Z-1.672 I0.264 J-1.497
X7.379 Y-8.421 Z-1.776 I1.329 J0.733
X6.857 Y-6.01 Z-1.879 I-1.122 J1.019
X4.748 Y-7.283 Z-1.983 I-0.6 J-1.39
X6.633 Y-8.865 Z-2.086 I1.508 J-0.117
X7.518 Y-6.572 Z-2.19 I-0.377 J1.463
X5.066 Y-6.477 Z-2.293 I-1.26 J-0.829
X5.768 Y-8.825 Z-2.397 I1.19 J-0.923
X7.761 Y-7.401 Z-2.5 I0.488 J1.424
X4.751 I-1.505 J0
X7.761 I1.505 J0
G1 X7.768 Y-7.241 F1000
X7.898 Y-6.715
G3 X7.485 Y-5.507 I-1.158 J0.279
X5.389 Y-5.107 I-1.369 J-1.482
X4.694 Y-9.348 I0.809 J-2.31
X8.508 Y-8.492 I1.57 J1.929
X9.011 Y-6.338 I-3.032 J1.843
X6.17 Y-3.928 I-2.842 J-0.471
X2.857 Y-6.265 I-0.099 J-3.376
X8.972 Y-9.767 I3.397 J-1.158
X10.039 Y-5.733 I-3.158 J2.993
X8.836 Y-3.817 I-3.952 J-1.146
G1 X8.687 Y-3.72
X8.522 Y-3.659
X8.346 Y-3.638
X4.069 Y-3.637
G2 X3.193 Y-3.539 I-0.19 J2.256
X2.841 Y-3.36 I0.622 J1.657
G1 X2.813 Y-3.348
X2.784 Y-3.339
X2.756 Y-3.332
X2.72 Y-3.328
X2.683 Y-3.327
X2.647 Y-3.331
X2.61 Y-3.34
X2.57 Y-3.355
X2.529 Y-3.376
X2.497 Y-3.4
X2.464 Y-3.431
X2.411 Y-3.502
X2.42 Y-3.53
X2.454 Y-3.629
X2.499 Y-3.723
G3 X2.927 Y-3.493 I0.214 J0.115
X2.857 Y-3.412 I-0.214 J-0.115
X2.464 Y-3.43 I-0.185 J-0.252
G1 X2.427 Y-3.476
X2.4 Y-3.522
X2.384 Y-3.559
X2.374 Y-3.595
X2.369 Y-3.632
X2.368 Y-3.668
Y-11.108
X2.37 Y-11.181 F900
X2.378 Y-11.218
X2.389 Y-11.254
X2.402 Y-11.283
X2.419 Y-11.312
X2.464 Y-11.369
X2.497 Y-11.4
X2.525 Y-11.421
X2.553 Y-11.438
X2.582 Y-11.451
X2.61 Y-11.46
X2.647 Y-11.469
X2.683 Y-11.473
X2.72 Y-11.472
X2.756 Y-11.468
X2.793 Y-11.459 F1000
G2 X4.069 Y-11.167 I1.058 J-1.689
G1 X8.008 Y-11.163
G3 X9.528 Y-10.549 I-0.144 J2.545
X11.242 Y-7.306 I-2.953 J3.635
X10.309 Y-3.827 I-4.856 J0.563
G1 X10.152 Y-3.727
X9.981 Y-3.66
X9.799 Y-3.638
X8.346
G3 X8.041 Y-3.939 Z-2.311 I0.012 J-0.317
G1 X8.039 Y-3.966 Z-2.3
X8.027 Y-4.214
X7.714 Y-10.586
X7.702 Y-10.83
Y-10.834
G3 X8.008 Y-11.162 Z-2.5 I0.317 J-0.011
G1 X9.401 Y-11.163
G3 X10.763 Y-10.586 I-0.128 J2.196
X12.111 Y-8.529 I-2.794 J3.302
X11.745 Y-4.006 I-5.548 J1.827
X11.099 Y-3.636 I-0.653 J-0.392
G1 X9.799 Y-3.638
G3 X9.493 Y-3.937 Z-2.312 I0.011 J-0.317
G1 X9.491 Y-3.966 Z-2.3
X9.477 Y-4.213
X9.109 Y-10.586
X9.095 Y-10.827
Y-10.834
G3 X9.401 Y-11.162 Z-2.5 I0.317 J-0.011
G1 X10.634 Y-11.163
G3 X11.923 Y-10.623 I-0.096 J2.036
X13.081 Y-9.005 I-2.585 J3.073
X13.453 Y-5.509 I-5.789 J2.384
X12.99 Y-4.006 I-4.804 J-0.657
X12.347 Y-3.637 I-0.646 J-0.381
G1 X11.099 Y-3.638
G3 X10.794 Y-3.933 Z-2.313 I0.011 J-0.317
G1 X10.791 Y-3.966 Z-2.3
X10.774 Y-4.213
X10.344 Y-10.587
X10.328 Y-10.824
X10.327 Y-10.834
G3 X10.634 Y-11.163 Z-2.5 I0.318 J-0.011
G1 X11.801
G3 X13.254 Y-10.473 I-0.1 J2.085
X14.373 Y-8.611 I-3.044 J3.097
X14.413 Y-4.494 I-6.55 J2.123
G1 X14.306 Y-4.213
G3 X13.772 Y-3.665 I-0.804 J-0.249
G1 X13.565 Y-3.638
X12.347
G3 X12.042 Y-3.93 Z-2.314 I0.011 J-0.317
G1 X12.038 Y-3.966 Z-2.3
X12.019 Y-4.213
X11.514 Y-10.587
X11.495 Y-10.82
X11.494 Y-10.834
G3 X11.801 Y-11.163 Z-2.5 I0.318 J-0.011
G1 X12.968
G3 X14.41 Y-10.469 I-0.105 J2.062
X15.37 Y-9.017 I-2.849 J2.926
X15.87 Y-6.336 I-6.219 J2.547
X15.589 Y-4.417 I-6.216 J0.069
G1 X15.496 Y-4.184
G3 X14.973 Y-3.664 I-0.776 J-0.258
G1 X14.767 Y-3.638
X13.565
G3 X13.26 Y-3.927 Z-2.315 I0.011 J-0.317
G1 X13.256 Y-3.966 Z-2.3
X13.235 Y-4.213
X12.682 Y-10.587
X12.662 Y-10.818
Y-10.826
X12.661 Y-10.834
G3 X12.968 Y-11.163 Z-2.5 I0.318 J-0.011
G1 X14.135
G3 X15.393 Y-10.623 I-0.09 J1.944
X16.549 Y-8.94 I-2.714 J3.102
X17.041 Y-6.145 I-6.477 J2.58
X16.761 Y-4.36 I-5.743 J0.014
X16.355 Y-3.745 I-1.112 J-0.293
G1 X16.164 Y-3.666
X15.961 Y-3.638
X14.767
G3 X14.462 Y-3.926 Z-2.316 I0.011 J-0.317
G1 X14.458 Y-3.966 Z-2.3
X14.436 Y-4.213
X13.851 Y-10.587
X13.83 Y-10.816
X13.829 Y-10.825
X13.828 Y-10.834
G3 X14.135 Y-11.163 Z-2.5 I0.318 J-0.011
G1 X15.302
G3 X16.564 Y-10.603 I-0.111 J1.953
X17.738 Y-8.85 I-2.823 J3.159
X18.106 Y-4.957 I-6.792 J2.605
X17.814 Y-4.041 I-3.574 J-0.635
X17.151 Y-3.636 I-0.665 J-0.343
G1 X15.961 Y-3.638
G3 X15.656 Y-3.925 Z-2.317 I0.011 J-0.317
G1 X15.652 Y-3.965 Z-2.3
X15.629 Y-4.213
X15.019 Y-10.587
X14.997 Y-10.815
X14.996 Y-10.825
Y-10.834
G3 X15.302 Y-11.162 Z-2.5 I0.317 J-0.011
G1 X16.469 Y-11.163
G3 X17.738 Y-10.584 I-0.131 J1.966
X18.738 Y-9.215 I-2.661 J2.995
X19.383 Y-6.493 I-6.268 J2.923
X19.195 Y-4.559 I-6.262 J0.367
X18.881 Y-3.87 I-1.816 J-0.413
G1 X18.722 Y-3.745
X18.537 Y-3.665
X18.337 Y-3.638
X17.151
G3 X16.846 Y-3.924 Z-2.317 I0.011 J-0.317
G1 X16.842 Y-3.965 Z-2.3
X16.817 Y-4.213
X16.186 Y-10.587
X16.164 Y-10.814
X16.163 Y-10.824
Y-10.834
G3 X16.469 Y-11.162 Z-2.5 I0.317 J-0.011
G1 X17.636 Y-11.163
G3 X18.914 Y-10.565 I-0.148 J1.981
X19.927 Y-9.157 I-2.741 J3.039
X20.558 Y-5.795 I-6.541 J2.968
X20.277 Y-4.256 I-4.953 J-0.108
X19.905 Y-3.742 I-0.903 J-0.262
G1 X19.72 Y-3.665
X19.521 Y-3.638
X18.337
G3 X18.032 Y-3.923 Z-2.317 I0.011 J-0.317
G1 X18.028 Y-3.965 Z-2.3
X18.003 Y-4.212
X17.354 Y-10.587
X17.331 Y-10.813
X17.33 Y-10.824
Y-10.834
G3 X17.636 Y-11.162 Z-2.5 I0.317 J-0.011
G1 X18.737 Y-11.163
G3 X20.013 Y-10.615 I-0.091 J1.972
X21.029 Y-9.281 I-2.601 J3.035
X21.65 Y-4.975 I-6.489 J3.134
X21.367 Y-4.052 I-3.541 J-0.581
X20.701 Y-3.637 I-0.669 J-0.332
G1 X19.521 Y-3.638
G3 X19.218 Y-3.919 Z-2.319 I0.012 J-0.317
G1 X19.212 Y-3.965 Z-2.3
X19.184 Y-4.212
X18.458 Y-10.588
X18.433 Y-10.809
X18.432 Y-10.822
X18.431 Y-10.834
G3 X18.737 Y-11.162 Z-2.5 I0.317 J-0.011
G1 X19.904 Y-11.163
G3 X21.177 Y-10.612 I-0.099 J1.977
X22.201 Y-9.266 I-2.603 J3.043
X22.916 Y-5.961 I-6.369 J3.107
X22.663 Y-4.331 I-5.188 J0.031
X22.272 Y-3.747 I-1.039 J-0.273
G1 X22.082 Y-3.666
X21.879 Y-3.638
X20.701
G3 X20.397 Y-3.918 Z-2.319 I0.011 J-0.317
G1 X20.391 Y-3.965 Z-2.3
X20.362 Y-4.212
X19.626 Y-10.588
X19.6 Y-10.809
X19.599 Y-10.822
X19.598 Y-10.834
G3 X19.904 Y-11.162 Z-2.5 I0.317 J-0.011
G1 X21.071 Y-11.163
G3 X22.346 Y-10.609 I-0.104 J1.983
X23.379 Y-9.248 I-2.641 J3.078
X24.091 Y-5.938 I-6.398 J3.107
X23.839 Y-4.325 I-5.132 J0.024
X23.449 Y-3.746 I-1.028 J-0.272
G1 X23.26 Y-3.666
X23.056 Y-3.638
X21.879
G3 X21.575 Y-3.918 Z-2.319 I0.011 J-0.317
G1 X21.569 Y-3.965 Z-2.3
X21.54 Y-4.212
X20.793 Y-10.588
X20.767 Y-10.808
X20.766 Y-10.821
X20.765 Y-10.834
G3 X21.071 Y-11.162 Z-2.5 I0.317 J-0.011
G1 X22.238 Y-11.163
G3 X23.517 Y-10.606 I-0.107 J1.992
X24.553 Y-9.241 I-2.65 J3.088
X25.266 Y-5.928 I-6.415 J3.113
X25.015 Y-4.323 I-5.11 J0.023
X24.626 Y-3.746 I-1.024 J-0.271
G1 X24.436 Y-3.666
X24.233 Y-3.638
X23.056
G3 X22.752 Y-3.917 Z-2.319 I0.011 J-0.317
G1 X22.747 Y-3.965 Z-2.3
X22.717 Y-4.212
X21.96 Y-10.588
X21.934 Y-10.808
X21.933 Y-10.821
X21.932 Y-10.834
G3 X22.238 Y-11.162 Z-2.5 I0.317 J-0.011
G1 X23.405 Y-11.163
G3 X24.686 Y-10.606 I-0.106 J1.995
X25.724 Y-9.24 I-2.653 J3.094
X26.35 Y-4.94 I-6.476 J3.139
X26.074 Y-4.05 I-3.476 J-0.588
X25.409 Y-3.638 I-0.667 J-0.334
G1 X24.233
G3 X23.929 Y-3.917 Z-2.32 I0.011 J-0.317
G1 X23.923 Y-3.965 Z-2.3
X23.894 Y-4.212
X23.128 Y-10.588
X23.101 Y-10.807
X23.1 Y-10.821
X23.099 Y-10.834
G3 X23.405 Y-11.163 Z-2.5 I0.318 J-0.011
G1 X24.572
G3 X25.853 Y-10.608 I-0.104 J1.997
X26.893 Y-9.244 I-2.648 J3.098
X27.526 Y-4.946 I-6.469 J3.149
X27.153 Y-3.898 I-2.851 J-0.425
G1 X26.989 Y-3.759
X26.794 Y-3.668
X26.583 Y-3.638
X25.409
G3 X25.105 Y-3.917 Z-2.32 I0.011 J-0.317
G1 X25.099 Y-3.965 Z-2.3
X25.069 Y-4.212
X24.295 Y-10.588
X24.268 Y-10.807
X24.267 Y-10.821
X24.266 Y-10.834
G3 X24.572 Y-11.163 Z-2.5 I0.318 J-0.011
G1 X25.74
G3 X27.02 Y-10.612 I-0.101 J1.997
X28.062 Y-9.252 I-2.639 J3.101
X28.762 Y-5.497 I-6.344 J3.126
G2 X29 Y-4.772 I0.708 J0.169
G1 X29.53 Y-4.409
X29.66 Y-4.359
G3 X30.132 Y-3.64 I-0.269 J0.691
G1 X30.121 Y-3.631 Z-2.496
X30.113 Y-3.624 Z-2.486
X30.11 Y-3.621 Z-2.471
Z5
X24.713 Y-10.779
Z-1.865
Z-2.182
X24.72 Y-10.783 Z-2.253
X24.74 Y-10.795 Z-2.32
X24.773 Y-10.814 Z-2.38
X24.816 Y-10.84 Z-2.431
X24.868 Y-10.871 Z-2.469
X24.925 Y-10.905 Z-2.492
X24.986 Y-10.941 Z-2.5
G3 X25.74 Y-11.162 I0.809 J1.36
G1 X26.907 Y-11.163
G3 X28.379 Y-10.522 I-0.021 J2.058
X29.619 Y-8.499 I-3.191 J3.348
X30.022 Y-6.705 I-7.386 J2.602
X30.132 Y-6.319 I-0.595 J0.379
X29.804 Y-6.013 Z-2.3 I-0.317 J-0.011
X29.548 Y-6.159 I0.011 J-0.317
G1 X26.693 Y-10.608
X26.65 Y-10.674
X26.624 Y-10.724
X26.607 Y-10.778
X26.6 Y-10.834
G3 X26.907 Y-11.163 Z-2.5 I0.318 J-0.011
G1 X28.431
G2 X29.285 Y-11.253 I0.188 J-2.319
X29.706 Y-11.461 I-1.354 J-3.264 F900
G1 X29.744 Y-11.468
X29.78 Y-11.472
X29.817 Y-11.473 F1000
X29.853 Y-11.469
X29.89 Y-11.46
X29.918 Y-11.451
X29.947 Y-11.438
X29.975 Y-11.421
X30.003 Y-11.4
X30.043 Y-11.358
X30.072 Y-11.324
X30.067 Y-11.295
X30.055 Y-11.218
X30.043 Y-11.141
G3 X29.584 Y-11.027 I-0.254 J-0.041
G1 X29.575 Y-11.039
G3 X29.612 Y-11.369 I0.214 J-0.143
X30.003 Y-11.4 I0.215 J0.227
G1 X30.036 Y-11.369
X30.081 Y-11.312
X30.098 Y-11.283
X30.111 Y-11.254
X30.122 Y-11.218
X30.13 Y-11.181
X30.132 Y-11.108
Y-3.829
Y-3.668 F900
X30.131 Y-3.632
X30.126 Y-3.595
X30.115 Y-3.559
X30.1 Y-3.522
X30.073 Y-3.476
X30.036 Y-3.431
X30.003 Y-3.4
X29.971 Y-3.376
X29.93 Y-3.355
X29.89 Y-3.34
X29.853 Y-3.331
X29.817 Y-3.327 F1000
X29.78 Y-3.328
G3 X29.454 Y-3.48 I0.138 J-0.72
G2 X28.431 Y-3.634 I-0.815 J1.936
G1 X26.583 Y-3.638
G3 X26.277 Y-3.935 I0.011 J-0.317
G1 X26.276 Y-3.955 Z-2.499
X26.29 Y-4.008 Z-2.491
X26.303 Y-4.059 Z-2.473
X26.315 Y-4.106 Z-2.446
X26.346 Y-4.142 Z-2.406
X26.371 Y-4.171 Z-2.358
X26.39 Y-4.193 Z-2.303
X26.402 Y-4.206 Z-2.244
X26.406 Y-4.211 Z-2.183
Z5
X5.961 Y-26.155
Z0.5
G3 X4.22 Y-28 Z0.397 I-0.211 J-1.545 F333.33
X6.526 Y-29.049 Z0.293 I1.528 J0.3
X6.772 Y-26.531 Z0.19 I-0.777 J1.347
X4.313 Y-27.113 Z0.086 I-1.022 J-1.169
X5.658 Y-29.248 Z-0.017 I1.435 J-0.587
X7.241 Y-27.286 Z-0.121 I0.09 J1.547
X4.875 Y-26.424 Z-0.224 I-1.491 J-0.415
X4.825 Y-28.94 Z-0.328 I0.874 J-1.276
X7.219 Y-28.173 Z-0.431 I0.923 J1.239
X5.72 Y-26.16 Z-0.534 I-1.469 J0.471
X4.302 Y-28.226 Z-0.638 I0.03 J-1.54
X6.714 Y-28.898 Z-0.741 I1.446 J0.526
X6.569 Y-26.402 Z-0.845 I-0.965 J1.196
X4.257 Y-27.346 Z-0.948 I-0.819 J-1.298
X5.896 Y-29.225 Z-1.052 I1.491 J-0.354
X7.141 Y-27.069 Z-1.155 I-0.148 J1.523
X4.702 Y-26.589 Z-1.259 I-1.391 J-0.632
X5.037 Y-29.05 Z-1.362 I1.047 J-1.111
X7.255 Y-27.937 Z-1.466 I0.711 J1.349
X5.485 Y-26.201 Z-1.569 I-1.505 J0.236
X4.416 Y-28.435 Z-1.672 I0.264 J-1.499
X6.874 Y-28.723 Z-1.776 I1.332 J0.735
X6.351 Y-26.307 Z-1.879 I-1.125 J1.021
X4.237 Y-27.582 Z-1.983 I-0.601 J-1.393
X6.126 Y-29.168 Z-2.086 I1.511 J-0.118
X7.013 Y-26.87 Z-2.19 I-0.377 J1.466
X4.555 Y-26.775 Z-2.293 I-1.263 J-0.831
X5.26 Y-29.129 Z-2.397 I1.194 J-0.925
X7.257 Y-27.701 Z-2.5 I0.488 J1.428
X4.239 I-1.509 J0
X7.257 I1.509 J0
G1 X7.273 Y-27.059 F1000
G3 X6.741 Y-25.82 I-0.908 J0.344
G1 X6.513 Y-25.788
X5.09
G3 X3.95 Y-26.338 I0.012 J-1.481
G1 X3.867 Y-26.531
X3.838 Y-26.738
G3 X4.166 Y-27.044 Z-2.3 I0.317 J0.011
G1 X4.224 Y-27.037
X4.28 Y-27.019
X4.332 Y-26.99
X4.391 Y-26.951
X5.256 Y-26.368
G3 X5.396 Y-26.116 I-0.177 J0.263
X5.09 Y-25.788 Z-2.5 I-0.317 J0.011
G1 X4.615
X4.361 F900
X4.215
X4.142 Y-25.8
X4.069 Y-25.818
X4.043 Y-25.829
X4.017 Y-25.843
X3.993 Y-25.858
X3.97 Y-25.876
X3.944 Y-25.901
X3.923 Y-25.926 F1000
X3.9 Y-25.957
G3 X3.838 Y-26.28 I0.473 J-0.258
G1 Y-28.323
G3 X4.381 Y-29.495 I1.505 J-0.014
G1 X4.578 Y-29.582
X4.79 Y-29.612
G3 X5.096 Y-29.284 Z-2.3 I-0.011 J0.317
G1 X5.089 Y-29.228
X5.072 Y-29.173
X5.045 Y-29.122
X5.003 Y-29.058
X4.421 Y-28.161
G3 X4.166 Y-28.017 I-0.266 J-0.173
X3.838 Y-28.323 Z-2.5 I-0.011 J-0.317
G1 Y-29.198
X3.843 Y-29.271
X3.858 Y-29.344
X3.867 Y-29.377
X3.881 Y-29.409
X3.899 Y-29.442
X3.923 Y-29.474
X3.936 Y-29.49
X3.969 Y-29.523
X4.003 Y-29.548
X4.036 Y-29.567
X4.069 Y-29.582
X4.142 Y-29.6
X4.215 Y-29.612
X4.507
X6.403
G3 X7.549 Y-29.06 I-0.009 J1.485
G1 X7.633 Y-28.867
X7.662 Y-28.659
G3 X7.334 Y-28.353 Z-2.3 I-0.317 J-0.011
G1 X7.276 Y-28.361
X7.22 Y-28.379
X7.168 Y-28.407
X7.109 Y-28.447
X6.237 Y-29.032
G3 X6.097 Y-29.284 I0.177 J-0.263
X6.403 Y-29.612 Z-2.5 I0.317 J-0.011
G1 X7.278
X7.351 Y-29.601
X7.424 Y-29.583
X7.459 Y-29.569
X7.493 Y-29.55
X7.528 Y-29.524
X7.57 Y-29.481
X7.597 Y-29.447
X7.617 Y-29.413
X7.632 Y-29.378
X7.642 Y-29.344
X7.657 Y-29.271
X7.662 Y-29.198
Y-26.28
X7.66 Y-26.2
X7.658 Y-26.135
X7.644 Y-26.062
X7.633 Y-26.025
X7.618 Y-25.989
X7.597 Y-25.954
X7.57 Y-25.919
X7.526 Y-25.874
X7.481 Y-25.843
X7.453 Y-25.828
X7.424 Y-25.817
X7.351 Y-25.799
X7.278 Y-25.788
X6.513
G3 X6.207 Y-26.085 I0.011 J-0.317
G1 Y-26.105 Z-2.499
X6.22 Y-26.158 Z-2.491
X6.233 Y-26.209 Z-2.473
X6.245 Y-26.256 Z-2.446
X6.277 Y-26.292 Z-2.406
X6.302 Y-26.321 Z-2.358
X6.321 Y-26.343 Z-2.303
X6.333 Y-26.356 Z-2.244
X6.337 Y-26.361 Z-2.183
Z5
X15.162 Y-35.356
Z0.5
G3 X13.421 Y-37.2 Z0.397 I-0.212 J-1.544 F333.33
X15.726 Y-38.248 Z0.293 I1.527 J0.3
X15.971 Y-35.731 Z0.19 I-0.777 J1.346
X13.513 Y-36.313 Z0.086 I-1.021 J-1.17
X14.858 Y-38.449 Z-0.017 I1.436 J-0.587
X16.442 Y-36.487 Z-0.121 I0.091 J1.547
X14.075 Y-35.624 Z-0.224 I-1.492 J-0.414
X14.025 Y-38.14 Z-0.328 I0.874 J-1.276
X16.419 Y-37.373 Z-0.431 I0.923 J1.239
X14.921 Y-35.36 Z-0.534 I-1.469 J0.471
X13.502 Y-37.426 Z-0.638 I0.029 J-1.54
X15.914 Y-38.098 Z-0.741 I1.446 J0.525
X15.769 Y-35.602 Z-0.845 I-0.965 J1.196
X13.457 Y-36.546 Z-0.948 I-0.819 J-1.298
X15.097 Y-38.426 Z-1.052 I1.492 J-0.354
X16.343 Y-36.268 Z-1.155 I-0.148 J1.524
X13.9 Y-35.788 Z-1.259 I-1.393 J-0.633
X14.236 Y-38.252 Z-1.362 I1.049 J-1.112
X16.457 Y-37.137 Z-1.466 I0.712 J1.351
X14.686 Y-35.4 Z-1.569 I-1.507 J0.235
X13.616 Y-37.635 Z-1.672 I0.264 J-1.5
X16.074 Y-37.923 Z-1.776 I1.332 J0.734
X15.551 Y-35.508 Z-1.879 I-1.124 J1.021
X13.438 Y-36.783 Z-1.983 I-0.601 J-1.392
X15.326 Y-38.368 Z-2.086 I1.511 J-0.117
X16.214 Y-36.07 Z-2.19 I-0.377 J1.466
X13.755 Y-35.974 Z-2.293 I-1.264 J-0.831
X14.46 Y-38.33 Z-2.397 I1.194 J-0.926
X16.458 Y-36.901 Z-2.5 I0.488 J1.429
X13.438 I-1.51 J0
X16.458 I1.51 J0
G1 X16.473 Y-36.259 F1000
G3 X15.942 Y-35.02 I-0.908 J0.344
G1 X15.714 Y-34.987
X14.281
G3 X13.148 Y-35.539 I0.018 J-1.475
G1 X13.067 Y-35.732
X13.038 Y-35.937
G3 X13.366 Y-36.243 Z-2.3 I0.317 J0.011
G1 X13.425 Y-36.236
X13.481 Y-36.218
X13.533 Y-36.189
X13.591 Y-36.15
X14.448 Y-35.567
G3 X14.587 Y-35.316 I-0.178 J0.262
X14.281 Y-34.988 Z-2.5 I-0.317 J0.011
G1 X13.551 Y-34.987
X13.405 Y-34.99
X13.332 Y-35.002
X13.296 Y-35.01
X13.259 Y-35.022
X13.235 Y-35.034
X13.204 Y-35.051
X13.174 Y-35.074
X13.14 Y-35.105
X13.114 Y-35.136
X13.086 Y-35.179
X13.07 Y-35.216
X13.058 Y-35.252
X13.044 Y-35.325
X13.039 Y-35.362
X13.038 Y-35.398
Y-37.514
G3 X13.58 Y-38.693 I1.51 J-0.02
G1 X13.778 Y-38.781
X13.99 Y-38.813
G3 X14.297 Y-38.484 Z-2.3 I-0.011 J0.318
G1 X14.289 Y-38.428
X14.272 Y-38.374
X14.246 Y-38.323
X14.204 Y-38.258
X13.622 Y-37.353
G3 X13.366 Y-37.208 I-0.267 J-0.172
X13.038 Y-37.514 Z-2.5 I-0.011 J-0.317
G1 Y-38.066
Y-38.389 F900
X13.042 Y-38.462
X13.056 Y-38.535
X13.064 Y-38.566
X13.076 Y-38.598
X13.092 Y-38.63
X13.114 Y-38.661
X13.129 Y-38.681
X13.162 Y-38.716 F1000
X13.194 Y-38.742
G3 X13.551 Y-38.812 I0.275 J0.456
G1 X15.594 Y-38.813
G3 X16.748 Y-38.263 I-0.003 J1.492
G1 X16.832 Y-38.068
X16.862 Y-37.859
G3 X16.534 Y-37.553 Z-2.3 I-0.317 J-0.011
G1 X16.476 Y-37.56
X16.421 Y-37.578
X16.369 Y-37.606
X16.309 Y-37.646
X15.429 Y-38.231
G3 X15.288 Y-38.484 I0.176 J-0.264
X15.594 Y-38.812 Z-2.5 I0.317 J-0.011
G1 X16.469
X16.542 Y-38.803
X16.615 Y-38.787
X16.651 Y-38.773
X16.688 Y-38.753
X16.724 Y-38.727
X16.761 Y-38.691
X16.77 Y-38.681
X16.799 Y-38.644
X16.819 Y-38.608
X16.834 Y-38.571
X16.844 Y-38.535
X16.858 Y-38.462
X16.862 Y-38.389
Y-35.471
Y-35.398
X16.861 Y-35.362
X16.856 Y-35.325
X16.841 Y-35.252
X16.83 Y-35.216
X16.813 Y-35.179
X16.791 Y-35.144
X16.761 Y-35.108
X16.713 Y-35.063
X16.689 Y-35.047
X16.665 Y-35.034
X16.615 Y-35.013
X16.542 Y-34.997
X16.469 Y-34.988
X15.714 Y-34.987
G3 X15.407 Y-35.285 I0.011 J-0.318
G1 Y-35.305 Z-2.499
X15.421 Y-35.358 Z-2.491
X15.434 Y-35.409 Z-2.473
X15.446 Y-35.456 Z-2.446
X15.477 Y-35.492 Z-2.406
X15.502 Y-35.521 Z-2.358
X15.521 Y-35.543 Z-2.303
X15.533 Y-35.556 Z-2.244
X15.537 Y-35.561 Z-2.183
Z5
X15.162 Y-26.155
Z0.5
G3 X13.42 Y-28 Z0.397 I-0.212 J-1.545 F333.33
X15.726 Y-29.049 Z0.293 I1.528 J0.3
X15.973 Y-26.529 Z0.19 I-0.777 J1.348
X13.511 Y-27.111 Z0.086 I-1.023 J-1.171
X14.858 Y-29.25 Z-0.017 I1.438 J-0.588
X16.444 Y-27.285 Z-0.121 I0.091 J1.549
X14.074 Y-26.422 Z-0.224 I-1.494 J-0.416
X14.025 Y-28.941 Z-0.328 I0.875 J-1.277
X16.42 Y-28.173 Z-0.431 I0.923 J1.24
X14.921 Y-26.157 Z-0.534 I-1.47 J0.472
X13.501 Y-28.226 Z-0.638 I0.029 J-1.542
X15.914 Y-28.898 Z-0.741 I1.447 J0.526
X15.77 Y-26.401 Z-0.845 I-0.965 J1.197
X13.455 Y-27.345 Z-0.948 I-0.82 J-1.299
X15.097 Y-29.227 Z-1.052 I1.494 J-0.354
X16.345 Y-27.067 Z-1.155 I-0.148 J1.526
X13.899 Y-26.586 Z-1.259 I-1.395 J-0.634
X14.236 Y-29.053 Z-1.362 I1.05 J-1.113
X16.458 Y-27.937 Z-1.466 I0.712 J1.352
X14.685 Y-26.198 Z-1.569 I-1.508 J0.236
X13.615 Y-28.435 Z-1.672 I0.265 J-1.501
X16.075 Y-28.723 Z-1.776 I1.333 J0.735
X15.552 Y-26.305 Z-1.879 I-1.125 J1.022
X13.435 Y-27.582 Z-1.983 I-0.602 J-1.395
X15.327 Y-29.171 Z-2.086 I1.514 J-0.118
X16.217 Y-26.867 Z-2.19 I-0.378 J1.47
X13.752 Y-26.771 Z-2.293 I-1.267 J-0.833
X14.459 Y-29.132 Z-2.397 I1.197 J-0.928
X16.46 Y-27.701 Z-2.5 I0.489 J1.431
X13.436 I-1.512 J0
X16.46 I1.512 J0
G1 X16.473 Y-27.059 F1000
G3 X15.942 Y-25.821 I-0.907 J0.344
G1 X15.714 Y-25.788
X14.281
G3 X13.149 Y-26.34 I0.018 J-1.474
G1 X13.067 Y-26.532
X13.038 Y-26.737
G3 X13.366 Y-27.043 Z-2.3 I0.317 J0.011
G1 X13.425 Y-27.036
X13.481 Y-27.018
X13.533 Y-26.989
X13.591 Y-26.95
X14.448 Y-26.367
G3 X14.587 Y-26.116 I-0.178 J0.262
X14.281 Y-25.788 Z-2.5 I-0.317 J0.011
G1 X13.551
X13.405 Y-25.79
X13.332 Y-25.802
X13.296 Y-25.81
X13.259 Y-25.822
X13.218 Y-25.843
X13.192 Y-25.86
X13.166 Y-25.881
X13.138 Y-25.909
X13.114 Y-25.937
X13.096 Y-25.963
G3 X13.038 Y-26.28 I0.491 J-0.254
G1 Y-28.323
G3 X13.582 Y-29.494 I1.505 J-0.013
G1 X13.778 Y-29.582
X13.99 Y-29.612
G3 X14.296 Y-29.284 Z-2.3 I-0.011 J0.317
G1 X14.289 Y-29.228
X14.272 Y-29.173
X14.245 Y-29.122
X14.204 Y-29.058
X13.621 Y-28.161
G3 X13.366 Y-28.017 I-0.266 J-0.173
X13.038 Y-28.323 Z-2.5 I-0.011 J-0.317
G1 Y-28.843
Y-29.198 F900
X13.043 Y-29.271
X13.058 Y-29.344
X13.066 Y-29.374
X13.078 Y-29.403
X13.094 Y-29.433
X13.114 Y-29.463
X13.137 Y-29.49 F1000
X13.167 Y-29.521
G3 X13.551 Y-29.611 I0.298 J0.407
G1 X15.594 Y-29.612
G3 X16.748 Y-29.062 I-0.003 J1.492
G1 X16.832 Y-28.868
X16.862 Y-28.659
G3 X16.534 Y-28.353 Z-2.3 I-0.317 J-0.011
G1 X16.476 Y-28.36
X16.421 Y-28.378
X16.369 Y-28.406
X16.309 Y-28.446
X15.429 Y-29.031
G3 X15.288 Y-29.284 I0.176 J-0.264
X15.594 Y-29.612 Z-2.5 I0.317 J-0.011
G1 X16.469
X16.542 Y-29.603
X16.615 Y-29.587
X16.651 Y-29.573
X16.688 Y-29.553
X16.724 Y-29.527
X16.763 Y-29.49
X16.793 Y-29.453
X16.815 Y-29.417
X16.831 Y-29.381
X16.842 Y-29.344
X16.857 Y-29.271
X16.862 Y-29.198
Y-26.28
X16.86 Y-26.2
X16.858 Y-26.135
X16.844 Y-26.062
X16.833 Y-26.025
X16.818 Y-25.989
X16.794 Y-25.948
X16.761 Y-25.908
X16.721 Y-25.87
X16.681 Y-25.843
X16.648 Y-25.826
X16.615 Y-25.813
X16.542 Y-25.797
X16.469 Y-25.788
X15.714
G3 X15.408 Y-26.085 I0.011 J-0.317
G1 Y-26.105 Z-2.499
X15.421 Y-26.158 Z-2.491
X15.434 Y-26.209 Z-2.473
X15.446 Y-26.256 Z-2.446
X15.477 Y-26.292 Z-2.406
X15.503 Y-26.321 Z-2.358
X15.522 Y-26.343 Z-2.303
X15.533 Y-26.356 Z-2.244
X15.537 Y-26.361 Z-2.183
Z5
X15.162 Y-16.955
Z0.5
G3 X13.42 Y-18.8 Z0.397 I-0.212 J-1.545 F333.33
X15.726 Y-19.849 Z0.293 I1.528 J0.3
X15.972 Y-17.331 Z0.19 I-0.777 J1.347
X13.513 Y-17.912 Z0.086 I-1.022 J-1.169
X14.858 Y-20.049 Z-0.017 I1.436 J-0.588
X16.443 Y-18.086 Z-0.121 I0.091 J1.548
X14.074 Y-17.223 Z-0.224 I-1.493 J-0.415
X14.025 Y-19.74 Z-0.328 I0.875 J-1.276
X16.419 Y-18.973 Z-0.431 I0.923 J1.239
X14.92 Y-16.958 Z-0.534 I-1.469 J0.472
X13.5 Y-19.027 Z-0.638 I0.03 J-1.542
X15.915 Y-19.7 Z-0.741 I1.448 J0.527
X15.77 Y-17.2 Z-0.845 I-0.966 J1.198
X13.454 Y-18.145 Z-0.948 I-0.82 J-1.3
X15.097 Y-20.029 Z-1.052 I1.495 J-0.355
X16.347 Y-17.866 Z-1.155 I-0.148 J1.528
X13.897 Y-17.384 Z-1.259 I-1.397 J-0.635
X14.235 Y-19.855 Z-1.362 I1.052 J-1.115
X16.46 Y-18.738 Z-1.466 I0.713 J1.354
X14.685 Y-16.996 Z-1.569 I-1.51 J0.237
X13.614 Y-19.236 Z-1.672 I0.265 J-1.503
X16.076 Y-19.524 Z-1.776 I1.334 J0.736
X15.552 Y-17.106 Z-1.879 I-1.126 J1.022
X13.436 Y-18.382 Z-1.983 I-0.602 J-1.394
X15.327 Y-19.969 Z-2.086 I1.512 J-0.118
X16.214 Y-17.669 Z-2.19 I-0.378 J1.467
X13.754 Y-17.573 Z-2.293 I-1.264 J-0.832
X14.46 Y-19.929 Z-2.397 I1.195 J-0.926
X16.457 Y-18.501 Z-2.5 I0.488 J1.428
X13.439 I-1.509 J0
X16.457 I1.509 J0
G1 X16.473 Y-17.859 F1000
G3 X15.942 Y-16.62 I-0.908 J0.344
G1 X15.714 Y-16.587
X14.281
G3 X13.148 Y-17.139 I0.018 J-1.475
G1 X13.067 Y-17.332
X13.038 Y-17.537
G3 X13.366 Y-17.843 Z-2.3 I0.317 J0.011
G1 X13.425 Y-17.836
X13.481 Y-17.817
X13.533 Y-17.789
X13.591 Y-17.75
X14.448 Y-17.167
G3 X14.587 Y-16.916 I-0.178 J0.262
X14.281 Y-16.588 Z-2.5 I-0.317 J0.011
G1 X13.551 Y-16.587
X13.405 Y-16.59
X13.332 Y-16.602
X13.296 Y-16.61
X13.259 Y-16.622
X13.231 Y-16.635
X13.202 Y-16.652
X13.18 Y-16.668
X13.158 Y-16.687
X13.114 Y-16.739
X13.094 Y-16.768
G3 X13.038 Y-17.09 I0.505 J-0.253
G1 Y-19.132
G3 X13.583 Y-20.296 I1.499 J-0.007
G1 X13.779 Y-20.382
X13.989 Y-20.413
G3 X14.296 Y-20.084 Z-2.3 I-0.011 J0.318
G1 X14.289 Y-20.027
X14.271 Y-19.972
X14.244 Y-19.921
X14.203 Y-19.858
X13.62 Y-18.969
G3 X13.366 Y-18.826 I-0.265 J-0.174
X13.038 Y-19.132 Z-2.5 I-0.011 J-0.317
G1 Y-19.643
Y-20.007 F900
X13.045 Y-20.08
X13.06 Y-20.153
X13.069 Y-20.181
X13.08 Y-20.208
X13.095 Y-20.236
X13.114 Y-20.263
X13.145 Y-20.299 F1000
X13.173 Y-20.326
G3 X13.551 Y-20.411 I0.293 J0.423
G1 X15.594 Y-20.413
G3 X16.749 Y-19.863 I-0.003 J1.493
G1 X16.832 Y-19.668
X16.862 Y-19.459
G3 X16.534 Y-19.153 Z-2.3 I-0.317 J-0.011
G1 X16.476 Y-19.16
X16.421 Y-19.178
X16.369 Y-19.206
X16.309 Y-19.246
X15.429 Y-19.831
G3 X15.288 Y-20.084 I0.176 J-0.264
X15.594 Y-20.412 Z-2.5 I0.317 J-0.011
G1 X16.469
X16.542 Y-20.403
X16.615 Y-20.387
X16.65 Y-20.374
X16.684 Y-20.356
X16.719 Y-20.331
X16.761 Y-20.292
X16.79 Y-20.258
X16.812 Y-20.223
X16.828 Y-20.188
X16.84 Y-20.153
X16.855 Y-20.08
X16.861 Y-20.044
X16.862 Y-20.007
Y-17.09
X16.861 Y-17.009
X16.859 Y-16.944 F900
X16.845 Y-16.871
X16.836 Y-16.834
X16.822 Y-16.798
X16.797 Y-16.753
X16.761 Y-16.709
X16.728 Y-16.677
X16.696 Y-16.652
X16.655 Y-16.629 F1000
X16.615 Y-16.613
X16.542 Y-16.597
X16.469 Y-16.588
X15.714 Y-16.587
G3 X15.407 Y-16.885 I0.011 J-0.318
G1 Y-16.905 Z-2.499
X15.421 Y-16.958 Z-2.491
X15.434 Y-17.009 Z-2.473
X15.446 Y-17.056 Z-2.446
X15.477 Y-17.092 Z-2.406
X15.502 Y-17.121 Z-2.358
X15.521 Y-17.143 Z-2.303
X15.533 Y-17.156 Z-2.244
X15.537 Y-17.161 Z-2.183
Z5
X24.361 Y-26.155
Z0.5
G3 X22.62 Y-28 Z0.397 I-0.211 J-1.545 F333.33
X24.926 Y-29.049 Z0.293 I1.528 J0.3
X25.172 Y-26.531 Z0.19 I-0.777 J1.347
X22.713 Y-27.112 Z0.086 I-1.022 J-1.169
X24.058 Y-29.248 Z-0.017 I1.435 J-0.588
X25.641 Y-27.286 Z-0.121 I0.09 J1.547
X23.275 Y-26.424 Z-0.224 I-1.491 J-0.415
X23.226 Y-28.939 Z-0.328 I0.874 J-1.275
X25.618 Y-28.173 Z-0.431 I0.922 J1.238
X24.12 Y-26.159 Z-0.534 I-1.468 J0.472
X22.701 Y-28.226 Z-0.638 I0.03 J-1.541
X25.114 Y-28.899 Z-0.741 I1.447 J0.526
X24.969 Y-26.401 Z-0.845 I-0.965 J1.197
X22.656 Y-27.346 Z-0.948 I-0.819 J-1.299
X24.296 Y-29.226 Z-1.052 I1.492 J-0.354
X25.543 Y-27.068 Z-1.155 I-0.148 J1.525
X23.1 Y-26.588 Z-1.259 I-1.393 J-0.633
X23.437 Y-29.051 Z-1.362 I1.049 J-1.111
X25.655 Y-27.937 Z-1.466 I0.711 J1.35
X23.885 Y-26.201 Z-1.569 I-1.505 J0.236
X22.817 Y-28.434 Z-1.672 I0.264 J-1.498
X25.273 Y-28.722 Z-1.776 I1.331 J0.734
X24.75 Y-26.308 Z-1.879 I-1.124 J1.02
X22.639 Y-27.582 Z-1.983 I-0.6 J-1.392
X24.526 Y-29.166 Z-2.086 I1.509 J-0.118
X25.412 Y-26.871 Z-2.19 I-0.377 J1.464
X22.956 Y-26.775 Z-2.293 I-1.262 J-0.83
X23.66 Y-29.127 Z-2.397 I1.193 J-0.924
X25.655 Y-27.701 Z-2.5 I0.488 J1.426
X22.641 I-1.507 J0
X25.655 I1.507 J0
G1 X25.673 Y-27.059 F1000
G3 X25.141 Y-25.82 I-0.908 J0.344
G1 X24.913 Y-25.788
X23.471
G3 X22.348 Y-26.341 I0.024 J-1.467
G1 X22.266 Y-26.532
X22.237 Y-26.736
G3 X22.566 Y-27.043 Z-2.3 I0.318 J0.011
G1 X22.625 Y-27.035
X22.682 Y-27.016
X22.734 Y-26.987
X22.791 Y-26.948
X23.639 Y-26.367
G3 X23.777 Y-26.116 I-0.179 J0.262
X23.471 Y-25.788 Z-2.5 I-0.317 J0.011
G1 X22.973
X22.742 F900
X22.596 Y-25.791
X22.523 Y-25.804
X22.486 Y-25.813
X22.45 Y-25.827
X22.42 Y-25.843
X22.391 Y-25.862
X22.362 Y-25.887
X22.33 Y-25.92 F1000
X22.304 Y-25.952
G3 X22.238 Y-26.28 I0.452 J-0.262
G1 X22.237 Y-28.323
G3 X22.781 Y-29.495 I1.506 J-0.013
G1 X22.978 Y-29.582
X23.19 Y-29.612
G3 X23.496 Y-29.284 Z-2.3 I-0.011 J0.317
G1 X23.489 Y-29.228
X23.472 Y-29.173
X23.445 Y-29.122
X23.404 Y-29.058
X22.821 Y-28.161
G3 X22.566 Y-28.017 I-0.266 J-0.173
X22.238 Y-28.323 Z-2.5 I-0.011 J-0.317
G1 X22.237 Y-28.794
Y-29.198 F900
X22.243 Y-29.271
X22.258 Y-29.344
X22.275 Y-29.396
X22.288 Y-29.422
X22.304 Y-29.448 F1000
X22.339 Y-29.49
X22.394 Y-29.54
X22.422 Y-29.559
G3 X22.742 Y-29.613 I0.252 J0.522
G1 X24.784 Y-29.612
G3 X25.946 Y-29.063 I0.003 J1.498
G1 X26.032 Y-28.868
X26.063 Y-28.658
G3 X25.735 Y-28.352 Z-2.3 I-0.317 J-0.011
G1 X25.677 Y-28.359
X25.622 Y-28.377
X25.57 Y-28.404
X25.509 Y-28.445
X24.62 Y-29.03
G3 X24.478 Y-29.284 I0.175 J-0.265
X24.784 Y-29.612 Z-2.5 I0.317 J-0.011
G1 X25.659
X25.696 Y-29.611
X25.732 Y-29.605
X25.805 Y-29.59
X25.842 Y-29.577
X25.878 Y-29.559
X25.915 Y-29.535
X25.951 Y-29.503
X25.963 Y-29.49
X25.993 Y-29.453
X26.015 Y-29.417
X26.031 Y-29.381
X26.042 Y-29.344
X26.057 Y-29.271
X26.063 Y-29.198
Y-26.28
X26.06 Y-26.2
X26.058 Y-26.135
X26.044 Y-26.062
X26.033 Y-26.025
X26.018 Y-25.989
X25.991 Y-25.943
X25.973 Y-25.92
X25.951 Y-25.897
X25.916 Y-25.867
X25.881 Y-25.843
X25.843 Y-25.824
X25.805 Y-25.811
X25.732 Y-25.795
X25.696 Y-25.789
X25.659 Y-25.788
X24.913
G3 X24.608 Y-26.085 I0.012 J-0.317
G1 X24.607 Y-26.105 Z-2.499
X24.621 Y-26.158 Z-2.491
X24.634 Y-26.209 Z-2.473
X24.646 Y-26.256 Z-2.446
X24.677 Y-26.292 Z-2.406
X24.702 Y-26.321 Z-2.358
X24.721 Y-26.343 Z-2.303
X24.733 Y-26.356 Z-2.244
X24.737 Y-26.361 Z-2.183
Z5
X27.712 Y-35.831
Z0.5
G3 X25.971 Y-37.675 Z0.397 I-0.212 J-1.544 F333.33
X28.277 Y-38.724 Z0.293 I1.528 J0.3
X28.522 Y-36.206 Z0.19 I-0.778 J1.347
X26.064 Y-36.788 Z0.086 I-1.021 J-1.17
X27.408 Y-38.923 Z-0.017 I1.435 J-0.587
X28.991 Y-36.962 Z-0.121 I0.091 J1.546
X26.626 Y-36.101 Z-0.224 I-1.49 J-0.414
X26.577 Y-38.614 Z-0.328 I0.874 J-1.274
X28.969 Y-37.848 Z-0.431 I0.922 J1.238
X27.471 Y-35.835 Z-0.534 I-1.469 J0.471
X26.053 Y-37.901 Z-0.638 I0.029 J-1.54
X28.464 Y-38.574 Z-0.741 I1.446 J0.525
X28.32 Y-36.077 Z-0.845 I-0.964 J1.197
X26.008 Y-37.021 Z-0.948 I-0.819 J-1.298
X27.647 Y-38.9 Z-1.052 I1.491 J-0.354
X28.892 Y-36.744 Z-1.155 I-0.148 J1.523
X26.452 Y-36.265 Z-1.259 I-1.391 J-0.632
X26.788 Y-38.725 Z-1.362 I1.047 J-1.11
X29.005 Y-37.612 Z-1.466 I0.711 J1.349
X27.236 Y-35.877 Z-1.569 I-1.505 J0.235
X26.168 Y-38.11 Z-1.672 I0.264 J-1.498
X28.623 Y-38.397 Z-1.776 I1.33 J0.734
X28.101 Y-35.984 Z-1.879 I-1.123 J1.02
X25.991 Y-37.258 Z-1.983 I-0.6 J-1.391
X27.876 Y-38.84 Z-2.086 I1.508 J-0.117
X28.761 Y-36.547 Z-2.19 I-0.377 J1.463
X26.309 Y-36.452 Z-2.293 I-1.26 J-0.829
X27.012 Y-38.8 Z-2.397 I1.19 J-0.923
X29.003 Y-37.377 Z-2.5 I0.487 J1.423
X25.995 I-1.504 J0
X29.003 I1.504 J0
G1 X29.024 Y-36.735 F1000
G3 X28.492 Y-35.494 I-0.909 J0.345
G1 X28.264 Y-35.463
X26.826
G3 X25.698 Y-36.016 I0.022 J-1.471
G1 X25.616 Y-36.207
X25.587 Y-36.412
G3 X25.916 Y-36.719 Z-2.3 I0.318 J0.011
G1 X25.975 Y-36.711
X26.032 Y-36.692
X26.084 Y-36.663
X26.141 Y-36.625
X26.994 Y-36.042
G3 X27.132 Y-35.791 I-0.179 J0.262
X26.826 Y-35.463 Z-2.5 I-0.317 J0.011
G1 X26.097
X25.951 Y-35.465
X25.912 Y-35.471
X25.859 Y-35.482
X25.832 Y-35.489
X25.805 Y-35.499
X25.769 Y-35.517
X25.732 Y-35.542
X25.692 Y-35.58
X25.659 Y-35.618
G3 X25.588 Y-35.909 I0.455 J-0.266
G1 X25.587 Y-38.032
G3 X26.136 Y-39.175 I1.482 J0.009
G1 X26.33 Y-39.258
X26.538 Y-39.287
G3 X26.843 Y-38.959 Z-2.3 I-0.012 J0.317
G1 X26.836 Y-38.901
X26.818 Y-38.845
X26.79 Y-38.793
X26.75 Y-38.734
X26.169 Y-37.866
G3 X25.916 Y-37.725 I-0.264 J-0.177
X25.587 Y-38.032 Z-2.5 I-0.011 J-0.318
G1 Y-38.827
X25.588 Y-38.9
X25.598 Y-38.973
X25.615 Y-39.045
X25.63 Y-39.082
X25.65 Y-39.118
X25.659 Y-39.131
X25.691 Y-39.17
X25.732 Y-39.208
G3 X26.097 Y-39.286 I0.283 J0.43
G1 X28.139 Y-39.287
G3 X29.297 Y-38.738 I0.001 J1.494
G1 X29.382 Y-38.543
X29.413 Y-38.334
G3 X29.084 Y-38.027 Z-2.3 I-0.318 J-0.011
G1 X29.027 Y-38.035
X28.971 Y-38.053
X28.92 Y-38.08
X28.859 Y-38.121
X27.975 Y-38.705
G3 X27.833 Y-38.959 I0.175 J-0.265
X28.139 Y-39.287 Z-2.5 I0.317 J-0.011
G1 X28.701
X29.015 F900
X29.084 Y-39.279
X29.154 Y-39.264
X29.197 Y-39.248
X29.233 Y-39.228
X29.27 Y-39.202
X29.306 Y-39.171
X29.33 Y-39.145 F1000
X29.349 Y-39.118
G3 X29.412 Y-38.827 I-0.492 J0.259
G1 X29.413 Y-35.909
X29.411 Y-35.836 F900
X29.399 Y-35.763
X29.38 Y-35.69
X29.363 Y-35.654
X29.34 Y-35.617
X29.306 Y-35.576
X29.27 Y-35.543
X29.233 Y-35.518
X29.197 Y-35.5 F1000
X29.16 Y-35.487
X29.088 Y-35.471
X29.015 Y-35.463
X28.264
G3 X28.087 Y-36.036 I0.011 J-0.317
G1 X28.144 Y-36.078 Z-2.492
X28.198 Y-36.117 Z-2.469
X28.247 Y-36.153 Z-2.431
X28.287 Y-36.183 Z-2.38
X28.318 Y-36.205 Z-2.32
X28.337 Y-36.219 Z-2.253
X28.343 Y-36.224 Z-2.182
Z15
M9
G28 G91 Z0
G90
G28 G91 X0 Y0
G90
M30
%
