%
(drill)
(T2 D=3.175 CR=0 - ZMIN=-2.5 - flat end mill)
G90
G17
G21
G28 G91 Z0
G90

(Drill1)
T2 M6
S5000 M3
G17 G90
G54
M7
G0 X30.144 Y-2.85
Z15
G0 Z5
G1 Z-2.5 F200
G0 Z5
Y-11.95
G1 Z-2.5 F200
G0 Z5
X2.356
G1 Z-2.5 F200
G0 Z5
Y-2.85
G1 Z-2.5 F200
G0 Z5
Z15
M9
G28 G91 Z0
G90
G28 G91 X0 Y0
G90
M30
%
