%
(MILLING_OPERATIONS)
(MACHINE)
(  VENDOR AUTODESK)
(  MODEL GENERIC 3-AXIS)
(  DESCRIPTION THIS MACHINE HAS XY AXIS ON THE TABLE AND Z AXIS ON THE HEAD)
(T0 D=1.5 CR=0. - ZMIN=-3.2 - FLAT END MILL)
N10 G90 G94 G17 G91.1
N15 G21
(WHEN USING FUSION 360 FOR PERSONAL USE, THE FEEDRATE OF)
(RAPID MOVES IS REDUCED TO MATCH THE FEEDRATE OF CUTTING)
(MOVES, WHICH CAN INCREASE MACHINING TIME. UNRESTRICTED RAPID)
(MOVES ARE AVAILABLE WITH A FUSION 360 SUBSCRIPTION.)
N20 G28 G91 Z0.
N25 G90
(ADAPTIVE_SQUAREBOI)
N30 T0 M6
N35 S12000 M3
N40 G17 G90 G94
N45 G54
N50 M8
N55 G0 X26.904 Y-50.78
N60 G43 Z15. H0
N65 G1 Z0.15 F48.
N70 Z0.
N75 Z-0.5
N80 X26.897 Y-50.777
N85 X26.893
N90 X26.89 Y-50.779
N95 X26.889 Y-50.783
N100 X26.888 Y-50.79
N105 X26.89 Y-50.797
N110 X26.896 Y-50.802
N115 X26.902 Y-50.806
N120 X26.91 Y-50.807
N125 X26.917 Y-50.805
N130 X26.931 Y-50.799
N135 X26.939 Y-50.787
N140 X26.942 Y-50.772
N145 X26.938 Y-50.758
N150 X26.93 Y-50.745
N155 X26.918 Y-50.736
N160 X26.904 Y-50.732
N165 X26.889 Y-50.731
N170 X26.874 Y-50.734
N175 X26.861 Y-50.741
N180 X26.849 Y-50.751
N185 X26.841 Y-50.764
N190 X26.836 Y-50.778
N195 X26.833 Y-50.792
N200 X26.834 Y-50.807
N205 X26.838 Y-50.822
N210 X26.879 Y-50.854
N215 X26.931 Y-50.842
N220 X26.954 Y-50.795
N225 Y-50.741
N230 X26.953 Y-50.726
N235 X26.948 Y-50.712
N240 X26.94 Y-50.699
N245 X26.93 Y-50.688
N250 X26.918 Y-50.679
N255 X26.905 Y-50.672
N260 X26.891 Y-50.666
N265 X26.876 Y-50.663
N270 X26.861 Y-50.662
N275 X26.846 Y-50.663
N280 X26.832 Y-50.666
N285 X26.817 Y-50.67
N290 X26.804 Y-50.676
N295 X26.791 Y-50.684
N300 X26.778 Y-50.693
N305 X26.767 Y-50.703
N310 X26.757 Y-50.714
N315 X26.748 Y-50.726
N320 X26.741 Y-50.739
N325 X26.735 Y-50.752
N330 X26.73 Y-50.767
N335 X26.727 Y-50.781
N340 X26.725 Y-50.796
N345 X26.724 Y-50.811
N350 X26.725 Y-50.826
N355 X26.766 Y-50.9
N360 X26.846 Y-50.926
N365 X26.923 Y-50.89
N370 X26.954 Y-50.812
N375 X26.94 Y-50.777 Z-0.492
N380 X26.929 Y-50.747 Z-0.47
N385 X26.921 Y-50.727 Z-0.438
N390 X26.918 Y-50.72 Z-0.4
N395 Z5.
N400 X26.954 Y-50.741
N405 Z0.15
N410 Z0.
N415 Z-0.5 F12.
N420 Y-50.677 F48.
N425 X26.953 Y-50.662
N430 X26.949 Y-50.648
N435 X26.943 Y-50.634
N440 X26.935 Y-50.621
N445 X26.925 Y-50.61
N450 X26.915 Y-50.599
N455 X26.903 Y-50.59
N460 X26.89 Y-50.582
N465 X26.877 Y-50.575
N470 X26.863 Y-50.569
N475 G3 X26.613 Y-50.643 I-0.071 J-0.22
N480 G1 X26.6 Y-50.657
N485 X26.589 Y-50.674
N490 X26.587 Y-50.677
N495 X26.555 Y-50.801
N500 X26.59 Y-50.925
N505 X26.682 Y-51.014
N510 X26.806 Y-51.046
N515 X26.829 Y-51.042
N520 X26.851 Y-51.034
N525 X26.867 Y-51.026
N530 X26.883 Y-51.015
N535 X26.896 Y-51.004
N540 X26.913 Y-50.987
N545 X26.927 Y-50.97
N550 X26.935 Y-50.957
N555 X26.941 Y-50.944
N560 X26.948 Y-50.925
N565 X26.953 Y-50.903
N570 X26.954 Y-50.88
N575 Y-50.812
N580 Z5.
N585 X26.791 Y-51.034
N590 Z1.65
N595 Z-0.5
N600 G3 X26.954 Y-50.677 I-0.349 J0.375
N605 G1 Y-50.585
N610 X26.953 Y-50.57
N615 X26.95 Y-50.556
N620 X26.945 Y-50.541
N625 X26.939 Y-50.528
N630 X26.932 Y-50.514
N635 X26.924 Y-50.501
N640 X26.914 Y-50.488
N645 X26.902 Y-50.475
N650 G3 X26.637 Y-50.401 I-0.204 J-0.217
N655 G1 X26.612 Y-50.405
N660 X26.587 Y-50.413
N665 X26.478 Y-50.482
N670 X26.405 Y-50.589
N675 X26.378 Y-50.715
N680 X26.402 Y-50.841
N685 X26.473 Y-50.949
N690 X26.58 Y-51.021
N695 X26.706 Y-51.047
N700 X26.761
N705 X26.806 Y-51.046
N710 X26.85 Y-51.029
N715 X26.887 Y-50.999
N720 X26.913 Y-50.959
N725 X26.924 Y-50.912
N730 X26.954 Y-50.585
N735 Y-50.565
N740 X26.951 Y-50.543
N745 X26.946 Y-50.52
N750 X26.941 Y-50.508
N755 X26.933 Y-50.492
N760 X26.921 Y-50.475
N765 X26.896 Y-50.447
N770 X26.886 Y-50.438
N775 X26.875 Y-50.43
N780 X26.863 Y-50.423
N785 X26.851 Y-50.417
N790 X26.806 Y-50.403
N795 X26.568 Y-50.334
N800 X26.506 Y-50.326
N805 X26.443 Y-50.331
N810 X26.383 Y-50.349
N815 X26.328 Y-50.378
N820 X26.301 Y-50.395
N825 X26.277 Y-50.413
N830 X26.255 Y-50.433
N835 X26.232 Y-50.458
N840 X26.206 Y-50.49
N845 X26.184 Y-50.523
N850 X26.183 Y-50.526
N855 X26.143 Y-50.64
N860 X26.144 Y-50.761
N865 X26.186 Y-50.874
N870 X26.265 Y-50.966
N875 X26.369 Y-51.026
N880 X26.488 Y-51.047
N885 X26.706
N890 X26.752 Y-51.038 Z-0.46
N895 X26.793 Y-51.015 Z-0.42
N900 X26.825 Y-50.981 Z-0.38
N905 X26.845 Y-50.938 Z-0.34
N910 X26.851 Y-50.891 Z-0.3
N915 X26.847 Y-50.864
N920 X26.839 Y-50.837
N925 X26.701 Y-50.517
N930 X26.658 Y-50.417 Z-0.392
N935 X26.636 Y-50.381 Z-0.428
N940 X26.605 Y-50.352 Z-0.464
N945 X26.568 Y-50.334 Z-0.5
N950 X26.491 Y-50.311
N955 X26.446 Y-50.295
N960 X26.401 Y-50.277
N965 X26.388 Y-50.272
N970 X26.367 Y-50.265
N975 X26.347 Y-50.26
N980 X26.325 Y-50.256
N985 X26.302 Y-50.254
N990 G3 X26.018 Y-50.367 I-0.009 J-0.388
N995 X25.871 Y-50.621 I0.337 J-0.365
N1000 G1 X25.866 Y-50.745
N1005 X25.906 Y-50.864
N1010 X25.983 Y-50.961
N1015 X26.09 Y-51.024
N1020 X26.213 Y-51.047
N1025 X26.488
N1030 X26.534 Y-51.038 Z-0.46
N1035 X26.575 Y-51.015 Z-0.42
N1040 X26.607 Y-50.981 Z-0.38
N1045 X26.627 Y-50.938 Z-0.34
N1050 X26.633 Y-50.891 Z-0.3
N1055 X26.626 Y-50.851
N1060 X26.503 Y-50.467
N1065 X26.469 Y-50.363 Z-0.393
N1070 X26.451 Y-50.325 Z-0.429
N1075 X26.423 Y-50.294 Z-0.464
N1080 X26.388 Y-50.272 Z-0.5
N1085 X26.356 Y-50.259
N1090 X26.176 Y-50.185
N1095 G3 X25.923 Y-50.186 I-0.125 J-0.334
N1100 G1 X25.846 Y-50.219
N1105 X25.776 Y-50.265
N1110 X25.715 Y-50.321
N1115 G3 X25.558 Y-50.669 I0.421 J-0.398
N1120 G1 X25.569 Y-50.784
N1125 X25.615 Y-50.889
N1130 X25.693 Y-50.973
N1135 X25.794 Y-51.028
N1140 X25.908 Y-51.047
N1145 X26.213
N1150 X26.259 Y-51.038 Z-0.46
N1155 X26.3 Y-51.015 Z-0.42
N1160 X26.332 Y-50.981 Z-0.38
N1165 X26.352 Y-50.938 Z-0.34
N1170 X26.358 Y-50.891 Z-0.3
N1175 X26.356 Y-50.872
N1180 X26.353 Y-50.855
N1185 X26.275 Y-50.385
N1190 X26.26 Y-50.296 Z-0.377
N1195 X26.245 Y-50.25 Z-0.418
N1200 X26.216 Y-50.212 Z-0.459
N1205 X26.176 Y-50.185 Z-0.5
N1210 X26.086 Y-50.146
N1215 X26.041 Y-50.124
N1220 X25.971 Y-50.085
N1225 X25.951 Y-50.076
N1230 X25.891 Y-50.057
N1235 X25.828 Y-50.048
N1240 X25.765 Y-50.049
N1245 X25.703 Y-50.061
N1250 G3 X25.415 Y-50.227 I0.139 J-0.574
N1255 X25.221 Y-50.719 I0.481 J-0.472
N1260 G1 X25.254 Y-50.846
N1265 X25.332 Y-50.952
N1270 X25.442 Y-51.022
N1275 X25.571 Y-51.047
N1280 X25.908
N1285 X25.953 Y-51.038 Z-0.461
N1290 X25.994 Y-51.016 Z-0.421
N1295 X26.025 Y-50.982 Z-0.382
N1300 X26.046 Y-50.941 Z-0.342
N1305 X26.052 Y-50.895 Z-0.303
N1310 Y-50.891 Z-0.3
N1315 X26.051 Y-50.771
N1320 X26.045 Y-50.295
N1325 Y-50.212 Z-0.37
N1330 X26.039 Y-50.175 Z-0.402
N1335 X26.025 Y-50.139 Z-0.435
N1340 X26.001 Y-50.109 Z-0.467
N1345 X25.971 Y-50.085 Z-0.5
N1350 X25.771 Y-49.975
N1355 X25.746 Y-49.96
N1360 G3 X25.479 Y-49.912 I-0.203 J-0.364
N1365 X25.196 Y-50.023 I0.077 J-0.618
N1370 X24.855 Y-50.662 I0.447 J-0.65
N1375 G1 X24.857 Y-50.727
N1380 X24.858 Y-50.737
N1385 X24.896 Y-50.858
N1390 X24.973 Y-50.958
N1395 X25.082 Y-51.024
N1400 X25.206 Y-51.047
N1405 X25.571
N1410 X25.612 Y-51.039 Z-0.464
N1415 X25.65 Y-51.02 Z-0.428
N1420 X25.681 Y-50.992 Z-0.392
N1425 X25.703 Y-50.956 Z-0.356
N1430 X25.714 Y-50.915 Z-0.32
N1435 X25.717 Y-50.892 Z-0.3
N1440 X25.748 Y-50.644
N1445 X25.806 Y-50.171
N1450 X25.815 Y-50.105 Z-0.357
N1455 X25.814 Y-50.063 Z-0.392
N1460 X25.801 Y-50.023 Z-0.428
N1465 X25.778 Y-49.987 Z-0.464
N1470 X25.746 Y-49.96 Z-0.5
N1475 X25.704 Y-49.935
N1480 X25.681 Y-49.921
N1485 X25.636 Y-49.889
N1490 X25.527 Y-49.811
N1495 X25.473 Y-49.78
N1500 X25.415 Y-49.757
N1505 X25.354 Y-49.742
N1510 X25.292 Y-49.736
N1515 G3 X24.978 Y-49.803 I-0.024 J-0.66
N1520 X24.701 Y-50.011 I0.365 J-0.775
N1525 X24.485 Y-50.412 I0.71 J-0.64
N1530 X24.469 Y-50.763 I0.816 J-0.213
N1535 G1 X24.512 Y-50.875
N1540 X24.59 Y-50.967
N1545 X24.695 Y-51.026
N1550 X24.813 Y-51.047
N1555 X25.206
N1560 X25.254 Y-51.037 Z-0.459
N1565 X25.296 Y-51.013 Z-0.417
N1570 X25.328 Y-50.977 Z-0.376
N1575 X25.347 Y-50.932 Z-0.335
N1580 X25.356 Y-50.892 Z-0.3
N1585 X25.454 Y-50.489
N1590 X25.567 Y-50.026
N1595 X25.582 Y-49.966 Z-0.353
N1600 X25.586 Y-49.923 Z-0.389
N1605 X25.577 Y-49.88 Z-0.426
N1610 X25.557 Y-49.842 Z-0.463
N1615 X25.527 Y-49.811 Z-0.5
N1620 X25.411 Y-49.729
N1625 X25.385 Y-49.71
N1630 X25.366 Y-49.696
N1635 X25.331 Y-49.665
N1640 X25.298 Y-49.637
N1645 X25.229 Y-49.59
N1650 X25.152 Y-49.557
N1655 X25.07 Y-49.54
N1660 G3 X24.794 Y-49.557 I-0.097 J-0.668
N1665 X24.531 Y-49.674 I0.226 J-0.861
N1670 G1 X24.465 Y-49.721
N1675 G3 X24.226 Y-49.977 I0.671 J-0.866
N1680 X24.07 Y-50.311 I0.963 J-0.651
N1685 G1 X24.052 Y-50.388
N1690 X24.038 Y-50.477
N1695 G3 X24.055 Y-50.783 I0.901 J-0.105
N1700 G1 X24.101 Y-50.888
N1705 X24.179 Y-50.973
N1710 X24.28 Y-51.028
N1715 X24.394 Y-51.047
N1720 X24.813
N1725 X24.857 Y-51.038 Z-0.461
N1730 X24.897 Y-51.017 Z-0.423
N1735 X24.929 Y-50.985 Z-0.384
N1740 X24.95 Y-50.944 Z-0.346
N1745 X24.967 Y-50.893 Z-0.3
N1750 X25.119 Y-50.442
N1755 X25.165 Y-50.306
N1760 X25.317 Y-49.855
N1765 X25.338 Y-49.794 Z-0.355
N1770 X25.345 Y-49.752 Z-0.391
N1775 X25.341 Y-49.709 Z-0.427
N1780 X25.325 Y-49.67 Z-0.464
N1785 X25.298 Y-49.637 Z-0.5
N1790 G2 X25.064 Y-49.426 I8.065 J9.219
N1795 G1 X25.038 Y-49.404
N1800 X25.011 Y-49.384
N1805 G3 X24.759 Y-49.301 I-0.296 J-0.469
N1810 X24.504 Y-49.318 I-0.076 J-0.777
N1815 G1 X24.431 Y-49.337
N1820 X24.356 Y-49.364
N1825 X24.28 Y-49.398
N1830 X24.202 Y-49.441
N1835 X24.123 Y-49.493
N1840 X24.047 Y-49.552
N1845 X23.973 Y-49.62
N1850 X23.902 Y-49.697
N1855 X23.837 Y-49.781
N1860 X23.776 Y-49.872
N1865 X23.723 Y-49.968
N1870 X23.677 Y-50.068
N1875 X23.64 Y-50.172
N1880 X23.611 Y-50.278
N1885 X23.594 Y-50.371
N1890 X23.584 Y-50.465
N1895 X23.582 Y-50.558
N1900 X23.587 Y-50.636
N1905 X23.597 Y-50.711
N1910 X23.615 Y-50.792
N1915 X23.617 Y-50.799
N1920 X23.666 Y-50.899
N1925 X23.744 Y-50.978
N1930 X23.842 Y-51.029
N1935 X23.952 Y-51.047
N1940 X24.394
N1945 X24.436 Y-51.039 Z-0.464
N1950 X24.474 Y-51.02 Z-0.427
N1955 X24.505 Y-50.991 Z-0.391
N1960 X24.527 Y-50.954 Z-0.355
N1965 X24.552 Y-50.895 Z-0.3
N1970 X24.735 Y-50.455
N1975 X24.89 Y-50.083
N1980 X25.073 Y-49.644
N1985 X25.096 Y-49.589 Z-0.35
N1990 X25.107 Y-49.547 Z-0.387
N1995 X25.105 Y-49.503 Z-0.425
N2000 X25.09 Y-49.461 Z-0.462
N2005 X25.064 Y-49.426 Z-0.5
N2010 X25.051 Y-49.414
N2015 X25.006 Y-49.366
N2020 X24.871 Y-49.215
N2025 X24.849 Y-49.19
N2030 X24.833 Y-49.173
N2035 G3 X24.607 Y-49.052 I-0.358 J-0.397
N2040 X24.356 Y-49.026 I-0.206 J-0.747
N2045 G1 X24.28 Y-49.032
N2050 X24.2 Y-49.046
N2055 X24.118 Y-49.067
N2060 X24.031 Y-49.097
N2065 X23.941 Y-49.136
N2070 X23.852 Y-49.184
N2075 X23.762 Y-49.241
N2080 X23.673 Y-49.31
N2085 X23.584 Y-49.389
N2090 X23.499 Y-49.479
N2095 X23.42 Y-49.577
N2100 X23.348 Y-49.683
N2105 X23.284 Y-49.795
N2110 X23.229 Y-49.913
N2115 X23.184 Y-50.034
N2120 X23.15 Y-50.156
N2125 X23.125 Y-50.278
N2130 X23.113 Y-50.386
N2135 X23.109 Y-50.488
N2140 X23.114 Y-50.588
N2145 X23.124 Y-50.671
N2150 X23.141 Y-50.752
N2155 X23.154 Y-50.795
N2160 X23.202 Y-50.896
N2165 X23.28 Y-50.977
N2170 X23.379 Y-51.029
N2175 X23.49 Y-51.047
N2180 X23.952
N2185 X23.991 Y-51.04 Z-0.466
N2190 X24.028 Y-51.022 Z-0.431
N2195 X24.059 Y-50.996 Z-0.397
N2200 X24.081 Y-50.962 Z-0.362
N2205 X24.113 Y-50.897 Z-0.3
N2210 X24.323 Y-50.469
N2215 X24.632 Y-49.837
N2220 X24.841 Y-49.409
N2225 X24.869 Y-49.352 Z-0.354
N2230 X24.882 Y-49.311 Z-0.391
N2235 X24.883 Y-49.268 Z-0.427
N2240 X24.872 Y-49.227 Z-0.464
N2245 X24.849 Y-49.19 Z-0.5
N2250 X24.826 Y-49.164
N2255 X24.781 Y-49.113
N2260 X24.756 Y-49.08
N2265 X24.736 Y-49.053
N2270 X24.659 Y-48.945
N2275 X24.642 Y-48.923
N2280 G3 X24.427 Y-48.776 I-0.404 J-0.36
N2285 X24.173 Y-48.721 I-0.294 J-0.739
N2290 G1 X24.094 Y-48.719
N2295 X24.012 Y-48.724
N2300 X23.921 Y-48.737
N2305 X23.827 Y-48.758
N2310 X23.731 Y-48.788
N2315 X23.628 Y-48.829
N2320 X23.523 Y-48.882
N2325 X23.419 Y-48.944
N2330 X23.315 Y-49.019
N2335 X23.212 Y-49.106
N2340 X23.113 Y-49.205
N2345 X23.021 Y-49.312
N2350 X22.938 Y-49.426
N2355 X22.864 Y-49.545
N2360 X22.799 Y-49.669
N2365 X22.743 Y-49.798
N2370 X22.697 Y-49.931
N2375 X22.661 Y-50.067
N2380 X22.636 Y-50.205
N2385 X22.622 Y-50.336
N2390 X22.619 Y-50.448
N2395 X22.626 Y-50.563
N2400 X22.638 Y-50.654
N2405 X22.657 Y-50.74
N2410 X22.676 Y-50.799
N2415 X22.724 Y-50.899
N2420 X22.802 Y-50.978
N2425 X22.901 Y-51.029
N2430 X23.01 Y-51.047
N2435 X23.49
N2440 X23.527 Y-51.04 Z-0.467
N2445 X23.562 Y-51.025 Z-0.435
N2450 X23.592 Y-51.001 Z-0.402
N2455 X23.615 Y-50.97 Z-0.37
N2460 X23.655 Y-50.899 Z-0.3
N2465 X23.889 Y-50.483
N2470 X24.397 Y-49.579
N2475 X24.63 Y-49.163
N2480 X24.665 Y-49.101 Z-0.361
N2485 X24.679 Y-49.066 Z-0.393
N2490 X24.684 Y-49.028 Z-0.425
N2495 Z-0.426
N2500 X24.678 Y-48.985 Z-0.463
N2505 X24.659 Y-48.945 Z-0.5
N2510 X24.556 Y-48.8
N2515 X24.533 Y-48.765
N2520 X24.507 Y-48.72
N2525 X24.481 Y-48.675
N2530 X24.466 Y-48.651
N2535 G3 X24.269 Y-48.481 I-0.442 J-0.312
N2540 X24.018 Y-48.396 I-0.38 J-0.712
N2545 G1 X23.94 Y-48.385
N2550 X23.854 Y-48.381
N2555 X23.759 Y-48.384
N2560 X23.662 Y-48.394
N2565 X23.556 Y-48.414
N2570 X23.444 Y-48.446
N2575 X23.331 Y-48.487
N2580 X23.214 Y-48.541
N2585 X23.092 Y-48.609
N2590 X22.976 Y-48.687
N2595 X22.865 Y-48.774
N2600 X22.761 Y-48.868
N2605 X22.665 Y-48.97
N2610 X22.575 Y-49.078
N2615 X22.493 Y-49.192
N2620 X22.418 Y-49.311
N2625 X22.351 Y-49.434
N2630 X22.291 Y-49.562
N2635 X22.24 Y-49.692
N2640 X22.197 Y-49.826
N2645 X22.162 Y-49.962
N2650 X22.137 Y-50.1
N2655 X22.121 Y-50.24
N2660 X22.116 Y-50.378
N2665 X22.121 Y-50.502
N2670 X22.135 Y-50.613
N2675 X22.153 Y-50.702
N2680 X22.18 Y-50.796
N2685 X22.19 Y-50.821
N2690 X22.241 Y-50.912
N2695 X22.318 Y-50.985
N2700 X22.413 Y-51.031
N2705 X22.517 Y-51.047
N2710 X23.01
N2715 X23.058 Y-51.037 Z-0.458
N2720 X23.1 Y-51.013 Z-0.417
N2725 X23.132 Y-50.976 Z-0.375
N2730 X23.179 Y-50.901 Z-0.3
N2735 X23.431 Y-50.496
N2740 X24.179 Y-49.296
N2745 X24.431 Y-48.891
N2750 X24.475 Y-48.822 Z-0.369
N2755 X24.491 Y-48.787 Z-0.402
N2760 X24.497 Y-48.75 Z-0.435
N2765 X24.494 Y-48.711 Z-0.467
N2770 X24.481 Y-48.675 Z-0.5
N2775 G2 X24.331 Y-48.403 I21.444 J11.973
N2780 G1 X24.321 Y-48.379
N2785 X24.305 Y-48.349
N2790 G3 X24.119 Y-48.157 I-0.481 J-0.282
N2795 G1 X24.068 Y-48.127
N2800 X24.008 Y-48.097
N2805 X23.944 Y-48.071
N2810 X23.869 Y-48.048
N2815 X23.787 Y-48.03
N2820 X23.7 Y-48.018
N2825 X23.6 Y-48.012
N2830 X23.498 Y-48.014
N2835 X23.386 Y-48.026
N2840 X23.264 Y-48.048
N2845 X23.139 Y-48.082
N2850 X23.011 Y-48.128
N2855 X22.883 Y-48.185
N2860 X22.76 Y-48.253
N2865 X22.641 Y-48.329
N2870 X22.529 Y-48.412
N2875 X22.422 Y-48.503
N2880 X22.32 Y-48.601
N2885 X22.225 Y-48.704
N2890 G3 X21.787 Y-49.419 I1.943 J-1.682
N2895 G1 X21.737 Y-49.551
N2900 X21.695 Y-49.685
N2905 X21.66 Y-49.821
N2910 X21.633 Y-49.958
N2915 X21.614 Y-50.098
N2920 X21.604 Y-50.238
N2925 X21.603 Y-50.378
N2930 X21.611 Y-50.501
N2935 X21.629 Y-50.623
N2940 X21.651 Y-50.716
N2945 X21.68 Y-50.808
N2950 X21.689 Y-50.829
N2955 X21.741 Y-50.918
N2960 X21.818 Y-50.987
N2965 X21.911 Y-51.031
N2970 X22.013 Y-51.047
N2975 X22.517
N2980 X22.563 Y-51.038 Z-0.46
N2985 X22.604 Y-51.015 Z-0.42
N2990 X22.636 Y-50.981 Z-0.38
N2995 X22.689 Y-50.903 Z-0.3
N3000 X22.956 Y-50.508
N3005 X23.989 Y-48.987
N3010 X24.256 Y-48.593
N3015 X24.306 Y-48.52 Z-0.375
N3020 X24.325 Y-48.48 Z-0.413
N3025 X24.332 Y-48.436 Z-0.45
N3030 Y-48.435 Z-0.451
N3035 X24.329 Y-48.407 Z-0.476
N3040 X24.321 Y-48.379 Z-0.5
N3045 G2 X24.182 Y-48.045 I9.074 J3.976
N3050 G1 X24.168 Y-48.014
N3055 X24.15 Y-47.982
N3060 G3 X23.978 Y-47.799 I-0.532 J-0.328
N3065 G1 X23.926 Y-47.764
N3070 X23.863 Y-47.729
N3075 X23.795 Y-47.698
N3080 X23.717 Y-47.669
N3085 X23.629 Y-47.645
N3090 X23.535 Y-47.627
N3095 X23.429 Y-47.616
N3100 X23.316 Y-47.613
N3105 X23.197 Y-47.619
N3110 X23.067 Y-47.636
N3115 X22.93 Y-47.666
N3120 X22.795 Y-47.707
N3125 X22.664 Y-47.757
N3130 X22.537 Y-47.817
N3135 X22.414 Y-47.884
N3140 X22.296 Y-47.96
N3145 X22.182 Y-48.042
N3150 G3 X21.776 Y-48.429 I1.62 J-2.105
N3155 X21.121 Y-49.809 I2.274 J-1.925
N3160 G1 X21.099 Y-49.948
N3165 X21.085 Y-50.088
N3170 X21.079 Y-50.228
N3175 X21.082 Y-50.369
N3180 X21.093 Y-50.5
N3185 X21.114 Y-50.626
N3190 X21.139 Y-50.724
N3195 X21.17 Y-50.816
N3200 X21.178 Y-50.835
N3205 X21.231 Y-50.921
N3210 X21.307 Y-50.989
N3215 X21.399 Y-51.032
N3220 X21.5 Y-51.047
N3225 X22.013
N3230 X22.057 Y-51.038 Z-0.461
N3235 X22.097 Y-51.017 Z-0.423
N3240 X22.129 Y-50.985 Z-0.384
N3245 X22.187 Y-50.904 Z-0.3
N3250 X22.467 Y-50.519
N3255 X23.828 Y-48.642
N3260 X24.108 Y-48.256
N3265 X24.161 Y-48.182 Z-0.378
N3270 X24.183 Y-48.14 Z-0.418
N3275 X24.19 Y-48.092 Z-0.459
N3280 X24.182 Y-48.045 Z-0.5
N3285 X24.164 Y-48.
N3290 X24.151 Y-47.96
N3295 X24.136 Y-47.91
N3300 X24.085 Y-47.73
N3305 G3 X23.937 Y-47.484 I-0.547 J-0.16
N3310 G1 X23.894 Y-47.443
N3315 G3 X23.638 Y-47.286 I-0.612 J-0.71
N3320 G1 X23.551 Y-47.253
N3325 X23.453 Y-47.225
N3330 X23.349 Y-47.205
N3335 X23.232 Y-47.191
N3340 X23.104 Y-47.187
N3345 X22.97 Y-47.193
N3350 X22.83 Y-47.21
N3355 X22.693 Y-47.239
N3360 X22.558 Y-47.277
N3365 X22.425 Y-47.324
N3370 X22.296 Y-47.379
N3375 X22.17 Y-47.442
N3380 G3 X21.707 Y-47.757 I1.274 J-2.369
N3385 X21.065 Y-48.497 I2.051 J-2.426
N3390 X20.577 Y-49.804 I2.845 J-1.807
N3395 G1 X20.561 Y-49.943
N3400 X20.551 Y-50.084
N3405 X20.549 Y-50.224
N3410 X20.555 Y-50.364
N3415 X20.569 Y-50.503
N3420 X20.593 Y-50.632
N3425 X20.62 Y-50.733
N3430 X20.653 Y-50.826
N3435 X20.659 Y-50.84
N3440 X20.736 Y-50.949
N3445 X20.848 Y-51.021
N3450 X20.978 Y-51.047
N3455 X21.5
N3460 X21.542 Y-51.039 Z-0.463
N3465 X21.581 Y-51.019 Z-0.426
N3470 X21.613 Y-50.989 Z-0.389
N3475 X21.677 Y-50.907 Z-0.3
N3480 X21.97 Y-50.531
N3485 X23.703 Y-48.313
N3490 X23.996 Y-47.937
N3495 X24.057 Y-47.859 Z-0.384
N3500 X24.079 Y-47.819 Z-0.423
N3505 X24.089 Y-47.775 Z-0.461
N3510 X24.085 Y-47.73 Z-0.5
N3515 X24.072 Y-47.685
N3520 X24.06 Y-47.64
N3525 X24.048 Y-47.595
N3530 X24.039 Y-47.55
N3535 X24.031 Y-47.505
N3540 X24.008 Y-47.37
N3545 X24.007 Y-47.363
N3550 X24.006 Y-47.359
N3555 X24.002 Y-47.341
N3560 X23.991 Y-47.306
N3565 X23.975 Y-47.265
N3570 X23.955 Y-47.225
N3575 X23.928 Y-47.18
N3580 X23.926 Y-47.177
N3585 X23.848 Y-47.099
N3590 X23.75 Y-47.048
N3595 X23.641 Y-47.031
N3600 X23.595 Y-47.04 Z-0.46
N3605 X23.554 Y-47.062 Z-0.42
N3610 X23.522 Y-47.097 Z-0.38
N3615 X23.502 Y-47.139 Z-0.34
N3620 X23.497 Y-47.186 Z-0.3
N3625 X23.503 Y-47.224
N3630 X23.519 Y-47.26
N3635 X23.544 Y-47.29
N3640 X23.754 Y-47.488
N3645 X23.791 Y-47.514
N3650 X23.833 Y-47.527
N3655 X23.877 Y-47.528
N3660 X23.922 Y-47.514 Z-0.34
N3665 X23.961 Y-47.488 Z-0.38
N3670 X23.989 Y-47.45 Z-0.42
N3675 X24.005 Y-47.406 Z-0.46
N3680 X24.006 Y-47.359 Z-0.5
N3685 X23.992 Y-47.28
N3690 X23.986 Y-47.235
N3695 X23.979 Y-47.19
N3700 X23.972 Y-47.145
N3705 X23.971 Y-47.143
N3710 X23.964 Y-47.122
N3715 X23.952 Y-47.1
N3720 X23.941 Y-47.085
N3725 X23.926 Y-47.07
N3730 X23.907 Y-47.055
N3735 X23.894 Y-47.048
N3740 X23.881 Y-47.042
N3745 X23.859 Y-47.035
N3750 X23.836 Y-47.032
N3755 X23.791 Y-47.031
N3760 X22.351
N3765 X22.234 Y-47.037
N3770 X22.134 Y-47.05
N3775 X22.025 Y-47.073
N3780 X21.903 Y-47.11
N3785 X21.772 Y-47.161
N3790 X21.645 Y-47.222
N3795 X21.523 Y-47.291
N3800 X21.406 Y-47.369
N3805 G3 X20.983 Y-47.737 I1.599 J-2.26
N3810 X20.358 Y-48.665 I2.587 J-2.418
N3815 X20.039 Y-49.738 I3.317 J-1.569
N3820 G1 X20.024 Y-49.878
N3825 X20.015 Y-50.018
N3830 X20.012 Y-50.159
N3835 X20.017 Y-50.299
N3840 X20.03 Y-50.439
N3845 X20.049 Y-50.563
N3850 X20.08 Y-50.69
N3855 X20.112 Y-50.79
N3860 X20.13 Y-50.831
N3865 X20.182 Y-50.919
N3870 X20.258 Y-50.988
N3875 X20.351 Y-51.032
N3880 X20.452 Y-51.047
N3885 X20.978
N3890 X21.022 Y-51.038 Z-0.462
N3895 X21.061 Y-51.018 Z-0.425
N3900 X21.093 Y-50.987 Z-0.387
N3905 X21.114 Y-50.949 Z-0.349
N3910 X21.134 Y-50.894 Z-0.3
N3915 X21.299 Y-50.447
N3920 X22.338 Y-47.635
N3925 X22.487 Y-47.233
N3930 X22.496 Y-47.186
N3935 X22.49 Y-47.139 Z-0.34
N3940 X22.47 Y-47.097 Z-0.38
N3945 X22.438 Y-47.062 Z-0.42
N3950 X22.397 Y-47.04 Z-0.46
N3955 X22.351 Y-47.031 Z-0.5
N3960 X21.541
N3965 X21.434 Y-47.036
N3970 X21.36 Y-47.046
N3975 X21.275 Y-47.064
N3980 X21.18 Y-47.092
N3985 X21.078 Y-47.132
N3990 X20.965 Y-47.187
N3995 X20.844 Y-47.258
N4000 X20.729 Y-47.339
N4005 X20.62 Y-47.427
N4010 X20.516 Y-47.522
N4015 G3 X20.154 Y-47.95 I2.068 J-2.116
N4020 X19.659 Y-48.954 I3.132 J-2.169
N4025 X19.475 Y-49.918 I3.596 J-1.184
N4030 G1 X19.471 Y-50.058
N4035 X19.474 Y-50.198
N4040 X19.483 Y-50.339
N4045 X19.5 Y-50.478
N4050 X19.527 Y-50.616
N4055 X19.557 Y-50.724
N4060 X19.592 Y-50.821
N4065 X19.602 Y-50.843
N4070 X19.679 Y-50.95
N4075 X19.791 Y-51.022
N4080 X19.92 Y-51.047
N4085 X20.452
N4090 X20.498 Y-51.038 Z-0.46
N4095 X20.539 Y-51.015 Z-0.42
N4100 X20.571 Y-50.981 Z-0.38
N4105 X20.591 Y-50.939 Z-0.341
N4110 X20.605 Y-50.893 Z-0.3
N4115 X20.739 Y-50.436
N4120 X21.557 Y-47.644
N4125 X21.68 Y-47.223
N4130 X21.686 Y-47.186
N4135 X21.68 Y-47.139 Z-0.34
N4140 X21.66 Y-47.097 Z-0.38
N4145 X21.628 Y-47.062 Z-0.42
N4150 X21.587 Y-47.04 Z-0.46
N4155 X21.541 Y-47.031 Z-0.5
N4160 X20.821
N4165 X20.744 Y-47.035
N4170 X20.678 Y-47.043
N4175 X20.602 Y-47.06
N4180 X20.519 Y-47.084
N4185 X20.428 Y-47.12
N4190 X20.328 Y-47.169
N4195 X20.218 Y-47.233
N4200 X20.103 Y-47.314
N4205 X19.995 Y-47.403
N4210 X19.893 Y-47.5
N4215 X19.798 Y-47.603
N4220 G3 X19.471 Y-48.059 I2.267 J-1.972
N4225 X19.016 Y-49.233 I3.422 J-1.999
N4230 X18.927 Y-50.069 I3.623 J-0.81
N4235 G1 X18.932 Y-50.209
N4240 X18.943 Y-50.349
N4245 X18.963 Y-50.488
N4250 X18.989 Y-50.614
N4255 X19.026 Y-50.74
N4260 X19.061 Y-50.832
N4265 X19.068 Y-50.847
N4270 X19.145 Y-50.953
N4275 X19.256 Y-51.022
N4280 X19.384 Y-51.047
N4285 X19.92
N4290 X19.968 Y-51.037 Z-0.459
N4295 X20.01 Y-51.013 Z-0.417
N4300 X20.042 Y-50.977 Z-0.376
N4305 X20.061 Y-50.932 Z-0.335
N4310 X20.07 Y-50.892 Z-0.3
N4315 X20.183 Y-50.429
N4320 X20.857 Y-47.649
N4325 X20.962 Y-47.216
N4330 X20.966 Y-47.186
N4335 X20.96 Y-47.139 Z-0.34
N4340 X20.94 Y-47.097 Z-0.38
N4345 X20.908 Y-47.062 Z-0.42
N4350 X20.867 Y-47.04 Z-0.46
N4355 X20.821 Y-47.031 Z-0.5
N4360 X20.146
N4365 X20.101 Y-47.033
N4370 X20.039 Y-47.041
N4375 X19.968 Y-47.056
N4380 X19.891 Y-47.079
N4385 X19.806 Y-47.112
N4390 X19.713 Y-47.158
N4395 X19.613 Y-47.217
N4400 X19.505 Y-47.292
N4405 X19.397 Y-47.382
N4410 X19.296 Y-47.479
N4415 X19.202 Y-47.583
N4420 G3 X18.883 Y-48.045 I2.2 J-1.857
N4425 X18.697 Y-48.429 I3.146 J-1.765
N4430 G1 X18.683 Y-48.471
N4435 X18.675 Y-48.514
N4440 X18.672 Y-48.558
N4445 X18.681 Y-48.604 Z-0.46
N4450 X18.704 Y-48.645 Z-0.42
N4455 X18.738 Y-48.677 Z-0.38
N4460 X18.781 Y-48.697 Z-0.34
N4465 X18.827 Y-48.703 Z-0.3
N4470 X18.865 Y-48.696
N4475 X18.9 Y-48.681
N4480 X18.93 Y-48.657
N4485 X19.18 Y-48.397
N4490 X19.995 Y-47.549
N4495 X20.249 Y-47.285
N4500 X20.271 Y-47.255
N4505 X20.285 Y-47.222
N4510 X20.291 Y-47.186
N4515 X20.285 Y-47.139 Z-0.34
N4520 X20.265 Y-47.097 Z-0.38
N4525 X20.233 Y-47.062 Z-0.42
N4530 X20.192 Y-47.04 Z-0.46
N4535 X20.146 Y-47.031 Z-0.5
N4540 X19.561
N4545 G3 X19.282 Y-47.079 I0.004 J-0.854
N4550 G1 X19.201 Y-47.11
N4555 X19.112 Y-47.154
N4560 X19.017 Y-47.209
N4565 X18.916 Y-47.281
N4570 X18.808 Y-47.371
N4575 X18.778 Y-47.399
N4580 X18.721 Y-47.472
N4585 X18.685 Y-47.558
N4590 X18.672 Y-47.65
N4595 X18.681 Y-47.696 Z-0.46
N4600 X18.704 Y-47.737 Z-0.42
N4605 X18.738 Y-47.769 Z-0.38
N4610 X18.781 Y-47.789 Z-0.34
N4615 X18.827 Y-47.795 Z-0.3
N4620 X18.866 Y-47.788
N4625 X18.902 Y-47.772
N4630 X19.238 Y-47.559
N4635 X19.357 Y-47.484
N4640 X19.636 Y-47.307
N4645 X19.672 Y-47.275
N4650 X19.697 Y-47.233
N4655 X19.706 Y-47.186
N4660 X19.7 Y-47.139 Z-0.34
N4665 X19.68 Y-47.097 Z-0.38
N4670 X19.648 Y-47.062 Z-0.42
N4675 X19.607 Y-47.04 Z-0.46
N4680 X19.561 Y-47.031 Z-0.5
N4685 X18.931
N4690 X18.927
N4695 X18.923
N4700 X18.903 Y-47.032
N4705 X18.785 Y-47.077
N4710 X18.702 Y-47.172
N4715 X18.672 Y-47.295
N4720 X18.681 Y-47.353 Z-0.45
N4725 X18.704 Y-47.407 Z-0.4
N4730 X18.739 Y-47.454 Z-0.35
N4735 X18.784 Y-47.492 Z-0.3
N4740 X18.829 Y-47.515
N4745 X18.878 Y-47.528
N4750 X18.929 Y-47.53
N4755 X18.979 Y-47.522
N4760 X18.991 Y-47.519
N4765 G3 X19.122 Y-47.141 I-0.076 J0.238
N4770 G1 X19.084 Y-47.096 Z-0.35
N4775 X19.036 Y-47.062 Z-0.4
N4780 X18.982 Y-47.04 Z-0.45
N4785 X18.923 Y-47.031 Z-0.5
N4790 X18.841
N4795 X18.796 Y-47.034
N4800 X18.774 Y-47.04
N4805 X18.751 Y-47.049
N4810 X18.742 Y-47.055
N4815 X18.724 Y-47.068
N4820 X18.706 Y-47.086
N4825 X18.696 Y-47.1
N4830 X18.684 Y-47.123
N4835 X18.677 Y-47.145
N4840 X18.673 Y-47.168
N4845 X18.672 Y-47.19
N4850 Y-50.655
N4855 Y-50.7
N4860 Y-50.704
N4865 X18.674 Y-50.741
N4870 Y-50.742
N4875 X18.713 Y-50.861
N4880 X18.79 Y-50.96
N4885 X18.898 Y-51.024
N4890 X19.021 Y-51.047
N4895 X19.067 Y-51.038 Z-0.46
N4900 X19.108 Y-51.015 Z-0.42
N4905 X19.14 Y-50.981 Z-0.38
N4910 X19.16 Y-50.938 Z-0.34
N4915 X19.166 Y-50.891 Z-0.3
N4920 X19.16 Y-50.854
N4925 X19.144 Y-50.819
N4930 X19.12 Y-50.789
N4935 X18.926 Y-50.601
N4940 X18.897 Y-50.579
N4945 X18.863 Y-50.565
N4950 X18.827 Y-50.56
N4955 X18.781 Y-50.565 Z-0.34
N4960 X18.738 Y-50.585 Z-0.38
N4965 X18.704 Y-50.617 Z-0.42
N4970 X18.681 Y-50.658 Z-0.46
N4975 X18.672 Y-50.704 Z-0.5
N4980 Y-50.88
N4985 X18.673 Y-50.903
N4990 X18.678 Y-50.925
N4995 X18.686 Y-50.948
N5000 X18.699 Y-50.97
N5005 X18.706 Y-50.979
N5010 X18.726 Y-50.999
N5015 X18.746 Y-51.015
N5020 X18.751 Y-51.019
N5025 X18.774 Y-51.032
N5030 X18.796 Y-51.041
N5035 X18.819 Y-51.045
N5040 X18.841 Y-51.047
N5045 X19.384
N5050 X19.429 Y-51.038
N5055 X19.469 Y-51.016
N5060 X19.501 Y-50.983
N5065 X19.522 Y-50.942
N5070 X19.529 Y-50.897
N5075 G3 X19.243 Y-50.832 I-0.15 J0.
N5080 G1 X19.236 Y-50.861 Z-0.497
N5085 X19.229 Y-50.888 Z-0.489
N5090 Y-50.897 Z-0.485
N5095 X19.238 Y-50.929 Z-0.461
N5100 X19.245 Y-50.955 Z-0.429
N5105 X19.25 Y-50.971 Z-0.391
N5110 X19.251 Y-50.976 Z-0.35
N5115 Z5.
N5120 X26.904 Y-50.78
N5125 Z-0.35
N5130 Z-0.5
N5135 Z-1.
N5140 X26.897 Y-50.777
N5145 X26.893
N5150 X26.89 Y-50.779
N5155 X26.889 Y-50.783
N5160 X26.888 Y-50.79
N5165 X26.89 Y-50.797
N5170 X26.896 Y-50.802
N5175 X26.902 Y-50.806
N5180 X26.91 Y-50.807
N5185 X26.917 Y-50.805
N5190 X26.931 Y-50.799
N5195 X26.939 Y-50.787
N5200 X26.942 Y-50.772
N5205 X26.938 Y-50.758
N5210 X26.93 Y-50.745
N5215 X26.918 Y-50.736
N5220 X26.904 Y-50.732
N5225 X26.889 Y-50.731
N5230 X26.874 Y-50.734
N5235 X26.861 Y-50.741
N5240 X26.849 Y-50.751
N5245 X26.841 Y-50.764
N5250 X26.836 Y-50.778
N5255 X26.833 Y-50.792
N5260 X26.834 Y-50.807
N5265 X26.838 Y-50.822
N5270 X26.879 Y-50.854
N5275 X26.931 Y-50.842
N5280 X26.954 Y-50.795
N5285 Y-50.741
N5290 X26.953 Y-50.726
N5295 X26.948 Y-50.712
N5300 X26.94 Y-50.699
N5305 X26.93 Y-50.688
N5310 X26.918 Y-50.679
N5315 X26.905 Y-50.672
N5320 X26.891 Y-50.666
N5325 X26.876 Y-50.663
N5330 X26.861 Y-50.662
N5335 X26.846 Y-50.663
N5340 X26.832 Y-50.666
N5345 X26.817 Y-50.67
N5350 X26.804 Y-50.676
N5355 X26.791 Y-50.684
N5360 X26.778 Y-50.693
N5365 X26.767 Y-50.703
N5370 X26.757 Y-50.714
N5375 X26.748 Y-50.726
N5380 X26.741 Y-50.739
N5385 X26.735 Y-50.752
N5390 X26.73 Y-50.767
N5395 X26.727 Y-50.781
N5400 X26.725 Y-50.796
N5405 X26.724 Y-50.811
N5410 X26.725 Y-50.826
N5415 X26.766 Y-50.9
N5420 X26.846 Y-50.926
N5425 X26.923 Y-50.89
N5430 X26.954 Y-50.812
N5435 X26.94 Y-50.777 Z-0.992
N5440 X26.929 Y-50.747 Z-0.97
N5445 X26.921 Y-50.727 Z-0.938
N5450 X26.918 Y-50.72 Z-0.9
N5455 Z5.
N5460 X26.954 Y-50.741
N5465 Z-0.35
N5470 Z-0.5
N5475 Z-1. F12.
N5480 Y-50.677 F48.
N5485 X26.953 Y-50.662
N5490 X26.949 Y-50.648
N5495 X26.943 Y-50.634
N5500 X26.935 Y-50.621
N5505 X26.925 Y-50.61
N5510 X26.915 Y-50.599
N5515 X26.903 Y-50.59
N5520 X26.89 Y-50.582
N5525 X26.877 Y-50.575
N5530 X26.863 Y-50.569
N5535 G3 X26.613 Y-50.643 I-0.071 J-0.22
N5540 G1 X26.6 Y-50.657
N5545 X26.589 Y-50.674
N5550 X26.587 Y-50.677
N5555 X26.555 Y-50.801
N5560 X26.59 Y-50.925
N5565 X26.682 Y-51.014
N5570 X26.806 Y-51.046
N5575 X26.829 Y-51.042
N5580 X26.851 Y-51.034
N5585 X26.867 Y-51.026
N5590 X26.883 Y-51.015
N5595 X26.896 Y-51.004
N5600 X26.913 Y-50.987
N5605 X26.927 Y-50.97
N5610 X26.935 Y-50.957
N5615 X26.941 Y-50.944
N5620 X26.948 Y-50.925
N5625 X26.953 Y-50.903
N5630 X26.954 Y-50.88
N5635 Y-50.812
N5640 Z5.
N5645 X26.791 Y-51.034
N5650 Z1.15
N5655 Z-1.
N5660 G3 X26.954 Y-50.677 I-0.349 J0.375
N5665 G1 Y-50.585
N5670 X26.953 Y-50.57
N5675 X26.95 Y-50.556
N5680 X26.945 Y-50.541
N5685 X26.939 Y-50.528
N5690 X26.932 Y-50.514
N5695 X26.924 Y-50.501
N5700 X26.914 Y-50.488
N5705 X26.902 Y-50.475
N5710 G3 X26.637 Y-50.401 I-0.204 J-0.217
N5715 G1 X26.612 Y-50.405
N5720 X26.587 Y-50.413
N5725 X26.478 Y-50.482
N5730 X26.405 Y-50.589
N5735 X26.378 Y-50.715
N5740 X26.402 Y-50.841
N5745 X26.473 Y-50.949
N5750 X26.58 Y-51.021
N5755 X26.706 Y-51.047
N5760 X26.761
N5765 X26.806 Y-51.046
N5770 X26.85 Y-51.029
N5775 X26.887 Y-50.999
N5780 X26.913 Y-50.959
N5785 X26.924 Y-50.912
N5790 X26.954 Y-50.585
N5795 Y-50.565
N5800 X26.951 Y-50.543
N5805 X26.946 Y-50.52
N5810 X26.941 Y-50.508
N5815 X26.933 Y-50.492
N5820 X26.921 Y-50.475
N5825 X26.896 Y-50.447
N5830 X26.886 Y-50.438
N5835 X26.875 Y-50.43
N5840 X26.863 Y-50.423
N5845 X26.851 Y-50.417
N5850 X26.806 Y-50.403
N5855 X26.568 Y-50.334
N5860 X26.506 Y-50.326
N5865 X26.443 Y-50.331
N5870 X26.383 Y-50.349
N5875 X26.328 Y-50.378
N5880 X26.301 Y-50.395
N5885 X26.277 Y-50.413
N5890 X26.255 Y-50.433
N5895 X26.232 Y-50.458
N5900 X26.206 Y-50.49
N5905 X26.184 Y-50.523
N5910 X26.183 Y-50.526
N5915 X26.143 Y-50.64
N5920 X26.144 Y-50.761
N5925 X26.186 Y-50.874
N5930 X26.265 Y-50.966
N5935 X26.369 Y-51.026
N5940 X26.488 Y-51.047
N5945 X26.706
N5950 X26.752 Y-51.038 Z-0.96
N5955 X26.793 Y-51.015 Z-0.92
N5960 X26.825 Y-50.981 Z-0.88
N5965 X26.845 Y-50.938 Z-0.84
N5970 X26.851 Y-50.891 Z-0.8
N5975 X26.847 Y-50.864
N5980 X26.839 Y-50.837
N5985 X26.701 Y-50.517
N5990 X26.658 Y-50.417 Z-0.892
N5995 X26.636 Y-50.381 Z-0.928
N6000 X26.605 Y-50.352 Z-0.964
N6005 X26.568 Y-50.334 Z-1.
N6010 X26.491 Y-50.311
N6015 X26.446 Y-50.295
N6020 X26.401 Y-50.277
N6025 X26.388 Y-50.272
N6030 X26.367 Y-50.265
N6035 X26.347 Y-50.26
N6040 X26.325 Y-50.256
N6045 X26.302 Y-50.254
N6050 G3 X26.018 Y-50.367 I-0.009 J-0.388
N6055 X25.871 Y-50.621 I0.337 J-0.365
N6060 G1 X25.866 Y-50.745
N6065 X25.906 Y-50.864
N6070 X25.983 Y-50.961
N6075 X26.09 Y-51.024
N6080 X26.213 Y-51.047
N6085 X26.488
N6090 X26.534 Y-51.038 Z-0.96
N6095 X26.575 Y-51.015 Z-0.92
N6100 X26.607 Y-50.981 Z-0.88
N6105 X26.627 Y-50.938 Z-0.84
N6110 X26.633 Y-50.891 Z-0.8
N6115 X26.626 Y-50.851
N6120 X26.503 Y-50.467
N6125 X26.469 Y-50.363 Z-0.893
N6130 X26.451 Y-50.325 Z-0.929
N6135 X26.423 Y-50.294 Z-0.964
N6140 X26.388 Y-50.272 Z-1.
N6145 X26.356 Y-50.259
N6150 X26.176 Y-50.185
N6155 G3 X25.923 Y-50.186 I-0.125 J-0.334
N6160 G1 X25.846 Y-50.219
N6165 X25.776 Y-50.265
N6170 X25.715 Y-50.321
N6175 G3 X25.558 Y-50.669 I0.421 J-0.398
N6180 G1 X25.569 Y-50.784
N6185 X25.615 Y-50.889
N6190 X25.693 Y-50.973
N6195 X25.794 Y-51.028
N6200 X25.908 Y-51.047
N6205 X26.213
N6210 X26.259 Y-51.038 Z-0.96
N6215 X26.3 Y-51.015 Z-0.92
N6220 X26.332 Y-50.981 Z-0.88
N6225 X26.352 Y-50.938 Z-0.84
N6230 X26.358 Y-50.891 Z-0.8
N6235 X26.356 Y-50.872
N6240 X26.353 Y-50.855
N6245 X26.275 Y-50.385
N6250 X26.26 Y-50.296 Z-0.877
N6255 X26.245 Y-50.25 Z-0.918
N6260 X26.216 Y-50.212 Z-0.959
N6265 X26.176 Y-50.185 Z-1.
N6270 X26.086 Y-50.146
N6275 X26.041 Y-50.124
N6280 X25.971 Y-50.085
N6285 X25.951 Y-50.076
N6290 X25.891 Y-50.057
N6295 X25.828 Y-50.048
N6300 X25.765 Y-50.049
N6305 X25.703 Y-50.061
N6310 G3 X25.415 Y-50.227 I0.139 J-0.574
N6315 X25.221 Y-50.719 I0.481 J-0.472
N6320 G1 X25.254 Y-50.846
N6325 X25.332 Y-50.952
N6330 X25.442 Y-51.022
N6335 X25.571 Y-51.047
N6340 X25.908
N6345 X25.953 Y-51.038 Z-0.961
N6350 X25.994 Y-51.016 Z-0.921
N6355 X26.025 Y-50.982 Z-0.882
N6360 X26.046 Y-50.941 Z-0.842
N6365 X26.052 Y-50.895 Z-0.803
N6370 Y-50.891 Z-0.8
N6375 X26.051 Y-50.771
N6380 X26.045 Y-50.295
N6385 Y-50.212 Z-0.87
N6390 X26.039 Y-50.175 Z-0.902
N6395 X26.025 Y-50.139 Z-0.935
N6400 X26.001 Y-50.109 Z-0.967
N6405 X25.971 Y-50.085 Z-1.
N6410 X25.771 Y-49.975
N6415 X25.746 Y-49.96
N6420 G3 X25.479 Y-49.912 I-0.203 J-0.364
N6425 X25.196 Y-50.023 I0.077 J-0.618
N6430 X24.855 Y-50.662 I0.447 J-0.65
N6435 G1 X24.857 Y-50.727
N6440 X24.858 Y-50.737
N6445 X24.896 Y-50.858
N6450 X24.973 Y-50.958
N6455 X25.082 Y-51.024
N6460 X25.206 Y-51.047
N6465 X25.571
N6470 X25.612 Y-51.039 Z-0.964
N6475 X25.65 Y-51.02 Z-0.928
N6480 X25.681 Y-50.992 Z-0.892
N6485 X25.703 Y-50.956 Z-0.856
N6490 X25.714 Y-50.915 Z-0.82
N6495 X25.717 Y-50.892 Z-0.8
N6500 X25.748 Y-50.644
N6505 X25.806 Y-50.171
N6510 X25.815 Y-50.105 Z-0.857
N6515 X25.814 Y-50.063 Z-0.892
N6520 X25.801 Y-50.023 Z-0.928
N6525 X25.778 Y-49.987 Z-0.964
N6530 X25.746 Y-49.96 Z-1.
N6535 X25.704 Y-49.935
N6540 X25.681 Y-49.921
N6545 X25.636 Y-49.889
N6550 X25.527 Y-49.811
N6555 X25.473 Y-49.78
N6560 X25.415 Y-49.757
N6565 X25.354 Y-49.742
N6570 X25.292 Y-49.736
N6575 G3 X24.978 Y-49.803 I-0.024 J-0.66
N6580 X24.701 Y-50.011 I0.365 J-0.775
N6585 X24.485 Y-50.412 I0.71 J-0.64
N6590 X24.469 Y-50.763 I0.816 J-0.213
N6595 G1 X24.512 Y-50.875
N6600 X24.59 Y-50.967
N6605 X24.695 Y-51.026
N6610 X24.813 Y-51.047
N6615 X25.206
N6620 X25.254 Y-51.037 Z-0.959
N6625 X25.296 Y-51.013 Z-0.917
N6630 X25.328 Y-50.977 Z-0.876
N6635 X25.347 Y-50.932 Z-0.835
N6640 X25.356 Y-50.892 Z-0.8
N6645 X25.454 Y-50.489
N6650 X25.567 Y-50.026
N6655 X25.582 Y-49.966 Z-0.853
N6660 X25.586 Y-49.923 Z-0.889
N6665 X25.577 Y-49.88 Z-0.926
N6670 X25.557 Y-49.842 Z-0.963
N6675 X25.527 Y-49.811 Z-1.
N6680 X25.411 Y-49.729
N6685 X25.385 Y-49.71
N6690 X25.366 Y-49.696
N6695 X25.331 Y-49.665
N6700 X25.298 Y-49.637
N6705 X25.229 Y-49.59
N6710 X25.152 Y-49.557
N6715 X25.07 Y-49.54
N6720 G3 X24.794 Y-49.557 I-0.097 J-0.668
N6725 X24.531 Y-49.674 I0.226 J-0.861
N6730 G1 X24.465 Y-49.721
N6735 G3 X24.226 Y-49.977 I0.671 J-0.866
N6740 X24.07 Y-50.311 I0.963 J-0.651
N6745 G1 X24.052 Y-50.388
N6750 X24.038 Y-50.477
N6755 G3 X24.055 Y-50.783 I0.901 J-0.105
N6760 G1 X24.101 Y-50.888
N6765 X24.179 Y-50.973
N6770 X24.28 Y-51.028
N6775 X24.394 Y-51.047
N6780 X24.813
N6785 X24.857 Y-51.038 Z-0.961
N6790 X24.897 Y-51.017 Z-0.923
N6795 X24.929 Y-50.985 Z-0.884
N6800 X24.95 Y-50.944 Z-0.846
N6805 X24.967 Y-50.893 Z-0.8
N6810 X25.119 Y-50.442
N6815 X25.165 Y-50.306
N6820 X25.317 Y-49.855
N6825 X25.338 Y-49.794 Z-0.855
N6830 X25.345 Y-49.752 Z-0.891
N6835 X25.341 Y-49.709 Z-0.927
N6840 X25.325 Y-49.67 Z-0.964
N6845 X25.298 Y-49.637 Z-1.
N6850 G2 X25.064 Y-49.426 I8.065 J9.219
N6855 G1 X25.038 Y-49.404
N6860 X25.011 Y-49.384
N6865 G3 X24.759 Y-49.301 I-0.296 J-0.469
N6870 X24.504 Y-49.318 I-0.076 J-0.777
N6875 G1 X24.431 Y-49.337
N6880 X24.356 Y-49.364
N6885 X24.28 Y-49.398
N6890 X24.202 Y-49.441
N6895 X24.123 Y-49.493
N6900 X24.047 Y-49.552
N6905 X23.973 Y-49.62
N6910 X23.902 Y-49.697
N6915 X23.837 Y-49.781
N6920 X23.776 Y-49.872
N6925 X23.723 Y-49.968
N6930 X23.677 Y-50.068
N6935 X23.64 Y-50.172
N6940 X23.611 Y-50.278
N6945 X23.594 Y-50.371
N6950 X23.584 Y-50.465
N6955 X23.582 Y-50.558
N6960 X23.587 Y-50.636
N6965 X23.597 Y-50.711
N6970 X23.615 Y-50.792
N6975 X23.617 Y-50.799
N6980 X23.666 Y-50.899
N6985 X23.744 Y-50.978
N6990 X23.842 Y-51.029
N6995 X23.952 Y-51.047
N7000 X24.394
N7005 X24.436 Y-51.039 Z-0.964
N7010 X24.474 Y-51.02 Z-0.927
N7015 X24.505 Y-50.991 Z-0.891
N7020 X24.527 Y-50.954 Z-0.855
N7025 X24.552 Y-50.895 Z-0.8
N7030 X24.735 Y-50.455
N7035 X24.89 Y-50.083
N7040 X25.073 Y-49.644
N7045 X25.096 Y-49.589 Z-0.85
N7050 X25.107 Y-49.547 Z-0.887
N7055 X25.105 Y-49.503 Z-0.925
N7060 X25.09 Y-49.461 Z-0.962
N7065 X25.064 Y-49.426 Z-1.
N7070 X25.051 Y-49.414
N7075 X25.006 Y-49.366
N7080 X24.871 Y-49.215
N7085 X24.849 Y-49.19
N7090 X24.833 Y-49.173
N7095 G3 X24.607 Y-49.052 I-0.358 J-0.397
N7100 X24.356 Y-49.026 I-0.206 J-0.747
N7105 G1 X24.28 Y-49.032
N7110 X24.2 Y-49.046
N7115 X24.118 Y-49.067
N7120 X24.031 Y-49.097
N7125 X23.941 Y-49.136
N7130 X23.852 Y-49.184
N7135 X23.762 Y-49.241
N7140 X23.673 Y-49.31
N7145 X23.584 Y-49.389
N7150 X23.499 Y-49.479
N7155 X23.42 Y-49.577
N7160 X23.348 Y-49.683
N7165 X23.284 Y-49.795
N7170 X23.229 Y-49.913
N7175 X23.184 Y-50.034
N7180 X23.15 Y-50.156
N7185 X23.125 Y-50.278
N7190 X23.113 Y-50.386
N7195 X23.109 Y-50.488
N7200 X23.114 Y-50.588
N7205 X23.124 Y-50.671
N7210 X23.141 Y-50.752
N7215 X23.154 Y-50.795
N7220 X23.202 Y-50.896
N7225 X23.28 Y-50.977
N7230 X23.379 Y-51.029
N7235 X23.49 Y-51.047
N7240 X23.952
N7245 X23.991 Y-51.04 Z-0.966
N7250 X24.028 Y-51.022 Z-0.931
N7255 X24.059 Y-50.996 Z-0.897
N7260 X24.081 Y-50.962 Z-0.862
N7265 X24.113 Y-50.897 Z-0.8
N7270 X24.323 Y-50.469
N7275 X24.632 Y-49.837
N7280 X24.841 Y-49.409
N7285 X24.869 Y-49.352 Z-0.854
N7290 X24.882 Y-49.311 Z-0.891
N7295 X24.883 Y-49.268 Z-0.927
N7300 X24.872 Y-49.227 Z-0.964
N7305 X24.849 Y-49.19 Z-1.
N7310 X24.826 Y-49.164
N7315 X24.781 Y-49.113
N7320 X24.756 Y-49.08
N7325 X24.736 Y-49.053
N7330 X24.659 Y-48.945
N7335 X24.642 Y-48.923
N7340 G3 X24.427 Y-48.776 I-0.404 J-0.36
N7345 X24.173 Y-48.721 I-0.294 J-0.739
N7350 G1 X24.094 Y-48.719
N7355 X24.012 Y-48.724
N7360 X23.921 Y-48.737
N7365 X23.827 Y-48.758
N7370 X23.731 Y-48.788
N7375 X23.628 Y-48.829
N7380 X23.523 Y-48.882
N7385 X23.419 Y-48.944
N7390 X23.315 Y-49.019
N7395 X23.212 Y-49.106
N7400 X23.113 Y-49.205
N7405 X23.021 Y-49.312
N7410 X22.938 Y-49.426
N7415 X22.864 Y-49.545
N7420 X22.799 Y-49.669
N7425 X22.743 Y-49.798
N7430 X22.697 Y-49.931
N7435 X22.661 Y-50.067
N7440 X22.636 Y-50.205
N7445 X22.622 Y-50.336
N7450 X22.619 Y-50.448
N7455 X22.626 Y-50.563
N7460 X22.638 Y-50.654
N7465 X22.657 Y-50.74
N7470 X22.676 Y-50.799
N7475 X22.724 Y-50.899
N7480 X22.802 Y-50.978
N7485 X22.901 Y-51.029
N7490 X23.01 Y-51.047
N7495 X23.49
N7500 X23.527 Y-51.04 Z-0.967
N7505 X23.562 Y-51.025 Z-0.935
N7510 X23.592 Y-51.001 Z-0.902
N7515 X23.615 Y-50.97 Z-0.87
N7520 X23.655 Y-50.899 Z-0.8
N7525 X23.889 Y-50.483
N7530 X24.397 Y-49.579
N7535 X24.63 Y-49.163
N7540 X24.665 Y-49.101 Z-0.861
N7545 X24.679 Y-49.066 Z-0.893
N7550 X24.684 Y-49.028 Z-0.925
N7555 Z-0.926
N7560 X24.678 Y-48.985 Z-0.963
N7565 X24.659 Y-48.945 Z-1.
N7570 X24.556 Y-48.8
N7575 X24.533 Y-48.765
N7580 X24.507 Y-48.72
N7585 X24.481 Y-48.675
N7590 X24.466 Y-48.651
N7595 G3 X24.269 Y-48.481 I-0.442 J-0.312
N7600 X24.018 Y-48.396 I-0.38 J-0.712
N7605 G1 X23.94 Y-48.385
N7610 X23.854 Y-48.381
N7615 X23.759 Y-48.384
N7620 X23.662 Y-48.394
N7625 X23.556 Y-48.414
N7630 X23.444 Y-48.446
N7635 X23.331 Y-48.487
N7640 X23.214 Y-48.541
N7645 X23.092 Y-48.609
N7650 X22.976 Y-48.687
N7655 X22.865 Y-48.774
N7660 X22.761 Y-48.868
N7665 X22.665 Y-48.97
N7670 X22.575 Y-49.078
N7675 X22.493 Y-49.192
N7680 X22.418 Y-49.311
N7685 X22.351 Y-49.434
N7690 X22.291 Y-49.562
N7695 X22.24 Y-49.692
N7700 X22.197 Y-49.826
N7705 X22.162 Y-49.962
N7710 X22.137 Y-50.1
N7715 X22.121 Y-50.24
N7720 X22.116 Y-50.378
N7725 X22.121 Y-50.502
N7730 X22.135 Y-50.613
N7735 X22.153 Y-50.702
N7740 X22.18 Y-50.796
N7745 X22.19 Y-50.821
N7750 X22.241 Y-50.912
N7755 X22.318 Y-50.985
N7760 X22.413 Y-51.031
N7765 X22.517 Y-51.047
N7770 X23.01
N7775 X23.058 Y-51.037 Z-0.958
N7780 X23.1 Y-51.013 Z-0.917
N7785 X23.132 Y-50.976 Z-0.875
N7790 X23.179 Y-50.901 Z-0.8
N7795 X23.431 Y-50.496
N7800 X24.179 Y-49.296
N7805 X24.431 Y-48.891
N7810 X24.475 Y-48.822 Z-0.869
N7815 X24.491 Y-48.787 Z-0.902
N7820 X24.497 Y-48.75 Z-0.935
N7825 X24.494 Y-48.711 Z-0.967
N7830 X24.481 Y-48.675 Z-1.
N7835 G2 X24.331 Y-48.403 I21.444 J11.973
N7840 G1 X24.321 Y-48.379
N7845 X24.305 Y-48.349
N7850 G3 X24.119 Y-48.157 I-0.481 J-0.282
N7855 G1 X24.068 Y-48.127
N7860 X24.008 Y-48.097
N7865 X23.944 Y-48.071
N7870 X23.869 Y-48.048
N7875 X23.787 Y-48.03
N7880 X23.7 Y-48.018
N7885 X23.6 Y-48.012
N7890 X23.498 Y-48.014
N7895 X23.386 Y-48.026
N7900 X23.264 Y-48.048
N7905 X23.139 Y-48.082
N7910 X23.011 Y-48.128
N7915 X22.883 Y-48.185
N7920 X22.76 Y-48.253
N7925 X22.641 Y-48.329
N7930 X22.529 Y-48.412
N7935 X22.422 Y-48.503
N7940 X22.32 Y-48.601
N7945 X22.225 Y-48.704
N7950 G3 X21.787 Y-49.419 I1.943 J-1.682
N7955 G1 X21.737 Y-49.551
N7960 X21.695 Y-49.685
N7965 X21.66 Y-49.821
N7970 X21.633 Y-49.958
N7975 X21.614 Y-50.098
N7980 X21.604 Y-50.238
N7985 X21.603 Y-50.378
N7990 X21.611 Y-50.501
N7995 X21.629 Y-50.623
N8000 X21.651 Y-50.716
N8005 X21.68 Y-50.808
N8010 X21.689 Y-50.829
N8015 X21.741 Y-50.918
N8020 X21.818 Y-50.987
N8025 X21.911 Y-51.031
N8030 X22.013 Y-51.047
N8035 X22.517
N8040 X22.563 Y-51.038 Z-0.96
N8045 X22.604 Y-51.015 Z-0.92
N8050 X22.636 Y-50.981 Z-0.88
N8055 X22.689 Y-50.903 Z-0.8
N8060 X22.956 Y-50.508
N8065 X23.989 Y-48.987
N8070 X24.256 Y-48.593
N8075 X24.306 Y-48.52 Z-0.875
N8080 X24.325 Y-48.48 Z-0.913
N8085 X24.332 Y-48.436 Z-0.95
N8090 Y-48.435 Z-0.951
N8095 X24.329 Y-48.407 Z-0.976
N8100 X24.321 Y-48.379 Z-1.
N8105 G2 X24.182 Y-48.045 I9.074 J3.976
N8110 G1 X24.168 Y-48.014
N8115 X24.15 Y-47.982
N8120 G3 X23.978 Y-47.799 I-0.532 J-0.328
N8125 G1 X23.926 Y-47.764
N8130 X23.863 Y-47.729
N8135 X23.795 Y-47.698
N8140 X23.717 Y-47.669
N8145 X23.629 Y-47.645
N8150 X23.535 Y-47.627
N8155 X23.429 Y-47.616
N8160 X23.316 Y-47.613
N8165 X23.197 Y-47.619
N8170 X23.067 Y-47.636
N8175 X22.93 Y-47.666
N8180 X22.795 Y-47.707
N8185 X22.664 Y-47.757
N8190 X22.537 Y-47.817
N8195 X22.414 Y-47.884
N8200 X22.296 Y-47.96
N8205 X22.182 Y-48.042
N8210 G3 X21.776 Y-48.429 I1.62 J-2.105
N8215 X21.121 Y-49.809 I2.274 J-1.925
N8220 G1 X21.099 Y-49.948
N8225 X21.085 Y-50.088
N8230 X21.079 Y-50.228
N8235 X21.082 Y-50.369
N8240 X21.093 Y-50.5
N8245 X21.114 Y-50.626
N8250 X21.139 Y-50.724
N8255 X21.17 Y-50.816
N8260 X21.178 Y-50.835
N8265 X21.231 Y-50.921
N8270 X21.307 Y-50.989
N8275 X21.399 Y-51.032
N8280 X21.5 Y-51.047
N8285 X22.013
N8290 X22.057 Y-51.038 Z-0.961
N8295 X22.097 Y-51.017 Z-0.923
N8300 X22.129 Y-50.985 Z-0.884
N8305 X22.187 Y-50.904 Z-0.8
N8310 X22.467 Y-50.519
N8315 X23.828 Y-48.642
N8320 X24.108 Y-48.256
N8325 X24.161 Y-48.182 Z-0.878
N8330 X24.183 Y-48.14 Z-0.918
N8335 X24.19 Y-48.092 Z-0.959
N8340 X24.182 Y-48.045 Z-1.
N8345 X24.164 Y-48.
N8350 X24.151 Y-47.96
N8355 X24.136 Y-47.91
N8360 X24.085 Y-47.73
N8365 G3 X23.937 Y-47.484 I-0.547 J-0.16
N8370 G1 X23.894 Y-47.443
N8375 G3 X23.638 Y-47.286 I-0.612 J-0.71
N8380 G1 X23.551 Y-47.253
N8385 X23.453 Y-47.225
N8390 X23.349 Y-47.205
N8395 X23.232 Y-47.191
N8400 X23.104 Y-47.187
N8405 X22.97 Y-47.193
N8410 X22.83 Y-47.21
N8415 X22.693 Y-47.239
N8420 X22.558 Y-47.277
N8425 X22.425 Y-47.324
N8430 X22.296 Y-47.379
N8435 X22.17 Y-47.442
N8440 G3 X21.707 Y-47.757 I1.274 J-2.369
N8445 X21.065 Y-48.497 I2.051 J-2.426
N8450 X20.577 Y-49.804 I2.845 J-1.807
N8455 G1 X20.561 Y-49.943
N8460 X20.551 Y-50.084
N8465 X20.549 Y-50.224
N8470 X20.555 Y-50.364
N8475 X20.569 Y-50.503
N8480 X20.593 Y-50.632
N8485 X20.62 Y-50.733
N8490 X20.653 Y-50.826
N8495 X20.659 Y-50.84
N8500 X20.736 Y-50.949
N8505 X20.848 Y-51.021
N8510 X20.978 Y-51.047
N8515 X21.5
N8520 X21.542 Y-51.039 Z-0.963
N8525 X21.581 Y-51.019 Z-0.926
N8530 X21.613 Y-50.989 Z-0.889
N8535 X21.677 Y-50.907 Z-0.8
N8540 X21.97 Y-50.531
N8545 X23.703 Y-48.313
N8550 X23.996 Y-47.937
N8555 X24.057 Y-47.859 Z-0.884
N8560 X24.079 Y-47.819 Z-0.923
N8565 X24.089 Y-47.775 Z-0.961
N8570 X24.085 Y-47.73 Z-1.
N8575 X24.072 Y-47.685
N8580 X24.06 Y-47.64
N8585 X24.048 Y-47.595
N8590 X24.039 Y-47.55
N8595 X24.031 Y-47.505
N8600 X24.008 Y-47.37
N8605 X24.007 Y-47.363
N8610 X24.006 Y-47.359
N8615 X24.002 Y-47.341
N8620 X23.991 Y-47.306
N8625 X23.975 Y-47.265
N8630 X23.955 Y-47.225
N8635 X23.928 Y-47.18
N8640 X23.926 Y-47.177
N8645 X23.848 Y-47.099
N8650 X23.75 Y-47.048
N8655 X23.641 Y-47.031
N8660 X23.595 Y-47.04 Z-0.96
N8665 X23.554 Y-47.062 Z-0.92
N8670 X23.522 Y-47.097 Z-0.88
N8675 X23.502 Y-47.139 Z-0.84
N8680 X23.497 Y-47.186 Z-0.8
N8685 X23.503 Y-47.224
N8690 X23.519 Y-47.26
N8695 X23.544 Y-47.29
N8700 X23.754 Y-47.488
N8705 X23.791 Y-47.514
N8710 X23.833 Y-47.527
N8715 X23.877 Y-47.528
N8720 X23.922 Y-47.514 Z-0.84
N8725 X23.961 Y-47.488 Z-0.88
N8730 X23.989 Y-47.45 Z-0.92
N8735 X24.005 Y-47.406 Z-0.96
N8740 X24.006 Y-47.359 Z-1.
N8745 X23.992 Y-47.28
N8750 X23.986 Y-47.235
N8755 X23.979 Y-47.19
N8760 X23.972 Y-47.145
N8765 X23.971 Y-47.143
N8770 X23.964 Y-47.122
N8775 X23.952 Y-47.1
N8780 X23.941 Y-47.085
N8785 X23.926 Y-47.07
N8790 X23.907 Y-47.055
N8795 X23.894 Y-47.048
N8800 X23.881 Y-47.042
N8805 X23.859 Y-47.035
N8810 X23.836 Y-47.032
N8815 X23.791 Y-47.031
N8820 X22.351
N8825 X22.234 Y-47.037
N8830 X22.134 Y-47.05
N8835 X22.025 Y-47.073
N8840 X21.903 Y-47.11
N8845 X21.772 Y-47.161
N8850 X21.645 Y-47.222
N8855 X21.523 Y-47.291
N8860 X21.406 Y-47.369
N8865 G3 X20.983 Y-47.737 I1.599 J-2.26
N8870 X20.358 Y-48.665 I2.587 J-2.418
N8875 X20.039 Y-49.738 I3.317 J-1.569
N8880 G1 X20.024 Y-49.878
N8885 X20.015 Y-50.018
N8890 X20.012 Y-50.159
N8895 X20.017 Y-50.299
N8900 X20.03 Y-50.439
N8905 X20.049 Y-50.563
N8910 X20.08 Y-50.69
N8915 X20.112 Y-50.79
N8920 X20.13 Y-50.831
N8925 X20.182 Y-50.919
N8930 X20.258 Y-50.988
N8935 X20.351 Y-51.032
N8940 X20.452 Y-51.047
N8945 X20.978
N8950 X21.022 Y-51.038 Z-0.962
N8955 X21.061 Y-51.018 Z-0.925
N8960 X21.093 Y-50.987 Z-0.887
N8965 X21.114 Y-50.949 Z-0.849
N8970 X21.134 Y-50.894 Z-0.8
N8975 X21.299 Y-50.447
N8980 X22.338 Y-47.635
N8985 X22.487 Y-47.233
N8990 X22.496 Y-47.186
N8995 X22.49 Y-47.139 Z-0.84
N9000 X22.47 Y-47.097 Z-0.88
N9005 X22.438 Y-47.062 Z-0.92
N9010 X22.397 Y-47.04 Z-0.96
N9015 X22.351 Y-47.031 Z-1.
N9020 X21.541
N9025 X21.434 Y-47.036
N9030 X21.36 Y-47.046
N9035 X21.275 Y-47.064
N9040 X21.18 Y-47.092
N9045 X21.078 Y-47.132
N9050 X20.965 Y-47.187
N9055 X20.844 Y-47.258
N9060 X20.729 Y-47.339
N9065 X20.62 Y-47.427
N9070 X20.516 Y-47.522
N9075 G3 X20.154 Y-47.95 I2.068 J-2.116
N9080 X19.659 Y-48.954 I3.132 J-2.169
N9085 X19.475 Y-49.918 I3.596 J-1.184
N9090 G1 X19.471 Y-50.058
N9095 X19.474 Y-50.198
N9100 X19.483 Y-50.339
N9105 X19.5 Y-50.478
N9110 X19.527 Y-50.616
N9115 X19.557 Y-50.724
N9120 X19.592 Y-50.821
N9125 X19.602 Y-50.843
N9130 X19.679 Y-50.95
N9135 X19.791 Y-51.022
N9140 X19.92 Y-51.047
N9145 X20.452
N9150 X20.498 Y-51.038 Z-0.96
N9155 X20.539 Y-51.015 Z-0.92
N9160 X20.571 Y-50.981 Z-0.88
N9165 X20.591 Y-50.939 Z-0.841
N9170 X20.605 Y-50.893 Z-0.8
N9175 X20.739 Y-50.436
N9180 X21.557 Y-47.644
N9185 X21.68 Y-47.223
N9190 X21.686 Y-47.186
N9195 X21.68 Y-47.139 Z-0.84
N9200 X21.66 Y-47.097 Z-0.88
N9205 X21.628 Y-47.062 Z-0.92
N9210 X21.587 Y-47.04 Z-0.96
N9215 X21.541 Y-47.031 Z-1.
N9220 X20.821
N9225 X20.744 Y-47.035
N9230 X20.678 Y-47.043
N9235 X20.602 Y-47.06
N9240 X20.519 Y-47.084
N9245 X20.428 Y-47.12
N9250 X20.328 Y-47.169
N9255 X20.218 Y-47.233
N9260 X20.103 Y-47.314
N9265 X19.995 Y-47.403
N9270 X19.893 Y-47.5
N9275 X19.798 Y-47.603
N9280 G3 X19.471 Y-48.059 I2.267 J-1.972
N9285 X19.016 Y-49.233 I3.422 J-1.999
N9290 X18.927 Y-50.069 I3.623 J-0.81
N9295 G1 X18.932 Y-50.209
N9300 X18.943 Y-50.349
N9305 X18.963 Y-50.488
N9310 X18.989 Y-50.614
N9315 X19.026 Y-50.74
N9320 X19.061 Y-50.832
N9325 X19.068 Y-50.847
N9330 X19.145 Y-50.953
N9335 X19.256 Y-51.022
N9340 X19.384 Y-51.047
N9345 X19.92
N9350 X19.968 Y-51.037 Z-0.959
N9355 X20.01 Y-51.013 Z-0.917
N9360 X20.042 Y-50.977 Z-0.876
N9365 X20.061 Y-50.932 Z-0.835
N9370 X20.07 Y-50.892 Z-0.8
N9375 X20.183 Y-50.429
N9380 X20.857 Y-47.649
N9385 X20.962 Y-47.216
N9390 X20.966 Y-47.186
N9395 X20.96 Y-47.139 Z-0.84
N9400 X20.94 Y-47.097 Z-0.88
N9405 X20.908 Y-47.062 Z-0.92
N9410 X20.867 Y-47.04 Z-0.96
N9415 X20.821 Y-47.031 Z-1.
N9420 X20.146
N9425 X20.101 Y-47.033
N9430 X20.039 Y-47.041
N9435 X19.968 Y-47.056
N9440 X19.891 Y-47.079
N9445 X19.806 Y-47.112
N9450 X19.713 Y-47.158
N9455 X19.613 Y-47.217
N9460 X19.505 Y-47.292
N9465 X19.397 Y-47.382
N9470 X19.296 Y-47.479
N9475 X19.202 Y-47.583
N9480 G3 X18.883 Y-48.045 I2.2 J-1.857
N9485 X18.697 Y-48.429 I3.146 J-1.765
N9490 G1 X18.683 Y-48.471
N9495 X18.675 Y-48.514
N9500 X18.672 Y-48.558
N9505 X18.681 Y-48.604 Z-0.96
N9510 X18.704 Y-48.645 Z-0.92
N9515 X18.738 Y-48.677 Z-0.88
N9520 X18.781 Y-48.697 Z-0.84
N9525 X18.827 Y-48.703 Z-0.8
N9530 X18.865 Y-48.696
N9535 X18.9 Y-48.681
N9540 X18.93 Y-48.657
N9545 X19.18 Y-48.397
N9550 X19.995 Y-47.549
N9555 X20.249 Y-47.285
N9560 X20.271 Y-47.255
N9565 X20.285 Y-47.222
N9570 X20.291 Y-47.186
N9575 X20.285 Y-47.139 Z-0.84
N9580 X20.265 Y-47.097 Z-0.88
N9585 X20.233 Y-47.062 Z-0.92
N9590 X20.192 Y-47.04 Z-0.96
N9595 X20.146 Y-47.031 Z-1.
N9600 X19.561
N9605 G3 X19.282 Y-47.079 I0.004 J-0.854
N9610 G1 X19.201 Y-47.11
N9615 X19.112 Y-47.154
N9620 X19.017 Y-47.209
N9625 X18.916 Y-47.281
N9630 X18.808 Y-47.371
N9635 X18.778 Y-47.399
N9640 X18.721 Y-47.472
N9645 X18.685 Y-47.558
N9650 X18.672 Y-47.65
N9655 X18.681 Y-47.696 Z-0.96
N9660 X18.704 Y-47.737 Z-0.92
N9665 X18.738 Y-47.769 Z-0.88
N9670 X18.781 Y-47.789 Z-0.84
N9675 X18.827 Y-47.795 Z-0.8
N9680 X18.866 Y-47.788
N9685 X18.902 Y-47.772
N9690 X19.238 Y-47.559
N9695 X19.357 Y-47.484
N9700 X19.636 Y-47.307
N9705 X19.672 Y-47.275
N9710 X19.697 Y-47.233
N9715 X19.706 Y-47.186
N9720 X19.7 Y-47.139 Z-0.84
N9725 X19.68 Y-47.097 Z-0.88
N9730 X19.648 Y-47.062 Z-0.92
N9735 X19.607 Y-47.04 Z-0.96
N9740 X19.561 Y-47.031 Z-1.
N9745 X18.931
N9750 X18.927
N9755 X18.923
N9760 X18.903 Y-47.032
N9765 X18.785 Y-47.077
N9770 X18.702 Y-47.172
N9775 X18.672 Y-47.295
N9780 X18.681 Y-47.353 Z-0.95
N9785 X18.704 Y-47.407 Z-0.9
N9790 X18.739 Y-47.454 Z-0.85
N9795 X18.784 Y-47.492 Z-0.8
N9800 X18.829 Y-47.515
N9805 X18.878 Y-47.528
N9810 X18.929 Y-47.53
N9815 X18.979 Y-47.522
N9820 X18.991 Y-47.519
N9825 G3 X19.122 Y-47.141 I-0.076 J0.238
N9830 G1 X19.084 Y-47.096 Z-0.85
N9835 X19.036 Y-47.062 Z-0.9
N9840 X18.982 Y-47.04 Z-0.95
N9845 X18.923 Y-47.031 Z-1.
N9850 X18.841
N9855 X18.796 Y-47.034
N9860 X18.774 Y-47.04
N9865 X18.751 Y-47.049
N9870 X18.742 Y-47.055
N9875 X18.724 Y-47.068
N9880 X18.706 Y-47.086
N9885 X18.696 Y-47.1
N9890 X18.684 Y-47.123
N9895 X18.677 Y-47.145
N9900 X18.673 Y-47.168
N9905 X18.672 Y-47.19
N9910 Y-50.655
N9915 Y-50.7
N9920 Y-50.704
N9925 X18.674 Y-50.741
N9930 Y-50.742
N9935 X18.713 Y-50.861
N9940 X18.79 Y-50.96
N9945 X18.898 Y-51.024
N9950 X19.021 Y-51.047
N9955 X19.067 Y-51.038 Z-0.96
N9960 X19.108 Y-51.015 Z-0.92
N9965 X19.14 Y-50.981 Z-0.88
N9970 X19.16 Y-50.938 Z-0.84
N9975 X19.166 Y-50.891 Z-0.8
N9980 X19.16 Y-50.854
N9985 X19.144 Y-50.819
N9990 X19.12 Y-50.789
N9995 X18.926 Y-50.601
N10000 X18.897 Y-50.579
N10005 X18.863 Y-50.565
N10010 X18.827 Y-50.56
N10015 X18.781 Y-50.565 Z-0.84
N10020 X18.738 Y-50.585 Z-0.88
N10025 X18.704 Y-50.617 Z-0.92
N10030 X18.681 Y-50.658 Z-0.96
N10035 X18.672 Y-50.704 Z-1.
N10040 Y-50.88
N10045 X18.673 Y-50.903
N10050 X18.678 Y-50.925
N10055 X18.686 Y-50.948
N10060 X18.699 Y-50.97
N10065 X18.706 Y-50.979
N10070 X18.726 Y-50.999
N10075 X18.746 Y-51.015
N10080 X18.751 Y-51.019
N10085 X18.774 Y-51.032
N10090 X18.796 Y-51.041
N10095 X18.819 Y-51.045
N10100 X18.841 Y-51.047
N10105 X19.384
N10110 X19.429 Y-51.038
N10115 X19.469 Y-51.016
N10120 X19.501 Y-50.983
N10125 X19.522 Y-50.942
N10130 X19.529 Y-50.897
N10135 G3 X19.243 Y-50.832 I-0.15 J0.
N10140 G1 X19.236 Y-50.861 Z-0.997
N10145 X19.229 Y-50.888 Z-0.989
N10150 Y-50.897 Z-0.985
N10155 X19.238 Y-50.929 Z-0.961
N10160 X19.245 Y-50.955 Z-0.929
N10165 X19.25 Y-50.971 Z-0.891
N10170 X19.251 Y-50.976 Z-0.85
N10175 Z5.
N10180 X26.904 Y-50.78
N10185 Z-0.85
N10190 Z-1.
N10195 Z-1.5
N10200 X26.897 Y-50.777
N10205 X26.893
N10210 X26.89 Y-50.779
N10215 X26.889 Y-50.783
N10220 X26.888 Y-50.79
N10225 X26.89 Y-50.797
N10230 X26.896 Y-50.802
N10235 X26.902 Y-50.806
N10240 X26.91 Y-50.807
N10245 X26.917 Y-50.805
N10250 X26.931 Y-50.799
N10255 X26.939 Y-50.787
N10260 X26.942 Y-50.772
N10265 X26.938 Y-50.758
N10270 X26.93 Y-50.745
N10275 X26.918 Y-50.736
N10280 X26.904 Y-50.732
N10285 X26.889 Y-50.731
N10290 X26.874 Y-50.734
N10295 X26.861 Y-50.741
N10300 X26.849 Y-50.751
N10305 X26.841 Y-50.764
N10310 X26.836 Y-50.778
N10315 X26.833 Y-50.792
N10320 X26.834 Y-50.807
N10325 X26.838 Y-50.822
N10330 X26.879 Y-50.854
N10335 X26.931 Y-50.842
N10340 X26.954 Y-50.795
N10345 Y-50.741
N10350 X26.953 Y-50.726
N10355 X26.948 Y-50.712
N10360 X26.94 Y-50.699
N10365 X26.93 Y-50.688
N10370 X26.918 Y-50.679
N10375 X26.905 Y-50.672
N10380 X26.891 Y-50.666
N10385 X26.876 Y-50.663
N10390 X26.861 Y-50.662
N10395 X26.846 Y-50.663
N10400 X26.832 Y-50.666
N10405 X26.817 Y-50.67
N10410 X26.804 Y-50.676
N10415 X26.791 Y-50.684
N10420 X26.778 Y-50.693
N10425 X26.767 Y-50.703
N10430 X26.757 Y-50.714
N10435 X26.748 Y-50.726
N10440 X26.741 Y-50.739
N10445 X26.735 Y-50.752
N10450 X26.73 Y-50.767
N10455 X26.727 Y-50.781
N10460 X26.725 Y-50.796
N10465 X26.724 Y-50.811
N10470 X26.725 Y-50.826
N10475 X26.766 Y-50.9
N10480 X26.846 Y-50.926
N10485 X26.923 Y-50.89
N10490 X26.954 Y-50.812
N10495 X26.94 Y-50.777 Z-1.492
N10500 X26.929 Y-50.747 Z-1.47
N10505 X26.921 Y-50.727 Z-1.438
N10510 X26.918 Y-50.72 Z-1.4
N10515 Z5.
N10520 X26.954 Y-50.741
N10525 Z-0.85
N10530 Z-1.
N10535 Z-1.5 F12.
N10540 Y-50.677 F48.
N10545 X26.953 Y-50.662
N10550 X26.949 Y-50.648
N10555 X26.943 Y-50.634
N10560 X26.935 Y-50.621
N10565 X26.925 Y-50.61
N10570 X26.915 Y-50.599
N10575 X26.903 Y-50.59
N10580 X26.89 Y-50.582
N10585 X26.877 Y-50.575
N10590 X26.863 Y-50.569
N10595 G3 X26.613 Y-50.643 I-0.071 J-0.22
N10600 G1 X26.6 Y-50.657
N10605 X26.589 Y-50.674
N10610 X26.587 Y-50.677
N10615 X26.555 Y-50.801
N10620 X26.59 Y-50.925
N10625 X26.682 Y-51.014
N10630 X26.806 Y-51.046
N10635 X26.829 Y-51.042
N10640 X26.851 Y-51.034
N10645 X26.867 Y-51.026
N10650 X26.883 Y-51.015
N10655 X26.896 Y-51.004
N10660 X26.913 Y-50.987
N10665 X26.927 Y-50.97
N10670 X26.935 Y-50.957
N10675 X26.941 Y-50.944
N10680 X26.948 Y-50.925
N10685 X26.953 Y-50.903
N10690 X26.954 Y-50.88
N10695 Y-50.812
N10700 Z5.
N10705 X26.791 Y-51.034
N10710 Z0.65
N10715 Z-1.5
N10720 G3 X26.954 Y-50.677 I-0.349 J0.375
N10725 G1 Y-50.585
N10730 X26.953 Y-50.57
N10735 X26.95 Y-50.556
N10740 X26.945 Y-50.541
N10745 X26.939 Y-50.528
N10750 X26.932 Y-50.514
N10755 X26.924 Y-50.501
N10760 X26.914 Y-50.488
N10765 X26.902 Y-50.475
N10770 G3 X26.637 Y-50.401 I-0.204 J-0.217
N10775 G1 X26.612 Y-50.405
N10780 X26.587 Y-50.413
N10785 X26.478 Y-50.482
N10790 X26.405 Y-50.589
N10795 X26.378 Y-50.715
N10800 X26.402 Y-50.841
N10805 X26.473 Y-50.949
N10810 X26.58 Y-51.021
N10815 X26.706 Y-51.047
N10820 X26.761
N10825 X26.806 Y-51.046
N10830 X26.85 Y-51.029
N10835 X26.887 Y-50.999
N10840 X26.913 Y-50.959
N10845 X26.924 Y-50.912
N10850 X26.954 Y-50.585
N10855 Y-50.565
N10860 X26.951 Y-50.543
N10865 X26.946 Y-50.52
N10870 X26.941 Y-50.508
N10875 X26.933 Y-50.492
N10880 X26.921 Y-50.475
N10885 X26.896 Y-50.447
N10890 X26.886 Y-50.438
N10895 X26.875 Y-50.43
N10900 X26.863 Y-50.423
N10905 X26.851 Y-50.417
N10910 X26.806 Y-50.403
N10915 X26.568 Y-50.334
N10920 X26.506 Y-50.326
N10925 X26.443 Y-50.331
N10930 X26.383 Y-50.349
N10935 X26.328 Y-50.378
N10940 X26.301 Y-50.395
N10945 X26.277 Y-50.413
N10950 X26.255 Y-50.433
N10955 X26.232 Y-50.458
N10960 X26.206 Y-50.49
N10965 X26.184 Y-50.523
N10970 X26.183 Y-50.526
N10975 X26.143 Y-50.64
N10980 X26.144 Y-50.761
N10985 X26.186 Y-50.874
N10990 X26.265 Y-50.966
N10995 X26.369 Y-51.026
N11000 X26.488 Y-51.047
N11005 X26.706
N11010 X26.752 Y-51.038 Z-1.46
N11015 X26.793 Y-51.015 Z-1.42
N11020 X26.825 Y-50.981 Z-1.38
N11025 X26.845 Y-50.938 Z-1.34
N11030 X26.851 Y-50.891 Z-1.3
N11035 X26.847 Y-50.864
N11040 X26.839 Y-50.837
N11045 X26.701 Y-50.517
N11050 X26.658 Y-50.417 Z-1.392
N11055 X26.636 Y-50.381 Z-1.428
N11060 X26.605 Y-50.352 Z-1.464
N11065 X26.568 Y-50.334 Z-1.5
N11070 X26.491 Y-50.311
N11075 X26.446 Y-50.295
N11080 X26.401 Y-50.277
N11085 X26.388 Y-50.272
N11090 X26.367 Y-50.265
N11095 X26.347 Y-50.26
N11100 X26.325 Y-50.256
N11105 X26.302 Y-50.254
N11110 G3 X26.018 Y-50.367 I-0.009 J-0.388
N11115 X25.871 Y-50.621 I0.337 J-0.365
N11120 G1 X25.866 Y-50.745
N11125 X25.906 Y-50.864
N11130 X25.983 Y-50.961
N11135 X26.09 Y-51.024
N11140 X26.213 Y-51.047
N11145 X26.488
N11150 X26.534 Y-51.038 Z-1.46
N11155 X26.575 Y-51.015 Z-1.42
N11160 X26.607 Y-50.981 Z-1.38
N11165 X26.627 Y-50.938 Z-1.34
N11170 X26.633 Y-50.891 Z-1.3
N11175 X26.626 Y-50.851
N11180 X26.503 Y-50.467
N11185 X26.469 Y-50.363 Z-1.393
N11190 X26.451 Y-50.325 Z-1.429
N11195 X26.423 Y-50.294 Z-1.464
N11200 X26.388 Y-50.272 Z-1.5
N11205 X26.356 Y-50.259
N11210 X26.176 Y-50.185
N11215 G3 X25.923 Y-50.186 I-0.125 J-0.334
N11220 G1 X25.846 Y-50.219
N11225 X25.776 Y-50.265
N11230 X25.715 Y-50.321
N11235 G3 X25.558 Y-50.669 I0.421 J-0.398
N11240 G1 X25.569 Y-50.784
N11245 X25.615 Y-50.889
N11250 X25.693 Y-50.973
N11255 X25.794 Y-51.028
N11260 X25.908 Y-51.047
N11265 X26.213
N11270 X26.259 Y-51.038 Z-1.46
N11275 X26.3 Y-51.015 Z-1.42
N11280 X26.332 Y-50.981 Z-1.38
N11285 X26.352 Y-50.938 Z-1.34
N11290 X26.358 Y-50.891 Z-1.3
N11295 X26.356 Y-50.872
N11300 X26.353 Y-50.855
N11305 X26.275 Y-50.385
N11310 X26.26 Y-50.296 Z-1.377
N11315 X26.245 Y-50.25 Z-1.418
N11320 X26.216 Y-50.212 Z-1.459
N11325 X26.176 Y-50.185 Z-1.5
N11330 X26.086 Y-50.146
N11335 X26.041 Y-50.124
N11340 X25.971 Y-50.085
N11345 X25.951 Y-50.076
N11350 X25.891 Y-50.057
N11355 X25.828 Y-50.048
N11360 X25.765 Y-50.049
N11365 X25.703 Y-50.061
N11370 G3 X25.415 Y-50.227 I0.139 J-0.574
N11375 X25.221 Y-50.719 I0.481 J-0.472
N11380 G1 X25.254 Y-50.846
N11385 X25.332 Y-50.952
N11390 X25.442 Y-51.022
N11395 X25.571 Y-51.047
N11400 X25.908
N11405 X25.953 Y-51.038 Z-1.461
N11410 X25.994 Y-51.016 Z-1.421
N11415 X26.025 Y-50.982 Z-1.382
N11420 X26.046 Y-50.941 Z-1.342
N11425 X26.052 Y-50.895 Z-1.303
N11430 Y-50.891 Z-1.3
N11435 X26.051 Y-50.771
N11440 X26.045 Y-50.295
N11445 Y-50.212 Z-1.37
N11450 X26.039 Y-50.175 Z-1.402
N11455 X26.025 Y-50.139 Z-1.435
N11460 X26.001 Y-50.109 Z-1.467
N11465 X25.971 Y-50.085 Z-1.5
N11470 X25.771 Y-49.975
N11475 X25.746 Y-49.96
N11480 G3 X25.479 Y-49.912 I-0.203 J-0.364
N11485 X25.196 Y-50.023 I0.077 J-0.618
N11490 X24.855 Y-50.662 I0.447 J-0.65
N11495 G1 X24.857 Y-50.727
N11500 X24.858 Y-50.737
N11505 X24.896 Y-50.858
N11510 X24.973 Y-50.958
N11515 X25.082 Y-51.024
N11520 X25.206 Y-51.047
N11525 X25.571
N11530 X25.612 Y-51.039 Z-1.464
N11535 X25.65 Y-51.02 Z-1.428
N11540 X25.681 Y-50.992 Z-1.392
N11545 X25.703 Y-50.956 Z-1.356
N11550 X25.714 Y-50.915 Z-1.32
N11555 X25.717 Y-50.892 Z-1.3
N11560 X25.748 Y-50.644
N11565 X25.806 Y-50.171
N11570 X25.815 Y-50.105 Z-1.357
N11575 X25.814 Y-50.063 Z-1.392
N11580 X25.801 Y-50.023 Z-1.428
N11585 X25.778 Y-49.987 Z-1.464
N11590 X25.746 Y-49.96 Z-1.5
N11595 X25.704 Y-49.935
N11600 X25.681 Y-49.921
N11605 X25.636 Y-49.889
N11610 X25.527 Y-49.811
N11615 X25.473 Y-49.78
N11620 X25.415 Y-49.757
N11625 X25.354 Y-49.742
N11630 X25.292 Y-49.736
N11635 G3 X24.978 Y-49.803 I-0.024 J-0.66
N11640 X24.701 Y-50.011 I0.365 J-0.775
N11645 X24.485 Y-50.412 I0.71 J-0.64
N11650 X24.469 Y-50.763 I0.816 J-0.213
N11655 G1 X24.512 Y-50.875
N11660 X24.59 Y-50.967
N11665 X24.695 Y-51.026
N11670 X24.813 Y-51.047
N11675 X25.206
N11680 X25.254 Y-51.037 Z-1.459
N11685 X25.296 Y-51.013 Z-1.417
N11690 X25.328 Y-50.977 Z-1.376
N11695 X25.347 Y-50.932 Z-1.335
N11700 X25.356 Y-50.892 Z-1.3
N11705 X25.454 Y-50.489
N11710 X25.567 Y-50.026
N11715 X25.582 Y-49.966 Z-1.353
N11720 X25.586 Y-49.923 Z-1.389
N11725 X25.577 Y-49.88 Z-1.426
N11730 X25.557 Y-49.842 Z-1.463
N11735 X25.527 Y-49.811 Z-1.5
N11740 X25.411 Y-49.729
N11745 X25.385 Y-49.71
N11750 X25.366 Y-49.696
N11755 X25.331 Y-49.665
N11760 X25.298 Y-49.637
N11765 X25.229 Y-49.59
N11770 X25.152 Y-49.557
N11775 X25.07 Y-49.54
N11780 G3 X24.794 Y-49.557 I-0.097 J-0.668
N11785 X24.531 Y-49.674 I0.226 J-0.861
N11790 G1 X24.465 Y-49.721
N11795 G3 X24.226 Y-49.977 I0.671 J-0.866
N11800 X24.07 Y-50.311 I0.963 J-0.651
N11805 G1 X24.052 Y-50.388
N11810 X24.038 Y-50.477
N11815 G3 X24.055 Y-50.783 I0.901 J-0.105
N11820 G1 X24.101 Y-50.888
N11825 X24.179 Y-50.973
N11830 X24.28 Y-51.028
N11835 X24.394 Y-51.047
N11840 X24.813
N11845 X24.857 Y-51.038 Z-1.461
N11850 X24.897 Y-51.017 Z-1.423
N11855 X24.929 Y-50.985 Z-1.384
N11860 X24.95 Y-50.944 Z-1.346
N11865 X24.967 Y-50.893 Z-1.3
N11870 X25.119 Y-50.442
N11875 X25.165 Y-50.306
N11880 X25.317 Y-49.855
N11885 X25.338 Y-49.794 Z-1.355
N11890 X25.345 Y-49.752 Z-1.391
N11895 X25.341 Y-49.709 Z-1.427
N11900 X25.325 Y-49.67 Z-1.464
N11905 X25.298 Y-49.637 Z-1.5
N11910 G2 X25.064 Y-49.426 I8.065 J9.219
N11915 G1 X25.038 Y-49.404
N11920 X25.011 Y-49.384
N11925 G3 X24.759 Y-49.301 I-0.296 J-0.469
N11930 X24.504 Y-49.318 I-0.076 J-0.777
N11935 G1 X24.431 Y-49.337
N11940 X24.356 Y-49.364
N11945 X24.28 Y-49.398
N11950 X24.202 Y-49.441
N11955 X24.123 Y-49.493
N11960 X24.047 Y-49.552
N11965 X23.973 Y-49.62
N11970 X23.902 Y-49.697
N11975 X23.837 Y-49.781
N11980 X23.776 Y-49.872
N11985 X23.723 Y-49.968
N11990 X23.677 Y-50.068
N11995 X23.64 Y-50.172
N12000 X23.611 Y-50.278
N12005 X23.594 Y-50.371
N12010 X23.584 Y-50.465
N12015 X23.582 Y-50.558
N12020 X23.587 Y-50.636
N12025 X23.597 Y-50.711
N12030 X23.615 Y-50.792
N12035 X23.617 Y-50.799
N12040 X23.666 Y-50.899
N12045 X23.744 Y-50.978
N12050 X23.842 Y-51.029
N12055 X23.952 Y-51.047
N12060 X24.394
N12065 X24.436 Y-51.039 Z-1.464
N12070 X24.474 Y-51.02 Z-1.427
N12075 X24.505 Y-50.991 Z-1.391
N12080 X24.527 Y-50.954 Z-1.355
N12085 X24.552 Y-50.895 Z-1.3
N12090 X24.735 Y-50.455
N12095 X24.89 Y-50.083
N12100 X25.073 Y-49.644
N12105 X25.096 Y-49.589 Z-1.35
N12110 X25.107 Y-49.547 Z-1.387
N12115 X25.105 Y-49.503 Z-1.425
N12120 X25.09 Y-49.461 Z-1.462
N12125 X25.064 Y-49.426 Z-1.5
N12130 X25.051 Y-49.414
N12135 X25.006 Y-49.366
N12140 X24.871 Y-49.215
N12145 X24.849 Y-49.19
N12150 X24.833 Y-49.173
N12155 G3 X24.607 Y-49.052 I-0.358 J-0.397
N12160 X24.356 Y-49.026 I-0.206 J-0.747
N12165 G1 X24.28 Y-49.032
N12170 X24.2 Y-49.046
N12175 X24.118 Y-49.067
N12180 X24.031 Y-49.097
N12185 X23.941 Y-49.136
N12190 X23.852 Y-49.184
N12195 X23.762 Y-49.241
N12200 X23.673 Y-49.31
N12205 X23.584 Y-49.389
N12210 X23.499 Y-49.479
N12215 X23.42 Y-49.577
N12220 X23.348 Y-49.683
N12225 X23.284 Y-49.795
N12230 X23.229 Y-49.913
N12235 X23.184 Y-50.034
N12240 X23.15 Y-50.156
N12245 X23.125 Y-50.278
N12250 X23.113 Y-50.386
N12255 X23.109 Y-50.488
N12260 X23.114 Y-50.588
N12265 X23.124 Y-50.671
N12270 X23.141 Y-50.752
N12275 X23.154 Y-50.795
N12280 X23.202 Y-50.896
N12285 X23.28 Y-50.977
N12290 X23.379 Y-51.029
N12295 X23.49 Y-51.047
N12300 X23.952
N12305 X23.991 Y-51.04 Z-1.466
N12310 X24.028 Y-51.022 Z-1.431
N12315 X24.059 Y-50.996 Z-1.397
N12320 X24.081 Y-50.962 Z-1.362
N12325 X24.113 Y-50.897 Z-1.3
N12330 X24.323 Y-50.469
N12335 X24.632 Y-49.837
N12340 X24.841 Y-49.409
N12345 X24.869 Y-49.352 Z-1.354
N12350 X24.882 Y-49.311 Z-1.391
N12355 X24.883 Y-49.268 Z-1.427
N12360 X24.872 Y-49.227 Z-1.464
N12365 X24.849 Y-49.19 Z-1.5
N12370 X24.826 Y-49.164
N12375 X24.781 Y-49.113
N12380 X24.756 Y-49.08
N12385 X24.736 Y-49.053
N12390 X24.659 Y-48.945
N12395 X24.642 Y-48.923
N12400 G3 X24.427 Y-48.776 I-0.404 J-0.36
N12405 X24.173 Y-48.721 I-0.294 J-0.739
N12410 G1 X24.094 Y-48.719
N12415 X24.012 Y-48.724
N12420 X23.921 Y-48.737
N12425 X23.827 Y-48.758
N12430 X23.731 Y-48.788
N12435 X23.628 Y-48.829
N12440 X23.523 Y-48.882
N12445 X23.419 Y-48.944
N12450 X23.315 Y-49.019
N12455 X23.212 Y-49.106
N12460 X23.113 Y-49.205
N12465 X23.021 Y-49.312
N12470 X22.938 Y-49.426
N12475 X22.864 Y-49.545
N12480 X22.799 Y-49.669
N12485 X22.743 Y-49.798
N12490 X22.697 Y-49.931
N12495 X22.661 Y-50.067
N12500 X22.636 Y-50.205
N12505 X22.622 Y-50.336
N12510 X22.619 Y-50.448
N12515 X22.626 Y-50.563
N12520 X22.638 Y-50.654
N12525 X22.657 Y-50.74
N12530 X22.676 Y-50.799
N12535 X22.724 Y-50.899
N12540 X22.802 Y-50.978
N12545 X22.901 Y-51.029
N12550 X23.01 Y-51.047
N12555 X23.49
N12560 X23.527 Y-51.04 Z-1.467
N12565 X23.562 Y-51.025 Z-1.435
N12570 X23.592 Y-51.001 Z-1.402
N12575 X23.615 Y-50.97 Z-1.37
N12580 X23.655 Y-50.899 Z-1.3
N12585 X23.889 Y-50.483
N12590 X24.397 Y-49.579
N12595 X24.63 Y-49.163
N12600 X24.665 Y-49.101 Z-1.361
N12605 X24.679 Y-49.066 Z-1.393
N12610 X24.684 Y-49.028 Z-1.425
N12615 Z-1.426
N12620 X24.678 Y-48.985 Z-1.463
N12625 X24.659 Y-48.945 Z-1.5
N12630 X24.556 Y-48.8
N12635 X24.533 Y-48.765
N12640 X24.507 Y-48.72
N12645 X24.481 Y-48.675
N12650 X24.466 Y-48.651
N12655 G3 X24.269 Y-48.481 I-0.442 J-0.312
N12660 X24.018 Y-48.396 I-0.38 J-0.712
N12665 G1 X23.94 Y-48.385
N12670 X23.854 Y-48.381
N12675 X23.759 Y-48.384
N12680 X23.662 Y-48.394
N12685 X23.556 Y-48.414
N12690 X23.444 Y-48.446
N12695 X23.331 Y-48.487
N12700 X23.214 Y-48.541
N12705 X23.092 Y-48.609
N12710 X22.976 Y-48.687
N12715 X22.865 Y-48.774
N12720 X22.761 Y-48.868
N12725 X22.665 Y-48.97
N12730 X22.575 Y-49.078
N12735 X22.493 Y-49.192
N12740 X22.418 Y-49.311
N12745 X22.351 Y-49.434
N12750 X22.291 Y-49.562
N12755 X22.24 Y-49.692
N12760 X22.197 Y-49.826
N12765 X22.162 Y-49.962
N12770 X22.137 Y-50.1
N12775 X22.121 Y-50.24
N12780 X22.116 Y-50.378
N12785 X22.121 Y-50.502
N12790 X22.135 Y-50.613
N12795 X22.153 Y-50.702
N12800 X22.18 Y-50.796
N12805 X22.19 Y-50.821
N12810 X22.241 Y-50.912
N12815 X22.318 Y-50.985
N12820 X22.413 Y-51.031
N12825 X22.517 Y-51.047
N12830 X23.01
N12835 X23.058 Y-51.037 Z-1.458
N12840 X23.1 Y-51.013 Z-1.417
N12845 X23.132 Y-50.976 Z-1.375
N12850 X23.179 Y-50.901 Z-1.3
N12855 X23.431 Y-50.496
N12860 X24.179 Y-49.296
N12865 X24.431 Y-48.891
N12870 X24.475 Y-48.822 Z-1.369
N12875 X24.491 Y-48.787 Z-1.402
N12880 X24.497 Y-48.75 Z-1.435
N12885 X24.494 Y-48.711 Z-1.467
N12890 X24.481 Y-48.675 Z-1.5
N12895 G2 X24.331 Y-48.403 I21.444 J11.973
N12900 G1 X24.321 Y-48.379
N12905 X24.305 Y-48.349
N12910 G3 X24.119 Y-48.157 I-0.481 J-0.282
N12915 G1 X24.068 Y-48.127
N12920 X24.008 Y-48.097
N12925 X23.944 Y-48.071
N12930 X23.869 Y-48.048
N12935 X23.787 Y-48.03
N12940 X23.7 Y-48.018
N12945 X23.6 Y-48.012
N12950 X23.498 Y-48.014
N12955 X23.386 Y-48.026
N12960 X23.264 Y-48.048
N12965 X23.139 Y-48.082
N12970 X23.011 Y-48.128
N12975 X22.883 Y-48.185
N12980 X22.76 Y-48.253
N12985 X22.641 Y-48.329
N12990 X22.529 Y-48.412
N12995 X22.422 Y-48.503
N13000 X22.32 Y-48.601
N13005 X22.225 Y-48.704
N13010 G3 X21.787 Y-49.419 I1.943 J-1.682
N13015 G1 X21.737 Y-49.551
N13020 X21.695 Y-49.685
N13025 X21.66 Y-49.821
N13030 X21.633 Y-49.958
N13035 X21.614 Y-50.098
N13040 X21.604 Y-50.238
N13045 X21.603 Y-50.378
N13050 X21.611 Y-50.501
N13055 X21.629 Y-50.623
N13060 X21.651 Y-50.716
N13065 X21.68 Y-50.808
N13070 X21.689 Y-50.829
N13075 X21.741 Y-50.918
N13080 X21.818 Y-50.987
N13085 X21.911 Y-51.031
N13090 X22.013 Y-51.047
N13095 X22.517
N13100 X22.563 Y-51.038 Z-1.46
N13105 X22.604 Y-51.015 Z-1.42
N13110 X22.636 Y-50.981 Z-1.38
N13115 X22.689 Y-50.903 Z-1.3
N13120 X22.956 Y-50.508
N13125 X23.989 Y-48.987
N13130 X24.256 Y-48.593
N13135 X24.306 Y-48.52 Z-1.375
N13140 X24.325 Y-48.48 Z-1.413
N13145 X24.332 Y-48.436 Z-1.45
N13150 Y-48.435 Z-1.451
N13155 X24.329 Y-48.407 Z-1.476
N13160 X24.321 Y-48.379 Z-1.5
N13165 G2 X24.182 Y-48.045 I9.074 J3.976
N13170 G1 X24.168 Y-48.014
N13175 X24.15 Y-47.982
N13180 G3 X23.978 Y-47.799 I-0.532 J-0.328
N13185 G1 X23.926 Y-47.764
N13190 X23.863 Y-47.729
N13195 X23.795 Y-47.698
N13200 X23.717 Y-47.669
N13205 X23.629 Y-47.645
N13210 X23.535 Y-47.627
N13215 X23.429 Y-47.616
N13220 X23.316 Y-47.613
N13225 X23.197 Y-47.619
N13230 X23.067 Y-47.636
N13235 X22.93 Y-47.666
N13240 X22.795 Y-47.707
N13245 X22.664 Y-47.757
N13250 X22.537 Y-47.817
N13255 X22.414 Y-47.884
N13260 X22.296 Y-47.96
N13265 X22.182 Y-48.042
N13270 G3 X21.776 Y-48.429 I1.62 J-2.105
N13275 X21.121 Y-49.809 I2.274 J-1.925
N13280 G1 X21.099 Y-49.948
N13285 X21.085 Y-50.088
N13290 X21.079 Y-50.228
N13295 X21.082 Y-50.369
N13300 X21.093 Y-50.5
N13305 X21.114 Y-50.626
N13310 X21.139 Y-50.724
N13315 X21.17 Y-50.816
N13320 X21.178 Y-50.835
N13325 X21.231 Y-50.921
N13330 X21.307 Y-50.989
N13335 X21.399 Y-51.032
N13340 X21.5 Y-51.047
N13345 X22.013
N13350 X22.057 Y-51.038 Z-1.461
N13355 X22.097 Y-51.017 Z-1.423
N13360 X22.129 Y-50.985 Z-1.384
N13365 X22.187 Y-50.904 Z-1.3
N13370 X22.467 Y-50.519
N13375 X23.828 Y-48.642
N13380 X24.108 Y-48.256
N13385 X24.161 Y-48.182 Z-1.378
N13390 X24.183 Y-48.14 Z-1.418
N13395 X24.19 Y-48.092 Z-1.459
N13400 X24.182 Y-48.045 Z-1.5
N13405 X24.164 Y-48.
N13410 X24.151 Y-47.96
N13415 X24.136 Y-47.91
N13420 X24.085 Y-47.73
N13425 G3 X23.937 Y-47.484 I-0.547 J-0.16
N13430 G1 X23.894 Y-47.443
N13435 G3 X23.638 Y-47.286 I-0.612 J-0.71
N13440 G1 X23.551 Y-47.253
N13445 X23.453 Y-47.225
N13450 X23.349 Y-47.205
N13455 X23.232 Y-47.191
N13460 X23.104 Y-47.187
N13465 X22.97 Y-47.193
N13470 X22.83 Y-47.21
N13475 X22.693 Y-47.239
N13480 X22.558 Y-47.277
N13485 X22.425 Y-47.324
N13490 X22.296 Y-47.379
N13495 X22.17 Y-47.442
N13500 G3 X21.707 Y-47.757 I1.274 J-2.369
N13505 X21.065 Y-48.497 I2.051 J-2.426
N13510 X20.577 Y-49.804 I2.845 J-1.807
N13515 G1 X20.561 Y-49.943
N13520 X20.551 Y-50.084
N13525 X20.549 Y-50.224
N13530 X20.555 Y-50.364
N13535 X20.569 Y-50.503
N13540 X20.593 Y-50.632
N13545 X20.62 Y-50.733
N13550 X20.653 Y-50.826
N13555 X20.659 Y-50.84
N13560 X20.736 Y-50.949
N13565 X20.848 Y-51.021
N13570 X20.978 Y-51.047
N13575 X21.5
N13580 X21.542 Y-51.039 Z-1.463
N13585 X21.581 Y-51.019 Z-1.426
N13590 X21.613 Y-50.989 Z-1.389
N13595 X21.677 Y-50.907 Z-1.3
N13600 X21.97 Y-50.531
N13605 X23.703 Y-48.313
N13610 X23.996 Y-47.937
N13615 X24.057 Y-47.859 Z-1.384
N13620 X24.079 Y-47.819 Z-1.423
N13625 X24.089 Y-47.775 Z-1.461
N13630 X24.085 Y-47.73 Z-1.5
N13635 X24.072 Y-47.685
N13640 X24.06 Y-47.64
N13645 X24.048 Y-47.595
N13650 X24.039 Y-47.55
N13655 X24.031 Y-47.505
N13660 X24.008 Y-47.37
N13665 X24.007 Y-47.363
N13670 X24.006 Y-47.359
N13675 X24.002 Y-47.341
N13680 X23.991 Y-47.306
N13685 X23.975 Y-47.265
N13690 X23.955 Y-47.225
N13695 X23.928 Y-47.18
N13700 X23.926 Y-47.177
N13705 X23.848 Y-47.099
N13710 X23.75 Y-47.048
N13715 X23.641 Y-47.031
N13720 X23.595 Y-47.04 Z-1.46
N13725 X23.554 Y-47.062 Z-1.42
N13730 X23.522 Y-47.097 Z-1.38
N13735 X23.502 Y-47.139 Z-1.34
N13740 X23.497 Y-47.186 Z-1.3
N13745 X23.503 Y-47.224
N13750 X23.519 Y-47.26
N13755 X23.544 Y-47.29
N13760 X23.754 Y-47.488
N13765 X23.791 Y-47.514
N13770 X23.833 Y-47.527
N13775 X23.877 Y-47.528
N13780 X23.922 Y-47.514 Z-1.34
N13785 X23.961 Y-47.488 Z-1.38
N13790 X23.989 Y-47.45 Z-1.42
N13795 X24.005 Y-47.406 Z-1.46
N13800 X24.006 Y-47.359 Z-1.5
N13805 X23.992 Y-47.28
N13810 X23.986 Y-47.235
N13815 X23.979 Y-47.19
N13820 X23.972 Y-47.145
N13825 X23.971 Y-47.143
N13830 X23.964 Y-47.122
N13835 X23.952 Y-47.1
N13840 X23.941 Y-47.085
N13845 X23.926 Y-47.07
N13850 X23.907 Y-47.055
N13855 X23.894 Y-47.048
N13860 X23.881 Y-47.042
N13865 X23.859 Y-47.035
N13870 X23.836 Y-47.032
N13875 X23.791 Y-47.031
N13880 X22.351
N13885 X22.234 Y-47.037
N13890 X22.134 Y-47.05
N13895 X22.025 Y-47.073
N13900 X21.903 Y-47.11
N13905 X21.772 Y-47.161
N13910 X21.645 Y-47.222
N13915 X21.523 Y-47.291
N13920 X21.406 Y-47.369
N13925 G3 X20.983 Y-47.737 I1.599 J-2.26
N13930 X20.358 Y-48.665 I2.587 J-2.418
N13935 X20.039 Y-49.738 I3.317 J-1.569
N13940 G1 X20.024 Y-49.878
N13945 X20.015 Y-50.018
N13950 X20.012 Y-50.159
N13955 X20.017 Y-50.299
N13960 X20.03 Y-50.439
N13965 X20.049 Y-50.563
N13970 X20.08 Y-50.69
N13975 X20.112 Y-50.79
N13980 X20.13 Y-50.831
N13985 X20.182 Y-50.919
N13990 X20.258 Y-50.988
N13995 X20.351 Y-51.032
N14000 X20.452 Y-51.047
N14005 X20.978
N14010 X21.022 Y-51.038 Z-1.462
N14015 X21.061 Y-51.018 Z-1.425
N14020 X21.093 Y-50.987 Z-1.387
N14025 X21.114 Y-50.949 Z-1.349
N14030 X21.134 Y-50.894 Z-1.3
N14035 X21.299 Y-50.447
N14040 X22.338 Y-47.635
N14045 X22.487 Y-47.233
N14050 X22.496 Y-47.186
N14055 X22.49 Y-47.139 Z-1.34
N14060 X22.47 Y-47.097 Z-1.38
N14065 X22.438 Y-47.062 Z-1.42
N14070 X22.397 Y-47.04 Z-1.46
N14075 X22.351 Y-47.031 Z-1.5
N14080 X21.541
N14085 X21.434 Y-47.036
N14090 X21.36 Y-47.046
N14095 X21.275 Y-47.064
N14100 X21.18 Y-47.092
N14105 X21.078 Y-47.132
N14110 X20.965 Y-47.187
N14115 X20.844 Y-47.258
N14120 X20.729 Y-47.339
N14125 X20.62 Y-47.427
N14130 X20.516 Y-47.522
N14135 G3 X20.154 Y-47.95 I2.068 J-2.116
N14140 X19.659 Y-48.954 I3.132 J-2.169
N14145 X19.475 Y-49.918 I3.596 J-1.184
N14150 G1 X19.471 Y-50.058
N14155 X19.474 Y-50.198
N14160 X19.483 Y-50.339
N14165 X19.5 Y-50.478
N14170 X19.527 Y-50.616
N14175 X19.557 Y-50.724
N14180 X19.592 Y-50.821
N14185 X19.602 Y-50.843
N14190 X19.679 Y-50.95
N14195 X19.791 Y-51.022
N14200 X19.92 Y-51.047
N14205 X20.452
N14210 X20.498 Y-51.038 Z-1.46
N14215 X20.539 Y-51.015 Z-1.42
N14220 X20.571 Y-50.981 Z-1.38
N14225 X20.591 Y-50.939 Z-1.341
N14230 X20.605 Y-50.893 Z-1.3
N14235 X20.739 Y-50.436
N14240 X21.557 Y-47.644
N14245 X21.68 Y-47.223
N14250 X21.686 Y-47.186
N14255 X21.68 Y-47.139 Z-1.34
N14260 X21.66 Y-47.097 Z-1.38
N14265 X21.628 Y-47.062 Z-1.42
N14270 X21.587 Y-47.04 Z-1.46
N14275 X21.541 Y-47.031 Z-1.5
N14280 X20.821
N14285 X20.744 Y-47.035
N14290 X20.678 Y-47.043
N14295 X20.602 Y-47.06
N14300 X20.519 Y-47.084
N14305 X20.428 Y-47.12
N14310 X20.328 Y-47.169
N14315 X20.218 Y-47.233
N14320 X20.103 Y-47.314
N14325 X19.995 Y-47.403
N14330 X19.893 Y-47.5
N14335 X19.798 Y-47.603
N14340 G3 X19.471 Y-48.059 I2.267 J-1.972
N14345 X19.016 Y-49.233 I3.422 J-1.999
N14350 X18.927 Y-50.069 I3.623 J-0.81
N14355 G1 X18.932 Y-50.209
N14360 X18.943 Y-50.349
N14365 X18.963 Y-50.488
N14370 X18.989 Y-50.614
N14375 X19.026 Y-50.74
N14380 X19.061 Y-50.832
N14385 X19.068 Y-50.847
N14390 X19.145 Y-50.953
N14395 X19.256 Y-51.022
N14400 X19.384 Y-51.047
N14405 X19.92
N14410 X19.968 Y-51.037 Z-1.459
N14415 X20.01 Y-51.013 Z-1.417
N14420 X20.042 Y-50.977 Z-1.376
N14425 X20.061 Y-50.932 Z-1.335
N14430 X20.07 Y-50.892 Z-1.3
N14435 X20.183 Y-50.429
N14440 X20.857 Y-47.649
N14445 X20.962 Y-47.216
N14450 X20.966 Y-47.186
N14455 X20.96 Y-47.139 Z-1.34
N14460 X20.94 Y-47.097 Z-1.38
N14465 X20.908 Y-47.062 Z-1.42
N14470 X20.867 Y-47.04 Z-1.46
N14475 X20.821 Y-47.031 Z-1.5
N14480 X20.146
N14485 X20.101 Y-47.033
N14490 X20.039 Y-47.041
N14495 X19.968 Y-47.056
N14500 X19.891 Y-47.079
N14505 X19.806 Y-47.112
N14510 X19.713 Y-47.158
N14515 X19.613 Y-47.217
N14520 X19.505 Y-47.292
N14525 X19.397 Y-47.382
N14530 X19.296 Y-47.479
N14535 X19.202 Y-47.583
N14540 G3 X18.883 Y-48.045 I2.2 J-1.857
N14545 X18.697 Y-48.429 I3.146 J-1.765
N14550 G1 X18.683 Y-48.471
N14555 X18.675 Y-48.514
N14560 X18.672 Y-48.558
N14565 X18.681 Y-48.604 Z-1.46
N14570 X18.704 Y-48.645 Z-1.42
N14575 X18.738 Y-48.677 Z-1.38
N14580 X18.781 Y-48.697 Z-1.34
N14585 X18.827 Y-48.703 Z-1.3
N14590 X18.865 Y-48.696
N14595 X18.9 Y-48.681
N14600 X18.93 Y-48.657
N14605 X19.18 Y-48.397
N14610 X19.995 Y-47.549
N14615 X20.249 Y-47.285
N14620 X20.271 Y-47.255
N14625 X20.285 Y-47.222
N14630 X20.291 Y-47.186
N14635 X20.285 Y-47.139 Z-1.34
N14640 X20.265 Y-47.097 Z-1.38
N14645 X20.233 Y-47.062 Z-1.42
N14650 X20.192 Y-47.04 Z-1.46
N14655 X20.146 Y-47.031 Z-1.5
N14660 X19.561
N14665 G3 X19.282 Y-47.079 I0.004 J-0.854
N14670 G1 X19.201 Y-47.11
N14675 X19.112 Y-47.154
N14680 X19.017 Y-47.209
N14685 X18.916 Y-47.281
N14690 X18.808 Y-47.371
N14695 X18.778 Y-47.399
N14700 X18.721 Y-47.472
N14705 X18.685 Y-47.558
N14710 X18.672 Y-47.65
N14715 X18.681 Y-47.696 Z-1.46
N14720 X18.704 Y-47.737 Z-1.42
N14725 X18.738 Y-47.769 Z-1.38
N14730 X18.781 Y-47.789 Z-1.34
N14735 X18.827 Y-47.795 Z-1.3
N14740 X18.866 Y-47.788
N14745 X18.902 Y-47.772
N14750 X19.238 Y-47.559
N14755 X19.357 Y-47.484
N14760 X19.636 Y-47.307
N14765 X19.672 Y-47.275
N14770 X19.697 Y-47.233
N14775 X19.706 Y-47.186
N14780 X19.7 Y-47.139 Z-1.34
N14785 X19.68 Y-47.097 Z-1.38
N14790 X19.648 Y-47.062 Z-1.42
N14795 X19.607 Y-47.04 Z-1.46
N14800 X19.561 Y-47.031 Z-1.5
N14805 X18.931
N14810 X18.927
N14815 X18.923
N14820 X18.903 Y-47.032
N14825 X18.785 Y-47.077
N14830 X18.702 Y-47.172
N14835 X18.672 Y-47.295
N14840 X18.681 Y-47.353 Z-1.45
N14845 X18.704 Y-47.407 Z-1.4
N14850 X18.739 Y-47.454 Z-1.35
N14855 X18.784 Y-47.492 Z-1.3
N14860 X18.829 Y-47.515
N14865 X18.878 Y-47.528
N14870 X18.929 Y-47.53
N14875 X18.979 Y-47.522
N14880 X18.991 Y-47.519
N14885 G3 X19.122 Y-47.141 I-0.076 J0.238
N14890 G1 X19.084 Y-47.096 Z-1.35
N14895 X19.036 Y-47.062 Z-1.4
N14900 X18.982 Y-47.04 Z-1.45
N14905 X18.923 Y-47.031 Z-1.5
N14910 X18.841
N14915 X18.796 Y-47.034
N14920 X18.774 Y-47.04
N14925 X18.751 Y-47.049
N14930 X18.742 Y-47.055
N14935 X18.724 Y-47.068
N14940 X18.706 Y-47.086
N14945 X18.696 Y-47.1
N14950 X18.684 Y-47.123
N14955 X18.677 Y-47.145
N14960 X18.673 Y-47.168
N14965 X18.672 Y-47.19
N14970 Y-50.655
N14975 Y-50.7
N14980 Y-50.704
N14985 X18.674 Y-50.741
N14990 Y-50.742
N14995 X18.713 Y-50.861
N15000 X18.79 Y-50.96
N15005 X18.898 Y-51.024
N15010 X19.021 Y-51.047
N15015 X19.067 Y-51.038 Z-1.46
N15020 X19.108 Y-51.015 Z-1.42
N15025 X19.14 Y-50.981 Z-1.38
N15030 X19.16 Y-50.938 Z-1.34
N15035 X19.166 Y-50.891 Z-1.3
N15040 X19.16 Y-50.854
N15045 X19.144 Y-50.819
N15050 X19.12 Y-50.789
N15055 X18.926 Y-50.601
N15060 X18.897 Y-50.579
N15065 X18.863 Y-50.565
N15070 X18.827 Y-50.56
N15075 X18.781 Y-50.565 Z-1.34
N15080 X18.738 Y-50.585 Z-1.38
N15085 X18.704 Y-50.617 Z-1.42
N15090 X18.681 Y-50.658 Z-1.46
N15095 X18.672 Y-50.704 Z-1.5
N15100 Y-50.88
N15105 X18.673 Y-50.903
N15110 X18.678 Y-50.925
N15115 X18.686 Y-50.948
N15120 X18.699 Y-50.97
N15125 X18.706 Y-50.979
N15130 X18.726 Y-50.999
N15135 X18.746 Y-51.015
N15140 X18.751 Y-51.019
N15145 X18.774 Y-51.032
N15150 X18.796 Y-51.041
N15155 X18.819 Y-51.045
N15160 X18.841 Y-51.047
N15165 X19.384
N15170 X19.429 Y-51.038
N15175 X19.469 Y-51.016
N15180 X19.501 Y-50.983
N15185 X19.522 Y-50.942
N15190 X19.529 Y-50.897
N15195 G3 X19.243 Y-50.832 I-0.15 J0.
N15200 G1 X19.236 Y-50.861 Z-1.497
N15205 X19.229 Y-50.888 Z-1.489
N15210 Y-50.897 Z-1.485
N15215 X19.238 Y-50.929 Z-1.461
N15220 X19.245 Y-50.955 Z-1.429
N15225 X19.25 Y-50.971 Z-1.391
N15230 X19.251 Y-50.976 Z-1.35
N15235 Z5.
N15240 X26.904 Y-50.78
N15245 Z-1.35
N15250 Z-1.5
N15255 Z-2.
N15260 X26.897 Y-50.777
N15265 X26.893
N15270 X26.89 Y-50.779
N15275 X26.889 Y-50.783
N15280 X26.888 Y-50.79
N15285 X26.89 Y-50.797
N15290 X26.896 Y-50.802
N15295 X26.902 Y-50.806
N15300 X26.91 Y-50.807
N15305 X26.917 Y-50.805
N15310 X26.931 Y-50.799
N15315 X26.939 Y-50.787
N15320 X26.942 Y-50.772
N15325 X26.938 Y-50.758
N15330 X26.93 Y-50.745
N15335 X26.918 Y-50.736
N15340 X26.904 Y-50.732
N15345 X26.889 Y-50.731
N15350 X26.874 Y-50.734
N15355 X26.861 Y-50.741
N15360 X26.849 Y-50.751
N15365 X26.841 Y-50.764
N15370 X26.836 Y-50.778
N15375 X26.833 Y-50.792
N15380 X26.834 Y-50.807
N15385 X26.838 Y-50.822
N15390 X26.879 Y-50.854
N15395 X26.931 Y-50.842
N15400 X26.954 Y-50.795
N15405 Y-50.741
N15410 X26.953 Y-50.726
N15415 X26.948 Y-50.712
N15420 X26.94 Y-50.699
N15425 X26.93 Y-50.688
N15430 X26.918 Y-50.679
N15435 X26.905 Y-50.672
N15440 X26.891 Y-50.666
N15445 X26.876 Y-50.663
N15450 X26.861 Y-50.662
N15455 X26.846 Y-50.663
N15460 X26.832 Y-50.666
N15465 X26.817 Y-50.67
N15470 X26.804 Y-50.676
N15475 X26.791 Y-50.684
N15480 X26.778 Y-50.693
N15485 X26.767 Y-50.703
N15490 X26.757 Y-50.714
N15495 X26.748 Y-50.726
N15500 X26.741 Y-50.739
N15505 X26.735 Y-50.752
N15510 X26.73 Y-50.767
N15515 X26.727 Y-50.781
N15520 X26.725 Y-50.796
N15525 X26.724 Y-50.811
N15530 X26.725 Y-50.826
N15535 X26.766 Y-50.9
N15540 X26.846 Y-50.926
N15545 X26.923 Y-50.89
N15550 X26.954 Y-50.812
N15555 X26.94 Y-50.777 Z-1.992
N15560 X26.929 Y-50.747 Z-1.97
N15565 X26.921 Y-50.727 Z-1.938
N15570 X26.918 Y-50.72 Z-1.9
N15575 Z5.
N15580 X26.954 Y-50.741
N15585 Z-1.35
N15590 Z-1.5
N15595 Z-2. F12.
N15600 Y-50.677 F48.
N15605 X26.953 Y-50.662
N15610 X26.949 Y-50.648
N15615 X26.943 Y-50.634
N15620 X26.935 Y-50.621
N15625 X26.925 Y-50.61
N15630 X26.915 Y-50.599
N15635 X26.903 Y-50.59
N15640 X26.89 Y-50.582
N15645 X26.877 Y-50.575
N15650 X26.863 Y-50.569
N15655 G3 X26.613 Y-50.643 I-0.071 J-0.22
N15660 G1 X26.6 Y-50.657
N15665 X26.589 Y-50.674
N15670 X26.587 Y-50.677
N15675 X26.555 Y-50.801
N15680 X26.59 Y-50.925
N15685 X26.682 Y-51.014
N15690 X26.806 Y-51.046
N15695 X26.829 Y-51.042
N15700 X26.851 Y-51.034
N15705 X26.867 Y-51.026
N15710 X26.883 Y-51.015
N15715 X26.896 Y-51.004
N15720 X26.913 Y-50.987
N15725 X26.927 Y-50.97
N15730 X26.935 Y-50.957
N15735 X26.941 Y-50.944
N15740 X26.948 Y-50.925
N15745 X26.953 Y-50.903
N15750 X26.954 Y-50.88
N15755 Y-50.812
N15760 Z5.
N15765 X26.791 Y-51.034
N15770 Z0.15
N15775 Z-2.
N15780 G3 X26.954 Y-50.677 I-0.349 J0.375
N15785 G1 Y-50.585
N15790 X26.953 Y-50.57
N15795 X26.95 Y-50.556
N15800 X26.945 Y-50.541
N15805 X26.939 Y-50.528
N15810 X26.932 Y-50.514
N15815 X26.924 Y-50.501
N15820 X26.914 Y-50.488
N15825 X26.902 Y-50.475
N15830 G3 X26.637 Y-50.401 I-0.204 J-0.217
N15835 G1 X26.612 Y-50.405
N15840 X26.587 Y-50.413
N15845 X26.478 Y-50.482
N15850 X26.405 Y-50.589
N15855 X26.378 Y-50.715
N15860 X26.402 Y-50.841
N15865 X26.473 Y-50.949
N15870 X26.58 Y-51.021
N15875 X26.706 Y-51.047
N15880 X26.761
N15885 X26.806 Y-51.046
N15890 X26.85 Y-51.029
N15895 X26.887 Y-50.999
N15900 X26.913 Y-50.959
N15905 X26.924 Y-50.912
N15910 X26.954 Y-50.585
N15915 Y-50.565
N15920 X26.951 Y-50.543
N15925 X26.946 Y-50.52
N15930 X26.941 Y-50.508
N15935 X26.933 Y-50.492
N15940 X26.921 Y-50.475
N15945 X26.896 Y-50.447
N15950 X26.886 Y-50.438
N15955 X26.875 Y-50.43
N15960 X26.863 Y-50.423
N15965 X26.851 Y-50.417
N15970 X26.806 Y-50.403
N15975 X26.568 Y-50.334
N15980 X26.506 Y-50.326
N15985 X26.443 Y-50.331
N15990 X26.383 Y-50.349
N15995 X26.328 Y-50.378
N16000 X26.301 Y-50.395
N16005 X26.277 Y-50.413
N16010 X26.255 Y-50.433
N16015 X26.232 Y-50.458
N16020 X26.206 Y-50.49
N16025 X26.184 Y-50.523
N16030 X26.183 Y-50.526
N16035 X26.143 Y-50.64
N16040 X26.144 Y-50.761
N16045 X26.186 Y-50.874
N16050 X26.265 Y-50.966
N16055 X26.369 Y-51.026
N16060 X26.488 Y-51.047
N16065 X26.706
N16070 X26.752 Y-51.038 Z-1.96
N16075 X26.793 Y-51.015 Z-1.92
N16080 X26.825 Y-50.981 Z-1.88
N16085 X26.845 Y-50.938 Z-1.84
N16090 X26.851 Y-50.891 Z-1.8
N16095 X26.847 Y-50.864
N16100 X26.839 Y-50.837
N16105 X26.701 Y-50.517
N16110 X26.658 Y-50.417 Z-1.892
N16115 X26.636 Y-50.381 Z-1.928
N16120 X26.605 Y-50.352 Z-1.964
N16125 X26.568 Y-50.334 Z-2.
N16130 X26.491 Y-50.311
N16135 X26.446 Y-50.295
N16140 X26.401 Y-50.277
N16145 X26.388 Y-50.272
N16150 X26.367 Y-50.265
N16155 X26.347 Y-50.26
N16160 X26.325 Y-50.256
N16165 X26.302 Y-50.254
N16170 G3 X26.018 Y-50.367 I-0.009 J-0.388
N16175 X25.871 Y-50.621 I0.337 J-0.365
N16180 G1 X25.866 Y-50.745
N16185 X25.906 Y-50.864
N16190 X25.983 Y-50.961
N16195 X26.09 Y-51.024
N16200 X26.213 Y-51.047
N16205 X26.488
N16210 X26.534 Y-51.038 Z-1.96
N16215 X26.575 Y-51.015 Z-1.92
N16220 X26.607 Y-50.981 Z-1.88
N16225 X26.627 Y-50.938 Z-1.84
N16230 X26.633 Y-50.891 Z-1.8
N16235 X26.626 Y-50.851
N16240 X26.503 Y-50.467
N16245 X26.469 Y-50.363 Z-1.893
N16250 X26.451 Y-50.325 Z-1.929
N16255 X26.423 Y-50.294 Z-1.964
N16260 X26.388 Y-50.272 Z-2.
N16265 X26.356 Y-50.259
N16270 X26.176 Y-50.185
N16275 G3 X25.923 Y-50.186 I-0.125 J-0.334
N16280 G1 X25.846 Y-50.219
N16285 X25.776 Y-50.265
N16290 X25.715 Y-50.321
N16295 G3 X25.558 Y-50.669 I0.421 J-0.398
N16300 G1 X25.569 Y-50.784
N16305 X25.615 Y-50.889
N16310 X25.693 Y-50.973
N16315 X25.794 Y-51.028
N16320 X25.908 Y-51.047
N16325 X26.213
N16330 X26.259 Y-51.038 Z-1.96
N16335 X26.3 Y-51.015 Z-1.92
N16340 X26.332 Y-50.981 Z-1.88
N16345 X26.352 Y-50.938 Z-1.84
N16350 X26.358 Y-50.891 Z-1.8
N16355 X26.356 Y-50.872
N16360 X26.353 Y-50.855
N16365 X26.275 Y-50.385
N16370 X26.26 Y-50.296 Z-1.877
N16375 X26.245 Y-50.25 Z-1.918
N16380 X26.216 Y-50.212 Z-1.959
N16385 X26.176 Y-50.185 Z-2.
N16390 X26.086 Y-50.146
N16395 X26.041 Y-50.124
N16400 X25.971 Y-50.085
N16405 X25.951 Y-50.076
N16410 X25.891 Y-50.057
N16415 X25.828 Y-50.048
N16420 X25.765 Y-50.049
N16425 X25.703 Y-50.061
N16430 G3 X25.415 Y-50.227 I0.139 J-0.574
N16435 X25.221 Y-50.719 I0.481 J-0.472
N16440 G1 X25.254 Y-50.846
N16445 X25.332 Y-50.952
N16450 X25.442 Y-51.022
N16455 X25.571 Y-51.047
N16460 X25.908
N16465 X25.953 Y-51.038 Z-1.961
N16470 X25.994 Y-51.016 Z-1.921
N16475 X26.025 Y-50.982 Z-1.882
N16480 X26.046 Y-50.941 Z-1.842
N16485 X26.052 Y-50.895 Z-1.803
N16490 Y-50.891 Z-1.8
N16495 X26.051 Y-50.771
N16500 X26.045 Y-50.295
N16505 Y-50.212 Z-1.87
N16510 X26.039 Y-50.175 Z-1.902
N16515 X26.025 Y-50.139 Z-1.935
N16520 X26.001 Y-50.109 Z-1.967
N16525 X25.971 Y-50.085 Z-2.
N16530 X25.771 Y-49.975
N16535 X25.746 Y-49.96
N16540 G3 X25.479 Y-49.912 I-0.203 J-0.364
N16545 X25.196 Y-50.023 I0.077 J-0.618
N16550 X24.855 Y-50.662 I0.447 J-0.65
N16555 G1 X24.857 Y-50.727
N16560 X24.858 Y-50.737
N16565 X24.896 Y-50.858
N16570 X24.973 Y-50.958
N16575 X25.082 Y-51.024
N16580 X25.206 Y-51.047
N16585 X25.571
N16590 X25.612 Y-51.039 Z-1.964
N16595 X25.65 Y-51.02 Z-1.928
N16600 X25.681 Y-50.992 Z-1.892
N16605 X25.703 Y-50.956 Z-1.856
N16610 X25.714 Y-50.915 Z-1.82
N16615 X25.717 Y-50.892 Z-1.8
N16620 X25.748 Y-50.644
N16625 X25.806 Y-50.171
N16630 X25.815 Y-50.105 Z-1.857
N16635 X25.814 Y-50.063 Z-1.892
N16640 X25.801 Y-50.023 Z-1.928
N16645 X25.778 Y-49.987 Z-1.964
N16650 X25.746 Y-49.96 Z-2.
N16655 X25.704 Y-49.935
N16660 X25.681 Y-49.921
N16665 X25.636 Y-49.889
N16670 X25.527 Y-49.811
N16675 X25.473 Y-49.78
N16680 X25.415 Y-49.757
N16685 X25.354 Y-49.742
N16690 X25.292 Y-49.736
N16695 G3 X24.978 Y-49.803 I-0.024 J-0.66
N16700 X24.701 Y-50.011 I0.365 J-0.775
N16705 X24.485 Y-50.412 I0.71 J-0.64
N16710 X24.469 Y-50.763 I0.816 J-0.213
N16715 G1 X24.512 Y-50.875
N16720 X24.59 Y-50.967
N16725 X24.695 Y-51.026
N16730 X24.813 Y-51.047
N16735 X25.206
N16740 X25.254 Y-51.037 Z-1.959
N16745 X25.296 Y-51.013 Z-1.917
N16750 X25.328 Y-50.977 Z-1.876
N16755 X25.347 Y-50.932 Z-1.835
N16760 X25.356 Y-50.892 Z-1.8
N16765 X25.454 Y-50.489
N16770 X25.567 Y-50.026
N16775 X25.582 Y-49.966 Z-1.853
N16780 X25.586 Y-49.923 Z-1.889
N16785 X25.577 Y-49.88 Z-1.926
N16790 X25.557 Y-49.842 Z-1.963
N16795 X25.527 Y-49.811 Z-2.
N16800 X25.411 Y-49.729
N16805 X25.385 Y-49.71
N16810 X25.366 Y-49.696
N16815 X25.331 Y-49.665
N16820 X25.298 Y-49.637
N16825 X25.229 Y-49.59
N16830 X25.152 Y-49.557
N16835 X25.07 Y-49.54
N16840 G3 X24.794 Y-49.557 I-0.097 J-0.668
N16845 X24.531 Y-49.674 I0.226 J-0.861
N16850 G1 X24.465 Y-49.721
N16855 G3 X24.226 Y-49.977 I0.671 J-0.866
N16860 X24.07 Y-50.311 I0.963 J-0.651
N16865 G1 X24.052 Y-50.388
N16870 X24.038 Y-50.477
N16875 G3 X24.055 Y-50.783 I0.901 J-0.105
N16880 G1 X24.101 Y-50.888
N16885 X24.179 Y-50.973
N16890 X24.28 Y-51.028
N16895 X24.394 Y-51.047
N16900 X24.813
N16905 X24.857 Y-51.038 Z-1.961
N16910 X24.897 Y-51.017 Z-1.923
N16915 X24.929 Y-50.985 Z-1.884
N16920 X24.95 Y-50.944 Z-1.846
N16925 X24.967 Y-50.893 Z-1.8
N16930 X25.119 Y-50.442
N16935 X25.165 Y-50.306
N16940 X25.317 Y-49.855
N16945 X25.338 Y-49.794 Z-1.855
N16950 X25.345 Y-49.752 Z-1.891
N16955 X25.341 Y-49.709 Z-1.927
N16960 X25.325 Y-49.67 Z-1.964
N16965 X25.298 Y-49.637 Z-2.
N16970 G2 X25.064 Y-49.426 I8.065 J9.219
N16975 G1 X25.038 Y-49.404
N16980 X25.011 Y-49.384
N16985 G3 X24.759 Y-49.301 I-0.296 J-0.469
N16990 X24.504 Y-49.318 I-0.076 J-0.777
N16995 G1 X24.431 Y-49.337
N17000 X24.356 Y-49.364
N17005 X24.28 Y-49.398
N17010 X24.202 Y-49.441
N17015 X24.123 Y-49.493
N17020 X24.047 Y-49.552
N17025 X23.973 Y-49.62
N17030 X23.902 Y-49.697
N17035 X23.837 Y-49.781
N17040 X23.776 Y-49.872
N17045 X23.723 Y-49.968
N17050 X23.677 Y-50.068
N17055 X23.64 Y-50.172
N17060 X23.611 Y-50.278
N17065 X23.594 Y-50.371
N17070 X23.584 Y-50.465
N17075 X23.582 Y-50.558
N17080 X23.587 Y-50.636
N17085 X23.597 Y-50.711
N17090 X23.615 Y-50.792
N17095 X23.617 Y-50.799
N17100 X23.666 Y-50.899
N17105 X23.744 Y-50.978
N17110 X23.842 Y-51.029
N17115 X23.952 Y-51.047
N17120 X24.394
N17125 X24.436 Y-51.039 Z-1.964
N17130 X24.474 Y-51.02 Z-1.927
N17135 X24.505 Y-50.991 Z-1.891
N17140 X24.527 Y-50.954 Z-1.855
N17145 X24.552 Y-50.895 Z-1.8
N17150 X24.735 Y-50.455
N17155 X24.89 Y-50.083
N17160 X25.073 Y-49.644
N17165 X25.096 Y-49.589 Z-1.85
N17170 X25.107 Y-49.547 Z-1.887
N17175 X25.105 Y-49.503 Z-1.925
N17180 X25.09 Y-49.461 Z-1.962
N17185 X25.064 Y-49.426 Z-2.
N17190 X25.051 Y-49.414
N17195 X25.006 Y-49.366
N17200 X24.871 Y-49.215
N17205 X24.849 Y-49.19
N17210 X24.833 Y-49.173
N17215 G3 X24.607 Y-49.052 I-0.358 J-0.397
N17220 X24.356 Y-49.026 I-0.206 J-0.747
N17225 G1 X24.28 Y-49.032
N17230 X24.2 Y-49.046
N17235 X24.118 Y-49.067
N17240 X24.031 Y-49.097
N17245 X23.941 Y-49.136
N17250 X23.852 Y-49.184
N17255 X23.762 Y-49.241
N17260 X23.673 Y-49.31
N17265 X23.584 Y-49.389
N17270 X23.499 Y-49.479
N17275 X23.42 Y-49.577
N17280 X23.348 Y-49.683
N17285 X23.284 Y-49.795
N17290 X23.229 Y-49.913
N17295 X23.184 Y-50.034
N17300 X23.15 Y-50.156
N17305 X23.125 Y-50.278
N17310 X23.113 Y-50.386
N17315 X23.109 Y-50.488
N17320 X23.114 Y-50.588
N17325 X23.124 Y-50.671
N17330 X23.141 Y-50.752
N17335 X23.154 Y-50.795
N17340 X23.202 Y-50.896
N17345 X23.28 Y-50.977
N17350 X23.379 Y-51.029
N17355 X23.49 Y-51.047
N17360 X23.952
N17365 X23.991 Y-51.04 Z-1.966
N17370 X24.028 Y-51.022 Z-1.931
N17375 X24.059 Y-50.996 Z-1.897
N17380 X24.081 Y-50.962 Z-1.862
N17385 X24.113 Y-50.897 Z-1.8
N17390 X24.323 Y-50.469
N17395 X24.632 Y-49.837
N17400 X24.841 Y-49.409
N17405 X24.869 Y-49.352 Z-1.854
N17410 X24.882 Y-49.311 Z-1.891
N17415 X24.883 Y-49.268 Z-1.927
N17420 X24.872 Y-49.227 Z-1.964
N17425 X24.849 Y-49.19 Z-2.
N17430 X24.826 Y-49.164
N17435 X24.781 Y-49.113
N17440 X24.756 Y-49.08
N17445 X24.736 Y-49.053
N17450 X24.659 Y-48.945
N17455 X24.642 Y-48.923
N17460 G3 X24.427 Y-48.776 I-0.404 J-0.36
N17465 X24.173 Y-48.721 I-0.294 J-0.739
N17470 G1 X24.094 Y-48.719
N17475 X24.012 Y-48.724
N17480 X23.921 Y-48.737
N17485 X23.827 Y-48.758
N17490 X23.731 Y-48.788
N17495 X23.628 Y-48.829
N17500 X23.523 Y-48.882
N17505 X23.419 Y-48.944
N17510 X23.315 Y-49.019
N17515 X23.212 Y-49.106
N17520 X23.113 Y-49.205
N17525 X23.021 Y-49.312
N17530 X22.938 Y-49.426
N17535 X22.864 Y-49.545
N17540 X22.799 Y-49.669
N17545 X22.743 Y-49.798
N17550 X22.697 Y-49.931
N17555 X22.661 Y-50.067
N17560 X22.636 Y-50.205
N17565 X22.622 Y-50.336
N17570 X22.619 Y-50.448
N17575 X22.626 Y-50.563
N17580 X22.638 Y-50.654
N17585 X22.657 Y-50.74
N17590 X22.676 Y-50.799
N17595 X22.724 Y-50.899
N17600 X22.802 Y-50.978
N17605 X22.901 Y-51.029
N17610 X23.01 Y-51.047
N17615 X23.49
N17620 X23.527 Y-51.04 Z-1.967
N17625 X23.562 Y-51.025 Z-1.935
N17630 X23.592 Y-51.001 Z-1.902
N17635 X23.615 Y-50.97 Z-1.87
N17640 X23.655 Y-50.899 Z-1.8
N17645 X23.889 Y-50.483
N17650 X24.397 Y-49.579
N17655 X24.63 Y-49.163
N17660 X24.665 Y-49.101 Z-1.861
N17665 X24.679 Y-49.066 Z-1.893
N17670 X24.684 Y-49.028 Z-1.925
N17675 Z-1.926
N17680 X24.678 Y-48.985 Z-1.963
N17685 X24.659 Y-48.945 Z-2.
N17690 X24.556 Y-48.8
N17695 X24.533 Y-48.765
N17700 X24.507 Y-48.72
N17705 X24.481 Y-48.675
N17710 X24.466 Y-48.651
N17715 G3 X24.269 Y-48.481 I-0.442 J-0.312
N17720 X24.018 Y-48.396 I-0.38 J-0.712
N17725 G1 X23.94 Y-48.385
N17730 X23.854 Y-48.381
N17735 X23.759 Y-48.384
N17740 X23.662 Y-48.394
N17745 X23.556 Y-48.414
N17750 X23.444 Y-48.446
N17755 X23.331 Y-48.487
N17760 X23.214 Y-48.541
N17765 X23.092 Y-48.609
N17770 X22.976 Y-48.687
N17775 X22.865 Y-48.774
N17780 X22.761 Y-48.868
N17785 X22.665 Y-48.97
N17790 X22.575 Y-49.078
N17795 X22.493 Y-49.192
N17800 X22.418 Y-49.311
N17805 X22.351 Y-49.434
N17810 X22.291 Y-49.562
N17815 X22.24 Y-49.692
N17820 X22.197 Y-49.826
N17825 X22.162 Y-49.962
N17830 X22.137 Y-50.1
N17835 X22.121 Y-50.24
N17840 X22.116 Y-50.378
N17845 X22.121 Y-50.502
N17850 X22.135 Y-50.613
N17855 X22.153 Y-50.702
N17860 X22.18 Y-50.796
N17865 X22.19 Y-50.821
N17870 X22.241 Y-50.912
N17875 X22.318 Y-50.985
N17880 X22.413 Y-51.031
N17885 X22.517 Y-51.047
N17890 X23.01
N17895 X23.058 Y-51.037 Z-1.958
N17900 X23.1 Y-51.013 Z-1.917
N17905 X23.132 Y-50.976 Z-1.875
N17910 X23.179 Y-50.901 Z-1.8
N17915 X23.431 Y-50.496
N17920 X24.179 Y-49.296
N17925 X24.431 Y-48.891
N17930 X24.475 Y-48.822 Z-1.869
N17935 X24.491 Y-48.787 Z-1.902
N17940 X24.497 Y-48.75 Z-1.935
N17945 X24.494 Y-48.711 Z-1.967
N17950 X24.481 Y-48.675 Z-2.
N17955 G2 X24.331 Y-48.403 I21.444 J11.973
N17960 G1 X24.321 Y-48.379
N17965 X24.305 Y-48.349
N17970 G3 X24.119 Y-48.157 I-0.481 J-0.282
N17975 G1 X24.068 Y-48.127
N17980 X24.008 Y-48.097
N17985 X23.944 Y-48.071
N17990 X23.869 Y-48.048
N17995 X23.787 Y-48.03
N18000 X23.7 Y-48.018
N18005 X23.6 Y-48.012
N18010 X23.498 Y-48.014
N18015 X23.386 Y-48.026
N18020 X23.264 Y-48.048
N18025 X23.139 Y-48.082
N18030 X23.011 Y-48.128
N18035 X22.883 Y-48.185
N18040 X22.76 Y-48.253
N18045 X22.641 Y-48.329
N18050 X22.529 Y-48.412
N18055 X22.422 Y-48.503
N18060 X22.32 Y-48.601
N18065 X22.225 Y-48.704
N18070 G3 X21.787 Y-49.419 I1.943 J-1.682
N18075 G1 X21.737 Y-49.551
N18080 X21.695 Y-49.685
N18085 X21.66 Y-49.821
N18090 X21.633 Y-49.958
N18095 X21.614 Y-50.098
N18100 X21.604 Y-50.238
N18105 X21.603 Y-50.378
N18110 X21.611 Y-50.501
N18115 X21.629 Y-50.623
N18120 X21.651 Y-50.716
N18125 X21.68 Y-50.808
N18130 X21.689 Y-50.829
N18135 X21.741 Y-50.918
N18140 X21.818 Y-50.987
N18145 X21.911 Y-51.031
N18150 X22.013 Y-51.047
N18155 X22.517
N18160 X22.563 Y-51.038 Z-1.96
N18165 X22.604 Y-51.015 Z-1.92
N18170 X22.636 Y-50.981 Z-1.88
N18175 X22.689 Y-50.903 Z-1.8
N18180 X22.956 Y-50.508
N18185 X23.989 Y-48.987
N18190 X24.256 Y-48.593
N18195 X24.306 Y-48.52 Z-1.875
N18200 X24.325 Y-48.48 Z-1.913
N18205 X24.332 Y-48.436 Z-1.95
N18210 Y-48.435 Z-1.951
N18215 X24.329 Y-48.407 Z-1.976
N18220 X24.321 Y-48.379 Z-2.
N18225 G2 X24.182 Y-48.045 I9.074 J3.976
N18230 G1 X24.168 Y-48.014
N18235 X24.15 Y-47.982
N18240 G3 X23.978 Y-47.799 I-0.532 J-0.328
N18245 G1 X23.926 Y-47.764
N18250 X23.863 Y-47.729
N18255 X23.795 Y-47.698
N18260 X23.717 Y-47.669
N18265 X23.629 Y-47.645
N18270 X23.535 Y-47.627
N18275 X23.429 Y-47.616
N18280 X23.316 Y-47.613
N18285 X23.197 Y-47.619
N18290 X23.067 Y-47.636
N18295 X22.93 Y-47.666
N18300 X22.795 Y-47.707
N18305 X22.664 Y-47.757
N18310 X22.537 Y-47.817
N18315 X22.414 Y-47.884
N18320 X22.296 Y-47.96
N18325 X22.182 Y-48.042
N18330 G3 X21.776 Y-48.429 I1.62 J-2.105
N18335 X21.121 Y-49.809 I2.274 J-1.925
N18340 G1 X21.099 Y-49.948
N18345 X21.085 Y-50.088
N18350 X21.079 Y-50.228
N18355 X21.082 Y-50.369
N18360 X21.093 Y-50.5
N18365 X21.114 Y-50.626
N18370 X21.139 Y-50.724
N18375 X21.17 Y-50.816
N18380 X21.178 Y-50.835
N18385 X21.231 Y-50.921
N18390 X21.307 Y-50.989
N18395 X21.399 Y-51.032
N18400 X21.5 Y-51.047
N18405 X22.013
N18410 X22.057 Y-51.038 Z-1.961
N18415 X22.097 Y-51.017 Z-1.923
N18420 X22.129 Y-50.985 Z-1.884
N18425 X22.187 Y-50.904 Z-1.8
N18430 X22.467 Y-50.519
N18435 X23.828 Y-48.642
N18440 X24.108 Y-48.256
N18445 X24.161 Y-48.182 Z-1.878
N18450 X24.183 Y-48.14 Z-1.918
N18455 X24.19 Y-48.092 Z-1.959
N18460 X24.182 Y-48.045 Z-2.
N18465 X24.164 Y-48.
N18470 X24.151 Y-47.96
N18475 X24.136 Y-47.91
N18480 X24.085 Y-47.73
N18485 G3 X23.937 Y-47.484 I-0.547 J-0.16
N18490 G1 X23.894 Y-47.443
N18495 G3 X23.638 Y-47.286 I-0.612 J-0.71
N18500 G1 X23.551 Y-47.253
N18505 X23.453 Y-47.225
N18510 X23.349 Y-47.205
N18515 X23.232 Y-47.191
N18520 X23.104 Y-47.187
N18525 X22.97 Y-47.193
N18530 X22.83 Y-47.21
N18535 X22.693 Y-47.239
N18540 X22.558 Y-47.277
N18545 X22.425 Y-47.324
N18550 X22.296 Y-47.379
N18555 X22.17 Y-47.442
N18560 G3 X21.707 Y-47.757 I1.274 J-2.369
N18565 X21.065 Y-48.497 I2.051 J-2.426
N18570 X20.577 Y-49.804 I2.845 J-1.807
N18575 G1 X20.561 Y-49.943
N18580 X20.551 Y-50.084
N18585 X20.549 Y-50.224
N18590 X20.555 Y-50.364
N18595 X20.569 Y-50.503
N18600 X20.593 Y-50.632
N18605 X20.62 Y-50.733
N18610 X20.653 Y-50.826
N18615 X20.659 Y-50.84
N18620 X20.736 Y-50.949
N18625 X20.848 Y-51.021
N18630 X20.978 Y-51.047
N18635 X21.5
N18640 X21.542 Y-51.039 Z-1.963
N18645 X21.581 Y-51.019 Z-1.926
N18650 X21.613 Y-50.989 Z-1.889
N18655 X21.677 Y-50.907 Z-1.8
N18660 X21.97 Y-50.531
N18665 X23.703 Y-48.313
N18670 X23.996 Y-47.937
N18675 X24.057 Y-47.859 Z-1.884
N18680 X24.079 Y-47.819 Z-1.923
N18685 X24.089 Y-47.775 Z-1.961
N18690 X24.085 Y-47.73 Z-2.
N18695 X24.072 Y-47.685
N18700 X24.06 Y-47.64
N18705 X24.048 Y-47.595
N18710 X24.039 Y-47.55
N18715 X24.031 Y-47.505
N18720 X24.008 Y-47.37
N18725 X24.007 Y-47.363
N18730 X24.006 Y-47.359
N18735 X24.002 Y-47.341
N18740 X23.991 Y-47.306
N18745 X23.975 Y-47.265
N18750 X23.955 Y-47.225
N18755 X23.928 Y-47.18
N18760 X23.926 Y-47.177
N18765 X23.848 Y-47.099
N18770 X23.75 Y-47.048
N18775 X23.641 Y-47.031
N18780 X23.595 Y-47.04 Z-1.96
N18785 X23.554 Y-47.062 Z-1.92
N18790 X23.522 Y-47.097 Z-1.88
N18795 X23.502 Y-47.139 Z-1.84
N18800 X23.497 Y-47.186 Z-1.8
N18805 X23.503 Y-47.224
N18810 X23.519 Y-47.26
N18815 X23.544 Y-47.29
N18820 X23.754 Y-47.488
N18825 X23.791 Y-47.514
N18830 X23.833 Y-47.527
N18835 X23.877 Y-47.528
N18840 X23.922 Y-47.514 Z-1.84
N18845 X23.961 Y-47.488 Z-1.88
N18850 X23.989 Y-47.45 Z-1.92
N18855 X24.005 Y-47.406 Z-1.96
N18860 X24.006 Y-47.359 Z-2.
N18865 X23.992 Y-47.28
N18870 X23.986 Y-47.235
N18875 X23.979 Y-47.19
N18880 X23.972 Y-47.145
N18885 X23.971 Y-47.143
N18890 X23.964 Y-47.122
N18895 X23.952 Y-47.1
N18900 X23.941 Y-47.085
N18905 X23.926 Y-47.07
N18910 X23.907 Y-47.055
N18915 X23.894 Y-47.048
N18920 X23.881 Y-47.042
