(G-CODE GENERATED BY FLATCAM v8.994 - www.flatcam.org - Version Date: 2020/11/7)

(Name: ch552_usbc-PTH.drl_edit_mill_slot_cnc)
(Type: G-code from Geometry)
(Units: MM)

(Created on Saturday, 16 March 2024 at 23:10)

(This preprocessor is the default preprocessor used by FlatCAM.)
(It is made to work with MACH3 compatible motion controllers.)

(TOOL DIAMETER: 0.6 mm)
(Feedrate_XY: 60.0 mm/min)
(Feedrate_Z: 40.0 mm/min)
(Feedrate rapids 1500.0 mm/min)

(Z_Cut: -1.65 mm)
(DepthPerCut: 0.4 mm <=>5 passes)
(Z_Move: 2.0 mm)
(Z Start: None mm)
(Z End: 45.0 mm)
(X,Y End: None mm)
(Steps per circle: 64)
(Preprocessor Geometry: default)

(X range:   29.6267 ...   34.6405  mm)
(Y range:  -16.3897 ...   -7.7403  mm)

(Spindle Speed: 12000.0 RPM)
G21
G90
G94

G01 F60.00

M5
G00 Z15.0000
G00 X0.0000 Y0.0000
T1
M6    
(MSG, Change to Tool Dia = 0.6000)
M0
G00 Z15.0000

M03 S12000.0
G01 F60.00
G00 X30.7109 Y-7.7403
G01 F40.00
G01 Z-0.4000
G01 F60.00
G01 X30.7109 Y-7.7405
G01 X29.6267 Y-7.7485
G01 X29.6268 Y-7.7484
G01 X30.7109 Y-7.7403
G00 X30.7109 Y-7.7403
G01 F40.00
G01 Z-0.8000
G01 F60.00
G01 X30.7109 Y-7.7405
G01 X29.6267 Y-7.7485
G01 X29.6268 Y-7.7484
G01 X30.7109 Y-7.7403
G00 X30.7109 Y-7.7403
G01 F40.00
G01 Z-1.2000
G01 F60.00
G01 X30.7109 Y-7.7405
G01 X29.6267 Y-7.7485
G01 X29.6268 Y-7.7484
G01 X30.7109 Y-7.7403
G00 X30.7109 Y-7.7403
G01 F40.00
G01 Z-1.6000
G01 F60.00
G01 X30.7109 Y-7.7405
G01 X29.6267 Y-7.7485
G01 X29.6268 Y-7.7484
G01 X30.7109 Y-7.7403
G00 X30.7109 Y-7.7403
G01 F40.00
G01 Z-1.6500
G01 F60.00
G01 X30.7109 Y-7.7405
G01 X29.6267 Y-7.7485
G01 X29.6268 Y-7.7484
G01 X30.7109 Y-7.7403
G00 Z2.0000
G00 X34.6404 Y-7.7466
G01 F40.00
G01 Z-0.4000
G01 F60.00
G01 X34.6404 Y-7.7468
G01 X34.0564 Y-7.7422
G01 X34.0565 Y-7.7421
G01 X34.6404 Y-7.7466
G00 X34.6404 Y-7.7466
G01 F40.00
G01 Z-0.8000
G01 F60.00
G01 X34.6404 Y-7.7468
G01 X34.0564 Y-7.7422
G01 X34.0565 Y-7.7421
G01 X34.6404 Y-7.7466
G00 X34.6404 Y-7.7466
G01 F40.00
G01 Z-1.2000
G01 F60.00
G01 X34.6404 Y-7.7468
G01 X34.0564 Y-7.7422
G01 X34.0565 Y-7.7421
G01 X34.6404 Y-7.7466
G00 X34.6404 Y-7.7466
G01 F40.00
G01 Z-1.6000
G01 F60.00
G01 X34.6404 Y-7.7468
G01 X34.0564 Y-7.7422
G01 X34.0565 Y-7.7421
G01 X34.6404 Y-7.7466
G00 X34.6404 Y-7.7466
G01 F40.00
G01 Z-1.6500
G01 F60.00
G01 X34.6404 Y-7.7468
G01 X34.0564 Y-7.7422
G01 X34.0565 Y-7.7421
G01 X34.6404 Y-7.7466
G00 Z2.0000
G00 X34.6404 Y-16.3877
G01 F40.00
G01 Z-0.4000
G01 F60.00
G01 X34.6404 Y-16.3879
G01 X34.0564 Y-16.3833
G01 X34.0565 Y-16.3832
G01 X34.6404 Y-16.3877
G00 X34.6404 Y-16.3877
G01 F40.00
G01 Z-0.8000
G01 F60.00
G01 X34.6404 Y-16.3879
G01 X34.0564 Y-16.3833
G01 X34.0565 Y-16.3832
G01 X34.6404 Y-16.3877
G00 X34.6404 Y-16.3877
G01 F40.00
G01 Z-1.2000
G01 F60.00
G01 X34.6404 Y-16.3879
G01 X34.0564 Y-16.3833
G01 X34.0565 Y-16.3832
G01 X34.6404 Y-16.3877
G00 X34.6404 Y-16.3877
G01 F40.00
G01 Z-1.6000
G01 F60.00
G01 X34.6404 Y-16.3879
G01 X34.0564 Y-16.3833
G01 X34.0565 Y-16.3832
G01 X34.6404 Y-16.3877
G00 X34.6404 Y-16.3877
G01 F40.00
G01 Z-1.6500
G01 F60.00
G01 X34.6404 Y-16.3879
G01 X34.0564 Y-16.3833
G01 X34.0565 Y-16.3832
G01 X34.6404 Y-16.3877
G00 Z2.0000
G00 X30.7109 Y-16.3814
G01 F40.00
G01 Z-0.4000
G01 F60.00
G01 X30.7109 Y-16.3816
G01 X29.6267 Y-16.3896
G01 X29.6268 Y-16.3895
G01 X30.7109 Y-16.3814
G00 X30.7109 Y-16.3814
G01 F40.00
G01 Z-0.8000
G01 F60.00
G01 X30.7109 Y-16.3816
G01 X29.6267 Y-16.3896
G01 X29.6268 Y-16.3895
G01 X30.7109 Y-16.3814
G00 X30.7109 Y-16.3814
G01 F40.00
G01 Z-1.2000
G01 F60.00
G01 X30.7109 Y-16.3816
G01 X29.6267 Y-16.3896
G01 X29.6268 Y-16.3895
G01 X30.7109 Y-16.3814
G00 X30.7109 Y-16.3814
G01 F40.00
G01 Z-1.6000
G01 F60.00
G01 X30.7109 Y-16.3816
G01 X29.6267 Y-16.3896
G01 X29.6268 Y-16.3895
G01 X30.7109 Y-16.3814
G00 X30.7109 Y-16.3814
G01 F40.00
G01 Z-1.6500
G01 F60.00
G01 X30.7109 Y-16.3816
G01 X29.6267 Y-16.3896
G01 X29.6268 Y-16.3895
G01 X30.7109 Y-16.3814
G00 Z2.0000
M05
G00 Z2.0000
G00 Z45.00


M30
