(G-CODE GENERATED BY FLATCAM v8.994 - www.flatcam.org - Version Date: 2020/11/7)

(Name: i2c_wall_clock_controller-Edge_Cuts.gbr_edit_noncopper_cnc)
(Type: G-code from Geometry)
(Units: MM)

(Created on Friday, 22 March 2024 at 19:15)

(This preprocessor is the default preprocessor used by FlatCAM.)
(It is made to work with MACH3 compatible motion controllers.)

(TOOL DIAMETER: 1.5 mm)
(Feedrate_XY: 120.0 mm/min)
(Feedrate_Z: 60.0 mm/min)
(Feedrate rapids 1500.0 mm/min)

(Z_Cut: -1.65 mm)
(Z_Move: 2.0 mm)
(Z Start: None mm)
(Z End: 45.0 mm)
(X,Y End: None mm)
(Steps per circle: 64)
(Preprocessor Geometry: default)

(X range:   -0.7501 ...   33.7700  mm)
(Y range:  -23.6100 ...    0.7500  mm)

(Spindle Speed: 7200.0 RPM)
G21
G90
G94

G01 F120.00

M5
G00 Z15.0000
G00 X0.0000 Y0.0000
T1
M6    
(MSG, Change to Tool Dia = 1.5000)
M0
G00 Z15.0000

M03 S7200.0
G01 F120.00
G00 X-0.7301 Y0.1893
G01 F60.00
G01 Z-1.6500
G01 F120.00
G01 X-0.7303 Y0.1713
G01 X-0.7186 Y0.2180
G01 X-0.6924 Y0.2909
G01 X-0.6925 Y0.2900
G01 X-0.6622 Y0.3540
G01 X-0.6194 Y0.4255
G01 X-0.6176 Y0.4263
G01 X-0.5855 Y0.4695
G01 X-0.5849 Y0.5886
G01 X-0.4717 Y0.5847
G01 X-0.4695 Y0.5855
G01 X-0.4306 Y0.6144
G01 X-0.4295 Y0.6170
G01 X-0.3433 Y0.6686
G01 X-0.3459 Y0.6660
G01 X-0.2679 Y0.7029
G01 X-0.2688 Y0.7004
G01 X-0.2026 Y0.7241
G01 X-0.1961 Y0.7240
G01 X-0.1576 Y0.7337
G01 X-0.1645 Y0.7338
G01 X-0.0799 Y0.7463
G01 X-0.0925 Y0.7463
G01 X-0.0177 Y0.7500
G01 X33.0378 Y0.7500
G01 X33.0936 Y0.7473
G01 X33.1665 Y0.7365
G01 X33.2380 Y0.7186
G01 X33.3074 Y0.6937
G01 X33.3740 Y0.6622
G01 X33.4372 Y0.6243
G01 X33.4964 Y0.5804
G01 X33.5510 Y0.5310
G01 X33.6004 Y0.4764
G01 X33.6443 Y0.4172
G01 X33.6822 Y0.3540
G01 X33.7137 Y0.2874
G01 X33.7386 Y0.2180
G01 X33.7565 Y0.1465
G01 X33.7673 Y0.0736
G01 X33.7700 Y0.0178
G01 X33.7700 Y-22.8778
G01 X33.7673 Y-22.9336
G01 X33.7565 Y-23.0065
G01 X33.7386 Y-23.0780
G01 X33.7137 Y-23.1474
G01 X33.6822 Y-23.2140
G01 X33.6443 Y-23.2772
G01 X33.6004 Y-23.3364
G01 X33.5510 Y-23.3910
G01 X33.4964 Y-23.4404
G01 X33.4372 Y-23.4843
G01 X33.3740 Y-23.5222
G01 X33.3074 Y-23.5537
G01 X33.2380 Y-23.5786
G01 X33.1665 Y-23.5965
G01 X33.0936 Y-23.6073
G01 X33.0378 Y-23.6100
G01 X-0.0178 Y-23.6100
G01 X-0.0736 Y-23.6073
G01 X-0.1465 Y-23.5965
G01 X-0.2180 Y-23.5786
G01 X-0.2874 Y-23.5537
G01 X-0.3540 Y-23.5222
G01 X-0.4172 Y-23.4843
G01 X-0.4764 Y-23.4404
G01 X-0.5310 Y-23.3910
G01 X-0.5804 Y-23.3364
G01 X-0.6243 Y-23.2772
G01 X-0.6622 Y-23.2140
G01 X-0.6937 Y-23.1474
G01 X-0.7186 Y-23.0780
G01 X-0.7365 Y-23.0065
G01 X-0.7473 Y-22.9336
G01 X-0.7500 Y-22.8778
G01 X-0.7501 Y0.0167
G01 X-0.7473 Y0.0736
G01 X-0.7301 Y0.1893
G00 Z2.0000
M05
G00 Z2.0000
G00 Z45.00


M30
