(G-CODE GENERATED BY FLATCAM v8.994 - www.flatcam.org - Version Date: 2020/11/7)

(Name: i2c_wall_clock_controller-F_Cu.gbr_iso_combined_cnc)
(Type: G-code from Geometry)
(Units: MM)

(Created on Friday, 22 March 2024 at 19:09)

(This preprocessor is the default preprocessor used by FlatCAM.)
(It is made to work with MACH3 compatible motion controllers.)

(TOOL DIAMETER: 0.1969 mm)
(Feedrate_XY: 240.0 mm/min)
(Feedrate_Z: 60.0 mm/min)
(Feedrate rapids 1500.0 mm/min)

(Z_Cut: -0.15 mm)
(Z_Move: 2.0 mm)
(Z Start: None mm)
(Z End: 15.0 mm)
(X,Y End: None mm)
(Steps per circle: 64)
(Preprocessor Geometry: default)

(X range:   -0.0416 ...   33.0610  mm)
(Y range:  -22.9065 ...    0.0410  mm)

(Spindle Speed: 12000.0 RPM)
G21
G90
G94

G01 F240.00

M5
G00 Z15.0000
G00 X0.0000 Y0.0000
T2
M6    
(MSG, Change to Tool Dia = 0.1969)
M0
G00 Z15.0000

M03 S12000.0
G01 F240.00
G00 X4.5344 Y-2.3347
G01 F60.00
G01 Z-0.1500
G01 F240.00
G01 X4.6270 Y-2.5332
G01 X4.6425 Y-2.5553
G01 X4.8679 Y-2.3299
G01 X4.8397 Y-2.2702
G01 X4.8334 Y-2.2534
G01 X4.5127 Y-2.2534
G01 X4.5344 Y-2.3347
G00 Z2.0000
G00 X6.1992 Y-3.0506
G01 F60.00
G01 Z-0.1500
G01 F240.00
G01 X6.1729 Y-3.0611
G01 X6.0944 Y-3.0892
G01 X6.0761 Y-3.0952
G01 X6.0574 Y-3.1004
G01 X5.9765 Y-3.1207
G01 X5.9577 Y-3.1249
G01 X5.9386 Y-3.1282
G01 X5.8561 Y-3.1404
G01 X5.8369 Y-3.1428
G01 X5.8176 Y-3.1442
G01 X5.7343 Y-3.1483
G01 X5.7150 Y-3.1488
G01 X5.6957 Y-3.1483
G01 X5.6124 Y-3.1442
G01 X5.5931 Y-3.1428
G01 X5.5739 Y-3.1404
G01 X5.4914 Y-3.1282
G01 X5.4688 Y-3.1241
G01 X5.4721 Y-3.1567
G01 X5.4736 Y-3.1762
G01 X5.4742 Y-3.1957
G01 X5.4732 Y-3.2249
G01 X5.4914 Y-3.2218
G01 X5.5739 Y-3.2096
G01 X5.5931 Y-3.2072
G01 X5.6124 Y-3.2058
G01 X5.6957 Y-3.2017
G01 X5.7150 Y-3.2012
G01 X5.7343 Y-3.2017
G01 X5.8273 Y-3.2064
G01 X5.8561 Y-3.2096
G01 X5.9386 Y-3.2218
G01 X5.9671 Y-3.2271
G01 X6.0668 Y-3.2521
G01 X6.0853 Y-3.2577
G01 X6.1325 Y-3.2744
G01 X6.1334 Y-3.2487
G01 X6.1366 Y-3.2195
G01 X6.1419 Y-3.1907
G01 X6.1494 Y-3.1623
G01 X6.1589 Y-3.1346
G01 X6.1664 Y-3.1165
G01 X6.1748 Y-3.0988
G01 X6.1992 Y-3.0506
G00 Z2.0000
G00 X6.7411 Y-2.7812
G01 F60.00
G01 Z-0.1500
G01 F240.00
G01 X6.6864 Y-2.7179
G01 X6.6720 Y-2.6994
G01 X6.6078 Y-2.7705
G01 X6.5941 Y-2.7849
G01 X6.6192 Y-2.7823
G01 X6.6385 Y-2.7813
G01 X6.7411 Y-2.7812
G00 Z2.0000
G00 X6.5941 Y-5.3249
G01 F60.00
G01 Z-0.1500
G01 F240.00
G01 X6.6192 Y-5.3223
G01 X6.6385 Y-5.3213
G01 X6.7411 Y-5.3212
G01 X6.6864 Y-5.2579
G01 X6.6720 Y-5.2394
G01 X6.6078 Y-5.3105
G01 X6.5941 Y-5.3249
G00 Z2.0000
G00 X5.7198 Y-5.3933
G01 F60.00
G01 Z-0.1500
G01 F240.00
G01 X5.8080 Y-5.3889
G01 X5.8953 Y-5.3761
G01 X5.9047 Y-5.3742
G01 X5.9903 Y-5.3526
G01 X6.0734 Y-5.3230
G01 X6.0824 Y-5.3193
G01 X6.1621 Y-5.2815
G01 X6.2399 Y-5.2349
G01 X6.3129 Y-5.1811
G01 X6.3203 Y-5.1750
G01 X6.3857 Y-5.1157
G01 X6.4466 Y-5.0485
G01 X6.5008 Y-4.9759
G01 X6.5049 Y-4.9699
G01 X6.5503 Y-4.8942
G01 X6.5745 Y-4.8436
G01 X6.9039 Y-4.8436
G01 X6.8944 Y-4.8789
G01 X6.8912 Y-4.8891
G01 X6.8891 Y-4.8995
G01 X6.8846 Y-4.9155
G01 X6.8828 Y-4.9252
G01 X6.8819 Y-4.9376
G01 X6.8821 Y-4.9450
G01 X6.8829 Y-4.9524
G01 X6.8937 Y-5.0263
G01 X6.8960 Y-5.0358
G01 X6.8984 Y-5.0428
G01 X6.9013 Y-5.0495
G01 X6.9046 Y-5.0560
G01 X6.9085 Y-5.0623
G01 X6.9143 Y-5.0701
G01 X6.9633 Y-5.1266
G01 X6.9720 Y-5.1351
G01 X6.9778 Y-5.1397
G01 X6.9839 Y-5.1438
G01 X6.9946 Y-5.1496
G01 X7.0014 Y-5.1525
G01 X7.0083 Y-5.1548
G01 X7.0776 Y-5.1751
G01 X7.0868 Y-5.1771
G01 X7.0984 Y-5.1783
G01 X12.6592 Y-5.1784
G01 X12.7939 Y-5.3132
G01 X12.8034 Y-5.3215
G01 X12.8436 Y-5.3495
G01 X12.8521 Y-5.3548
G01 X12.8588 Y-5.3582
G01 X12.9393 Y-5.3950
G01 X12.9731 Y-5.4194
G01 X12.9897 Y-5.4327
G01 X13.0260 Y-5.4654
G01 X14.5373 Y-6.9767
G01 X14.5421 Y-6.9811
G01 X14.5606 Y-6.9966
G01 X14.5705 Y-7.0039
G01 X14.5812 Y-7.0099
G01 X14.5902 Y-7.0137
G01 X14.6635 Y-7.0381
G01 X14.6730 Y-7.0403
G01 X14.6803 Y-7.0413
G01 X14.6900 Y-7.0417
G01 X14.6998 Y-7.0413
G01 X14.7071 Y-7.0403
G01 X14.7142 Y-7.0387
G01 X14.7820 Y-7.0215
G01 X14.7909 Y-7.0188
G01 X14.7974 Y-7.0162
G01 X14.8058 Y-7.0120
G01 X14.8942 Y-6.9598
G01 X15.0303 Y-6.9203
G01 X15.0532 Y-6.9184
G01 X15.3914 Y-6.9184
G01 X15.3914 Y-7.2216
G01 X15.1126 Y-7.2216
G01 X15.0906 Y-7.2227
G01 X15.0713 Y-7.2255
G01 X15.0618 Y-7.2274
G01 X15.0429 Y-7.2322
G01 X15.0199 Y-7.2405
G01 X15.0022 Y-7.2487
G01 X14.9937 Y-7.2533
G01 X14.9790 Y-7.2621
G01 X14.9730 Y-7.2662
G01 X14.9574 Y-7.2779
G01 X14.9428 Y-7.2910
G01 X14.9360 Y-7.2978
G01 X14.9229 Y-7.3124
G01 X14.9084 Y-7.3320
G01 X14.8959 Y-7.3529
G01 X14.8846 Y-7.3772
G01 X14.8772 Y-7.3979
G01 X14.8713 Y-7.4215
G01 X14.8677 Y-7.4456
G01 X14.8666 Y-7.4676
G01 X14.8666 Y-7.7700
G01 X14.8677 Y-7.7944
G01 X14.8705 Y-7.8137
G01 X14.8724 Y-7.8232
G01 X14.8772 Y-7.8421
G01 X14.8855 Y-7.8651
G01 X14.8959 Y-7.8871
G01 X14.9084 Y-7.9080
G01 X14.9229 Y-7.9276
G01 X14.9393 Y-7.9457
G01 X14.9574 Y-7.9621
G01 X14.9770 Y-7.9766
G01 X14.9979 Y-7.9891
G01 X15.0155 Y-7.9976
G01 X15.0244 Y-8.0013
G01 X15.0429 Y-8.0078
G01 X15.0618 Y-8.0126
G01 X15.0713 Y-8.0145
G01 X15.0906 Y-8.0173
G01 X15.1126 Y-8.0184
G01 X16.4650 Y-8.0184
G01 X16.4894 Y-8.0173
G01 X16.5087 Y-8.0145
G01 X16.5182 Y-8.0126
G01 X16.5371 Y-8.0078
G01 X16.5601 Y-7.9995
G01 X16.5821 Y-7.9891
G01 X16.5989 Y-7.9792
G01 X16.6070 Y-7.9738
G01 X16.6207 Y-7.9636
G01 X16.6263 Y-7.9589
G01 X16.6407 Y-7.9457
G01 X16.6571 Y-7.9276
G01 X16.6716 Y-7.9080
G01 X16.6817 Y-7.8913
G01 X16.6863 Y-7.8828
G01 X16.6954 Y-7.8628
G01 X16.7028 Y-7.8421
G01 X16.7082 Y-7.8208
G01 X16.7123 Y-7.7944
G01 X16.7134 Y-7.7700
G01 X16.7134 Y-7.4700
G01 X16.7123 Y-7.4456
G01 X16.7095 Y-7.4263
G01 X16.7076 Y-7.4168
G01 X16.7028 Y-7.3979
G01 X16.6945 Y-7.3749
G01 X16.6841 Y-7.3529
G01 X16.6742 Y-7.3361
G01 X16.6688 Y-7.3280
G01 X16.6555 Y-7.3105
G01 X16.6407 Y-7.2943
G01 X16.6226 Y-7.2779
G01 X16.6030 Y-7.2634
G01 X16.5863 Y-7.2533
G01 X16.5800 Y-7.2498
G01 X16.5645 Y-7.2424
G01 X16.5556 Y-7.2387
G01 X16.5371 Y-7.2322
G01 X16.5135 Y-7.2263
G01 X16.4894 Y-7.2227
G01 X16.4674 Y-7.2216
G01 X16.1886 Y-7.2216
G01 X16.1886 Y-6.9184
G01 X16.3930 Y-6.9182
G01 X16.4046 Y-6.9167
G01 X16.4608 Y-6.9044
G01 X16.4726 Y-6.9008
G01 X16.4816 Y-6.8968
G01 X16.4901 Y-6.8920
G01 X16.5001 Y-6.8848
G01 X16.5548 Y-6.8374
G01 X16.5601 Y-6.8324
G01 X16.5651 Y-6.8270
G01 X16.5725 Y-6.8173
G01 X16.5786 Y-6.8067
G01 X16.5816 Y-6.8000
G01 X16.5841 Y-6.7931
G01 X16.6051 Y-6.7215
G01 X16.6067 Y-6.7146
G01 X16.6078 Y-6.7077
G01 X16.6084 Y-6.6960
G01 X16.6084 Y-3.8504
G01 X16.6079 Y-3.8399
G01 X16.6040 Y-3.8064
G01 X16.6024 Y-3.7993
G01 X16.6004 Y-3.7924
G01 X16.5978 Y-3.7856
G01 X16.5947 Y-3.7790
G01 X16.5589 Y-3.7135
G01 X16.5539 Y-3.7057
G01 X16.5465 Y-3.6965
G01 X15.9900 Y-3.1399
G01 X15.9840 Y-3.1347
G01 X15.9595 Y-3.1151
G01 X15.9515 Y-3.1098
G01 X15.9429 Y-3.1053
G01 X15.9362 Y-3.1025
G01 X15.9293 Y-3.1002
G01 X15.8555 Y-3.0788
G01 X15.8462 Y-3.0772
G01 X15.8346 Y-3.0766
G01 X6.6482 Y-3.0766
G01 X6.6361 Y-3.0773
G01 X6.6059 Y-3.0810
G01 X6.5966 Y-3.0826
G01 X6.5852 Y-3.0859
G01 X6.5786 Y-3.0885
G01 X6.5722 Y-3.0916
G01 X6.5079 Y-3.1293
G01 X6.5017 Y-3.1332
G01 X6.4921 Y-3.1408
G01 X6.4835 Y-3.1495
G01 X6.4775 Y-3.1572
G01 X6.4710 Y-3.1676
G01 X6.4363 Y-3.2365
G01 X6.4336 Y-3.2433
G01 X6.4313 Y-3.2503
G01 X6.4288 Y-3.2622
G01 X6.4278 Y-3.2744
G01 X6.4283 Y-3.2866
G01 X6.4358 Y-3.3586
G01 X6.4370 Y-3.3658
G01 X6.4394 Y-3.3753
G01 X6.4419 Y-3.3822
G01 X6.4448 Y-3.3889
G01 X6.4495 Y-3.3975
G01 X6.4536 Y-3.4036
G01 X6.5047 Y-3.4674
G01 X6.5132 Y-3.4755
G01 X6.5226 Y-3.4826
G01 X6.6774 Y-3.6374
G01 X6.8030 Y-3.8168
G01 X6.8956 Y-4.0153
G01 X6.9039 Y-4.0464
G01 X6.5745 Y-4.0464
G01 X6.5503 Y-3.9958
G01 X6.5049 Y-3.9201
G01 X6.5008 Y-3.9141
G01 X6.4466 Y-3.8415
G01 X6.3857 Y-3.7743
G01 X6.3203 Y-3.7150
G01 X6.3129 Y-3.7089
G01 X6.2399 Y-3.6551
G01 X6.1621 Y-3.6085
G01 X6.0824 Y-3.5707
G01 X6.0734 Y-3.5670
G01 X5.9903 Y-3.5374
G01 X5.9000 Y-3.5148
G01 X5.8128 Y-3.5017
G01 X5.8031 Y-3.5008
G01 X5.7126 Y-3.4966
G01 X5.6220 Y-3.5011
G01 X5.5347 Y-3.5139
G01 X5.5253 Y-3.5158
G01 X5.4397 Y-3.5374
G01 X5.3520 Y-3.5687
G01 X5.2722 Y-3.6064
G01 X5.2637 Y-3.6109
G01 X5.1881 Y-3.6564
G01 X5.1133 Y-3.7118
G01 X5.0478 Y-3.7710
G01 X5.0410 Y-3.7778
G01 X4.9818 Y-3.8433
G01 X4.9264 Y-3.9181
G01 X4.8809 Y-3.9937
G01 X4.8764 Y-4.0022
G01 X4.8378 Y-4.0843
G01 X4.8089 Y-4.1651
G01 X4.8061 Y-4.1743
G01 X4.7848 Y-4.2600
G01 X4.7717 Y-4.3472
G01 X4.7708 Y-4.3569
G01 X4.7666 Y-4.4450
G01 X4.7711 Y-4.5380
G01 X4.7848 Y-4.6300
G01 X4.8061 Y-4.7157
G01 X4.8089 Y-4.7249
G01 X4.8387 Y-4.8080
G01 X4.8764 Y-4.8878
G01 X4.8809 Y-4.8963
G01 X4.9264 Y-4.9719
G01 X4.9789 Y-5.0429
G01 X4.9850 Y-5.0503
G01 X5.0443 Y-5.1157
G01 X5.1097 Y-5.1750
G01 X5.1171 Y-5.1811
G01 X5.1881 Y-5.2336
G01 X5.2679 Y-5.2815
G01 X5.3476 Y-5.3193
G01 X5.3566 Y-5.3230
G01 X5.4397 Y-5.3526
G01 X5.5253 Y-5.3742
G01 X5.5347 Y-5.3761
G01 X5.6220 Y-5.3889
G01 X5.7102 Y-5.3933
G01 X5.7198 Y-5.3933
G00 Z2.0000
G00 X5.4707 Y-5.6646
G01 F60.00
G01 Z-0.1500
G01 F240.00
G01 X5.4719 Y-5.6754
G01 X5.4733 Y-5.6944
G01 X5.4738 Y-5.7164
G01 X5.4728 Y-5.7445
G01 X5.4707 Y-5.7654
G01 X5.4914 Y-5.7618
G01 X5.5739 Y-5.7496
G01 X5.5931 Y-5.7472
G01 X5.6124 Y-5.7458
G01 X5.6957 Y-5.7417
G01 X5.7150 Y-5.7412
G01 X5.7343 Y-5.7417
G01 X5.8273 Y-5.7464
G01 X5.8561 Y-5.7496
G01 X5.9386 Y-5.7618
G01 X5.9671 Y-5.7671
G01 X6.0668 Y-5.7921
G01 X6.0853 Y-5.7977
G01 X6.1325 Y-5.8144
G01 X6.1334 Y-5.7887
G01 X6.1366 Y-5.7595
G01 X6.1419 Y-5.7307
G01 X6.1494 Y-5.7023
G01 X6.1589 Y-5.6746
G01 X6.1664 Y-5.6565
G01 X6.1748 Y-5.6388
G01 X6.1992 Y-5.5906
G01 X6.1729 Y-5.6011
G01 X6.0944 Y-5.6292
G01 X6.0761 Y-5.6352
G01 X6.0574 Y-5.6404
G01 X5.9765 Y-5.6607
G01 X5.9577 Y-5.6649
G01 X5.9386 Y-5.6682
G01 X5.8561 Y-5.6804
G01 X5.8369 Y-5.6828
G01 X5.8176 Y-5.6842
G01 X5.7343 Y-5.6883
G01 X5.7150 Y-5.6888
G01 X5.6957 Y-5.6883
G01 X5.6124 Y-5.6842
G01 X5.5931 Y-5.6828
G01 X5.5739 Y-5.6804
G01 X5.4914 Y-5.6682
G01 X5.4707 Y-5.6646
G00 Z2.0000
G00 X5.7198 Y-7.9333
G01 F60.00
G01 Z-0.1500
G01 F240.00
G01 X5.8080 Y-7.9289
G01 X5.8953 Y-7.9161
G01 X5.9047 Y-7.9142
G01 X5.9903 Y-7.8926
G01 X6.0780 Y-7.8613
G01 X6.1578 Y-7.8236
G01 X6.1663 Y-7.8191
G01 X6.2419 Y-7.7736
G01 X6.3167 Y-7.7182
G01 X6.3822 Y-7.6590
G01 X6.3890 Y-7.6522
G01 X6.4482 Y-7.5867
G01 X6.5036 Y-7.5119
G01 X6.5491 Y-7.4363
G01 X6.5536 Y-7.4278
G01 X6.5893 Y-7.3524
G01 X6.5922 Y-7.3457
G01 X6.5966 Y-7.3334
G01 X6.9173 Y-7.3334
G01 X6.9060 Y-7.3758
G01 X6.9024 Y-7.3931
G01 X6.9007 Y-7.4051
G01 X6.9005 Y-7.4172
G01 X6.9014 Y-7.4269
G01 X6.9122 Y-7.5008
G01 X6.9145 Y-7.5103
G01 X6.9169 Y-7.5173
G01 X6.9209 Y-7.5262
G01 X6.9244 Y-7.5326
G01 X6.9284 Y-7.5388
G01 X6.9329 Y-7.5446
G01 X6.9818 Y-7.6011
G01 X6.9906 Y-7.6096
G01 X7.0003 Y-7.6170
G01 X7.0066 Y-7.6208
G01 X7.0131 Y-7.6241
G01 X7.0245 Y-7.6286
G01 X7.0939 Y-7.6490
G01 X7.1053 Y-7.6516
G01 X7.1123 Y-7.6525
G01 X7.1216 Y-7.6529
G01 X8.4511 Y-7.6529
G01 X8.4586 Y-7.6524
G01 X8.4685 Y-7.6509
G01 X8.5302 Y-7.6365
G01 X8.5393 Y-7.6335
G01 X8.5480 Y-7.6295
G01 X8.5564 Y-7.6247
G01 X8.5623 Y-7.6206
G01 X8.5697 Y-7.6144
G01 X8.6263 Y-7.5623
G01 X8.6324 Y-7.5552
G01 X8.6378 Y-7.5476
G01 X8.6666 Y-7.5000
G01 X8.7700 Y-7.3966
G01 X8.8951 Y-7.3210
G01 X9.0347 Y-7.2775
G01 X9.1806 Y-7.2686
G01 X9.3244 Y-7.2950
G01 X9.4578 Y-7.3550
G01 X9.5440 Y-7.4225
G01 X9.5900 Y-7.4684
G01 X9.6147 Y-7.4885
G01 X9.6225 Y-7.4942
G01 X9.6330 Y-7.5001
G01 X9.6441 Y-7.5048
G01 X9.7180 Y-7.5266
G01 X9.7295 Y-7.5289
G01 X9.7365 Y-7.5297
G01 X9.7435 Y-7.5299
G01 X10.2626 Y-7.5300
G01 X10.3047 Y-7.5345
G01 X10.4147 Y-7.5755
G01 X10.5129 Y-7.6491
G01 X10.5195 Y-7.6553
G01 X10.5289 Y-7.6625
G01 X10.5414 Y-7.6740
G01 X10.5489 Y-7.6800
G01 X10.5569 Y-7.6853
G01 X10.5633 Y-7.6887
G01 X10.5699 Y-7.6916
G01 X10.5789 Y-7.6948
G01 X10.6482 Y-7.7151
G01 X10.6574 Y-7.7171
G01 X10.6667 Y-7.7182
G01 X10.9163 Y-7.7184
G01 X10.9238 Y-7.7182
G01 X10.9313 Y-7.7173
G01 X10.9794 Y-7.7086
G01 X10.9910 Y-7.7055
G01 X10.9978 Y-7.7029
G01 X11.0043 Y-7.6999
G01 X11.0106 Y-7.6964
G01 X11.0167 Y-7.6924
G01 X11.0452 Y-7.6711
G01 X11.0547 Y-7.6664
G01 X11.0648 Y-7.6598
G01 X11.0705 Y-7.6553
G01 X11.0771 Y-7.6490
G01 X11.1753 Y-7.5755
G01 X11.2853 Y-7.5345
G01 X11.3274 Y-7.5299
G01 X11.8491 Y-7.5299
G01 X11.8834 Y-7.5266
G01 X11.8929 Y-7.5251
G01 X11.8999 Y-7.5233
G01 X11.9068 Y-7.5211
G01 X11.9179 Y-7.5162
G01 X11.9813 Y-7.4816
G01 X11.9913 Y-7.4754
G01 X11.9968 Y-7.4711
G01 X12.0021 Y-7.4664
G01 X12.0460 Y-7.4225
G01 X12.1323 Y-7.3550
G01 X12.2656 Y-7.2950
G01 X12.4094 Y-7.2686
G01 X12.5553 Y-7.2775
G01 X12.6949 Y-7.3210
G01 X12.8200 Y-7.3966
G01 X12.9234 Y-7.5000
G01 X12.9990 Y-7.6251
G01 X13.0425 Y-7.7647
G01 X13.0439 Y-7.7856
G01 X13.0469 Y-7.8069
G01 X13.0486 Y-7.8163
G01 X13.0513 Y-7.8254
G01 X13.0538 Y-7.8321
G01 X13.0569 Y-7.8385
G01 X13.0915 Y-7.9020
G01 X13.0963 Y-7.9100
G01 X13.1035 Y-7.9193
G01 X14.3571 Y-9.1733
G01 X14.3650 Y-9.1803
G01 X14.3895 Y-9.1999
G01 X14.3975 Y-9.2052
G01 X14.4083 Y-9.2107
G01 X14.4197 Y-9.2148
G01 X14.4890 Y-9.2351
G01 X14.4981 Y-9.2371
G01 X14.5074 Y-9.2382
G01 X14.7717 Y-9.2384
G01 X14.7814 Y-9.2437
G01 X14.8125 Y-9.2583
G01 X14.8516 Y-9.2721
G01 X14.8825 Y-9.2799
G01 X14.8920 Y-9.2818
G01 X14.9259 Y-9.2867
G01 X14.9602 Y-9.2885
G01 X16.4650 Y-9.2884
G01 X16.4869 Y-9.2875
G01 X16.5111 Y-9.2841
G01 X16.5325 Y-9.2790
G01 X16.5417 Y-9.2762
G01 X16.5578 Y-9.2704
G01 X16.5645 Y-9.2676
G01 X16.5821 Y-9.2591
G01 X16.6030 Y-9.2466
G01 X16.6226 Y-9.2321
G01 X16.6407 Y-9.2157
G01 X16.6571 Y-9.1976
G01 X16.6716 Y-9.1780
G01 X16.6841 Y-9.1571
G01 X16.6926 Y-9.1395
G01 X16.6963 Y-9.1306
G01 X16.7020 Y-9.1144
G01 X16.7040 Y-9.1075
G01 X16.7087 Y-9.0885
G01 X16.7123 Y-9.0644
G01 X16.7134 Y-9.0400
G01 X16.7134 Y-8.7376
G01 X16.7125 Y-8.7181
G01 X16.7117 Y-8.7109
G01 X16.7087 Y-8.6915
G01 X16.7034 Y-8.6702
G01 X16.6945 Y-8.6449
G01 X16.6829 Y-8.6208
G01 X16.6729 Y-8.6040
G01 X16.6688 Y-8.5980
G01 X16.6571 Y-8.5824
G01 X16.6440 Y-8.5678
G01 X16.6372 Y-8.5610
G01 X16.6226 Y-8.5479
G01 X16.6030 Y-8.5334
G01 X16.5821 Y-8.5209
G01 X16.5645 Y-8.5124
G01 X16.5556 Y-8.5087
G01 X16.5371 Y-8.5022
G01 X16.5135 Y-8.4963
G01 X16.4894 Y-8.4927
G01 X16.4650 Y-8.4916
G01 X15.1301 Y-8.4914
G01 X14.5939 Y-7.9552
G01 X14.5648 Y-7.8548
G01 X14.5629 Y-7.8318
G01 X14.5629 Y-7.5309
G01 X14.5624 Y-7.5203
G01 X14.5589 Y-7.4892
G01 X14.5575 Y-7.4821
G01 X14.5556 Y-7.4751
G01 X14.5532 Y-7.4683
G01 X14.5492 Y-7.4595
G01 X14.5134 Y-7.3940
G01 X14.5084 Y-7.3861
G01 X14.5026 Y-7.3787
G01 X14.4978 Y-7.3736
G01 X12.8040 Y-5.6799
G01 X12.7981 Y-5.6747
G01 X12.7736 Y-5.6551
G01 X12.7655 Y-5.6498
G01 X12.7548 Y-5.6443
G01 X12.7434 Y-5.6402
G01 X12.6764 Y-5.6205
G01 X12.6673 Y-5.6183
G01 X12.6580 Y-5.6170
G01 X12.6486 Y-5.6166
G01 X6.6482 Y-5.6166
G01 X6.6385 Y-5.6170
G01 X6.6036 Y-5.6213
G01 X6.5943 Y-5.6232
G01 X6.5875 Y-5.6251
G01 X6.5786 Y-5.6285
G01 X6.5702 Y-5.6327
G01 X6.5058 Y-5.6705
G01 X6.4977 Y-5.6761
G01 X6.4921 Y-5.6808
G01 X6.4868 Y-5.6859
G01 X6.4804 Y-5.6933
G01 X6.4761 Y-5.6992
G01 X6.4710 Y-5.7076
G01 X6.4384 Y-5.7721
G01 X6.4344 Y-5.7810
G01 X6.4313 Y-5.7903
G01 X6.4288 Y-5.8022
G01 X6.4278 Y-5.8144
G01 X6.4281 Y-5.8242
G01 X6.4355 Y-5.8961
G01 X6.4370 Y-5.9058
G01 X6.4394 Y-5.9153
G01 X6.4428 Y-5.9244
G01 X6.4471 Y-5.9332
G01 X6.4508 Y-5.9395
G01 X6.4565 Y-5.9475
G01 X6.5047 Y-6.0074
G01 X6.5132 Y-6.0155
G01 X6.5226 Y-6.0226
G01 X6.6314 Y-6.1314
G01 X6.1700 Y-6.1314
G01 X6.1303 Y-6.1334
G01 X6.0780 Y-6.1087
G01 X5.9926 Y-6.0781
G01 X5.9024 Y-6.0553
G01 X5.8953 Y-6.0539
G01 X5.8080 Y-6.0411
G01 X5.7198 Y-6.0367
G01 X5.7102 Y-6.0367
G01 X5.6269 Y-6.0408
G01 X5.6172 Y-6.0417
G01 X5.5300 Y-6.0548
G01 X5.4420 Y-6.0767
G01 X5.4351 Y-6.0789
G01 X5.3520 Y-6.1087
G01 X5.2679 Y-6.1485
G01 X5.1881 Y-6.1964
G01 X5.1171 Y-6.2489
G01 X5.1097 Y-6.2550
G01 X5.0443 Y-6.3143
G01 X4.9850 Y-6.3797
G01 X4.9789 Y-6.3871
G01 X4.9292 Y-6.4541
G01 X4.9238 Y-6.4622
G01 X4.8785 Y-6.5379
G01 X4.8407 Y-6.6176
G01 X4.8378 Y-6.6243
G01 X4.8089 Y-6.7051
G01 X4.8061 Y-6.7143
G01 X4.7848 Y-6.8000
G01 X4.7717 Y-6.8872
G01 X4.7708 Y-6.8969
G01 X4.7666 Y-6.9850
G01 X4.7711 Y-7.0780
G01 X4.7848 Y-7.1700
G01 X4.8061 Y-7.2557
G01 X4.8089 Y-7.2649
G01 X4.8387 Y-7.3480
G01 X4.8764 Y-7.4278
G01 X4.8809 Y-7.4363
G01 X4.9264 Y-7.5119
G01 X4.9789 Y-7.5829
G01 X4.9850 Y-7.5903
G01 X5.0443 Y-7.6557
G01 X5.1097 Y-7.7150
G01 X5.1171 Y-7.7211
G01 X5.1881 Y-7.7736
G01 X5.2679 Y-7.8215
G01 X5.3476 Y-7.8593
G01 X5.3566 Y-7.8630
G01 X5.4397 Y-7.8926
G01 X5.5253 Y-7.9142
G01 X5.5347 Y-7.9161
G01 X5.6220 Y-7.9289
G01 X5.7102 Y-7.9333
G01 X5.7198 Y-7.9333
G00 Z2.0000
G00 X6.8111 Y-8.7012
G01 F60.00
G01 Z-0.1500
G01 F240.00
G01 X6.8111 Y-10.3750
G01 X6.8105 Y-10.3931
G01 X6.8085 Y-10.4111
G01 X6.8064 Y-10.4230
G01 X6.8022 Y-10.4406
G01 X6.7987 Y-10.4522
G01 X6.7924 Y-10.4692
G01 X6.7848 Y-10.4857
G01 X6.7792 Y-10.4963
G01 X6.7729 Y-10.5067
G01 X6.7627 Y-10.5216
G01 X6.7514 Y-10.5358
G01 X6.7433 Y-10.5447
G01 X6.7347 Y-10.5533
G01 X6.7211 Y-10.5653
G01 X6.7116 Y-10.5727
G01 X6.6967 Y-10.5829
G01 X6.6863 Y-10.5892
G01 X6.6757 Y-10.5948
G01 X6.6592 Y-10.6024
G01 X6.6479 Y-10.6067
G01 X6.6306 Y-10.6122
G01 X6.6130 Y-10.6164
G01 X6.5951 Y-10.6193
G01 X6.5771 Y-10.6208
G01 X6.5650 Y-10.6211
G01 X6.3037 Y-10.6211
G01 X6.3114 Y-10.6289
G01 X6.5996 Y-10.6289
G01 X6.6153 Y-10.6272
G01 X6.7294 Y-10.5846
G01 X6.7466 Y-10.5789
G01 X6.7583 Y-10.5759
G01 X6.7701 Y-10.5733
G01 X6.7820 Y-10.5714
G01 X6.8013 Y-10.5695
G01 X6.8234 Y-10.5648
G01 X6.8416 Y-10.5620
G01 X6.8598 Y-10.5606
G01 X6.8782 Y-10.5605
G01 X6.8904 Y-10.5612
G01 X6.9086 Y-10.5635
G01 X6.9206 Y-10.5657
G01 X6.9384 Y-10.5701
G01 X6.9558 Y-10.5759
G01 X7.0270 Y-10.6025
G01 X7.0382 Y-10.6073
G01 X7.0492 Y-10.6127
G01 X7.0599 Y-10.6186
G01 X7.0702 Y-10.6251
G01 X7.0803 Y-10.6320
G01 X7.0900 Y-10.6395
G01 X7.0993 Y-10.6474
G01 X7.1082 Y-10.6558
G01 X7.1208 Y-10.6691
G01 X7.1323 Y-10.6834
G01 X7.1777 Y-10.7442
G01 X7.1876 Y-10.7592
G01 X7.1936 Y-10.7697
G01 X7.1991 Y-10.7804
G01 X7.2040 Y-10.7913
G01 X7.2084 Y-10.8025
G01 X7.2140 Y-10.8197
G01 X7.2170 Y-10.8313
G01 X7.2194 Y-10.8431
G01 X7.2282 Y-10.8927
G01 X7.2304 Y-10.9114
G01 X7.2310 Y-10.9239
G01 X7.2311 Y-11.3281
G01 X7.3245 Y-11.4215
G01 X7.3324 Y-11.4302
G01 X7.3434 Y-11.4439
G01 X7.3534 Y-11.4583
G01 X7.3880 Y-11.5126
G01 X7.3962 Y-11.5282
G01 X7.4034 Y-11.5443
G01 X7.4202 Y-11.5752
G01 X7.4854 Y-11.6622
G01 X7.5739 Y-11.7507
G01 X7.5998 Y-11.7743
G01 X7.6086 Y-11.7817
G01 X7.6225 Y-11.7922
G01 X7.7117 Y-11.8363
G01 X7.7269 Y-11.8444
G01 X7.7366 Y-11.8504
G01 X7.7461 Y-11.8569
G01 X7.7835 Y-11.8838
G01 X7.7968 Y-11.8946
G01 X7.8094 Y-11.9064
G01 X8.1588 Y-12.2557
G01 X8.1708 Y-12.2686
G01 X8.1818 Y-12.2822
G01 X8.1886 Y-12.2918
G01 X8.2234 Y-12.3460
G01 X8.2293 Y-12.3561
G01 X8.2346 Y-12.3665
G01 X8.2418 Y-12.3827
G01 X8.2586 Y-12.4136
G01 X8.3237 Y-12.5006
G01 X8.3426 Y-12.5194
G01 X8.4225 Y-12.5793
G01 X8.4315 Y-12.5867
G01 X8.4444 Y-12.5987
G01 X8.4563 Y-12.6116
G01 X8.4638 Y-12.6206
G01 X8.5092 Y-12.6812
G01 X8.5195 Y-12.6960
G01 X8.5286 Y-12.7115
G01 X8.5366 Y-12.7277
G01 X8.5434 Y-12.7444
G01 X8.5490 Y-12.7616
G01 X8.5520 Y-12.7732
G01 X8.5544 Y-12.7850
G01 X8.5641 Y-12.8407
G01 X8.5658 Y-12.8595
G01 X8.5661 Y-12.8836
G01 X8.5739 Y-12.8913
G01 X8.5739 Y-12.8550
G01 X8.5745 Y-12.8369
G01 X8.5765 Y-12.8189
G01 X8.5786 Y-12.8070
G01 X8.5813 Y-12.7952
G01 X8.5845 Y-12.7836
G01 X8.5883 Y-12.7721
G01 X8.5950 Y-12.7553
G01 X8.6002 Y-12.7443
G01 X8.6058 Y-12.7337
G01 X8.6121 Y-12.7233
G01 X8.6188 Y-12.7133
G01 X8.6260 Y-12.7036
G01 X8.6336 Y-12.6942
G01 X8.6417 Y-12.6853
G01 X8.6503 Y-12.6767
G01 X8.6639 Y-12.6647
G01 X8.6734 Y-12.6573
G01 X8.6833 Y-12.6504
G01 X8.6935 Y-12.6439
G01 X8.7040 Y-12.6379
G01 X8.7148 Y-12.6325
G01 X8.7258 Y-12.6276
G01 X8.7371 Y-12.6233
G01 X8.7486 Y-12.6195
G01 X8.7602 Y-12.6163
G01 X8.7720 Y-12.6136
G01 X8.7839 Y-12.6115
G01 X8.7959 Y-12.6101
G01 X8.8079 Y-12.6092
G01 X8.8200 Y-12.6089
G01 X9.9691 Y-12.6089
G01 X9.9545 Y-12.6072
G01 X9.9134 Y-12.6008
G01 X9.8731 Y-12.5910
G01 X9.8557 Y-12.5859
G01 X9.8166 Y-12.5719
G01 X9.7999 Y-12.5648
G01 X9.7625 Y-12.5468
G01 X9.7294 Y-12.5273
G01 X9.7090 Y-12.5242
G01 X9.6972 Y-12.5218
G01 X9.6640 Y-12.5135
G01 X9.6525 Y-12.5100
G01 X9.6203 Y-12.4985
G01 X9.6092 Y-12.4939
G01 X9.5783 Y-12.4793
G01 X9.5676 Y-12.4736
G01 X9.5333 Y-12.4527
G01 X9.5056 Y-12.4326
G01 X9.4915 Y-12.4213
G01 X9.4619 Y-12.3941
G01 X9.4535 Y-12.3854
G01 X9.4308 Y-12.3599
G01 X9.4102 Y-12.3326
G01 X9.4000 Y-12.3177
G01 X9.3795 Y-12.2831
G01 X9.3741 Y-12.2723
G01 X9.3597 Y-12.2413
G01 X9.3554 Y-12.2300
G01 X9.3442 Y-12.1978
G01 X9.3356 Y-12.1647
G01 X9.3329 Y-12.1529
G01 X9.3276 Y-12.1192
G01 X9.3256 Y-12.1012
G01 X9.3239 Y-12.0610
G01 X9.3239 Y-11.5610
G01 X9.3242 Y-11.5489
G01 X9.3261 Y-11.5148
G01 X9.3309 Y-11.4810
G01 X9.3329 Y-11.4691
G01 X9.3425 Y-11.4300
G01 X9.3460 Y-11.4185
G01 X9.3538 Y-11.3964
G01 X9.3295 Y-11.3720
G01 X9.3109 Y-11.3515
G01 X9.3090 Y-11.3703
G01 X9.3050 Y-11.3970
G01 X9.2997 Y-11.4235
G01 X9.2947 Y-11.4439
G01 X9.2872 Y-11.4698
G01 X9.2834 Y-11.4813
G01 X9.2762 Y-11.5010
G01 X9.2683 Y-11.5204
G01 X9.2634 Y-11.5314
G01 X9.2516 Y-11.5557
G01 X9.2416 Y-11.5741
G01 X9.2278 Y-11.5973
G01 X9.2092 Y-11.6247
G01 X9.1967 Y-11.6414
G01 X9.1795 Y-11.6623
G01 X9.1614 Y-11.6823
G01 X9.1466 Y-11.6972
G01 X9.1223 Y-11.7195
G01 X9.1014 Y-11.7367
G01 X9.0847 Y-11.7492
G01 X9.0748 Y-11.7562
G01 X9.0522 Y-11.7709
G01 X9.0341 Y-11.7816
G01 X9.0103 Y-11.7944
G01 X8.9859 Y-11.8059
G01 X8.9666 Y-11.8140
G01 X8.9413 Y-11.8234
G01 X8.9298 Y-11.8272
G01 X8.9097 Y-11.8332
G01 X8.8835 Y-11.8397
G01 X8.8511 Y-11.8460
G01 X8.8303 Y-11.8490
G01 X8.8035 Y-11.8516
G01 X8.7765 Y-11.8529
G01 X8.7555 Y-11.8530
G01 X8.7435 Y-11.8527
G01 X8.7165 Y-11.8511
G01 X8.6957 Y-11.8490
G01 X8.6749 Y-11.8460
G01 X8.6630 Y-11.8439
G01 X8.6366 Y-11.8383
G01 X8.6163 Y-11.8332
G01 X8.5904 Y-11.8253
G01 X8.5650 Y-11.8162
G01 X8.5456 Y-11.8083
G01 X8.5346 Y-11.8034
G01 X8.5103 Y-11.7916
G01 X8.4919 Y-11.7816
G01 X8.4687 Y-11.7678
G01 X8.4413 Y-11.7492
G01 X8.4246 Y-11.7367
G01 X8.4037 Y-11.7195
G01 X8.3837 Y-11.7014
G01 X8.3688 Y-11.6866
G01 X8.3465 Y-11.6623
G01 X8.3293 Y-11.6414
G01 X8.3168 Y-11.6247
G01 X8.3098 Y-11.6148
G01 X8.2951 Y-11.5922
G01 X8.2844 Y-11.5741
G01 X8.2744 Y-11.5557
G01 X8.2601 Y-11.5259
G01 X8.2476 Y-11.4953
G01 X8.2407 Y-11.4756
G01 X8.2345 Y-11.4555
G01 X8.2263 Y-11.4235
G01 X8.2200 Y-11.3911
G01 X8.2170 Y-11.3703
G01 X8.2149 Y-11.3495
G01 X8.2131 Y-11.3165
G01 X8.2133 Y-11.2835
G01 X8.2144 Y-11.2625
G01 X8.2164 Y-11.2417
G01 X8.2210 Y-11.2090
G01 X8.2277 Y-11.1766
G01 X8.2328 Y-11.1563
G01 X8.2388 Y-11.1362
G01 X8.2498 Y-11.1050
G01 X8.2626 Y-11.0746
G01 X8.2716 Y-11.0557
G01 X8.2844 Y-11.0319
G01 X8.2982 Y-11.0087
G01 X8.3098 Y-10.9912
G01 X8.3293 Y-10.9646
G01 X8.3465 Y-10.9437
G01 X8.3605 Y-10.9281
G01 X8.3794 Y-10.9088
G01 X8.3881 Y-10.9005
G01 X8.4037 Y-10.8865
G01 X8.4198 Y-10.8731
G01 X8.4413 Y-10.8568
G01 X8.4512 Y-10.8498
G01 X8.4687 Y-10.8382
G01 X8.4919 Y-10.8244
G01 X8.5157 Y-10.8116
G01 X8.5346 Y-10.8026
G01 X8.5456 Y-10.7977
G01 X8.5707 Y-10.7876
G01 X8.5904 Y-10.7807
G01 X8.6163 Y-10.7728
G01 X8.6425 Y-10.7663
G01 X8.6630 Y-10.7621
G01 X8.6957 Y-10.7570
G01 X8.7225 Y-10.7544
G01 X8.7435 Y-10.7533
G01 X8.7765 Y-10.7531
G01 X8.8035 Y-10.7544
G01 X8.8243 Y-10.7564
G01 X8.8511 Y-10.7600
G01 X8.8655 Y-10.7626
G01 X8.8518 Y-10.7510
G01 X8.8285 Y-10.7295
G01 X8.8070 Y-10.7062
G01 X8.7976 Y-10.6953
G01 X8.7896 Y-10.7012
G01 X8.7795 Y-10.7080
G01 X8.7638 Y-10.7171
G01 X8.7475 Y-10.7251
G01 X8.7306 Y-10.7319
G01 X8.7132 Y-10.7374
G01 X8.6693 Y-10.7495
G01 X8.6567 Y-10.7523
G01 X8.6380 Y-10.7552
G01 X8.5192 Y-10.7967
G01 X8.4127 Y-10.8637
G01 X8.3237 Y-10.9527
G01 X8.2567 Y-11.0592
G01 X8.2152 Y-11.1780
G01 X8.2011 Y-11.3030
G01 X8.2174 Y-11.4480
G01 X8.2183 Y-11.4655
G01 X8.2180 Y-11.4831
G01 X8.2170 Y-11.4948
G01 X8.2156 Y-11.5064
G01 X8.2026 Y-11.5810
G01 X8.1987 Y-11.5989
G01 X8.1936 Y-11.6165
G01 X8.1894 Y-11.6280
G01 X8.1847 Y-11.6393
G01 X8.1766 Y-11.6557
G01 X8.1672 Y-11.6715
G01 X8.1604 Y-11.6816
G01 X8.1530 Y-11.6914
G01 X8.1411 Y-11.7053
G01 X8.0938 Y-11.7567
G01 X8.0853 Y-11.7655
G01 X8.0763 Y-11.7739
G01 X8.0670 Y-11.7817
G01 X8.0523 Y-11.7927
G01 X8.0368 Y-11.8025
G01 X8.0207 Y-11.8112
G01 X8.0039 Y-11.8186
G01 X7.9924 Y-11.8228
G01 X7.9749 Y-11.8281
G01 X7.9073 Y-11.8457
G01 X7.8894 Y-11.8497
G01 X7.8712 Y-11.8523
G01 X7.8590 Y-11.8533
G01 X7.8468 Y-11.8537
G01 X7.8285 Y-11.8531
G01 X7.8163 Y-11.8520
G01 X7.8042 Y-11.8502
G01 X7.7863 Y-11.8465
G01 X7.7745 Y-11.8433
G01 X7.7022 Y-11.8197
G01 X7.6848 Y-11.8133
G01 X7.6735 Y-11.8083
G01 X7.6624 Y-11.8027
G01 X7.6517 Y-11.7966
G01 X7.6361 Y-11.7864
G01 X7.6214 Y-11.7751
G01 X7.5996 Y-11.7569
G01 X7.5913 Y-11.7493
G01 X7.4823 Y-11.6404
G01 X7.4742 Y-11.6319
G01 X7.4665 Y-11.6230
G01 X7.4593 Y-11.6138
G01 X7.4525 Y-11.6043
G01 X7.4432 Y-11.5894
G01 X7.4040 Y-11.5176
G01 X7.3987 Y-11.5067
G01 X7.3940 Y-11.4956
G01 X7.3898 Y-11.4843
G01 X7.3862 Y-11.4728
G01 X7.3832 Y-11.4611
G01 X7.3807 Y-11.4492
G01 X7.3788 Y-11.4373
G01 X7.3753 Y-11.4049
G01 X7.3740 Y-11.3852
G01 X7.3739 Y-8.7012
G01 X6.8111 Y-8.7012
G00 Z2.0000
G00 X6.9588 Y-8.8489
G01 F60.00
G01 Z-0.1500
G01 F240.00
G01 X6.9588 Y-10.3750
G01 X6.9583 Y-10.3943
G01 X6.9559 Y-10.4223
G01 X6.9798 Y-10.4284
G01 X7.0074 Y-10.4375
G01 X7.0820 Y-10.4654
G01 X7.0999 Y-10.4732
G01 X7.1175 Y-10.4818
G01 X7.1430 Y-10.4963
G01 X7.1593 Y-10.5070
G01 X7.1751 Y-10.5186
G01 X7.1903 Y-10.5309
G01 X7.2049 Y-10.5439
G01 X7.2188 Y-10.5576
G01 X7.2262 Y-10.5655
G01 X7.2262 Y-8.8489
G01 X6.9588 Y-8.8489
G00 Z2.0000
G00 X8.8640 Y-9.0267
G01 F60.00
G01 Z-0.1500
G01 F240.00
G01 X8.8695 Y-9.0355
G01 X8.8745 Y-9.0461
G01 X8.9013 Y-9.1184
G01 X8.9038 Y-9.1278
G01 X8.9054 Y-9.1375
G01 X8.9059 Y-9.1472
G01 X8.9056 Y-9.1570
G01 X8.9037 Y-9.1691
G01 X8.8888 Y-9.2374
G01 X8.8857 Y-9.2486
G01 X8.8831 Y-9.2552
G01 X8.8791 Y-9.2636
G01 X8.8640 Y-9.2873
G01 X8.8230 Y-9.3974
G01 X8.8184 Y-9.4394
G01 X8.8184 Y-9.5836
G01 X9.1216 Y-9.5836
G01 X9.1216 Y-9.4820
G01 X9.1218 Y-9.4748
G01 X9.1230 Y-9.4652
G01 X9.1245 Y-9.4581
G01 X9.1265 Y-9.4511
G01 X9.1290 Y-9.4443
G01 X9.1321 Y-9.4377
G01 X9.1356 Y-9.4314
G01 X9.1395 Y-9.4253
G01 X9.1455 Y-9.4177
G01 X9.1504 Y-9.4124
G01 X9.1557 Y-9.4075
G01 X9.1633 Y-9.4015
G01 X9.1694 Y-9.3976
G01 X9.1757 Y-9.3941
G01 X9.1823 Y-9.3910
G01 X9.1891 Y-9.3885
G01 X9.1961 Y-9.3865
G01 X9.2032 Y-9.3850
G01 X9.2128 Y-9.3838
G01 X9.2200 Y-9.3836
G01 X9.3214 Y-9.3836
G01 X9.3214 Y-8.9304
G01 X9.2200 Y-8.9304
G01 X9.2104 Y-8.9300
G01 X9.2032 Y-8.9290
G01 X9.1961 Y-8.9275
G01 X9.1891 Y-8.9255
G01 X9.1823 Y-8.9230
G01 X9.1736 Y-8.9188
G01 X9.1673 Y-8.9152
G01 X9.1614 Y-8.9111
G01 X9.1557 Y-8.9065
G01 X9.1504 Y-8.9016
G01 X9.1455 Y-8.8963
G01 X9.1409 Y-8.8906
G01 X9.1368 Y-8.8847
G01 X9.1332 Y-8.8784
G01 X9.1300 Y-8.8719
G01 X9.1265 Y-8.8629
G01 X9.1245 Y-8.8559
G01 X9.1230 Y-8.8488
G01 X9.1220 Y-8.8416
G01 X9.1216 Y-8.8320
G01 X9.1216 Y-8.7304
G01 X8.8184 Y-8.7304
G01 X8.8184 Y-8.8746
G01 X8.8230 Y-8.9166
G01 X8.8640 Y-9.0267
G00 Z2.0000
G00 X8.9674 Y-8.8781
G01 F60.00
G01 Z-0.1500
G01 F240.00
G01 X8.9678 Y-8.8823
G01 X8.9974 Y-8.9618
G01 X9.0045 Y-8.9752
G01 X9.0116 Y-8.9912
G01 X9.0381 Y-9.0622
G01 X9.0421 Y-9.0737
G01 X9.0470 Y-9.0914
G01 X9.0505 Y-9.1094
G01 X9.0528 Y-9.1276
G01 X9.0536 Y-9.1459
G01 X9.0531 Y-9.1642
G01 X9.0520 Y-9.1764
G01 X9.0503 Y-9.1885
G01 X9.0480 Y-9.2005
G01 X9.0304 Y-9.2801
G01 X9.0271 Y-9.2914
G01 X9.0233 Y-9.3024
G01 X9.0165 Y-9.3187
G01 X9.0087 Y-9.3344
G01 X8.9967 Y-9.3541
G01 X8.9678 Y-9.4317
G01 X8.9674 Y-9.4359
G01 X8.9783 Y-9.4359
G01 X8.9828 Y-9.4164
G01 X8.9883 Y-9.3991
G01 X8.9950 Y-9.3823
G01 X9.0029 Y-9.3660
G01 X9.0121 Y-9.3503
G01 X9.0223 Y-9.3354
G01 X9.0336 Y-9.3212
G01 X9.0460 Y-9.3080
G01 X9.0592 Y-9.2956
G01 X9.0734 Y-9.2843
G01 X9.0883 Y-9.2741
G01 X9.1040 Y-9.2649
G01 X9.1203 Y-9.2570
G01 X9.1371 Y-9.2503
G01 X9.1544 Y-9.2448
G01 X9.1737 Y-9.2403
G01 X9.1737 Y-9.0737
G01 X9.1602 Y-9.0707
G01 X9.1428 Y-9.0657
G01 X9.1258 Y-9.0594
G01 X9.1093 Y-9.0518
G01 X9.0935 Y-9.0431
G01 X9.0783 Y-9.0332
G01 X9.0639 Y-9.0223
G01 X9.0503 Y-9.0103
G01 X9.0376 Y-8.9973
G01 X9.0260 Y-8.9834
G01 X9.0154 Y-8.9687
G01 X9.0089 Y-8.9585
G01 X9.0029 Y-8.9480
G01 X8.9950 Y-8.9317
G01 X8.9883 Y-8.9149
G01 X8.9828 Y-8.8976
G01 X8.9783 Y-8.8781
G01 X8.9674 Y-8.8781
G00 Z2.0000
G00 X10.6138 Y-8.0092
G01 F60.00
G01 Z-0.1500
G01 F240.00
G01 X10.6138 Y-8.8320
G01 X10.6127 Y-8.8610
G01 X10.6095 Y-8.8898
G01 X10.6062 Y-8.9088
G01 X10.6020 Y-8.9277
G01 X10.5968 Y-8.9463
G01 X10.5908 Y-8.9647
G01 X10.5800 Y-8.9916
G01 X10.5718 Y-9.0091
G01 X10.5626 Y-9.0261
G01 X10.5527 Y-9.0427
G01 X10.5420 Y-9.0588
G01 X10.5305 Y-9.0743
G01 X10.5182 Y-9.0892
G01 X10.5052 Y-9.1035
G01 X10.4915 Y-9.1172
G01 X10.4772 Y-9.1302
G01 X10.4623 Y-9.1425
G01 X10.4423 Y-9.1570
G01 X10.4623 Y-9.1715
G01 X10.4772 Y-9.1838
G01 X10.4915 Y-9.1968
G01 X10.5052 Y-9.2105
G01 X10.5182 Y-9.2248
G01 X10.5305 Y-9.2397
G01 X10.5420 Y-9.2552
G01 X10.5527 Y-9.2713
G01 X10.5626 Y-9.2879
G01 X10.5718 Y-9.3049
G01 X10.5838 Y-9.3313
G01 X10.5908 Y-9.3493
G01 X10.5968 Y-9.3677
G01 X10.6020 Y-9.3863
G01 X10.6062 Y-9.4052
G01 X10.6095 Y-9.4242
G01 X10.6127 Y-9.4530
G01 X10.6138 Y-9.4820
G01 X10.6138 Y-10.3820
G01 X10.6127 Y-10.4110
G01 X10.6108 Y-10.4302
G01 X10.6062 Y-10.4588
G01 X10.6020 Y-10.4777
G01 X10.5968 Y-10.4963
G01 X10.5874 Y-10.5237
G01 X10.5800 Y-10.5416
G01 X10.5718 Y-10.5591
G01 X10.5578 Y-10.5845
G01 X10.5474 Y-10.6008
G01 X10.5305 Y-10.6243
G01 X10.5118 Y-10.6465
G01 X10.4985 Y-10.6605
G01 X10.4772 Y-10.6802
G01 X10.4623 Y-10.6925
G01 X10.4468 Y-10.7040
G01 X10.4278 Y-10.7165
G01 X10.5107 Y-10.7993
G01 X10.5240 Y-10.8133
G01 X10.5438 Y-10.8351
G01 X10.5625 Y-10.8573
G01 X10.5859 Y-10.8887
G01 X10.5970 Y-10.9045
G01 X10.6073 Y-10.9208
G01 X10.6225 Y-10.9461
G01 X10.6320 Y-10.9629
G01 X10.6407 Y-10.9801
G01 X10.6533 Y-11.0068
G01 X10.6611 Y-11.0244
G01 X10.6681 Y-11.0425
G01 X10.6780 Y-11.0702
G01 X10.6841 Y-11.0886
G01 X10.6892 Y-11.1072
G01 X10.6971 Y-11.1388
G01 X10.7233 Y-11.1684
G01 X10.7352 Y-11.1837
G01 X10.7540 Y-11.2092
G01 X10.7699 Y-11.2335
G01 X10.7861 Y-11.2608
G01 X10.7950 Y-11.2775
G01 X10.8039 Y-11.2608
G01 X10.8252 Y-11.2253
G01 X10.8360 Y-11.2092
G01 X10.8606 Y-11.1760
G01 X10.8729 Y-11.1610
G01 X10.9007 Y-11.1304
G01 X10.9144 Y-11.1167
G01 X10.9448 Y-11.0891
G01 X10.9535 Y-11.0710
G01 X10.9627 Y-11.0539
G01 X10.9877 Y-11.0121
G01 X11.0041 Y-10.9882
G01 X11.0217 Y-10.9645
G01 X11.0336 Y-10.9493
G01 X11.0462 Y-10.9346
G01 X11.0726 Y-10.9057
G01 X11.1761 Y-10.8021
G01 X11.1761 Y-10.7247
G01 X11.1512 Y-10.7094
G01 X11.1277 Y-10.6925
G01 X11.1055 Y-10.6738
G01 X11.0848 Y-10.6535
G01 X11.0656 Y-10.6318
G01 X11.0480 Y-10.6088
G01 X11.0373 Y-10.5927
G01 X11.0274 Y-10.5761
G01 X11.0140 Y-10.5504
G01 X11.0062 Y-10.5327
G01 X10.9992 Y-10.5147
G01 X10.9932 Y-10.4963
G01 X10.9880 Y-10.4777
G01 X10.9838 Y-10.4588
G01 X10.9792 Y-10.4302
G01 X10.9773 Y-10.4110
G01 X10.9763 Y-10.3917
G01 X10.9762 Y-9.4820
G01 X10.9773 Y-9.4530
G01 X10.9805 Y-9.4242
G01 X10.9838 Y-9.4052
G01 X10.9905 Y-9.3770
G01 X10.9961 Y-9.3585
G01 X11.0026 Y-9.3403
G01 X11.0100 Y-9.3224
G01 X11.0182 Y-9.3049
G01 X11.0274 Y-9.2879
G01 X11.0373 Y-9.2713
G01 X11.0480 Y-9.2552
G01 X11.0595 Y-9.2397
G01 X11.0718 Y-9.2248
G01 X11.0848 Y-9.2105
G01 X11.0985 Y-9.1968
G01 X11.1128 Y-9.1838
G01 X11.1277 Y-9.1715
G01 X11.1477 Y-9.1570
G01 X11.1277 Y-9.1425
G01 X11.1128 Y-9.1302
G01 X11.0985 Y-9.1172
G01 X11.0848 Y-9.1035
G01 X11.0718 Y-9.0892
G01 X11.0595 Y-9.0743
G01 X11.0480 Y-9.0588
G01 X11.0373 Y-9.0427
G01 X11.0274 Y-9.0261
G01 X11.0182 Y-9.0091
G01 X11.0100 Y-8.9916
G01 X11.0026 Y-8.9737
G01 X10.9961 Y-8.9555
G01 X10.9880 Y-8.9277
G01 X10.9838 Y-8.9088
G01 X10.9805 Y-8.8898
G01 X10.9773 Y-8.8610
G01 X10.9762 Y-8.8320
G01 X10.9762 Y-8.0092
G01 X10.9564 Y-8.0118
G01 X10.9464 Y-8.0126
G01 X10.9263 Y-8.0137
G01 X10.6737 Y-8.0138
G01 X10.6456 Y-8.0128
G01 X10.6270 Y-8.0110
G01 X10.6138 Y-8.0092
G00 Z2.0000
G00 X10.7615 Y-8.1615
G01 F60.00
G01 Z-0.1500
G01 F240.00
G01 X10.7615 Y-8.8320
G01 X10.7608 Y-8.8586
G01 X10.7589 Y-8.8851
G01 X10.7556 Y-8.9115
G01 X10.7511 Y-8.9376
G01 X10.7483 Y-8.9506
G01 X10.7419 Y-8.9764
G01 X10.7382 Y-8.9892
G01 X10.7298 Y-9.0144
G01 X10.7252 Y-9.0269
G01 X10.7150 Y-9.0514
G01 X10.7095 Y-9.0635
G01 X10.7037 Y-9.0755
G01 X10.6911 Y-9.0989
G01 X10.6844 Y-9.1104
G01 X10.6702 Y-9.1328
G01 X10.6531 Y-9.1570
G01 X10.6702 Y-9.1812
G01 X10.6844 Y-9.2036
G01 X10.6911 Y-9.2151
G01 X10.6975 Y-9.2268
G01 X10.7095 Y-9.2505
G01 X10.7150 Y-9.2626
G01 X10.7252 Y-9.2871
G01 X10.7298 Y-9.2996
G01 X10.7382 Y-9.3248
G01 X10.7419 Y-9.3376
G01 X10.7483 Y-9.3634
G01 X10.7511 Y-9.3764
G01 X10.7556 Y-9.4025
G01 X10.7589 Y-9.4289
G01 X10.7600 Y-9.4422
G01 X10.7613 Y-9.4687
G01 X10.7615 Y-9.4820
G01 X10.7615 Y-10.3820
G01 X10.7608 Y-10.4086
G01 X10.7589 Y-10.4351
G01 X10.7574 Y-10.4483
G01 X10.7535 Y-10.4746
G01 X10.7483 Y-10.5006
G01 X10.7419 Y-10.5264
G01 X10.7382 Y-10.5392
G01 X10.7298 Y-10.5644
G01 X10.7252 Y-10.5769
G01 X10.7150 Y-10.6014
G01 X10.7095 Y-10.6135
G01 X10.7037 Y-10.6255
G01 X10.6911 Y-10.6489
G01 X10.6844 Y-10.6604
G01 X10.6702 Y-10.6828
G01 X10.6549 Y-10.7046
G01 X10.6410 Y-10.7225
G01 X10.6620 Y-10.7459
G01 X10.6706 Y-10.7561
G01 X10.6869 Y-10.7770
G01 X10.7123 Y-10.8115
G01 X10.7270 Y-10.8336
G01 X10.7340 Y-10.8449
G01 X10.7558 Y-10.8816
G01 X10.7684 Y-10.9051
G01 X10.7742 Y-10.9170
G01 X10.7868 Y-10.9436
G01 X10.7976 Y-10.9679
G01 X10.8025 Y-10.9803
G01 X10.8130 Y-11.0093
G01 X10.8249 Y-10.9984
G01 X10.8342 Y-10.9811
G01 X10.8409 Y-10.9696
G01 X10.8560 Y-10.9444
G01 X10.8702 Y-10.9219
G01 X10.8855 Y-10.9002
G01 X10.9111 Y-10.8660
G01 X10.9280 Y-10.8454
G01 X10.9566 Y-10.8136
G01 X10.9749 Y-10.7944
G01 X10.9959 Y-10.7734
G01 X10.9778 Y-10.7554
G01 X10.9600 Y-10.7357
G01 X10.9431 Y-10.7151
G01 X10.9273 Y-10.6938
G01 X10.9198 Y-10.6828
G01 X10.9056 Y-10.6604
G01 X10.8925 Y-10.6372
G01 X10.8805 Y-10.6135
G01 X10.8697 Y-10.5892
G01 X10.8602 Y-10.5644
G01 X10.8559 Y-10.5519
G01 X10.8481 Y-10.5264
G01 X10.8417 Y-10.5006
G01 X10.8389 Y-10.4876
G01 X10.8344 Y-10.4615
G01 X10.8311 Y-10.4351
G01 X10.8292 Y-10.4086
G01 X10.8285 Y-10.3820
G01 X10.8285 Y-9.4820
G01 X10.8287 Y-9.4687
G01 X10.8300 Y-9.4422
G01 X10.8326 Y-9.4157
G01 X10.8344 Y-9.4025
G01 X10.8365 Y-9.3894
G01 X10.8417 Y-9.3634
G01 X10.8481 Y-9.3376
G01 X10.8518 Y-9.3248
G01 X10.8602 Y-9.2996
G01 X10.8648 Y-9.2871
G01 X10.8697 Y-9.2748
G01 X10.8805 Y-9.2505
G01 X10.8925 Y-9.2268
G01 X10.8989 Y-9.2151
G01 X10.9125 Y-9.1923
G01 X10.9198 Y-9.1812
G01 X10.9369 Y-9.1570
G01 X10.9198 Y-9.1328
G01 X10.9056 Y-9.1104
G01 X10.8989 Y-9.0989
G01 X10.8925 Y-9.0872
G01 X10.8805 Y-9.0635
G01 X10.8697 Y-9.0392
G01 X10.8648 Y-9.0269
G01 X10.8559 Y-9.0019
G01 X10.8518 Y-8.9892
G01 X10.8448 Y-8.9636
G01 X10.8389 Y-8.9376
G01 X10.8365 Y-8.9246
G01 X10.8344 Y-8.9115
G01 X10.8311 Y-8.8851
G01 X10.8292 Y-8.8586
G01 X10.8285 Y-8.8320
G01 X10.8285 Y-8.1615
G01 X10.7615 Y-8.1615
G00 Z2.0000
G00 X11.3700 Y-8.9304
G01 F60.00
G01 Z-0.1500
G01 F240.00
G01 X12.3700 Y-8.9304
G01 X12.3772 Y-8.9302
G01 X12.3844 Y-8.9294
G01 X12.3939 Y-8.9275
G01 X12.4032 Y-8.9247
G01 X12.4121 Y-8.9210
G01 X12.4206 Y-8.9164
G01 X12.4267 Y-8.9125
G01 X12.4325 Y-8.9081
G01 X12.4396 Y-8.9016
G01 X12.4445 Y-8.8963
G01 X12.4505 Y-8.8887
G01 X12.4544 Y-8.8826
G01 X12.4590 Y-8.8741
G01 X12.4627 Y-8.8652
G01 X12.4649 Y-8.8583
G01 X12.4670 Y-8.8488
G01 X12.4681 Y-8.8408
G01 X14.0709 Y-10.4435
G01 X14.0945 Y-10.4650
G01 X14.1019 Y-10.4711
G01 X14.1295 Y-10.4914
G01 X14.1589 Y-10.5092
G01 X14.1674 Y-10.5137
G01 X14.1985 Y-10.5283
G01 X14.2376 Y-10.5421
G01 X14.2732 Y-10.5509
G01 X14.3071 Y-10.5561
G01 X14.3167 Y-10.5570
G01 X14.3510 Y-10.5586
G01 X16.4650 Y-10.5584
G01 X16.4869 Y-10.5575
G01 X16.5087 Y-10.5545
G01 X16.5182 Y-10.5526
G01 X16.5371 Y-10.5478
G01 X16.5601 Y-10.5395
G01 X16.5778 Y-10.5313
G01 X16.5863 Y-10.5267
G01 X16.6030 Y-10.5166
G01 X16.6226 Y-10.5021
G01 X16.6372 Y-10.4890
G01 X16.6440 Y-10.4822
G01 X16.6571 Y-10.4676
G01 X16.6716 Y-10.4480
G01 X16.6841 Y-10.4271
G01 X16.6926 Y-10.4095
G01 X16.6963 Y-10.4006
G01 X16.7034 Y-10.3798
G01 X16.7082 Y-10.3608
G01 X16.7095 Y-10.3537
G01 X16.7123 Y-10.3344
G01 X16.7134 Y-10.3124
G01 X16.7134 Y-10.0100
G01 X16.7126 Y-9.9905
G01 X16.7117 Y-9.9809
G01 X16.7087 Y-9.9615
G01 X16.7034 Y-9.9402
G01 X16.6945 Y-9.9149
G01 X16.6863 Y-9.8972
G01 X16.6817 Y-9.8887
G01 X16.6716 Y-9.8720
G01 X16.6600 Y-9.8562
G01 X16.6539 Y-9.8487
G01 X16.6407 Y-9.8343
G01 X16.6263 Y-9.8211
G01 X16.6188 Y-9.8150
G01 X16.6030 Y-9.8034
G01 X16.5863 Y-9.7933
G01 X16.5778 Y-9.7887
G01 X16.5601 Y-9.7805
G01 X16.5348 Y-9.7716
G01 X16.5135 Y-9.7663
G01 X16.4941 Y-9.7633
G01 X16.4845 Y-9.7624
G01 X16.4650 Y-9.7616
G01 X14.5161 Y-9.7614
G01 X12.8531 Y-8.0985
G01 X12.8259 Y-8.0739
G01 X12.7924 Y-8.0493
G01 X12.7588 Y-8.0294
G01 X12.7278 Y-8.0147
G01 X12.7122 Y-8.0088
G01 X12.7218 Y-7.9883
G01 X12.7302 Y-7.9653
G01 X12.7324 Y-7.9583
G01 X12.7378 Y-7.9370
G01 X12.7393 Y-7.9299
G01 X12.7428 Y-7.9057
G01 X12.7445 Y-7.8764
G01 X12.7431 Y-7.8447
G01 X12.7388 Y-7.8158
G01 X12.7317 Y-7.7873
G01 X12.7209 Y-7.7575
G01 X12.7081 Y-7.7311
G01 X12.6956 Y-7.7102
G01 X12.6915 Y-7.7042
G01 X12.6783 Y-7.6865
G01 X12.6736 Y-7.6809
G01 X12.6571 Y-7.6629
G01 X12.6391 Y-7.6464
G01 X12.6316 Y-7.6402
G01 X12.6119 Y-7.6258
G01 X12.5867 Y-7.6107
G01 X12.5603 Y-7.5982
G01 X12.5303 Y-7.5876
G01 X12.5042 Y-7.5812
G01 X12.4753 Y-7.5769
G01 X12.4460 Y-7.5755
G01 X12.4167 Y-7.5769
G01 X12.3878 Y-7.5812
G01 X12.3593 Y-7.5883
G01 X12.3317 Y-7.5982
G01 X12.3053 Y-7.6107
G01 X12.2842 Y-7.6232
G01 X12.2762 Y-7.6285
G01 X12.2566 Y-7.6432
G01 X12.2384 Y-7.6596
G01 X12.0642 Y-7.8336
G01 X11.3652 Y-7.8337
G01 X11.3556 Y-7.8346
G01 X11.3461 Y-7.8365
G01 X11.3368 Y-7.8393
G01 X11.3279 Y-7.8430
G01 X11.3173 Y-7.8488
G01 X11.3094 Y-7.8544
G01 X11.3021 Y-7.8607
G01 X11.2955 Y-7.8677
G01 X11.2909 Y-7.8734
G01 X11.2856 Y-7.8814
G01 X11.2810 Y-7.8899
G01 X11.2781 Y-7.8966
G01 X11.2758 Y-7.9034
G01 X11.2734 Y-7.9128
G01 X11.2723 Y-7.9199
G01 X11.2716 Y-7.9296
G01 X11.2716 Y-8.8320
G01 X11.2718 Y-8.8392
G01 X11.2730 Y-8.8488
G01 X11.2751 Y-8.8583
G01 X11.2773 Y-8.8652
G01 X11.2810 Y-8.8741
G01 X11.2856 Y-8.8826
G01 X11.2909 Y-8.8906
G01 X11.2971 Y-8.8981
G01 X11.3021 Y-8.9033
G01 X11.3094 Y-8.9096
G01 X11.3173 Y-8.9152
G01 X11.3257 Y-8.9199
G01 X11.3323 Y-8.9230
G01 X11.3414 Y-8.9262
G01 X11.3508 Y-8.9286
G01 X11.3604 Y-8.9300
G01 X11.3700 Y-8.9304
G00 Z2.0000
G00 X11.3700 Y-9.0781
G01 F60.00
G01 Z-0.1500
G01 F240.00
G01 X12.3760 Y-9.0781
G01 X12.3881 Y-9.0775
G01 X12.4001 Y-9.0763
G01 X12.4121 Y-9.0745
G01 X12.4239 Y-9.0721
G01 X12.4356 Y-9.0692
G01 X12.4472 Y-9.0657
G01 X12.4586 Y-9.0616
G01 X12.4737 Y-9.0552
G01 X13.9690 Y-10.5505
G01 X14.0044 Y-10.5823
G01 X14.0376 Y-10.6073
G01 X14.0526 Y-10.6175
G01 X14.0935 Y-10.6418
G01 X14.1364 Y-10.6623
G01 X14.1532 Y-10.6690
G01 X14.1924 Y-10.6828
G01 X14.2326 Y-10.6931
G01 X14.2504 Y-10.6969
G01 X14.2915 Y-10.7030
G01 X14.3095 Y-10.7045
G01 X14.3510 Y-10.7063
G01 X16.4650 Y-10.7061
G01 X16.4918 Y-10.7051
G01 X16.5098 Y-10.7036
G01 X16.5423 Y-10.6985
G01 X16.5742 Y-10.6908
G01 X16.5915 Y-10.6853
G01 X16.6110 Y-10.6782
G01 X16.6221 Y-10.6736
G01 X16.6517 Y-10.6594
G01 X16.6800 Y-10.6427
G01 X16.6901 Y-10.6359
G01 X16.7068 Y-10.6236
G01 X16.7163 Y-10.6162
G01 X16.7254 Y-10.6083
G01 X16.7408 Y-10.5943
G01 X16.7493 Y-10.5858
G01 X16.7712 Y-10.5613
G01 X16.7909 Y-10.5351
G01 X16.7977 Y-10.5250
G01 X16.8084 Y-10.5072
G01 X16.8144 Y-10.4967
G01 X16.8198 Y-10.4859
G01 X16.8286 Y-10.4671
G01 X16.8332 Y-10.4560
G01 X16.8441 Y-10.4250
G01 X16.8509 Y-10.3991
G01 X16.8546 Y-10.3813
G01 X16.8586 Y-10.3548
G01 X16.8597 Y-10.3428
G01 X16.8611 Y-10.3160
G01 X16.8611 Y-10.0040
G01 X16.8592 Y-9.9712
G01 X16.8546 Y-9.9387
G01 X16.8509 Y-9.9209
G01 X16.8458 Y-9.9008
G01 X16.8422 Y-9.8893
G01 X16.8332 Y-9.8640
G01 X16.8261 Y-9.8474
G01 X16.8144 Y-9.8233
G01 X16.8008 Y-9.8001
G01 X16.7909 Y-9.7849
G01 X16.7750 Y-9.7634
G01 X16.7633 Y-9.7496
G01 X16.7451 Y-9.7299
G01 X16.7364 Y-9.7216
G01 X16.7163 Y-9.7038
G01 X16.6950 Y-9.6876
G01 X16.6800 Y-9.6773
G01 X16.6570 Y-9.6636
G01 X16.6409 Y-9.6552
G01 X16.6166 Y-9.6440
G01 X16.5915 Y-9.6347
G01 X16.5800 Y-9.6309
G01 X16.5683 Y-9.6277
G01 X16.5482 Y-9.6227
G01 X16.5363 Y-9.6204
G01 X16.5038 Y-9.6158
G01 X16.4771 Y-9.6142
G01 X16.4650 Y-9.6139
G01 X14.5773 Y-9.6137
G01 X12.9593 Y-7.9957
G01 X12.9287 Y-7.9676
G01 X12.9196 Y-7.9597
G01 X12.8877 Y-7.9357
G01 X12.8894 Y-7.9237
G01 X12.8906 Y-7.9117
G01 X12.8922 Y-7.8800
G01 X12.8922 Y-7.8680
G01 X12.8906 Y-7.8363
G01 X12.8894 Y-7.8243
G01 X12.8848 Y-7.7929
G01 X12.8824 Y-7.7810
G01 X12.8747 Y-7.7503
G01 X12.8712 Y-7.7387
G01 X12.8605 Y-7.7088
G01 X12.8559 Y-7.6977
G01 X12.8423 Y-7.6690
G01 X12.8366 Y-7.6584
G01 X12.8203 Y-7.6312
G01 X12.8136 Y-7.6211
G01 X12.7909 Y-7.5909
G01 X12.7830 Y-7.5818
G01 X12.7615 Y-7.5585
G01 X12.7382 Y-7.5370
G01 X12.7291 Y-7.5291
G01 X12.7196 Y-7.5216
G01 X12.6939 Y-7.5030
G01 X12.6837 Y-7.4965
G01 X12.6563 Y-7.4805
G01 X12.6223 Y-7.4641
G01 X12.6112 Y-7.4595
G01 X12.5813 Y-7.4488
G01 X12.5697 Y-7.4453
G01 X12.5448 Y-7.4390
G01 X12.5331 Y-7.4363
G01 X12.5212 Y-7.4343
G01 X12.4957 Y-7.4306
G01 X12.4837 Y-7.4294
G01 X12.4460 Y-7.4278
G01 X12.4143 Y-7.4290
G01 X12.4023 Y-7.4299
G01 X12.3903 Y-7.4314
G01 X12.3589 Y-7.4363
G01 X12.3281 Y-7.4438
G01 X12.3165 Y-7.4470
G01 X12.3050 Y-7.4508
G01 X12.2808 Y-7.4595
G01 X12.2697 Y-7.4641
G01 X12.2357 Y-7.4805
G01 X12.2083 Y-7.4965
G01 X12.1931 Y-7.5064
G01 X12.1629 Y-7.5291
G01 X12.1538 Y-7.5370
G01 X12.1305 Y-7.5585
G01 X12.0031 Y-7.6859
G01 X11.3700 Y-7.6859
G01 X11.3579 Y-7.6862
G01 X11.3399 Y-7.6877
G01 X11.3220 Y-7.6906
G01 X11.3102 Y-7.6933
G01 X11.2986 Y-7.6965
G01 X11.2871 Y-7.7003
G01 X11.2758 Y-7.7046
G01 X11.2648 Y-7.7095
G01 X11.2540 Y-7.7149
G01 X11.2435 Y-7.7209
G01 X11.2333 Y-7.7274
G01 X11.2234 Y-7.7343
G01 X11.2139 Y-7.7417
G01 X11.2003 Y-7.7537
G01 X11.1917 Y-7.7623
G01 X11.1836 Y-7.7712
G01 X11.1760 Y-7.7806
G01 X11.1688 Y-7.7903
G01 X11.1589 Y-7.8055
G01 X11.1502 Y-7.8213
G01 X11.1450 Y-7.8323
G01 X11.1383 Y-7.8491
G01 X11.1328 Y-7.8664
G01 X11.1286 Y-7.8840
G01 X11.1257 Y-7.9019
G01 X11.1242 Y-7.9199
G01 X11.1239 Y-7.9320
G01 X11.1239 Y-8.8320
G01 X11.1245 Y-8.8501
G01 X11.1265 Y-8.8681
G01 X11.1286 Y-8.8800
G01 X11.1313 Y-8.8918
G01 X11.1363 Y-8.9092
G01 X11.1426 Y-8.9262
G01 X11.1475 Y-8.9372
G01 X11.1529 Y-8.9480
G01 X11.1589 Y-8.9585
G01 X11.1654 Y-8.9687
G01 X11.1723 Y-8.9786
G01 X11.1797 Y-8.9881
G01 X11.1876 Y-8.9973
G01 X11.1960 Y-9.0060
G01 X11.2092 Y-9.0184
G01 X11.2234 Y-9.0297
G01 X11.2333 Y-9.0366
G01 X11.2435 Y-9.0431
G01 X11.2540 Y-9.0491
G01 X11.2648 Y-9.0545
G01 X11.2814 Y-9.0616
G01 X11.2928 Y-9.0657
G01 X11.3044 Y-9.0692
G01 X11.3161 Y-9.0721
G01 X11.3279 Y-9.0745
G01 X11.3399 Y-9.0763
G01 X11.3519 Y-9.0775
G01 X11.3700 Y-9.0781
G00 Z2.0000
G00 X12.9449 Y-10.7362
G01 F60.00
G01 Z-0.1500
G01 F240.00
G01 X13.9641 Y-10.7361
G01 X13.9497 Y-10.7259
G01 X13.9260 Y-10.7083
G01 X13.9108 Y-10.6964
G01 X13.8961 Y-10.6838
G01 X13.8743 Y-10.6640
G01 X13.8603 Y-10.6507
G01 X12.7638 Y-9.5542
G01 X12.7638 Y-9.8919
G01 X12.8660 Y-9.9940
G01 X12.8925 Y-10.0226
G01 X12.9051 Y-10.0372
G01 X12.9170 Y-10.0525
G01 X12.9343 Y-10.0761
G01 X12.9451 Y-10.0921
G01 X12.9651 Y-10.1256
G01 X12.9742 Y-10.1426
G01 X12.9909 Y-10.1778
G01 X12.9983 Y-10.1957
G01 X13.0114 Y-10.2324
G01 X13.0170 Y-10.2509
G01 X13.0265 Y-10.2887
G01 X13.0318 Y-10.3172
G01 X13.0360 Y-10.3462
G01 X13.0379 Y-10.3654
G01 X13.0398 Y-10.4043
G01 X13.0398 Y-10.4237
G01 X13.0385 Y-10.4529
G01 X13.0370 Y-10.4722
G01 X13.0318 Y-10.5108
G01 X13.0285 Y-10.5299
G01 X13.0243 Y-10.5487
G01 X13.0143 Y-10.5864
G01 X13.0016 Y-10.6232
G01 X12.9947 Y-10.6413
G01 X12.9869 Y-10.6589
G01 X12.9698 Y-10.6940
G01 X12.9602 Y-10.7108
G01 X12.9449 Y-10.7362
G00 Z2.0000
G00 X13.1665 Y-10.5885
G01 F60.00
G01 Z-0.1500
G01 F240.00
G01 X13.5893 Y-10.5885
G01 X13.1312 Y-10.1305
G01 X13.1407 Y-10.1550
G01 X13.1516 Y-10.1861
G01 X13.1593 Y-10.2115
G01 X13.1675 Y-10.2434
G01 X13.1733 Y-10.2693
G01 X13.1779 Y-10.2955
G01 X13.1825 Y-10.3281
G01 X13.1851 Y-10.3546
G01 X13.1869 Y-10.3874
G01 X13.1876 Y-10.4140
G01 X13.1869 Y-10.4406
G01 X13.1851 Y-10.4734
G01 X13.1825 Y-10.4999
G01 X13.1758 Y-10.5456
G01 X13.1706 Y-10.5717
G01 X13.1665 Y-10.5885
G00 Z2.0000
G00 X12.2011 Y-12.2994
G01 F60.00
G01 Z-0.1500
G01 F240.00
G01 X12.2076 Y-12.2884
G01 X12.2133 Y-12.2777
G01 X12.2279 Y-12.2468
G01 X12.2325 Y-12.2357
G01 X12.2440 Y-12.2035
G01 X12.2491 Y-12.1861
G01 X12.2571 Y-12.1529
G01 X12.2624 Y-12.1192
G01 X12.2644 Y-12.1012
G01 X12.2661 Y-12.0610
G01 X12.2661 Y-11.5610
G01 X12.2658 Y-11.5489
G01 X12.2639 Y-11.5148
G01 X12.2580 Y-11.4740
G01 X12.2884 Y-11.4407
G01 X12.2997 Y-11.4265
G01 X12.3242 Y-11.3930
G01 X12.3489 Y-11.3523
G01 X12.3572 Y-11.3362
G01 X12.3747 Y-11.2986
G01 X12.3909 Y-11.2538
G01 X12.3960 Y-11.2364
G01 X12.4045 Y-11.2020
G01 X12.4069 Y-11.1901
G01 X12.4130 Y-11.1490
G01 X12.4145 Y-11.1310
G01 X12.4163 Y-11.0895
G01 X12.4163 Y-10.8591
G01 X12.4400 Y-10.8602
G01 X12.4520 Y-10.8602
G01 X12.4837 Y-10.8586
G01 X12.4957 Y-10.8574
G01 X12.5271 Y-10.8528
G01 X12.5390 Y-10.8504
G01 X12.5697 Y-10.8427
G01 X12.5813 Y-10.8392
G01 X12.6112 Y-10.8285
G01 X12.6223 Y-10.8239
G01 X12.6510 Y-10.8103
G01 X12.6616 Y-10.8046
G01 X12.6888 Y-10.7883
G01 X12.6989 Y-10.7816
G01 X12.7244 Y-10.7627
G01 X12.7337 Y-10.7550
G01 X12.7615 Y-10.7295
G01 X12.7830 Y-10.7062
G01 X12.7909 Y-10.6971
G01 X12.7984 Y-10.6876
G01 X12.8170 Y-10.6619
G01 X12.8235 Y-10.6517
G01 X12.8395 Y-10.6243
G01 X12.8534 Y-10.5958
G01 X12.8583 Y-10.5848
G01 X12.8626 Y-10.5735
G01 X12.8730 Y-10.5435
G01 X12.8810 Y-10.5128
G01 X12.8837 Y-10.5011
G01 X12.8857 Y-10.4892
G01 X12.8901 Y-10.4577
G01 X12.8910 Y-10.4457
G01 X12.8922 Y-10.4140
G01 X12.8910 Y-10.3823
G01 X12.8894 Y-10.3643
G01 X12.8837 Y-10.3269
G01 X12.8762 Y-10.2961
G01 X12.8730 Y-10.2845
G01 X12.8626 Y-10.2545
G01 X12.8559 Y-10.2377
G01 X12.8395 Y-10.2037
G01 X12.8235 Y-10.1763
G01 X12.8136 Y-10.1611
G01 X12.7947 Y-10.1356
G01 X12.7830 Y-10.1218
G01 X12.7615 Y-10.0985
G01 X12.6161 Y-9.9531
G01 X12.6161 Y-9.4820
G01 X12.6155 Y-9.4639
G01 X12.6135 Y-9.4459
G01 X12.6114 Y-9.4340
G01 X12.6087 Y-9.4222
G01 X12.6055 Y-9.4106
G01 X12.6017 Y-9.3991
G01 X12.5974 Y-9.3878
G01 X12.5925 Y-9.3768
G01 X12.5842 Y-9.3607
G01 X12.5779 Y-9.3503
G01 X12.5712 Y-9.3403
G01 X12.5640 Y-9.3306
G01 X12.5564 Y-9.3212
G01 X12.5483 Y-9.3123
G01 X12.5397 Y-9.3037
G01 X12.5308 Y-9.2956
G01 X12.5214 Y-9.2880
G01 X12.5067 Y-9.2774
G01 X12.4913 Y-9.2678
G01 X12.4752 Y-9.2595
G01 X12.4586 Y-9.2524
G01 X12.4414 Y-9.2465
G01 X12.4298 Y-9.2433
G01 X12.4180 Y-9.2406
G01 X12.4001 Y-9.2377
G01 X12.3821 Y-9.2362
G01 X12.3700 Y-9.2359
G01 X11.3700 Y-9.2359
G01 X11.3579 Y-9.2362
G01 X11.3399 Y-9.2377
G01 X11.3279 Y-9.2395
G01 X11.3102 Y-9.2433
G01 X11.2986 Y-9.2465
G01 X11.2814 Y-9.2524
G01 X11.2703 Y-9.2570
G01 X11.2593 Y-9.2622
G01 X11.2435 Y-9.2709
G01 X11.2283 Y-9.2808
G01 X11.2186 Y-9.2880
G01 X11.2092 Y-9.2956
G01 X11.1960 Y-9.3080
G01 X11.1836 Y-9.3212
G01 X11.1760 Y-9.3306
G01 X11.1688 Y-9.3403
G01 X11.1589 Y-9.3555
G01 X11.1529 Y-9.3660
G01 X11.1450 Y-9.3823
G01 X11.1404 Y-9.3934
G01 X11.1345 Y-9.4106
G01 X11.1299 Y-9.4281
G01 X11.1265 Y-9.4459
G01 X11.1245 Y-9.4639
G01 X11.1239 Y-9.4760
G01 X11.1239 Y-10.3820
G01 X11.1242 Y-10.3941
G01 X11.1251 Y-10.4061
G01 X11.1275 Y-10.4241
G01 X11.1313 Y-10.4418
G01 X11.1345 Y-10.4534
G01 X11.1383 Y-10.4649
G01 X11.1450 Y-10.4817
G01 X11.1529 Y-10.4980
G01 X11.1589 Y-10.5085
G01 X11.1654 Y-10.5187
G01 X11.1760 Y-10.5334
G01 X11.1876 Y-10.5473
G01 X11.2003 Y-10.5603
G01 X11.2092 Y-10.5684
G01 X11.2186 Y-10.5760
G01 X11.2333 Y-10.5866
G01 X11.2487 Y-10.5962
G01 X11.2648 Y-10.6045
G01 X11.2758 Y-10.6094
G01 X11.2871 Y-10.6137
G01 X11.3044 Y-10.6192
G01 X11.3237 Y-10.6237
G01 X11.3237 Y-10.8632
G01 X11.1837 Y-11.0032
G01 X11.1516 Y-11.0383
G01 X11.1439 Y-11.0477
G01 X11.1227 Y-11.0761
G01 X11.1158 Y-11.0860
G01 X11.1093 Y-11.0962
G01 X11.0882 Y-11.1320
G01 X11.0702 Y-11.1694
G01 X11.0643 Y-11.1830
G01 X11.0508 Y-11.1930
G01 X11.0415 Y-11.2007
G01 X11.0162 Y-11.2236
G01 X11.0076 Y-11.2322
G01 X10.9887 Y-11.2530
G01 X10.9808 Y-11.2621
G01 X10.9734 Y-11.2716
G01 X10.9567 Y-11.2943
G01 X10.9500 Y-11.3043
G01 X10.9324 Y-11.3336
G01 X10.9267 Y-11.3443
G01 X10.9121 Y-11.3752
G01 X10.9075 Y-11.3863
G01 X10.8960 Y-11.4185
G01 X10.8925 Y-11.4300
G01 X10.8842 Y-11.4632
G01 X10.8809 Y-11.4810
G01 X10.8761 Y-11.5148
G01 X10.8739 Y-11.5550
G01 X10.8739 Y-12.0610
G01 X10.8753 Y-12.0951
G01 X10.8768 Y-12.1132
G01 X10.8818 Y-12.1470
G01 X10.8856 Y-12.1647
G01 X10.8942 Y-12.1978
G01 X10.9054 Y-12.2300
G01 X10.9121 Y-12.2468
G01 X10.9267 Y-12.2777
G01 X10.9360 Y-12.2945
G01 X10.8134 Y-12.4171
G01 X10.7980 Y-12.4209
G01 X10.7864 Y-12.4245
G01 X10.7749 Y-12.4287
G01 X10.7636 Y-12.4335
G01 X10.7472 Y-12.4416
G01 X10.6808 Y-12.4780
G01 X10.6659 Y-12.4873
G01 X10.6517 Y-12.4977
G01 X10.6383 Y-12.5090
G01 X10.6210 Y-12.5260
G01 X10.4777 Y-12.6694
G01 X10.4689 Y-12.6792
G01 X10.4443 Y-12.7096
G01 X10.4338 Y-12.7244
G01 X10.4275 Y-12.7347
G01 X10.4216 Y-12.7452
G01 X10.4138 Y-12.7616
G01 X10.4093 Y-12.7728
G01 X10.4053 Y-12.7842
G01 X10.3882 Y-12.8423
G01 X10.3661 Y-12.8643
G01 X10.3661 Y-12.8490
G01 X10.3655 Y-12.8369
G01 X10.3643 Y-12.8249
G01 X10.3614 Y-12.8070
G01 X10.3572 Y-12.7894
G01 X10.3537 Y-12.7778
G01 X10.3496 Y-12.7664
G01 X10.3450 Y-12.7553
G01 X10.3398 Y-12.7443
G01 X10.3311 Y-12.7285
G01 X10.3246 Y-12.7183
G01 X10.3177 Y-12.7084
G01 X10.3103 Y-12.6989
G01 X10.3024 Y-12.6897
G01 X10.2897 Y-12.6767
G01 X10.2808 Y-12.6686
G01 X10.2714 Y-12.6610
G01 X10.2617 Y-12.6538
G01 X10.2517 Y-12.6471
G01 X10.2360 Y-12.6379
G01 X10.2252 Y-12.6325
G01 X10.2142 Y-12.6276
G01 X10.1972 Y-12.6213
G01 X10.1856 Y-12.6178
G01 X10.1739 Y-12.6149
G01 X10.1621 Y-12.6125
G01 X10.1501 Y-12.6107
G01 X10.1381 Y-12.6095
G01 X10.1200 Y-12.6089
G01 X10.0709 Y-12.6089
G01 X10.0855 Y-12.6072
G01 X10.1266 Y-12.6008
G01 X10.1669 Y-12.5910
G01 X10.1786 Y-12.5878
G01 X10.2178 Y-12.5740
G01 X10.2346 Y-12.5673
G01 X10.2775 Y-12.5468
G01 X10.3106 Y-12.5273
G01 X10.3369 Y-12.5231
G01 X10.3760 Y-12.5135
G01 X10.3875 Y-12.5100
G01 X10.4197 Y-12.4985
G01 X10.4308 Y-12.4939
G01 X10.4563 Y-12.4819
G01 X10.4671 Y-12.4765
G01 X10.4776 Y-12.4705
G01 X10.5017 Y-12.4560
G01 X10.5117 Y-12.4493
G01 X10.5392 Y-12.4290
G01 X10.5485 Y-12.4213
G01 X10.5738 Y-12.3984
G01 X10.5824 Y-12.3898
G01 X10.6053 Y-12.3645
G01 X10.6166 Y-12.3504
G01 X10.6367 Y-12.3227
G01 X10.6545 Y-12.2936
G01 X10.6633 Y-12.2777
G01 X10.6754 Y-12.2523
G01 X10.6825 Y-12.2357
G01 X10.6940 Y-12.2035
G01 X10.6975 Y-12.1920
G01 X10.7058 Y-12.1588
G01 X10.7091 Y-12.1410
G01 X10.7139 Y-12.1072
G01 X10.7158 Y-12.0731
G01 X10.7161 Y-12.0610
G01 X10.7161 Y-11.5610
G01 X10.7158 Y-11.5489
G01 X10.7139 Y-11.5148
G01 X10.7082 Y-11.4750
G01 X10.7058 Y-11.4632
G01 X10.6991 Y-11.4359
G01 X10.6958 Y-11.4242
G01 X10.6920 Y-11.4128
G01 X10.6803 Y-11.3807
G01 X10.6659 Y-11.3497
G01 X10.6576 Y-11.3336
G01 X10.6367 Y-11.2993
G01 X10.6166 Y-11.2716
G01 X10.6053 Y-11.2575
G01 X10.5824 Y-11.2322
G01 X10.5738 Y-11.2236
G01 X10.5602 Y-11.2112
G01 X10.5569 Y-11.1894
G01 X10.5545 Y-11.1775
G01 X10.5444 Y-11.1372
G01 X10.5390 Y-11.1200
G01 X10.5269 Y-11.0866
G01 X10.5198 Y-11.0699
G01 X10.5018 Y-11.0325
G01 X10.4958 Y-11.0220
G01 X10.4742 Y-10.9865
G01 X10.4497 Y-10.9530
G01 X10.4423 Y-10.9434
G01 X10.4105 Y-10.9080
G01 X10.2663 Y-10.7637
G01 X10.2663 Y-10.6237
G01 X10.2856 Y-10.6192
G01 X10.3029 Y-10.6137
G01 X10.3142 Y-10.6094
G01 X10.3252 Y-10.6045
G01 X10.3413 Y-10.5962
G01 X10.3517 Y-10.5899
G01 X10.3617 Y-10.5832
G01 X10.3761 Y-10.5723
G01 X10.3897 Y-10.5603
G01 X10.3983 Y-10.5517
G01 X10.4064 Y-10.5428
G01 X10.4177 Y-10.5286
G01 X10.4279 Y-10.5137
G01 X10.4342 Y-10.5033
G01 X10.4398 Y-10.4927
G01 X10.4474 Y-10.4762
G01 X10.4517 Y-10.4649
G01 X10.4555 Y-10.4534
G01 X10.4601 Y-10.4359
G01 X10.4635 Y-10.4181
G01 X10.4649 Y-10.4061
G01 X10.4658 Y-10.3941
G01 X10.4661 Y-10.3820
G01 X10.4661 Y-9.4820
G01 X10.4655 Y-9.4639
G01 X10.4643 Y-9.4519
G01 X10.4625 Y-9.4399
G01 X10.4601 Y-9.4281
G01 X10.4572 Y-9.4164
G01 X10.4517 Y-9.3991
G01 X10.4450 Y-9.3823
G01 X10.4371 Y-9.3660
G01 X10.4279 Y-9.3503
G01 X10.4177 Y-9.3354
G01 X10.4064 Y-9.3212
G01 X10.3940 Y-9.3080
G01 X10.3808 Y-9.2956
G01 X10.3666 Y-9.2843
G01 X10.3517 Y-9.2741
G01 X10.3360 Y-9.2649
G01 X10.3197 Y-9.2570
G01 X10.3029 Y-9.2503
G01 X10.2856 Y-9.2448
G01 X10.2663 Y-9.2403
G01 X10.2663 Y-9.0737
G01 X10.2856 Y-9.0692
G01 X10.3029 Y-9.0637
G01 X10.3142 Y-9.0594
G01 X10.3252 Y-9.0545
G01 X10.3413 Y-9.0462
G01 X10.3517 Y-9.0399
G01 X10.3617 Y-9.0332
G01 X10.3761 Y-9.0223
G01 X10.3897 Y-9.0103
G01 X10.4024 Y-8.9973
G01 X10.4140 Y-8.9834
G01 X10.4212 Y-8.9737
G01 X10.4279 Y-8.9637
G01 X10.4371 Y-8.9480
G01 X10.4450 Y-8.9317
G01 X10.4517 Y-8.9149
G01 X10.4572 Y-8.8976
G01 X10.4601 Y-8.8859
G01 X10.4625 Y-8.8741
G01 X10.4649 Y-8.8561
G01 X10.4658 Y-8.8441
G01 X10.4661 Y-8.8320
G01 X10.4661 Y-7.9320
G01 X10.4658 Y-7.9199
G01 X10.4643 Y-7.9019
G01 X10.4614 Y-7.8840
G01 X10.4572 Y-7.8664
G01 X10.4517 Y-7.8491
G01 X10.4474 Y-7.8378
G01 X10.4425 Y-7.8268
G01 X10.4342 Y-7.8107
G01 X10.4246 Y-7.7953
G01 X10.4140 Y-7.7806
G01 X10.4064 Y-7.7712
G01 X10.3983 Y-7.7623
G01 X10.3897 Y-7.7537
G01 X10.3808 Y-7.7456
G01 X10.3714 Y-7.7380
G01 X10.3617 Y-7.7308
G01 X10.3517 Y-7.7241
G01 X10.3413 Y-7.7178
G01 X10.3307 Y-7.7122
G01 X10.3197 Y-7.7070
G01 X10.3086 Y-7.7024
G01 X10.2972 Y-7.6983
G01 X10.2856 Y-7.6948
G01 X10.2739 Y-7.6919
G01 X10.2621 Y-7.6895
G01 X10.2501 Y-7.6877
G01 X10.2321 Y-7.6862
G01 X10.2200 Y-7.6859
G01 X9.5869 Y-7.6859
G01 X9.4595 Y-7.5585
G01 X9.4362 Y-7.5370
G01 X9.4224 Y-7.5253
G01 X9.3969 Y-7.5064
G01 X9.3868 Y-7.4997
G01 X9.3596 Y-7.4834
G01 X9.3436 Y-7.4750
G01 X9.3148 Y-7.4617
G01 X9.2793 Y-7.4488
G01 X9.2619 Y-7.4438
G01 X9.2311 Y-7.4363
G01 X9.1937 Y-7.4306
G01 X9.1757 Y-7.4290
G01 X9.1440 Y-7.4278
G01 X9.1123 Y-7.4290
G01 X9.1003 Y-7.4299
G01 X9.0629 Y-7.4352
G01 X9.0510 Y-7.4376
G01 X9.0203 Y-7.4453
G01 X9.0087 Y-7.4488
G01 X8.9845 Y-7.4574
G01 X8.9732 Y-7.4617
G01 X8.9622 Y-7.4666
G01 X8.9390 Y-7.4777
G01 X8.9231 Y-7.4864
G01 X8.9012 Y-7.4997
G01 X8.8911 Y-7.5064
G01 X8.8656 Y-7.5253
G01 X8.8563 Y-7.5330
G01 X8.8285 Y-7.5585
G01 X8.8070 Y-7.5818
G01 X8.7991 Y-7.5909
G01 X8.7916 Y-7.6004
G01 X8.7730 Y-7.6261
G01 X8.7534 Y-7.6584
G01 X8.7477 Y-7.6690
G01 X8.7341 Y-7.6977
G01 X8.7295 Y-7.7088
G01 X8.7188 Y-7.7387
G01 X8.7153 Y-7.7503
G01 X8.7076 Y-7.7810
G01 X8.7052 Y-7.7929
G01 X8.7028 Y-7.8088
G01 X8.6877 Y-7.8088
G01 X8.6702 Y-7.8058
G01 X8.6519 Y-7.8041
G01 X8.5705 Y-7.7996
G01 X8.5529 Y-7.8001
G01 X8.5412 Y-7.8011
G01 X8.5232 Y-7.8037
G01 X8.4792 Y-7.8088
G01 X6.4368 Y-7.8088
G01 X6.4813 Y-7.7684
G01 X6.4943 Y-7.7558
G01 X6.5544 Y-7.6895
G01 X6.5661 Y-7.6757
G01 X6.6194 Y-7.6039
G01 X6.6297 Y-7.5889
G01 X6.6788 Y-7.5070
G01 X6.6845 Y-7.4963
G01 X6.6918 Y-7.4811
G01 X6.7600 Y-7.4811
G01 X6.7662 Y-7.5231
G01 X6.7685 Y-7.5351
G01 X6.7714 Y-7.5469
G01 X6.7749 Y-7.5587
G01 X6.7813 Y-7.5758
G01 X6.7862 Y-7.5870
G01 X6.7947 Y-7.6033
G01 X6.8010 Y-7.6138
G01 X6.8078 Y-7.6239
G01 X6.8151 Y-7.6338
G01 X6.8228 Y-7.6432
G01 X6.8726 Y-7.7006
G01 X6.8855 Y-7.7136
G01 X6.8993 Y-7.7257
G01 X6.9139 Y-7.7368
G01 X6.9293 Y-7.7467
G01 X6.9454 Y-7.7554
G01 X6.9622 Y-7.7629
G01 X6.9736 Y-7.7672
G01 X6.9852 Y-7.7710
G01 X7.0579 Y-7.7922
G01 X7.0750 Y-7.7962
G01 X7.0866 Y-7.7981
G01 X7.0982 Y-7.7995
G01 X7.1099 Y-7.8003
G01 X7.1216 Y-7.8006
G01 X8.4549 Y-7.8005
G01 X8.4735 Y-7.7994
G01 X8.4921 Y-7.7968
G01 X8.5043 Y-7.7943
G01 X8.5705 Y-7.7786
G01 X8.5877 Y-7.7730
G01 X8.6044 Y-7.7662
G01 X8.6153 Y-7.7610
G01 X8.6258 Y-7.7553
G01 X8.6411 Y-7.7457
G01 X8.6557 Y-7.7350
G01 X8.6650 Y-7.7274
G01 X8.7210 Y-7.6762
G01 X8.7335 Y-7.6638
G01 X8.7451 Y-7.6507
G01 X8.7558 Y-7.6367
G01 X8.7654 Y-7.6220
G01 X8.7837 Y-7.5917
G01 X8.8617 Y-7.5137
G01 X8.9561 Y-7.4566
G01 X9.0615 Y-7.4238
G01 X9.1716 Y-7.4171
G01 X9.2802 Y-7.4370
G01 X9.3808 Y-7.4823
G01 X9.4459 Y-7.5333
G01 X9.4818 Y-7.5692
G01 X9.4963 Y-7.5826
G01 X9.5268 Y-7.6072
G01 X9.5366 Y-7.6143
G01 X9.5467 Y-7.6209
G01 X9.5571 Y-7.6270
G01 X9.5678 Y-7.6326
G01 X9.5788 Y-7.6377
G01 X9.5900 Y-7.6422
G01 X9.6071 Y-7.6480
G01 X9.6798 Y-7.6692
G01 X9.6969 Y-7.6732
G01 X9.7085 Y-7.6751
G01 X9.7260 Y-7.6770
G01 X9.7377 Y-7.6776
G01 X10.2547 Y-7.6776
G01 X10.2704 Y-7.6793
G01 X10.3432 Y-7.7064
G01 X10.4173 Y-7.7619
G01 X10.4277 Y-7.7710
G01 X10.4348 Y-7.7766
G01 X10.4480 Y-7.7884
G01 X10.4573 Y-7.7960
G01 X10.4671 Y-7.8030
G01 X10.4771 Y-7.8096
G01 X10.4928 Y-7.8185
G01 X10.5091 Y-7.8263
G01 X10.5259 Y-7.8328
G01 X10.5373 Y-7.8365
G01 X10.6044 Y-7.8562
G01 X10.6214 Y-7.8605
G01 X10.6387 Y-7.8636
G01 X10.6562 Y-7.8655
G01 X10.6679 Y-7.8661
G01 X10.9163 Y-7.8661
G01 X10.9288 Y-7.8658
G01 X10.9413 Y-7.8648
G01 X10.9538 Y-7.8633
G01 X11.0033 Y-7.8544
G01 X11.0151 Y-7.8520
G01 X11.0267 Y-7.8490
G01 X11.0382 Y-7.8454
G01 X11.0495 Y-7.8413
G01 X11.0660 Y-7.8341
G01 X11.0820 Y-7.8257
G01 X11.0923 Y-7.8195
G01 X11.1022 Y-7.8128
G01 X11.1229 Y-7.7974
G01 X11.1378 Y-7.7887
G01 X11.1479 Y-7.7820
G01 X11.1623 Y-7.7710
G01 X11.1727 Y-7.7619
G01 X11.2468 Y-7.7064
G01 X11.3196 Y-7.6793
G01 X11.3353 Y-7.6776
G01 X11.8531 Y-7.6775
G01 X11.8662 Y-7.6768
G01 X11.9051 Y-7.6727
G01 X11.9230 Y-7.6696
G01 X11.9406 Y-7.6653
G01 X11.9521 Y-7.6617
G01 X11.9635 Y-7.6575
G01 X11.9746 Y-7.6528
G01 X11.9855 Y-7.6475
G01 X12.0521 Y-7.6112
G01 X12.0623 Y-7.6053
G01 X12.0721 Y-7.5990
G01 X12.0863 Y-7.5887
G01 X12.0997 Y-7.5773
G01 X12.1441 Y-7.5333
G01 X12.2092 Y-7.4823
G01 X12.3098 Y-7.4370
G01 X12.4184 Y-7.4171
G01 X12.5285 Y-7.4238
G01 X12.6339 Y-7.4566
G01 X12.7283 Y-7.5137
G01 X12.8063 Y-7.5917
G01 X12.8634 Y-7.6861
G01 X12.8962 Y-7.7916
G01 X12.8972 Y-7.8020
G01 X12.9006 Y-7.8272
G01 X12.9036 Y-7.8447
G01 X12.9064 Y-7.8563
G01 X12.9097 Y-7.8677
G01 X12.9136 Y-7.8790
G01 X12.9180 Y-7.8900
G01 X12.9229 Y-7.9008
G01 X12.9284 Y-7.9114
G01 X12.9647 Y-7.9778
G01 X12.9708 Y-7.9878
G01 X12.9774 Y-7.9975
G01 X12.9844 Y-8.0069
G01 X12.9919 Y-8.0160
G01 X13.0038 Y-8.0288
G01 X14.2527 Y-9.2777
G01 X14.2672 Y-9.2911
G01 X14.3026 Y-9.3193
G01 X14.3125 Y-9.3262
G01 X14.3228 Y-9.3325
G01 X14.3387 Y-9.3411
G01 X14.3552 Y-9.3485
G01 X14.3666 Y-9.3528
G01 X14.3781 Y-9.3565
G01 X14.4507 Y-9.3777
G01 X14.4679 Y-9.3817
G01 X14.4794 Y-9.3836
G01 X14.4969 Y-9.3855
G01 X14.5144 Y-9.3861
G01 X14.7371 Y-9.3861
G01 X14.7504 Y-9.3923
G01 X14.7616 Y-9.3969
G01 X14.8007 Y-9.4109
G01 X14.8181 Y-9.4160
G01 X14.8525 Y-9.4245
G01 X14.8703 Y-9.4278
G01 X14.9115 Y-9.4336
G01 X14.9590 Y-9.4362
G01 X16.4710 Y-9.4361
G01 X16.5038 Y-9.4342
G01 X16.5304 Y-9.4306
G01 X16.5423 Y-9.4285
G01 X16.5541 Y-9.4259
G01 X16.5800 Y-9.4191
G01 X16.5915 Y-9.4153
G01 X16.6166 Y-9.4060
G01 X16.6464 Y-9.3921
G01 X16.6622 Y-9.3834
G01 X16.6851 Y-9.3694
G01 X16.7116 Y-9.3500
G01 X16.7209 Y-9.3423
G01 X16.7364 Y-9.3284
G01 X16.7493 Y-9.3158
G01 X16.7712 Y-9.2913
G01 X16.7874 Y-9.2700
G01 X16.7977 Y-9.2550
G01 X16.8144 Y-9.2267
G01 X16.8261 Y-9.2026
G01 X16.8332 Y-9.1860
G01 X16.8441 Y-9.1550
G01 X16.8509 Y-9.1291
G01 X16.8546 Y-9.1113
G01 X16.8592 Y-9.0788
G01 X16.8608 Y-9.0521
G01 X16.8611 Y-9.0400
G01 X16.8611 Y-8.7340
G01 X16.8597 Y-8.7072
G01 X16.8586 Y-8.6952
G01 X16.8546 Y-8.6687
G01 X16.8523 Y-8.6568
G01 X16.8441 Y-8.6250
G01 X16.8403 Y-8.6135
G01 X16.8310 Y-8.5884
G01 X16.8198 Y-8.5641
G01 X16.8144 Y-8.5533
G01 X16.7977 Y-8.5250
G01 X16.7909 Y-8.5149
G01 X16.7750 Y-8.4934
G01 X16.7673 Y-8.4841
G01 X16.7534 Y-8.4686
G01 X16.7451 Y-8.4599
G01 X16.7364 Y-8.4516
G01 X16.7209 Y-8.4377
G01 X16.7116 Y-8.4300
G01 X16.6851 Y-8.4106
G01 X16.6570 Y-8.3936
G01 X16.6464 Y-8.3879
G01 X16.6276 Y-8.3789
G01 X16.6110 Y-8.3718
G01 X16.5800 Y-8.3609
G01 X16.5482 Y-8.3527
G01 X16.5363 Y-8.3504
G01 X16.5158 Y-8.3473
G01 X16.5038 Y-8.3458
G01 X16.4918 Y-8.3449
G01 X16.4650 Y-8.3439
G01 X15.1913 Y-8.3437
G01 X14.9950 Y-8.1475
G01 X15.0058 Y-8.1508
G01 X15.0259 Y-8.1559
G01 X15.0377 Y-8.1585
G01 X15.0496 Y-8.1606
G01 X15.0702 Y-8.1636
G01 X15.0822 Y-8.1647
G01 X15.1150 Y-8.1661
G01 X16.4650 Y-8.1661
G01 X16.4918 Y-8.1651
G01 X16.5098 Y-8.1636
G01 X16.5423 Y-8.1585
G01 X16.5683 Y-8.1523
G01 X16.5857 Y-8.1472
G01 X16.6166 Y-8.1360
G01 X16.6464 Y-8.1221
G01 X16.6622 Y-8.1134
G01 X16.6851 Y-8.0994
G01 X16.7116 Y-8.0800
G01 X16.7209 Y-8.0723
G01 X16.7364 Y-8.0584
G01 X16.7493 Y-8.0458
G01 X16.7712 Y-8.0213
G01 X16.7874 Y-8.0000
G01 X16.7977 Y-7.9850
G01 X16.8144 Y-7.9567
G01 X16.8286 Y-7.9271
G01 X16.8353 Y-7.9103
G01 X16.8441 Y-7.8850
G01 X16.8523 Y-7.8532
G01 X16.8546 Y-7.8413
G01 X16.8577 Y-7.8208
G01 X16.8592 Y-7.8088
G01 X16.8601 Y-7.7968
G01 X16.8611 Y-7.7700
G01 X16.8611 Y-7.4700
G01 X16.8608 Y-7.4579
G01 X16.8592 Y-7.4312
G01 X16.8556 Y-7.4046
G01 X16.8523 Y-7.3868
G01 X16.8458 Y-7.3608
G01 X16.8403 Y-7.3435
G01 X16.8310 Y-7.3184
G01 X16.8171 Y-7.2886
G01 X16.8084 Y-7.2728
G01 X16.7977 Y-7.2550
G01 X16.7909 Y-7.2449
G01 X16.7712 Y-7.2187
G01 X16.7534 Y-7.1986
G01 X16.7451 Y-7.1899
G01 X16.7209 Y-7.1677
G01 X16.7116 Y-7.1600
G01 X16.6950 Y-7.1476
G01 X16.6851 Y-7.1406
G01 X16.6749 Y-7.1342
G01 X16.6570 Y-7.1236
G01 X16.6464 Y-7.1179
G01 X16.6166 Y-7.1040
G01 X16.5857 Y-7.0928
G01 X16.5742 Y-7.0892
G01 X16.5541 Y-7.0841
G01 X16.5363 Y-7.0804
G01 X16.5038 Y-7.0758
G01 X16.4918 Y-7.0749
G01 X16.4650 Y-7.0739
G01 X16.3363 Y-7.0739
G01 X16.3363 Y-7.0661
G01 X16.3919 Y-7.0661
G01 X16.4036 Y-7.0655
G01 X16.4152 Y-7.0644
G01 X16.4268 Y-7.0627
G01 X16.4383 Y-7.0605
G01 X16.4898 Y-7.0493
G01 X16.5077 Y-7.0447
G01 X16.5194 Y-7.0409
G01 X16.5309 Y-7.0365
G01 X16.5421 Y-7.0316
G01 X16.5531 Y-7.0261
G01 X16.5639 Y-7.0200
G01 X16.5793 Y-7.0100
G01 X16.5892 Y-7.0026
G01 X16.5987 Y-6.9948
G01 X16.6561 Y-6.9450
G01 X16.6691 Y-6.9321
G01 X16.6812 Y-6.9184
G01 X16.6887 Y-6.9087
G01 X16.6957 Y-6.8987
G01 X16.7052 Y-6.8830
G01 X16.7109 Y-6.8722
G01 X16.7161 Y-6.8611
G01 X16.7227 Y-6.8440
G01 X16.7265 Y-6.8324
G01 X16.7492 Y-6.7540
G01 X16.7527 Y-6.7368
G01 X16.7550 Y-6.7194
G01 X16.7558 Y-6.7077
G01 X16.7561 Y-6.6960
G01 X16.7560 Y-3.8439
G01 X16.7547 Y-3.8241
G01 X16.7512 Y-3.7918
G01 X16.7493 Y-3.7798
G01 X16.7468 Y-3.7680
G01 X16.7438 Y-3.7563
G01 X16.7382 Y-3.7391
G01 X16.7313 Y-3.7223
G01 X16.7232 Y-3.7061
G01 X16.6868 Y-3.6397
G01 X16.6807 Y-3.6297
G01 X16.6707 Y-3.6153
G01 X16.6597 Y-3.6016
G01 X16.6477 Y-3.5887
G01 X16.0963 Y-3.0373
G01 X16.0818 Y-3.0239
G01 X16.0513 Y-2.9993
G01 X16.0365 Y-2.9888
G01 X16.0262 Y-2.9825
G01 X16.0157 Y-2.9766
G01 X16.0048 Y-2.9713
G01 X15.9938 Y-2.9665
G01 X15.9824 Y-2.9622
G01 X15.9709 Y-2.9585
G01 X15.8983 Y-2.9373
G01 X15.8869 Y-2.9345
G01 X15.8754 Y-2.9323
G01 X15.8638 Y-2.9306
G01 X15.8521 Y-2.9295
G01 X15.8346 Y-2.9289
G01 X6.6421 Y-2.9289
G01 X6.6300 Y-2.9295
G01 X6.6180 Y-2.9307
G01 X6.5820 Y-2.9353
G01 X6.5703 Y-2.9373
G01 X6.5587 Y-2.9398
G01 X6.5417 Y-2.9447
G01 X6.5305 Y-2.9487
G01 X6.5196 Y-2.9531
G01 X6.5089 Y-2.9581
G01 X6.4984 Y-2.9636
G01 X6.4278 Y-3.0051
G01 X6.4176 Y-3.0118
G01 X6.4077 Y-3.0191
G01 X6.3936 Y-3.0308
G01 X6.3847 Y-3.0391
G01 X6.3762 Y-3.0480
G01 X6.3644 Y-3.0619
G01 X6.3536 Y-3.0767
G01 X6.3470 Y-3.0871
G01 X6.3381 Y-3.1031
G01 X6.3066 Y-3.1654
G01 X6.2989 Y-3.1821
G01 X6.2925 Y-3.1993
G01 X6.2890 Y-3.2110
G01 X6.2860 Y-3.2228
G01 X6.2837 Y-3.2348
G01 X6.2819 Y-3.2469
G01 X6.2807 Y-3.2591
G01 X6.2802 Y-3.2713
G01 X6.2802 Y-3.2835
G01 X6.2814 Y-3.3018
G01 X6.2886 Y-3.3713
G01 X6.2902 Y-3.3835
G01 X6.2936 Y-3.4015
G01 X6.2984 Y-3.4192
G01 X6.3024 Y-3.4307
G01 X6.3068 Y-3.4421
G01 X6.3146 Y-3.4587
G01 X6.3205 Y-3.4694
G01 X6.3269 Y-3.4798
G01 X6.3338 Y-3.4899
G01 X6.3412 Y-3.4997
G01 X6.3848 Y-3.5542
G01 X6.3963 Y-3.5676
G01 X6.4086 Y-3.5800
G01 X6.4174 Y-3.5879
G01 X6.4260 Y-3.5949
G01 X6.5638 Y-3.7327
G01 X6.6746 Y-3.8910
G01 X6.6783 Y-3.8987
G01 X6.6643 Y-3.8987
G01 X6.6264 Y-3.8360
G01 X6.6194 Y-3.8261
G01 X6.5661 Y-3.7543
G01 X6.5544 Y-3.7405
G01 X6.4984 Y-3.6787
G01 X6.4858 Y-3.6657
G01 X6.4195 Y-3.6056
G01 X6.4104 Y-3.5977
G01 X6.4009 Y-3.5903
G01 X6.3339 Y-3.5406
G01 X6.3240 Y-3.5336
G01 X6.3138 Y-3.5271
G01 X6.2422 Y-3.4843
G01 X6.2263 Y-3.4755
G01 X6.1455 Y-3.4372
G01 X6.1345 Y-3.4323
G01 X6.1232 Y-3.4280
G01 X6.0447 Y-3.3999
G01 X6.0332 Y-3.3961
G01 X6.0215 Y-3.3929
G01 X5.9406 Y-3.3726
G01 X5.9288 Y-3.3699
G01 X5.9169 Y-3.3679
G01 X5.8344 Y-3.3556
G01 X5.8224 Y-3.3542
G01 X5.8104 Y-3.3533
G01 X5.7271 Y-3.3492
G01 X5.7150 Y-3.3489
G01 X5.7029 Y-3.3492
G01 X5.6136 Y-3.3536
G01 X5.5956 Y-3.3556
G01 X5.5131 Y-3.3679
G01 X5.5012 Y-3.3699
G01 X5.4894 Y-3.3726
G01 X5.4085 Y-3.3929
G01 X5.3968 Y-3.3961
G01 X5.3853 Y-3.3999
G01 X5.3068 Y-3.4280
G01 X5.2955 Y-3.4323
G01 X5.2845 Y-3.4372
G01 X5.2091 Y-3.4729
G01 X5.1983 Y-3.4783
G01 X5.1878 Y-3.4843
G01 X5.1162 Y-3.5271
G01 X5.1060 Y-3.5336
G01 X5.0961 Y-3.5406
G01 X5.0291 Y-3.5903
G01 X5.0196 Y-3.5977
G01 X5.0105 Y-3.6056
G01 X4.9487 Y-3.6616
G01 X4.9399 Y-3.6699
G01 X4.9316 Y-3.6787
G01 X4.8756 Y-3.7405
G01 X4.8677 Y-3.7496
G01 X4.8603 Y-3.7591
G01 X4.8106 Y-3.8261
G01 X4.8036 Y-3.8360
G01 X4.7971 Y-3.8462
G01 X4.7543 Y-3.9178
G01 X4.7483 Y-3.9283
G01 X4.7429 Y-3.9391
G01 X4.7072 Y-4.0145
G01 X4.7001 Y-4.0311
G01 X4.6699 Y-4.1153
G01 X4.6661 Y-4.1268
G01 X4.6629 Y-4.1385
G01 X4.6426 Y-4.2194
G01 X4.6399 Y-4.2312
G01 X4.6379 Y-4.2431
G01 X4.6256 Y-4.3256
G01 X4.6242 Y-4.3376
G01 X4.6233 Y-4.3496
G01 X4.6192 Y-4.4329
G01 X4.6189 Y-4.4450
G01 X4.6192 Y-4.4571
G01 X4.6233 Y-4.5404
G01 X4.6242 Y-4.5524
G01 X4.6256 Y-4.5644
G01 X4.6379 Y-4.6469
G01 X4.6399 Y-4.6588
G01 X4.6426 Y-4.6706
G01 X4.6629 Y-4.7515
G01 X4.6661 Y-4.7632
G01 X4.6699 Y-4.7747
G01 X4.6980 Y-4.8532
G01 X4.7023 Y-4.8645
G01 X4.7072 Y-4.8755
G01 X4.7429 Y-4.9509
G01 X4.7483 Y-4.9617
G01 X4.7543 Y-4.9722
G01 X4.7971 Y-5.0438
G01 X4.8036 Y-5.0540
G01 X4.8106 Y-5.0639
G01 X4.8603 Y-5.1309
G01 X4.8677 Y-5.1404
G01 X4.8756 Y-5.1495
G01 X4.9316 Y-5.2113
G01 X4.9399 Y-5.2201
G01 X4.9487 Y-5.2284
G01 X5.0105 Y-5.2844
G01 X5.0196 Y-5.2923
G01 X5.0291 Y-5.2997
G01 X5.0961 Y-5.3494
G01 X5.1060 Y-5.3564
G01 X5.1162 Y-5.3629
G01 X5.1878 Y-5.4057
G01 X5.1983 Y-5.4117
G01 X5.2091 Y-5.4171
G01 X5.2845 Y-5.4528
G01 X5.2955 Y-5.4577
G01 X5.3068 Y-5.4620
G01 X5.3853 Y-5.4901
G01 X5.3968 Y-5.4939
G01 X5.4085 Y-5.4971
G01 X5.4894 Y-5.5174
G01 X5.5071 Y-5.5212
G01 X5.5956 Y-5.5344
G01 X5.6076 Y-5.5358
G01 X5.6196 Y-5.5367
G01 X5.7029 Y-5.5408
G01 X5.7150 Y-5.5411
G01 X5.7271 Y-5.5408
G01 X5.8104 Y-5.5367
G01 X5.8224 Y-5.5358
G01 X5.8344 Y-5.5344
G01 X5.9169 Y-5.5221
G01 X5.9288 Y-5.5201
G01 X5.9406 Y-5.5174
G01 X6.0215 Y-5.4971
G01 X6.0332 Y-5.4939
G01 X6.0447 Y-5.4901
G01 X6.1232 Y-5.4620
G01 X6.1400 Y-5.4553
G01 X6.2209 Y-5.4171
G01 X6.2317 Y-5.4117
G01 X6.2422 Y-5.4057
G01 X6.3138 Y-5.3629
G01 X6.3240 Y-5.3564
G01 X6.3339 Y-5.3494
G01 X6.4009 Y-5.2997
G01 X6.4104 Y-5.2923
G01 X6.4195 Y-5.2844
G01 X6.4813 Y-5.2284
G01 X6.4901 Y-5.2201
G01 X6.4984 Y-5.2113
G01 X6.5544 Y-5.1495
G01 X6.5623 Y-5.1404
G01 X6.5697 Y-5.1309
G01 X6.6194 Y-5.0639
G01 X6.6264 Y-5.0540
G01 X6.6643 Y-4.9913
G01 X6.7393 Y-4.9913
G01 X6.7476 Y-5.0486
G01 X6.7500 Y-5.0606
G01 X6.7529 Y-5.0724
G01 X6.7584 Y-5.0899
G01 X6.7628 Y-5.1013
G01 X6.7704 Y-5.1180
G01 X6.7761 Y-5.1288
G01 X6.7824 Y-5.1393
G01 X6.7892 Y-5.1494
G01 X6.7965 Y-5.1593
G01 X6.8043 Y-5.1687
G01 X6.8500 Y-5.2215
G01 X6.8583 Y-5.2305
G01 X6.8714 Y-5.2433
G01 X6.8855 Y-5.2550
G01 X6.8954 Y-5.2623
G01 X6.9056 Y-5.2690
G01 X6.9215 Y-5.2781
G01 X6.9380 Y-5.2861
G01 X6.9551 Y-5.2927
G01 X6.9667 Y-5.2965
G01 X7.0451 Y-5.3192
G01 X7.0565 Y-5.3217
G01 X7.0681 Y-5.3236
G01 X7.0797 Y-5.3250
G01 X7.0914 Y-5.3258
G01 X7.1031 Y-5.3261
G01 X12.5981 Y-5.3261
G01 X12.6895 Y-5.4176
G01 X12.6986 Y-5.4262
G01 X12.7131 Y-5.4383
G01 X12.7594 Y-5.4708
G01 X12.7698 Y-5.4777
G01 X12.7807 Y-5.4841
G01 X12.7975 Y-5.4926
G01 X12.8647 Y-5.5232
G01 X12.8836 Y-5.5369
G01 X12.8939 Y-5.5452
G01 X12.9244 Y-5.5726
G01 X14.4329 Y-7.0811
G01 X14.4448 Y-7.0923
G01 X14.4706 Y-7.1138
G01 X14.4803 Y-7.1212
G01 X14.4905 Y-7.1281
G01 X14.5010 Y-7.1344
G01 X14.5118 Y-7.1403
G01 X14.5228 Y-7.1456
G01 X14.5342 Y-7.1504
G01 X14.5457 Y-7.1546
G01 X14.6120 Y-7.1767
G01 X14.6236 Y-7.1803
G01 X14.6415 Y-7.1846
G01 X14.6535 Y-7.1867
G01 X14.6656 Y-7.1882
G01 X14.6778 Y-7.1891
G01 X14.6901 Y-7.1894
G01 X14.7084 Y-7.1887
G01 X14.7266 Y-7.1867
G01 X14.7446 Y-7.1833
G01 X14.8183 Y-7.1647
G01 X14.8296 Y-7.1615
G01 X14.8407 Y-7.1578
G01 X14.8516 Y-7.1536
G01 X14.8623 Y-7.1489
G01 X14.8780 Y-7.1409
G01 X14.9533 Y-7.0964
G01 X15.0570 Y-7.0663
G01 X15.2437 Y-7.0661
G01 X15.2437 Y-7.0739
G01 X15.1090 Y-7.0739
G01 X15.0822 Y-7.0753
G01 X15.0702 Y-7.0764
G01 X15.0377 Y-7.0815
G01 X15.0117 Y-7.0877
G01 X14.9943 Y-7.0928
G01 X14.9634 Y-7.1040
G01 X14.9336 Y-7.1179
G01 X14.9230 Y-7.1236
G01 X14.9051 Y-7.1342
G01 X14.8949 Y-7.1406
G01 X14.8850 Y-7.1476
G01 X14.8684 Y-7.1600
G01 X14.8591 Y-7.1677
G01 X14.8349 Y-7.1899
G01 X14.8127 Y-7.2141
G01 X14.8050 Y-7.2234
G01 X14.7926 Y-7.2400
G01 X14.7856 Y-7.2499
G01 X14.7792 Y-7.2601
G01 X14.7656 Y-7.2833
G01 X14.7539 Y-7.3074
G01 X14.7468 Y-7.3240
G01 X14.7378 Y-7.3493
G01 X14.7327 Y-7.3667
G01 X14.7265 Y-7.3927
G01 X14.7223 Y-7.4192
G01 X14.7203 Y-7.4372
G01 X14.7189 Y-7.4700
G01 X14.7189 Y-7.7700
G01 X14.7192 Y-7.7821
G01 X14.7208 Y-7.8088
G01 X14.7254 Y-7.8413
G01 X14.7291 Y-7.8591
G01 X14.7342 Y-7.8792
G01 X14.7375 Y-7.8900
G01 X14.7252 Y-7.8776
G01 X14.7108 Y-7.8281
G01 X14.7105 Y-7.5243
G01 X14.7098 Y-7.5111
G01 X14.7064 Y-7.4782
G01 X14.7048 Y-7.4662
G01 X14.7026 Y-7.4543
G01 X14.6999 Y-7.4426
G01 X14.6947 Y-7.4252
G01 X14.6882 Y-7.4083
G01 X14.6805 Y-7.3919
G01 X14.6442 Y-7.3252
G01 X14.6383 Y-7.3151
G01 X14.6287 Y-7.3004
G01 X14.6216 Y-7.2910
G01 X14.6142 Y-7.2820
G01 X14.6022 Y-7.2691
G01 X12.9056 Y-5.5727
G01 X12.8908 Y-5.5597
G01 X12.8654 Y-5.5393
G01 X12.8556 Y-5.5322
G01 X12.8455 Y-5.5256
G01 X12.8351 Y-5.5195
G01 X12.8244 Y-5.5139
G01 X12.8134 Y-5.5088
G01 X12.8022 Y-5.5043
G01 X12.7908 Y-5.5003
G01 X12.7123 Y-5.4773
G01 X12.6952 Y-5.4733
G01 X12.6837 Y-5.4714
G01 X12.6720 Y-5.4700
G01 X12.6603 Y-5.4692
G01 X12.6486 Y-5.4689
G01 X6.6482 Y-5.4689
G01 X6.6361 Y-5.4692
G01 X6.6240 Y-5.4701
G01 X6.5878 Y-5.4745
G01 X6.5703 Y-5.4773
G01 X6.5530 Y-5.4813
G01 X6.5361 Y-5.4866
G01 X6.5196 Y-5.4931
G01 X6.5089 Y-5.4981
G01 X6.4932 Y-5.5066
G01 X6.4330 Y-5.5420
G01 X6.4226 Y-5.5484
G01 X6.4126 Y-5.5554
G01 X6.4029 Y-5.5628
G01 X6.3891 Y-5.5749
G01 X6.3804 Y-5.5835
G01 X6.3682 Y-5.5972
G01 X6.3606 Y-5.6068
G01 X6.3536 Y-5.6167
G01 X6.3439 Y-5.6323
G01 X6.3381 Y-5.6431
G01 X6.3039 Y-5.7109
G01 X6.2967 Y-5.7278
G01 X6.2925 Y-5.7393
G01 X6.2874 Y-5.7569
G01 X6.2837 Y-5.7748
G01 X6.2812 Y-5.7930
G01 X6.2802 Y-5.8113
G01 X6.2805 Y-5.8296
G01 X6.2814 Y-5.8418
G01 X6.2893 Y-5.9174
G01 X6.2923 Y-5.9355
G01 X6.2967 Y-5.9533
G01 X6.3024 Y-5.9707
G01 X6.3076 Y-5.9837
G01 X6.1598 Y-5.9840
G01 X6.1400 Y-5.9747
G01 X6.1289 Y-5.9701
G01 X6.0447 Y-5.9399
G01 X6.0274 Y-5.9344
G01 X5.9406 Y-5.9126
G01 X5.9288 Y-5.9099
G01 X5.9169 Y-5.9079
G01 X5.8284 Y-5.8948
G01 X5.8104 Y-5.8933
G01 X5.7271 Y-5.8892
G01 X5.7150 Y-5.8889
G01 X5.7029 Y-5.8892
G01 X5.6196 Y-5.8933
G01 X5.6016 Y-5.8948
G01 X5.5131 Y-5.9079
G01 X5.5012 Y-5.9099
G01 X5.4894 Y-5.9126
G01 X5.4085 Y-5.9329
G01 X5.3968 Y-5.9361
G01 X5.3853 Y-5.9399
G01 X5.3068 Y-5.9680
G01 X5.2955 Y-5.9723
G01 X5.2845 Y-5.9772
G01 X5.2091 Y-6.0129
G01 X5.1983 Y-6.0183
G01 X5.1878 Y-6.0243
G01 X5.1162 Y-6.0671
G01 X5.1060 Y-6.0736
G01 X5.0961 Y-6.0806
G01 X5.0243 Y-6.1339
G01 X5.0105 Y-6.1456
G01 X4.9487 Y-6.2016
G01 X4.9399 Y-6.2099
G01 X4.9316 Y-6.2187
G01 X4.8756 Y-6.2805
G01 X4.8677 Y-6.2896
G01 X4.8603 Y-6.2991
G01 X4.8106 Y-6.3661
G01 X4.8036 Y-6.3760
G01 X4.7971 Y-6.3862
G01 X4.7543 Y-6.4578
G01 X4.7483 Y-6.4683
G01 X4.7429 Y-6.4791
G01 X4.7047 Y-6.5600
G01 X4.6980 Y-6.5768
G01 X4.6699 Y-6.6553
G01 X4.6661 Y-6.6668
G01 X4.6629 Y-6.6785
G01 X4.6426 Y-6.7594
G01 X4.6388 Y-6.7771
G01 X4.6256 Y-6.8656
G01 X4.6236 Y-6.8836
G01 X4.6189 Y-6.9790
G01 X4.6189 Y-6.9910
G01 X4.6207 Y-7.0274
G01 X4.6091 Y-7.0158
G01 X4.6064 Y-6.9850
G01 X4.6232 Y-6.7925
G01 X4.6733 Y-6.6058
G01 X4.7549 Y-6.4307
G01 X4.8658 Y-6.2724
G01 X5.0024 Y-6.1358
G01 X5.1683 Y-6.0196
G01 X5.1779 Y-6.0125
G01 X5.1917 Y-6.0010
G01 X5.2004 Y-5.9928
G01 X5.2378 Y-5.9540
G01 X5.2496 Y-5.9408
G01 X5.2604 Y-5.9268
G01 X5.2702 Y-5.9120
G01 X5.2789 Y-5.8966
G01 X5.2841 Y-5.8860
G01 X5.2887 Y-5.8751
G01 X5.2947 Y-5.8585
G01 X5.3162 Y-5.7858
G01 X5.3205 Y-5.7687
G01 X5.3227 Y-5.7572
G01 X5.3244 Y-5.7456
G01 X5.3258 Y-5.7281
G01 X5.3261 Y-5.7136
G01 X5.3255 Y-5.6957
G01 X5.3243 Y-5.6837
G01 X5.3226 Y-5.6719
G01 X5.3110 Y-5.6133
G01 X5.3082 Y-5.6018
G01 X5.3029 Y-5.5849
G01 X5.2987 Y-5.5738
G01 X5.2940 Y-5.5630
G01 X5.2888 Y-5.5524
G01 X5.2831 Y-5.5421
G01 X5.2768 Y-5.5320
G01 X5.2666 Y-5.5176
G01 X5.2157 Y-5.4538
G01 X5.2039 Y-5.4407
G01 X5.1912 Y-5.4286
G01 X5.1823 Y-5.4210
G01 X5.1683 Y-5.4104
G01 X5.0024 Y-5.2942
G01 X4.8658 Y-5.1576
G01 X4.7549 Y-4.9993
G01 X4.6733 Y-4.8242
G01 X4.6232 Y-4.6375
G01 X4.6064 Y-4.4450
G01 X4.6232 Y-4.2525
G01 X4.6733 Y-4.0658
G01 X4.7549 Y-3.8907
G01 X4.8658 Y-3.7324
G01 X5.0024 Y-3.5958
G01 X5.1759 Y-3.4742
G01 X5.1859 Y-3.4664
G01 X5.2101 Y-3.4456
G01 X5.2189 Y-3.4375
G01 X5.2274 Y-3.4290
G01 X5.2354 Y-3.4202
G01 X5.2466 Y-3.4062
G01 X5.2535 Y-3.3964
G01 X5.2599 Y-3.3863
G01 X5.2685 Y-3.3706
G01 X5.3028 Y-3.3027
G01 X5.3100 Y-3.2859
G01 X5.3141 Y-3.2744
G01 X5.3192 Y-3.2568
G01 X5.3230 Y-3.2388
G01 X5.3254 Y-3.2207
G01 X5.3265 Y-3.2024
G01 X5.3262 Y-3.1840
G01 X5.3252 Y-3.1719
G01 X5.3173 Y-3.0963
G01 X5.3143 Y-3.0782
G01 X5.3100 Y-3.0604
G01 X5.3063 Y-3.0487
G01 X5.3021 Y-3.0372
G01 X5.2948 Y-3.0205
G01 X5.2892 Y-3.0096
G01 X5.2830 Y-2.9990
G01 X5.2764 Y-2.9888
G01 X5.2705 Y-2.9806
G01 X5.3232 Y-2.9279
G01 X5.3853 Y-2.9501
G01 X5.3968 Y-2.9539
G01 X5.4085 Y-2.9571
G01 X5.4894 Y-2.9774
G01 X5.5012 Y-2.9801
G01 X5.5131 Y-2.9821
G01 X5.5956 Y-2.9944
G01 X5.6076 Y-2.9958
G01 X5.6196 Y-2.9967
G01 X5.7090 Y-3.0011
G01 X5.7271 Y-3.0008
G01 X5.8104 Y-2.9967
G01 X5.8224 Y-2.9958
G01 X5.8344 Y-2.9944
G01 X5.9169 Y-2.9821
G01 X5.9288 Y-2.9801
G01 X5.9406 Y-2.9774
G01 X6.0215 Y-2.9571
G01 X6.0332 Y-2.9539
G01 X6.0447 Y-2.9501
G01 X6.1232 Y-2.9220
G01 X6.1345 Y-2.9177
G01 X6.1455 Y-2.9128
G01 X6.2209 Y-2.8771
G01 X6.2317 Y-2.8717
G01 X6.2422 Y-2.8657
G01 X6.3138 Y-2.8229
G01 X6.3240 Y-2.8164
G01 X6.3339 Y-2.8094
G01 X6.4009 Y-2.7597
G01 X6.4104 Y-2.7523
G01 X6.4195 Y-2.7444
G01 X6.4813 Y-2.6884
G01 X6.4901 Y-2.6801
G01 X6.4984 Y-2.6713
G01 X6.5584 Y-2.6050
G01 X6.5697 Y-2.5909
G01 X6.6230 Y-2.5190
G01 X6.6329 Y-2.5038
G01 X6.6643 Y-2.4513
G01 X6.7393 Y-2.4513
G01 X6.7476 Y-2.5086
G01 X6.7500 Y-2.5206
G01 X6.7529 Y-2.5324
G01 X6.7584 Y-2.5499
G01 X6.7628 Y-2.5613
G01 X6.7704 Y-2.5780
G01 X6.7761 Y-2.5888
G01 X6.7824 Y-2.5993
G01 X6.7892 Y-2.6094
G01 X6.7965 Y-2.6193
G01 X6.8043 Y-2.6287
G01 X6.8500 Y-2.6815
G01 X6.8583 Y-2.6905
G01 X6.8714 Y-2.7033
G01 X6.8855 Y-2.7150
G01 X6.9004 Y-2.7257
G01 X6.9108 Y-2.7322
G01 X6.9215 Y-2.7381
G01 X6.9380 Y-2.7461
G01 X6.9551 Y-2.7527
G01 X6.9667 Y-2.7565
G01 X7.0451 Y-2.7792
G01 X7.0565 Y-2.7817
G01 X7.0681 Y-2.7836
G01 X7.0797 Y-2.7850
G01 X7.0914 Y-2.7858
G01 X7.1031 Y-2.7861
G01 X15.7731 Y-2.7861
G01 X15.8598 Y-2.8728
G01 X15.8740 Y-2.8852
G01 X15.8890 Y-2.8966
G01 X15.9304 Y-2.9252
G01 X15.9465 Y-2.9349
G01 X15.9633 Y-2.9434
G01 X16.0506 Y-2.9832
G01 X16.0617 Y-2.9912
G01 X16.6663 Y-3.5959
G01 X16.7098 Y-3.6539
G01 X16.7264 Y-3.6843
G01 X16.7331 Y-3.7023
G01 X16.7378 Y-3.7130
G01 X16.7429 Y-3.7236
G01 X16.7515 Y-3.7389
G01 X16.7896 Y-3.7979
G01 X16.8003 Y-3.8118
G01 X16.8120 Y-3.8250
G01 X17.9255 Y-4.9386
G01 X17.9347 Y-4.9473
G01 X17.9444 Y-4.9556
G01 X17.9545 Y-4.9634
G01 X17.9649 Y-4.9706
G01 X18.0244 Y-5.0073
G01 X18.0356 Y-5.0134
G01 X18.0471 Y-5.0189
G01 X18.0588 Y-5.0239
G01 X18.0689 Y-5.0275
G01 X18.1668 Y-5.0879
G01 X18.1802 Y-5.0987
G01 X18.1897 Y-5.1055
G01 X18.2389 Y-5.1372
G01 X18.2495 Y-5.1436
G01 X18.2658 Y-5.1522
G01 X18.2827 Y-5.1595
G01 X18.2943 Y-5.1637
G01 X18.3060 Y-5.1673
G01 X18.3240 Y-5.1716
G01 X18.3361 Y-5.1737
G01 X18.3483 Y-5.1751
G01 X18.4241 Y-5.1806
G01 X18.4364 Y-5.1812
G01 X18.4547 Y-5.1809
G01 X18.4669 Y-5.1800
G01 X18.4790 Y-5.1784
G01 X18.4910 Y-5.1763
G01 X18.5029 Y-5.1735
G01 X18.5205 Y-5.1683
G01 X18.5320 Y-5.1641
G01 X18.5488 Y-5.1568
G01 X18.5597 Y-5.1512
G01 X18.6210 Y-5.1177
G01 X18.6311 Y-5.1118
G01 X18.6437 Y-5.1036
G01 X18.6437 Y-5.1207
G01 X18.6276 Y-5.1362
G01 X18.6047 Y-5.1615
G01 X18.5970 Y-5.1708
G01 X18.5767 Y-5.1983
G01 X18.5668 Y-5.2135
G01 X18.5495 Y-5.2429
G01 X18.5441 Y-5.2537
G01 X18.5297 Y-5.2847
G01 X18.5254 Y-5.2960
G01 X18.5142 Y-5.3282
G01 X18.5056 Y-5.3613
G01 X18.5029 Y-5.3731
G01 X18.5009 Y-5.3850
G01 X18.4961 Y-5.4188
G01 X18.4942 Y-5.4529
G01 X18.4939 Y-5.4650
G01 X18.4939 Y-5.9710
G01 X18.4961 Y-6.0112
G01 X18.5018 Y-6.0510
G01 X18.5042 Y-6.0628
G01 X18.5109 Y-6.0901
G01 X18.5142 Y-6.1018
G01 X18.5180 Y-6.1132
G01 X18.5297 Y-6.1453
G01 X18.5441 Y-6.1763
G01 X18.5495 Y-6.1871
G01 X18.5555 Y-6.1976
G01 X18.5733 Y-6.2267
G01 X18.5970 Y-6.2592
G01 X18.6047 Y-6.2685
G01 X18.6235 Y-6.2894
G01 X18.6319 Y-6.2981
G01 X18.6406 Y-6.3065
G01 X18.6661 Y-6.3292
G01 X18.6983 Y-6.3533
G01 X18.7083 Y-6.3600
G01 X18.7324 Y-6.3745
G01 X18.7483 Y-6.3833
G01 X18.7847 Y-6.4003
G01 X18.8225 Y-6.4140
G01 X18.8340 Y-6.4175
G01 X18.8613 Y-6.4244
G01 X18.8790 Y-6.4282
G01 X18.9188 Y-6.4339
G01 X18.9590 Y-6.4361
G01 X19.4150 Y-6.4361
G01 X19.4271 Y-6.4358
G01 X19.4552 Y-6.4344
G01 X19.4672 Y-6.4332
G01 X19.5010 Y-6.4282
G01 X19.5187 Y-6.4244
G01 X19.5518 Y-6.4158
G01 X19.5840 Y-6.4046
G01 X19.6008 Y-6.3979
G01 X19.6263 Y-6.3859
G01 X19.6424 Y-6.3776
G01 X19.6717 Y-6.3600
G01 X19.6866 Y-6.3498
G01 X19.7139 Y-6.3292
G01 X19.7394 Y-6.3065
G01 X19.7481 Y-6.2981
G01 X19.7713 Y-6.2730
G01 X19.7813 Y-6.2613
G01 X19.7949 Y-6.2613
G01 X19.7760 Y-6.2920
G01 X19.7697 Y-6.3036
G01 X19.7641 Y-6.3154
G01 X19.7460 Y-6.3568
G01 X19.7400 Y-6.3740
G01 X19.7354 Y-6.3916
G01 X19.7330 Y-6.4035
G01 X19.7312 Y-6.4155
G01 X19.7296 Y-6.4336
G01 X19.7293 Y-6.4458
G01 X19.7293 Y-6.5156
G01 X19.7300 Y-6.5339
G01 X19.7312 Y-6.5461
G01 X19.7330 Y-6.5582
G01 X19.7354 Y-6.5702
G01 X19.7385 Y-6.5820
G01 X19.7420 Y-6.5937
G01 X19.7462 Y-6.6052
G01 X19.7535 Y-6.6220
G01 X19.7591 Y-6.6329
G01 X19.7652 Y-6.6435
G01 X19.8062 Y-6.7075
G01 X19.8162 Y-6.7219
G01 X19.8272 Y-6.7356
G01 X19.8392 Y-6.7484
G01 X19.8477 Y-6.7565
G01 X19.9533 Y-6.8481
G01 X19.9760 Y-6.8743
G01 X19.9965 Y-6.9058
G01 X20.0036 Y-6.9152
G01 X20.0110 Y-6.9242
G01 X20.0230 Y-6.9371
G01 X20.0647 Y-6.9787
G01 X20.0785 Y-6.9909
G01 X20.0932 Y-7.0020
G01 X20.1087 Y-7.0120
G01 X20.1249 Y-7.0208
G01 X20.1417 Y-7.0284
G01 X20.1532 Y-7.0327
G01 X20.1650 Y-7.0365
G01 X20.2376 Y-7.0577
G01 X20.2548 Y-7.0617
G01 X20.2721 Y-7.0644
G01 X20.2838 Y-7.0655
G01 X20.3013 Y-7.0661
G01 X20.4937 Y-7.0661
G01 X20.4937 Y-7.0739
G01 X20.3590 Y-7.0739
G01 X20.3262 Y-7.0758
G01 X20.2937 Y-7.0804
G01 X20.2818 Y-7.0827
G01 X20.2617 Y-7.0877
G01 X20.2500 Y-7.0909
G01 X20.2385 Y-7.0947
G01 X20.2190 Y-7.1018
G01 X20.2079 Y-7.1064
G01 X20.1783 Y-7.1206
G01 X20.1678 Y-7.1266
G01 X20.1449 Y-7.1406
G01 X20.1184 Y-7.1600
G01 X20.1091 Y-7.1677
G01 X20.0892 Y-7.1857
G01 X20.0807 Y-7.1942
G01 X20.0667 Y-7.2096
G01 X20.0550 Y-7.2234
G01 X20.0426 Y-7.2400
G01 X20.0356 Y-7.2499
G01 X20.0292 Y-7.2601
G01 X20.0186 Y-7.2780
G01 X20.0129 Y-7.2886
G01 X20.0014 Y-7.3129
G01 X19.9968 Y-7.3240
G01 X19.9859 Y-7.3550
G01 X19.9777 Y-7.3868
G01 X19.9754 Y-7.3987
G01 X19.9723 Y-7.4192
G01 X19.9708 Y-7.4312
G01 X19.9699 Y-7.4432
G01 X19.9689 Y-7.4700
G01 X19.9689 Y-7.7700
G01 X19.9703 Y-7.8028
G01 X19.9723 Y-7.8208
G01 X19.9754 Y-7.8413
G01 X19.9777 Y-7.8532
G01 X19.9842 Y-7.8792
G01 X19.9878 Y-7.8907
G01 X19.9990 Y-7.9216
G01 X20.0102 Y-7.9459
G01 X20.0156 Y-7.9567
G01 X20.0216 Y-7.9672
G01 X20.0356 Y-7.9901
G01 X20.0550 Y-8.0166
G01 X20.0627 Y-8.0259
G01 X20.0807 Y-8.0458
G01 X20.0892 Y-8.0543
G01 X20.1046 Y-8.0683
G01 X20.1137 Y-8.0762
G01 X20.1232 Y-8.0836
G01 X20.1399 Y-8.0959
G01 X20.1500 Y-8.1027
G01 X20.1783 Y-8.1194
G01 X20.2024 Y-8.1311
G01 X20.2134 Y-8.1360
G01 X20.2247 Y-8.1403
G01 X20.2500 Y-8.1491
G01 X20.2818 Y-8.1573
G01 X20.2937 Y-8.1596
G01 X20.3142 Y-8.1627
G01 X20.3262 Y-8.1642
G01 X20.3382 Y-8.1651
G01 X20.3650 Y-8.1661
G01 X21.7150 Y-8.1661
G01 X21.7271 Y-8.1658
G01 X21.7538 Y-8.1642
G01 X21.7804 Y-8.1606
G01 X21.7923 Y-8.1585
G01 X21.8242 Y-8.1508
G01 X21.8357 Y-8.1472
G01 X21.8610 Y-8.1382
G01 X21.8721 Y-8.1336
G01 X21.8909 Y-8.1248
G01 X21.9017 Y-8.1194
G01 X21.9122 Y-8.1134
G01 X21.9300 Y-8.1027
G01 X21.9450 Y-8.0924
G01 X21.9616 Y-8.0800
G01 X21.9709 Y-8.0723
G01 X21.9908 Y-8.0543
G01 X21.9993 Y-8.0458
G01 X22.0212 Y-8.0213
G01 X22.0374 Y-8.0000
G01 X22.0444 Y-7.9901
G01 X22.0584 Y-7.9672
G01 X22.0644 Y-7.9567
G01 X22.0761 Y-7.9326
G01 X22.0810 Y-7.9216
G01 X22.0853 Y-7.9103
G01 X22.0941 Y-7.8850
G01 X22.1023 Y-7.8532
G01 X22.1046 Y-7.8413
G01 X22.1086 Y-7.8148
G01 X22.1097 Y-7.8028
G01 X22.1108 Y-7.7821
G01 X22.1111 Y-7.7700
G01 X22.1111 Y-7.4700
G01 X22.1101 Y-7.4432
G01 X22.1086 Y-7.4252
G01 X22.1046 Y-7.3987
G01 X22.1009 Y-7.3809
G01 X22.0941 Y-7.3550
G01 X22.0832 Y-7.3240
G01 X22.0761 Y-7.3074
G01 X22.0644 Y-7.2833
G01 X22.0477 Y-7.2550
G01 X22.0374 Y-7.2400
G01 X22.0212 Y-7.2187
G01 X21.9993 Y-7.1942
G01 X21.9864 Y-7.1816
G01 X21.9709 Y-7.1677
G01 X21.9616 Y-7.1600
G01 X21.9351 Y-7.1406
G01 X21.9070 Y-7.1236
G01 X21.8964 Y-7.1179
G01 X21.8776 Y-7.1089
G01 X21.8666 Y-7.1040
G01 X21.8553 Y-7.0997
G01 X21.8300 Y-7.0909
G01 X21.7982 Y-7.0827
G01 X21.7804 Y-7.0794
G01 X21.7538 Y-7.0758
G01 X21.7418 Y-7.0749
G01 X21.7150 Y-7.0739
G01 X21.5863 Y-7.0739
G01 X21.5863 Y-7.0451
G01 X21.6052 Y-7.0388
G01 X21.6165 Y-7.0341
G01 X21.6277 Y-7.0289
G01 X21.6385 Y-7.0231
G01 X21.6491 Y-7.0168
G01 X21.6643 Y-7.0064
G01 X21.6787 Y-6.9948
G01 X21.7315 Y-6.9490
G01 X21.7405 Y-6.9408
G01 X21.7533 Y-6.9277
G01 X21.7612 Y-6.9184
G01 X21.7687 Y-6.9087
G01 X21.7790 Y-6.8935
G01 X21.7852 Y-6.8830
G01 X21.7936 Y-6.8667
G01 X21.8007 Y-6.8498
G01 X21.8065 Y-6.8324
G01 X21.8262 Y-6.7653
G01 X21.8305 Y-6.7483
G01 X21.8327 Y-6.7368
G01 X21.8344 Y-6.7252
G01 X21.8358 Y-6.7077
G01 X21.8361 Y-6.6960
G01 X21.8361 Y-5.9611
G01 X32.3955 Y-5.9611
G01 X32.4072 Y-5.9608
G01 X32.4189 Y-5.9600
G01 X32.4363 Y-5.9577
G01 X32.4993 Y-5.9443
G01 X32.5172 Y-5.9397
G01 X32.5347 Y-5.9338
G01 X32.5460 Y-5.9291
G01 X32.5572 Y-5.9239
G01 X32.5734 Y-5.9150
G01 X32.5888 Y-5.9050
G01 X32.5987 Y-5.8976
G01 X32.6082 Y-5.8898
G01 X32.6610 Y-5.8440
G01 X32.6744 Y-5.8315
G01 X32.6828 Y-5.8227
G01 X32.6945 Y-5.8086
G01 X32.7052 Y-5.7937
G01 X32.7147 Y-5.7780
G01 X32.7204 Y-5.7672
G01 X32.7256 Y-5.7561
G01 X32.7322 Y-5.7390
G01 X32.7360 Y-5.7274
G01 X32.7572 Y-5.6547
G01 X32.7600 Y-5.6433
G01 X32.7631 Y-5.6260
G01 X32.7645 Y-5.6144
G01 X32.7656 Y-5.5969
G01 X32.7656 Y-0.6245
G01 X32.7653 Y-0.6128
G01 X32.7645 Y-0.6011
G01 X32.7622 Y-0.5837
G01 X32.7474 Y-0.5147
G01 X32.7424 Y-0.4969
G01 X32.7360 Y-0.4796
G01 X32.7311 Y-0.4684
G01 X32.7226 Y-0.4520
G01 X32.7129 Y-0.4362
G01 X32.7059 Y-0.4262
G01 X32.6983 Y-0.4165
G01 X32.6485 Y-0.3590
G01 X32.6403 Y-0.3500
G01 X32.6272 Y-0.3372
G01 X32.6179 Y-0.3293
G01 X32.6032 Y-0.3182
G01 X32.5878 Y-0.3083
G01 X32.5771 Y-0.3024
G01 X32.5662 Y-0.2969
G01 X32.5550 Y-0.2921
G01 X32.5435 Y-0.2878
G01 X32.5319 Y-0.2840
G01 X32.4592 Y-0.2628
G01 X32.4421 Y-0.2588
G01 X32.4305 Y-0.2569
G01 X32.4131 Y-0.2550
G01 X32.3955 Y-0.2544
G01 X6.4496 Y-0.2544
G01 X6.4379 Y-0.2550
G01 X6.4204 Y-0.2569
G01 X6.3741 Y-0.2646
G01 X6.3619 Y-0.2670
G01 X6.3499 Y-0.2699
G01 X6.3322 Y-0.2755
G01 X6.3207 Y-0.2799
G01 X6.3038 Y-0.2877
G01 X6.2929 Y-0.2935
G01 X6.2772 Y-0.3033
G01 X6.2152 Y-0.3474
G01 X6.2054 Y-0.3547
G01 X6.1915 Y-0.3666
G01 X6.1827 Y-0.3751
G01 X6.1703 Y-0.3886
G01 X6.1590 Y-0.4030
G01 X6.1520 Y-0.4131
G01 X6.1426 Y-0.4288
G01 X6.1369 Y-0.4396
G01 X6.1295 Y-0.4564
G01 X6.1035 Y-0.5212
G01 X6.0992 Y-0.5327
G01 X6.0955 Y-0.5443
G01 X6.0924 Y-0.5562
G01 X6.0889 Y-0.5742
G01 X6.0867 Y-0.5924
G01 X6.0860 Y-0.6046
G01 X6.0859 Y-0.6168
G01 X6.0869 Y-0.6351
G01 X6.0883 Y-0.6472
G01 X6.0903 Y-0.6593
G01 X6.1048 Y-0.7339
G01 X6.1077 Y-0.7459
G01 X6.1112 Y-0.7577
G01 X6.1176 Y-0.7750
G01 X6.1253 Y-0.7918
G01 X6.1311 Y-0.8026
G01 X6.1374 Y-0.8132
G01 X6.1479 Y-0.8284
G01 X6.1594 Y-0.8428
G01 X6.2065 Y-0.8943
G01 X6.2148 Y-0.9030
G01 X6.2235 Y-0.9112
G01 X6.2326 Y-0.9191
G01 X6.2421 Y-0.9264
G01 X6.4273 Y-1.0562
G01 X6.5638 Y-1.1927
G01 X6.6746 Y-1.3510
G01 X6.6783 Y-1.3587
G01 X6.6643 Y-1.3587
G01 X6.6264 Y-1.2960
G01 X6.6194 Y-1.2861
G01 X6.5661 Y-1.2143
G01 X6.5544 Y-1.2005
G01 X6.4984 Y-1.1387
G01 X6.4858 Y-1.1257
G01 X6.4195 Y-1.0656
G01 X6.4104 Y-1.0577
G01 X6.4009 Y-1.0503
G01 X6.3339 Y-1.0006
G01 X6.3240 Y-0.9936
G01 X6.3138 Y-0.9871
G01 X6.2370 Y-0.9412
G01 X6.2209 Y-0.9329
G01 X6.1455 Y-0.8972
G01 X6.1345 Y-0.8923
G01 X6.1232 Y-0.8880
G01 X6.0447 Y-0.8599
G01 X6.0332 Y-0.8561
G01 X6.0215 Y-0.8529
G01 X5.9406 Y-0.8326
G01 X5.9288 Y-0.8299
G01 X5.9169 Y-0.8279
G01 X5.8344 Y-0.8156
G01 X5.8224 Y-0.8142
G01 X5.8104 Y-0.8133
G01 X5.7271 Y-0.8092
G01 X5.7090 Y-0.8089
G01 X5.6196 Y-0.8133
G01 X5.6076 Y-0.8142
G01 X5.5956 Y-0.8156
G01 X5.5131 Y-0.8279
G01 X5.5012 Y-0.8299
G01 X5.4894 Y-0.8326
G01 X5.4085 Y-0.8529
G01 X5.3968 Y-0.8561
G01 X5.3853 Y-0.8599
G01 X5.3068 Y-0.8880
G01 X5.2955 Y-0.8923
G01 X5.2845 Y-0.8972
G01 X5.2091 Y-0.9329
G01 X5.1983 Y-0.9383
G01 X5.1878 Y-0.9443
G01 X5.1162 Y-0.9871
G01 X5.1060 Y-0.9936
G01 X5.0961 Y-1.0006
G01 X5.0291 Y-1.0503
G01 X5.0196 Y-1.0577
G01 X5.0105 Y-1.0656
G01 X4.9487 Y-1.1216
G01 X4.9399 Y-1.1299
G01 X4.9316 Y-1.1387
G01 X4.8756 Y-1.2005
G01 X4.8677 Y-1.2096
G01 X4.8603 Y-1.2191
G01 X4.8106 Y-1.2861
G01 X4.8003 Y-1.3011
G01 X4.7512 Y-1.3830
G01 X4.7455 Y-1.3937
G01 X4.7382 Y-1.4089
G01 X4.7284 Y-1.4089
G01 X4.7554 Y-1.3510
G01 X4.8662 Y-1.1927
G01 X5.0027 Y-1.0561
G01 X5.1879 Y-0.9264
G01 X5.1975 Y-0.9190
G01 X5.2113 Y-0.9068
G01 X5.2297 Y-0.8915
G01 X5.2432 Y-0.8788
G01 X5.2558 Y-0.8652
G01 X5.2673 Y-0.8506
G01 X5.2743 Y-0.8404
G01 X5.2838 Y-0.8245
G01 X5.2922 Y-0.8079
G01 X5.3212 Y-0.7444
G01 X5.3260 Y-0.7331
G01 X5.3302 Y-0.7217
G01 X5.3339 Y-0.7100
G01 X5.3370 Y-0.6982
G01 X5.3395 Y-0.6862
G01 X5.3414 Y-0.6741
G01 X5.3426 Y-0.6620
G01 X5.3433 Y-0.6498
G01 X5.3434 Y-0.6376
G01 X5.3429 Y-0.6253
G01 X5.3409 Y-0.6071
G01 X5.3310 Y-0.5380
G01 X5.3277 Y-0.5199
G01 X5.3231 Y-0.5022
G01 X5.3193 Y-0.4906
G01 X5.3149 Y-0.4792
G01 X5.3100 Y-0.4680
G01 X5.3045 Y-0.4570
G01 X5.2985 Y-0.4464
G01 X5.2919 Y-0.4361
G01 X5.2812 Y-0.4212
G01 X5.2734 Y-0.4118
G01 X5.2276 Y-0.3590
G01 X5.2194 Y-0.3500
G01 X5.2107 Y-0.3414
G01 X5.2016 Y-0.3332
G01 X5.1922 Y-0.3255
G01 X5.1823 Y-0.3182
G01 X5.1721 Y-0.3115
G01 X5.1616 Y-0.3053
G01 X5.1508 Y-0.2996
G01 X5.1340 Y-0.2921
G01 X5.1226 Y-0.2878
G01 X5.1110 Y-0.2840
G01 X5.0439 Y-0.2643
G01 X5.0269 Y-0.2600
G01 X5.0154 Y-0.2578
G01 X5.0038 Y-0.2561
G01 X4.9863 Y-0.2547
G01 X4.9746 Y-0.2544
G01 X0.6186 Y-0.2544
G01 X0.6011 Y-0.2555
G01 X0.5837 Y-0.2578
G01 X0.5207 Y-0.2712
G01 X0.5087 Y-0.2741
G01 X0.4969 Y-0.2776
G01 X0.4796 Y-0.2840
G01 X0.4684 Y-0.2889
G01 X0.4574 Y-0.2944
G01 X0.4466 Y-0.3005
G01 X0.4312 Y-0.3105
G01 X0.4213 Y-0.3179
G01 X0.4118 Y-0.3257
G01 X0.3590 Y-0.3715
G01 X0.3456 Y-0.3840
G01 X0.3372 Y-0.3928
G01 X0.3255 Y-0.4069
G01 X0.3182 Y-0.4168
G01 X0.3115 Y-0.4270
G01 X0.3053 Y-0.4375
G01 X0.2996 Y-0.4483
G01 X0.2944 Y-0.4594
G01 X0.2898 Y-0.4707
G01 X0.2840 Y-0.4881
G01 X0.2613 Y-0.5665
G01 X0.2588 Y-0.5779
G01 X0.2561 Y-0.5953
G01 X0.2550 Y-0.6069
G01 X0.2544 Y-0.6245
G01 X0.2544 Y-10.5621
G01 X0.2537 Y-10.5814
G01 X0.2537 Y-22.0600
G01 X0.2544 Y-22.0793
G01 X0.2544 Y-22.2355
G01 X0.2547 Y-22.2472
G01 X0.2555 Y-22.2589
G01 X0.2569 Y-22.2705
G01 X0.2600 Y-22.2878
G01 X0.2741 Y-22.3513
G01 X0.2796 Y-22.3689
G01 X0.2864 Y-22.3860
G01 X0.2916 Y-22.3972
G01 X0.3005 Y-22.4134
G01 X0.3071 Y-22.4238
G01 X0.3141 Y-22.4338
G01 X0.3257 Y-22.4482
G01 X0.3715 Y-22.5010
G01 X0.3797 Y-22.5100
G01 X0.3884 Y-22.5186
G01 X0.3974 Y-22.5268
G01 X0.4069 Y-22.5345
G01 X0.4168 Y-22.5418
G01 X0.4270 Y-22.5485
G01 X0.4375 Y-22.5547
G01 X0.4483 Y-22.5604
G01 X0.4650 Y-22.5679
G01 X0.4823 Y-22.5742
G01 X0.5552 Y-22.5957
G01 X0.5722 Y-22.6000
G01 X0.5837 Y-22.6022
G01 X0.5953 Y-22.6039
G01 X0.6069 Y-22.6050
G01 X0.6186 Y-22.6056
G01 X0.7807 Y-22.6056
G01 X0.8000 Y-22.6063
G01 X6.9850 Y-22.6063
G01 X7.0043 Y-22.6056
G01 X7.4960 Y-22.6056
G01 X7.5077 Y-22.6053
G01 X7.5194 Y-22.6045
G01 X7.5368 Y-22.6022
G01 X7.5998 Y-22.5888
G01 X7.6177 Y-22.5842
G01 X7.6352 Y-22.5783
G01 X7.6465 Y-22.5736
G01 X7.6577 Y-22.5684
G01 X7.6739 Y-22.5595
G01 X7.6893 Y-22.5495
G01 X7.6992 Y-22.5421
G01 X7.7087 Y-22.5343
G01 X7.7615 Y-22.4885
G01 X7.7749 Y-22.4760
G01 X7.7873 Y-22.4626
G01 X7.7950 Y-22.4531
G01 X7.8057 Y-22.4382
G01 X7.8152 Y-22.4225
G01 X7.8209 Y-22.4117
G01 X7.8261 Y-22.4006
G01 X7.8327 Y-22.3835
G01 X7.8365 Y-22.3719
G01 X7.8577 Y-22.2992
G01 X7.8617 Y-22.2821
G01 X7.8644 Y-22.2647
G01 X7.8658 Y-22.2472
G01 X7.8661 Y-22.2355
G01 X7.8661 Y-17.2631
G01 X7.8650 Y-17.2456
G01 X7.8627 Y-17.2282
G01 X7.8479 Y-17.1592
G01 X7.8447 Y-17.1473
G01 X7.8388 Y-17.1298
G01 X7.8316 Y-17.1129
G01 X7.8261 Y-17.1019
G01 X7.8168 Y-17.0859
G01 X7.8100 Y-17.0757
G01 X7.8026 Y-17.0658
G01 X7.7948 Y-17.0563
G01 X7.7490 Y-17.0035
G01 X7.7408 Y-16.9945
G01 X7.7321 Y-16.9859
G01 X7.7231 Y-16.9777
G01 X7.7087 Y-16.9663
G01 X7.6987 Y-16.9593
G01 X7.6830 Y-16.9498
G01 X7.6667 Y-16.9414
G01 X7.6555 Y-16.9366
G01 X7.6440 Y-16.9323
G01 X7.6324 Y-16.9285
G01 X7.5597 Y-16.9073
G01 X7.5483 Y-16.9045
G01 X7.5368 Y-16.9023
G01 X7.5252 Y-16.9006
G01 X7.5077 Y-16.8992
G01 X7.4960 Y-16.8989
G01 X7.3736 Y-16.8989
G01 X7.3258 Y-16.8681
G01 X7.3107 Y-16.8592
G01 X7.3003 Y-16.8538
G01 X7.2896 Y-16.8489
G01 X7.2732 Y-16.8426
G01 X7.2620 Y-16.8390
G01 X7.1255 Y-16.7989
G01 X7.1085 Y-16.7946
G01 X7.0970 Y-16.7924
G01 X7.0796 Y-16.7901
G01 X7.0620 Y-16.7890
G01 X7.0347 Y-16.7890
G01 X7.0151 Y-16.7857
G01 X6.9971 Y-16.7842
G01 X6.9850 Y-16.7839
G01 X6.4850 Y-16.7839
G01 X6.4669 Y-16.7845
G01 X6.4489 Y-16.7865
G01 X6.4311 Y-16.7899
G01 X6.4136 Y-16.7945
G01 X6.3964 Y-16.8004
G01 X6.3798 Y-16.8075
G01 X6.3637 Y-16.8158
G01 X6.3483 Y-16.8254
G01 X6.3350 Y-16.8349
G01 X6.3217 Y-16.8254
G01 X6.3063 Y-16.8158
G01 X6.2902 Y-16.8075
G01 X6.2736 Y-16.8004
G01 X6.2564 Y-16.7945
G01 X6.2389 Y-16.7899
G01 X6.2211 Y-16.7865
G01 X6.2031 Y-16.7845
G01 X6.1850 Y-16.7839
G01 X5.6850 Y-16.7839
G01 X5.6729 Y-16.7842
G01 X5.6549 Y-16.7857
G01 X5.6353 Y-16.7890
G01 X5.6080 Y-16.7890
G01 X5.5904 Y-16.7901
G01 X5.5730 Y-16.7924
G01 X5.5615 Y-16.7946
G01 X5.5445 Y-16.7989
G01 X5.4080 Y-16.8390
G01 X5.3968 Y-16.8426
G01 X5.3804 Y-16.8489
G01 X5.3645 Y-16.8564
G01 X5.3492 Y-16.8650
G01 X5.2196 Y-16.9483
G01 X5.2101 Y-16.9551
G01 X5.1964 Y-16.9661
G01 X5.1877 Y-16.9740
G01 X5.1794 Y-16.9823
G01 X5.1716 Y-16.9909
G01 X5.0784 Y-17.0985
G01 X5.0673 Y-17.1122
G01 X5.0605 Y-17.1217
G01 X5.0512 Y-17.1366
G01 X5.0430 Y-17.1521
G01 X5.0047 Y-17.2357
G01 X4.9905 Y-17.2370
G01 X4.9553 Y-17.2422
G01 X4.9434 Y-17.2442
G01 X4.9316 Y-17.2469
G01 X4.8914 Y-17.2572
G01 X4.8800 Y-17.2610
G01 X4.8409 Y-17.2753
G01 X4.8033 Y-17.2928
G01 X4.7925 Y-17.2982
G01 X4.7567 Y-17.3193
G01 X4.7415 Y-17.3292
G01 X4.7130 Y-17.3503
G01 X4.7034 Y-17.3577
G01 X4.6943 Y-17.3656
G01 X4.6637 Y-17.3937
G01 X2.9703 Y-19.0871
G01 X2.9395 Y-19.0646
G01 X2.9157 Y-19.0500
G01 X2.9345 Y-19.0387
G01 X2.9445 Y-19.0320
G01 X2.9936 Y-18.9955
G01 X3.0075 Y-18.9839
G01 X3.0438 Y-18.9509
G01 X3.0568 Y-18.9383
G01 X3.0979 Y-18.8930
G01 X3.1092 Y-18.8788
G01 X3.1454 Y-18.8295
G01 X3.1771 Y-18.7772
G01 X3.1858 Y-18.7614
G01 X3.2094 Y-18.7116
G01 X3.2166 Y-18.6949
G01 X3.2372 Y-18.6373
G01 X3.2407 Y-18.6258
G01 X3.2440 Y-18.6127
G01 X3.8306 Y-18.0261
G01 X3.8731 Y-18.0260
G01 X3.8929 Y-18.0247
G01 X3.9252 Y-18.0212
G01 X3.9372 Y-18.0193
G01 X3.9549 Y-18.0154
G01 X3.9665 Y-18.0120
G01 X3.9779 Y-18.0082
G01 X3.9891 Y-18.0037
G01 X4.0001 Y-17.9987
G01 X4.0109 Y-17.9932
G01 X4.0773 Y-17.9568
G01 X4.0922 Y-17.9475
G01 X4.1064 Y-17.9371
G01 X4.1154 Y-17.9297
G01 X4.1283 Y-17.9177
G01 X4.7022 Y-17.3438
G01 X4.7226 Y-17.3305
G01 X4.7395 Y-17.3184
G01 X4.7532 Y-17.3076
G01 X4.7689 Y-17.3000
G01 X4.7871 Y-17.2900
G01 X4.8079 Y-17.2774
G01 X4.8244 Y-17.2715
G01 X4.8436 Y-17.2636
G01 X4.8562 Y-17.2580
G01 X4.8813 Y-17.2459
G01 X4.8949 Y-17.2404
G01 X4.9054 Y-17.2355
G01 X4.9158 Y-17.2302
G01 X4.9259 Y-17.2244
G01 X4.9357 Y-17.2180
G01 X4.9498 Y-17.2077
G01 X5.0160 Y-17.1507
G01 X5.0244 Y-17.1426
G01 X5.0325 Y-17.1341
G01 X5.0402 Y-17.1253
G01 X5.0509 Y-17.1113
G01 X5.0754 Y-17.0736
G01 X5.1465 Y-16.9916
G01 X5.2287 Y-16.9204
G01 X5.3200 Y-16.8617
G01 X5.4189 Y-16.8165
G01 X5.5231 Y-16.7859
G01 X5.6307 Y-16.7705
G01 X5.6617 Y-16.7704
G01 X5.6738 Y-16.7698
G01 X5.6858 Y-16.7686
G01 X5.7037 Y-16.7657
G01 X5.7520 Y-16.7561
G01 X8.0089 Y-16.7561
G01 X8.0089 Y-17.6619
G01 X8.0100 Y-17.6794
G01 X8.0123 Y-17.6968
G01 X8.0271 Y-17.7658
G01 X8.0321 Y-17.7836
G01 X8.0362 Y-17.7952
G01 X8.0409 Y-17.8065
G01 X8.0461 Y-17.8177
G01 X8.0519 Y-17.8285
G01 X8.0582 Y-17.8391
G01 X8.0650 Y-17.8493
G01 X8.0762 Y-17.8640
G01 X8.1260 Y-17.9215
G01 X8.1385 Y-17.9349
G01 X8.1519 Y-17.9473
G01 X8.1614 Y-17.9550
G01 X8.1713 Y-17.9623
G01 X8.1867 Y-17.9722
G01 X8.2028 Y-17.9809
G01 X8.2195 Y-17.9884
G01 X8.2310 Y-17.9927
G01 X8.2426 Y-17.9965
G01 X8.3153 Y-18.0177
G01 X8.3324 Y-18.0217
G01 X8.3440 Y-18.0236
G01 X8.3556 Y-18.0250
G01 X8.3673 Y-18.0258
G01 X8.3790 Y-18.0261
G01 X11.9410 Y-18.0261
G01 X11.9586 Y-18.0255
G01 X11.9702 Y-18.0244
G01 X11.9818 Y-18.0227
G01 X12.0508 Y-18.0079
G01 X12.0627 Y-18.0047
G01 X12.0802 Y-17.9988
G01 X12.0915 Y-17.9941
G01 X12.1081 Y-17.9861
G01 X12.1189 Y-17.9800
G01 X12.1293 Y-17.9734
G01 X12.1442 Y-17.9626
G01 X12.1537 Y-17.9548
G01 X12.2111 Y-17.9050
G01 X12.2199 Y-17.8965
G01 X12.2323 Y-17.8831
G01 X12.2437 Y-17.8687
G01 X12.2507 Y-17.8587
G01 X12.2602 Y-17.8430
G01 X12.2659 Y-17.8322
G01 X12.2734 Y-17.8155
G01 X12.2797 Y-17.7982
G01 X12.3012 Y-17.7253
G01 X12.3042 Y-17.7140
G01 X12.3067 Y-17.7026
G01 X12.3086 Y-17.6910
G01 X12.3105 Y-17.6736
G01 X12.3111 Y-17.6560
G01 X12.3111 Y-14.7069
G01 X12.9572 Y-14.0609
G01 X12.9706 Y-14.0463
G01 X12.9988 Y-14.0110
G01 X13.0089 Y-13.9960
G01 X13.0179 Y-13.9803
G01 X13.0232 Y-13.9694
G01 X13.0302 Y-13.9527
G01 X13.0360 Y-13.9355
G01 X13.0557 Y-13.8685
G01 X13.0600 Y-13.8515
G01 X13.0622 Y-13.8400
G01 X13.0639 Y-13.8284
G01 X13.0653 Y-13.8108
G01 X13.0656 Y-13.7991
G01 X13.0656 Y-13.6973
G01 X13.0739 Y-13.6797
G01 X13.0739 Y-14.4110
G01 X13.0745 Y-14.4231
G01 X13.0757 Y-14.4351
G01 X13.0786 Y-14.4530
G01 X13.0813 Y-14.4648
G01 X13.0845 Y-14.4764
G01 X13.0883 Y-14.4879
G01 X13.0926 Y-14.4992
G01 X13.0975 Y-14.5102
G01 X13.1029 Y-14.5210
G01 X13.1089 Y-14.5315
G01 X13.1154 Y-14.5417
G01 X13.1223 Y-14.5516
G01 X13.1297 Y-14.5611
G01 X13.1376 Y-14.5703
G01 X13.1460 Y-14.5790
G01 X13.1547 Y-14.5874
G01 X13.1639 Y-14.5953
G01 X13.1734 Y-14.6027
G01 X13.1833 Y-14.6096
G01 X13.1935 Y-14.6161
G01 X13.2040 Y-14.6221
G01 X13.2148 Y-14.6275
G01 X13.2258 Y-14.6324
G01 X13.2428 Y-14.6387
G01 X13.2602 Y-14.6437
G01 X13.2779 Y-14.6475
G01 X13.2959 Y-14.6499
G01 X13.3079 Y-14.6508
G01 X13.3200 Y-14.6511
G01 X13.4739 Y-14.6511
G01 X13.4739 Y-14.6589
G01 X13.2854 Y-14.6589
G01 X13.2697 Y-14.6572
G01 X13.1971 Y-14.6301
G01 X13.1386 Y-14.5864
G01 X13.1121 Y-14.5515
G01 X13.1034 Y-14.5416
G01 X13.0769 Y-14.5136
G01 X13.0635 Y-14.5015
G01 X13.0492 Y-14.4903
G01 X13.0341 Y-14.4803
G01 X13.0236 Y-14.4742
G01 X13.0074 Y-14.4661
G01 X12.9383 Y-14.4346
G01 X12.9212 Y-14.4280
G01 X12.9095 Y-14.4244
G01 X12.8917 Y-14.4200
G01 X12.8797 Y-14.4178
G01 X12.8676 Y-14.4162
G01 X12.8554 Y-14.4152
G01 X12.8432 Y-14.4148
G01 X12.8310 Y-14.4150
G01 X12.8188 Y-14.4159
G01 X12.8066 Y-14.4173
G01 X12.7375 Y-14.4273
G01 X12.7194 Y-14.4305
G01 X12.7076 Y-14.4335
G01 X12.6901 Y-14.4390
G01 X12.6787 Y-14.4433
G01 X12.6675 Y-14.4483
G01 X12.6565 Y-14.4538
G01 X12.6459 Y-14.4598
G01 X12.6356 Y-14.4663
G01 X12.6207 Y-14.4771
G01 X12.6113 Y-14.4849
G01 X12.5585 Y-14.5306
G01 X12.5495 Y-14.5389
